ancorasir/BennettWheelLegRL/experiment_data/2023-12-26_01-24-23/joint_position_env1.csv
Joint_1,Joint_2,Joint_3,Joint_4,Joint_5,Joint_6,Joint_7,Joint_8,Joint_9,Joint_10,Joint_11,Joint_12
0.20453598,-0.0,-0.0,-0.2653293,0.0,0.0,-0.3239789,-0.0,-0.0,0.3258619,-0.0,0.0
-0.044997368,-0.029887045,-0.037844643,-0.17333412,-0.04300955,0.12148226,-0.23820257,0.016970694,-0.009991682,0.2178357,-0.06949482,-0.02782275
-0.30015907,0.021983804,0.4000002,0.28789863,-0.12784542,-0.22391252,0.0386971,0.11840706,-0.016016327,0.20118938,-0.06485741,-0.6167529
-0.42003718,0.3705048,0.15801653,0.34158444,0.18927465,-0.11191682,-0.0036194122,-0.41431504,0.17150606,-0.27924478,-0.19134466,-0.024732193
-0.47623244,0.6300605,0.40000004,0.3224548,-0.1115794,-0.14391887,0.08316667,-0.28040963,0.03910106,-0.07974531,-0.53223115,-0.50735825
-0.4733814,0.065048404,0.40000018,0.32713112,-0.45497307,-0.0657386,0.09851767,0.0843688,0.03585113,-0.19944024,0.24301036,-0.77083874
-0.3968552,0.034352545,0.1282124,0.35881415,0.00076395035,-0.63950366,-0.611331,0.09042838,0.29351982,-0.2725497,0.20873842,-0.07438114
-0.40224746,0.38915646,0.19229573,0.36866146,0.13406916,-0.2023935,-0.20035367,-0.30528903,0.20677875,-0.26530603,-0.104150265,-0.15341994
-0.5587371,0.62400746,0.4000001,0.235826,-0.067122534,-0.15845726,0.105609946,-0.30067638,0.08044663,0.012660399,-0.5733459,-0.5716997
-0.42691272,0.09983232,0.40000013,0.29734102,-0.44928637,-0.04142257,0.12415069,0.11539381,0.052263413,-0.24704696,0.122703984,-0.7036293
-0.41368318,0.13554986,0.04996296,0.40833196,0.06743591,-0.6602454,-0.4103897,0.057309818,0.3977884,-0.2903307,0.15667741,0.04211109
-0.41033584,0.33036155,0.15471902,0.39688337,0.13100238,-0.34544435,-0.30106398,-0.17035069,0.25178713,-0.23998594,-0.05399371,-0.13885191
-0.5050994,0.7201002,0.40000007,0.29025495,-0.043512452,-0.11002713,0.08994957,-0.3825815,-0.014196188,-0.073871166,-0.5893247,-0.42471728
-0.44815865,0.058674395,0.40000015,0.3443538,-0.4154395,-0.19538572,0.049265046,0.13278334,0.16960305,-0.20939836,0.23851427,-0.6318316
-0.41277122,0.041666016,0.1053009,0.42455846,0.04368558,-0.6936186,-0.49691337,0.11273709,0.35244057,-0.2791435,0.19706018,-0.04454498
-0.38324302,0.30518442,0.17601351,0.35337052,0.12283003,-0.2825333,-0.27919146,-0.19093409,0.1842694,-0.28184894,-0.024671286,-0.15063097
-0.4821259,0.6338324,0.4,0.29613948,-0.015933203,-0.053612616,0.07382693,-0.37054497,0.014486875,-0.16160534,-0.6049075,-0.35242283
-0.40941846,-0.06694433,0.033351652,0.1901651,-0.25053668,-0.80280447,-0.4024072,0.4020176,0.40000007,-0.3705947,0.33500898,0.14106768
-0.4737186,0.4487851,0.13449313,0.27196267,0.11749234,-0.05793436,0.041383937,-0.42768556,0.06452512,-0.31094173,-0.23743337,-2.6735155e-05
-0.47838274,0.63345176,0.4,0.31984955,-0.13009654,-0.088471845,0.0355185,-0.34782988,0.02519355,-0.13991207,-0.524438,-0.45115054
-0.41164264,0.33785102,0.40000013,0.3576365,-0.31538263,-0.09161928,0.031511594,-0.060754254,0.05219088,-0.16928819,-0.090578794,-0.73298097
-0.5200847,0.09564802,0.40000015,0.3584144,-0.4145959,-0.21306323,0.0007313327,0.124972895,0.10827971,-0.12358079,0.24508731,-0.6500019
-0.41481686,0.061375234,0.08049202,0.37074623,0.0024741536,-0.6880658,-0.54743916,0.12651487,0.33565617,-0.32801563,0.20437433,-0.029044248
-0.42592102,0.45637053,0.1164138,0.29358408,0.146332,-0.0070384224,0.12506239,-0.4619892,-0.074224025,-0.31734043,-0.26437837,0.10196105
-0.5872614,0.7049062,0.40000004,0.24795836,-0.05584267,-0.17429493,0.10081994,-0.31431547,0.014024307,0.030422729,-0.5708058,-0.48282394
-0.35187483,-0.10035974,-0.08534985,0.22451802,-0.265156,-0.87336075,-0.40831476,0.3794656,0.39999363,-0.42604217,0.29776132,0.19369085
-0.43352708,0.14038362,0.23593597,0.38514474,0.1433587,-0.419696,-0.48635322,-0.1502763,0.27770278,-0.25786045,0.12495746,-0.17395452
-0.4100381,0.53715837,0.10680992,0.34909904,0.14670469,-0.0989621,-0.05541003,-0.39936322,0.03833039,-0.32668722,-0.34054697,0.15498637
-0.4887729,0.5872159,0.40000007,0.29159763,-0.14898115,-0.14703399,0.052791946,-0.2930625,0.022990685,-0.10008226,-0.44266012,-0.6054939
-0.44848216,0.032971874,0.40000018,0.30502903,-0.43239906,-0.08758791,0.08619014,0.11003956,0.046432804,-0.17689787,0.24499147,-0.7731314
-0.3151024,0.055853605,0.18864338,0.3958186,-0.015418389,-0.5173899,-0.5796188,0.015199078,0.19532847,-0.27851078,0.24428852,-0.10018712
-0.39188713,0.47443599,0.03714469,0.35180193,0.12944312,-0.089012176,-0.05135402,-0.32502425,0.046987727,-0.30224553,-0.25625303,0.036622886
-0.5568024,0.6605738,0.40000007,0.32255194,-0.10191968,-0.11238498,0.05618211,-0.3657817,0.06618879,-0.022266317,-0.45589375,-0.5398631
-0.43964523,0.34299582,0.4000001,0.32970336,-0.2258103,-0.17739908,0.055642366,-0.067450486,0.16909921,-0.13184275,-0.1507855,-0.68517226
-0.48561984,-0.012749507,-0.08971519,0.3633664,-0.11304377,-0.8262285,-0.44709378,0.32962424,0.39998955,-0.32758734,0.2813568,0.037380368
-0.4229526,0.18559428,0.16018306,0.38354245,0.14857645,-0.47278452,-0.3720719,-0.08513979,0.32710755,-0.26266328,0.044279337,-0.14628245
-0.4367987,0.55492866,-0.03399697,0.32056588,0.07920636,-0.045593508,-0.011306164,-0.35561827,0.01839893,-0.2823542,-0.31351545,0.07611545
-0.48187056,0.59714806,0.4000001,0.2842557,-0.11505677,-0.17329817,0.041084357,-0.23164353,0.081440225,-0.129891,-0.4565074,-0.554403
-0.44095996,0.06401351,0.40000013,0.26094773,-0.47836995,-0.18553966,0.057386406,0.18592438,0.1386656,-0.24075912,0.2630805,-0.6502572
-0.38969105,0.10633081,0.15130447,0.45717075,-0.016737893,-0.65507096,-0.4778728,0.110111445,0.29596388,-0.28266722,0.20774634,-0.0483994
-0.42876998,0.24330002,0.13335374,0.32284763,0.13436998,-0.43126535,-0.24250004,-0.0730972,0.34311834,-0.22119665,0.044849526,-0.17705113
-0.4232889,0.4805832,0.1450447,0.31902048,0.10744125,-0.017461047,-0.041622028,-0.37743178,0.04493489,-0.30370656,-0.27061903,0.004881787
-0.50476557,0.4760233,0.40000013,0.29031757,-0.19501412,-0.1475266,0.06555205,-0.15379003,0.08738022,-0.07983688,-0.25888312,-0.7332418
-0.3998503,0.002935699,0.123616576,0.26052138,-0.2792737,-0.76260275,-0.19293974,0.2928344,0.40000004,-0.37115487,0.22805876,0.06615226
-0.41060036,0.10509731,0.16677688,0.3792262,0.10549563,-0.53197473,-0.46039522,0.04396274,0.3016554,-0.23588705,0.11554468,-0.12895468
-0.40022403,0.41364646,0.09795444,0.33372328,0.15293513,0.022209061,0.058069766,-0.42343467,-0.005312358,-0.35729092,-0.19054487,0.031146305
-0.5425266,0.4950349,0.4000001,0.29107273,-0.18146947,-0.12863918,0.051199835,-0.19379576,0.09540557,-0.01085737,-0.2963534,-0.69112855
-0.44845295,0.02084432,0.4000001,0.30222133,-0.4034778,-0.33926278,-0.015945379,0.24449618,0.18605787,-0.22788553,0.32339734,-0.50587785
-0.46441552,0.066437416,0.07425792,0.431442,-0.024635982,-0.719808,-0.429127,0.17471522,0.3767423,-0.30219743,0.22805835,-0.053807363
-0.43395406,0.2897621,0.1768017,0.34118018,0.18541025,-0.2128298,-0.07999085,-0.26054108,0.20637515,-0.23283423,-0.12455969,-0.096497245
-0.450949,0.5532809,0.21389681,0.38583365,0.016813787,-0.0006888245,0.07805363,-0.3981114,0.01619612,-0.26258913,-0.47502723,-0.2350028
-0.47842938,0.6763787,0.4000001,0.27334833,-0.10791012,-0.16866781,0.06170241,-0.22005078,0.07511387,-0.07674823,-0.5013503,-0.5090332
-0.42016086,-0.045639977,0.2745042,0.31775308,-0.32601884,-0.64912605,-0.19033626,0.3416573,0.40000004,-0.3580021,0.26063147,-0.14324173
-0.37411255,0.10497929,0.16061457,0.34001526,0.106332175,-0.4834573,-0.5149624,-0.01828493,0.2699336,-0.29143733,0.14202742,-0.136659
-0.43589404,0.4935588,0.0481027,0.34435484,0.116411686,0.14880715,0.069933906,-0.36374652,-0.09851241,-0.31259212,-0.311145,0.034390025
-0.49826944,0.46229124,0.4000001,0.3072561,-0.23975666,-0.13731179,0.062006574,-0.14606401,0.118193254,-0.08232087,-0.22084665,-0.71286553
-0.42512798,-0.050556246,0.36884224,0.24755746,-0.35857478,-0.58841395,-0.10260193,0.324542,0.4,-0.33705893,0.2986823,-0.19417265
-0.47004026,0.16108462,0.07956471,0.41810182,0.1268924,-0.61080855,-0.38735417,0.090386376,0.3978095,-0.24696614,0.14099032,-0.06713602
-0.38910404,0.3312647,0.17920484,0.31160977,0.117374174,-0.18956237,-0.20298399,-0.26047432,0.20959559,-0.25344896,-0.022354271,-0.20324288
-0.56901026,0.69792163,0.4,0.27578482,0.02953844,-0.15497138,0.08390915,-0.38384393,0.0697538,-0.087546594,-0.5975423,-0.43280405
-0.4896714,0.17648052,0.40000015,0.28047556,-0.3940137,-0.0771454,0.13847513,0.055752147,-0.06622414,-0.15218,0.14460163,-0.81676716
-0.38075936,0.059835494,0.40000015,0.279054,0.12510265,-0.43422508,-0.03311148,-0.012060554,-0.08583585,0.26213703,-0.22574687,-0.37457523
-0.42491406,0.022078445,0.19202289,0.34116,0.16548349,-0.44707075,-0.55132383,-0.16114669,0.28225827,-0.20914808,0.0022811538,-0.20842469
