ancorasir/BennettWheelLegRL/experiment_data/2024-02-05_04-40-02/joint_torque_env0.csv
Joint_1,Joint_2,Joint_3,Joint_4,Joint_5,Joint_6,Joint_7,Joint_8,Joint_9,Joint_10,Joint_11,Joint_12,Joint_13,Joint_14,Joint_15,Joint_16
0.0,0.0,0.0,0.0,0.0,0.0,0.0,0.0,0.0,0.0,0.0,0.0,0.0,0.0,0.0,0.0
0.17625105,0.7027157,-1.9066936,1.6126628e-06,0.4229902,0.69849455,1.8871186,-0.0021330505,0.103970826,0.11525197,-0.054425154,-0.020330181,-0.078155294,0.57807964,1.7054286,0.021855913
-1.3004122,-1.5043614,0.60234433,-1.3319659,5.0,-1.5153425,-2.7716093,-5.0,2.6517239,0.82718694,-1.3972158,-3.5838413,-0.33195513,3.0389342,0.74890697,2.4523418
-5.0,-0.58919203,3.695644,2.1928759,1.9395784,1.4415735,3.004066,0.86638665,5.0,5.0,-3.2042477,-10.0,-1.8592775,-1.0019691,-0.5229614,-5.0
-5.0,5.0,-5.0,10.0,-2.480186,1.3460802,1.6656592,0.7184315,-2.1610994,-4.81428,4.164898,-3.575097,-5.0,-5.0,-4.851248,5.0
2.0162382,2.2438078,-1.3715428,-10.0,5.0,-5.0,-4.3342876,0.32891685,3.4104147,2.2021716,-1.7607682,0.02510301,0.8775885,-5.0,1.3901072,1.5594896
2.7584891,-4.071745,4.7349806,1.6746315,5.0,-1.1006801,-4.091069,4.8355155,3.2256806,5.0,-5.0,-7.781169,4.2892127,2.29469,5.0,-5.0
0.16121781,-3.5062726,5.0,0.16011572,5.0,-5.0,-5.0,-4.6238575,5.0,5.0,-3.919966,10.0,0.14954942,5.0,5.0,0.71232456
-5.0,4.4672403,-5.0,0.47867817,-1.6086123,-4.638405,2.2035143,0.41480568,-1.0745516,5.0,-2.3694112,-0.067615815,-5.0,5.0,0.6106125,-2.7978408
-5.0,5.0,-5.0,-8.414591,-3.9324694,1.8763192,3.7253408,2.4425392,-5.0,3.2910361,4.311326,0.34303707,-4.1830215,-5.0,-5.0,-3.6364188
-5.0,5.0,-5.0,0.9731121,-0.33503795,1.0158061,1.6227593,-0.20665577,-2.3768964,-5.0,5.0,-0.53683865,-5.0,-5.0,-5.0,2.3285348
-4.8928704,5.0,-5.0,-7.2840285,5.0,-5.0,-5.0,-5.0,3.6874168,-3.3809795,0.60477793,1.6074083,0.7871635,-5.0,2.9703507,-5.0
1.6061786,-4.803728,5.0,-0.098691255,5.0,-2.5917845,-5.0,-5.0,5.0,5.0,-5.0,10.0,5.0,-0.5842873,4.142565,-0.06759584
-1.5287538,-3.2800257,2.8625655,0.31744868,5.0,-4.533851,-5.0,5.0,5.0,5.0,-5.0,-0.9476404,1.7690318,5.0,5.0,-1.2074392
-5.0,3.378447,-2.8951323,0.02370212,2.974862,-5.0,-1.8557786,5.0,3.5755422,5.0,0.91672546,8.123471,-2.9731073,5.0,2.1608148,0.27132022
-5.0,2.157909,-5.0,2.4896338,-5.0,2.9083812,4.1996417,-1.9241306,-4.945842,-2.8580208,5.0,-2.00506,-5.0,-5.0,-3.3532746,0.3530178
-5.0,5.0,-5.0,1.895044,1.9495559,1.0813243,3.018166,4.5279746,-0.79688144,-5.0,5.0,-0.32130682,-3.1354265,-5.0,-5.0,-5.0
5.0,-0.96784073,0.13714194,-6.828989,5.0,-1.5493449,-5.0,5.0,5.0,5.0,-5.0,6.0733075,5.0,-5.0,2.518616,-1.0428466
1.5919346,-4.985423,5.0,-0.025811028,5.0,-3.0663805,-4.61294,5.0,3.3337393,5.0,-5.0,10.0,5.0,5.0,5.0,-1.3718086
-0.34361923,-3.2661257,5.0,0.17160073,5.0,-5.0,-5.0,-4.938635,5.0,5.0,-4.1504283,-9.69847,0.20625114,5.0,5.0,0.13433163
-5.0,3.2345219,-5.0,10.0,-0.08731088,-5.0,1.1077154,2.5751324,0.87305915,5.0,0.66134596,1.5012894,-5.0,3.1146364,-1.063646,-0.30310303
-5.0,5.0,-5.0,10.0,-2.2652056,2.9811885,3.81901,0.15545586,-4.513272,-2.4707942,4.5040665,-0.0865475,-5.0,-5.0,-5.0,-4.2161913
-5.0,4.7895403,-5.0,5.6818047,4.218698,-4.2670045,-2.865827,0.08966548,1.2462729,-3.3914611,1.7851439,0.3890796,-4.8571253,-5.0,0.73316294,4.751467
4.0674825,-0.61260295,2.6483562,5.640026,5.0,-5.0,-5.0,-5.0,5.0,3.053079,-3.5804567,0.18916827,2.9997346,-5.0,0.8664312,1.6771804
1.6576607,-3.8054004,4.4622827,-0.6613181,5.0,-3.8871813,-5.0,-5.0,3.0944958,5.0,-5.0,-8.161395,3.6464448,5.0,5.0,-0.06207203
-0.7502855,-4.128125,5.0,-0.9413012,5.0,-4.771438,-5.0,-1.002057,5.0,5.0,-4.305228,-10.0,0.8443176,5.0,5.0,-1.130959
-3.6420329,1.8683512,-3.2353015,-0.77490824,5.0,-5.0,-4.159021,-5.0,4.697403,5.0,0.4429703,6.5483284,-1.5671161,5.0,2.7668378,-0.72674495
-5.0,5.0,-5.0,-3.354031,-4.0901866,0.68004906,1.9482324,-3.4170809,-4.2996445,3.4918818,5.0,-1.2702475,-4.744242,-5.0,-5.0,-0.46217346
-5.0,5.0,-5.0,10.0,0.90358114,1.024752,1.8414052,2.490058,-1.0451429,-5.0,5.0,0.0925457,-1.9361446,-5.0,-5.0,-1.662364
2.0892048,2.652749,-0.8531606,0.5270855,5.0,-5.0,-5.0,1.6540343,5.0,1.5649449,-3.54065,-0.5227546,4.4383173,-5.0,3.6752813,0.14219934
1.0227939,-3.2270775,2.3221462,-0.43329984,5.0,-3.6020663,-5.0,-5.0,3.5148323,5.0,-5.0,10.0,5.0,-0.15891194,3.383462,0.39894477
-1.5621902,-2.6954236,4.848967,0.046158373,5.0,-5.0,-5.0,1.4509306,5.0,5.0,-5.0,-0.6284056,-0.4952467,5.0,5.0,-0.5025148
-5.0,5.0,-5.0,1.0107715,3.6397967,-5.0,0.9634328,5.0,5.0,5.0,-1.9353563,-5.2621026,-3.6929803,5.0,0.17592037,0.8780848
-5.0,5.0,-5.0,10.0,-5.0,2.2374706,4.137144,-0.02023992,-4.795908,2.190616,4.072921,-0.8687961,-5.0,-3.466055,-5.0,5.0
-5.0,5.0,-5.0,10.0,-0.2892173,1.5946808,1.0941768,2.325226,-1.0029644,-5.0,5.0,-0.10532021,-3.1815748,-5.0,-5.0,-0.00750494
-5.0,4.5859694,-5.0,-1.3769226,5.0,-4.487834,-5.0,4.908149,2.1617694,-3.3457499,0.058146596,-0.3577707,1.0141675,-5.0,1.9102325,2.383533
0.72340906,-4.229161,2.728045,0.29281598,5.0,-0.51425374,-5.0,5.0,4.0076175,5.0,-5.0,-2.0147524,5.0,0.6699574,2.841757,-2.0426924
-0.28748024,-3.321034,5.0,-0.22763866,5.0,-5.0,-5.0,5.0,4.2649136,5.0,-5.0,10.0,0.363294,5.0,5.0,-0.31326506
-5.0,2.4385986,-5.0,-5.255533,1.2233974,-5.0,-4.132585,5.0,1.1842501,5.0,-1.5655012,-1.6567745,-3.2067046,5.0,-0.54415274,0.007085077
-5.0,5.0,-5.0,-10.0,-1.3574773,1.3082907,2.579302,1.0731571,-3.7231236,-4.243946,5.0,-0.25028038,-4.526403,-5.0,-5.0,-2.1281283
-5.0,5.0,-5.0,-0.5252199,5.0,-4.548391,-4.2688317,0.20990714,1.6147168,-3.27142,0.47111702,3.10489,1.4528236,-5.0,3.24722,-0.40434504
3.1313982,-2.2650557,2.4716325,10.0,5.0,-3.5751457,-5.0,-5.0,1.8113283,5.0,-5.0,10.0,5.0,-2.695644,3.41053,-2.4915428
0.7070036,-4.213606,5.0,-0.17200282,5.0,-5.0,-5.0,-4.892785,4.475347,5.0,-5.0,-7.363015,1.4309726,5.0,5.0,-1.1394156
-2.5147877,2.7874708,-1.2307286,2.035164,5.0,-5.0,-5.0,5.0,5.0,5.0,-3.6545691,0.6601504,-2.687292,5.0,5.0,-4.086603
-5.0,5.0,-5.0,-1.0200777,-2.805623,-0.65663815,1.9080358,0.5037442,-2.0488133,5.0,1.2791392,0.6113779,-4.601544,1.4587977,-1.9191906,-0.2141545
-5.0,5.0,-5.0,-5.67293,-1.5102192,1.4318303,2.3937168,0.5436568,-1.5724036,-1.6583945,5.0,-0.89163435,-3.075943,-5.0,-5.0,-4.5118675
1.5949677,2.1219773,0.2559061,-0.15575145,5.0,-5.0,-5.0,5.0,2.134311,3.3189836,-4.3055854,-0.1677421,1.0405248,-5.0,-0.081125975,-4.223837
1.687507,-3.9214187,2.9985182,0.29834577,5.0,-2.5069094,-5.0,5.0,0.11904526,5.0,-5.0,10.0,5.0,1.1834954,4.421968,-0.5056833
-0.73018765,-2.639131,3.8951585,0.02865468,5.0,-5.0,-5.0,-5.0,2.8739915,5.0,-5.0,10.0,0.19977063,5.0,5.0,-1.2178497
-5.0,5.0,-5.0,0.7372432,3.659019,-5.0,-3.597948,-5.0,5.0,5.0,1.2888868,0.7561868,-4.1067815,5.0,1.4260278,0.78184104
-5.0,5.0,-5.0,-10.0,-3.8586721,1.9964299,3.9238353,-0.19475365,-3.0616174,-0.96630764,5.0,0.49397838,-5.0,-5.0,-5.0,-5.0
-5.0,5.0,-5.0,-0.16751862,2.8589664,-0.41252947,1.4765778,4.1332498,0.38119924,-5.0,3.6847374,-0.15388405,-2.885178,-5.0,-1.482445,-0.50389934
4.3730373,-1.2365634,2.1653,3.4136972,5.0,-3.9588308,-5.0,5.0,4.6388683,4.9594736,-5.0,0.6193302,3.627879,-5.0,1.100662,-2.2542837
0.9993244,-3.8164978,4.295447,-0.054623585,5.0,-5.0,-4.449144,-0.6483817,0.88685656,5.0,-5.0,-8.181019,1.832307,4.8678136,5.0,0.31823716
-0.120399356,-2.7865083,3.9677086,0.33817995,5.0,-5.0,-5.0,-2.0531492,4.745104,5.0,-5.0,10.0,-0.12349832,5.0,5.0,-0.20845592
-5.0,5.0,-5.0,0.77332115,-0.7122583,-4.4003077,3.3048103,1.0822948,-2.1505125,5.0,4.1882033,1.601936,-4.96842,5.0,-1.3251063,-0.31818765
-5.0,5.0,-5.0,1.4781487,-2.5295377,2.5757098,2.8689554,-0.01722648,-2.2432075,-1.4923244,5.0,-1.2178683,-4.4035873,-5.0,-5.0,-3.7434366
-3.7391815,5.0,-5.0,3.214066,5.0,-4.097153,-3.1345778,-0.14563027,3.9325168,-5.0,2.2848203,0.4730657,0.58721435,-5.0,2.4113395,-5.0
5.0,-2.8112292,3.7538264,0.117080726,5.0,-3.3845198,-5.0,-5.0,3.7021651,5.0,-5.0,-5.359132,4.562806,-0.20280933,2.816817,3.355692
1.5011008,-4.778608,5.0,0.07669759,5.0,-2.1562471,-5.0,5.0,-0.4385889,5.0,-5.0,10.0,0.3636751,3.9132109,5.0,-0.8699248
-2.1923108,-4.381537,5.0,0.024864003,5.0,-5.0,-5.0,-5.0,5.0,5.0,-5.0,-10.0,0.12181528,5.0,5.0,-0.77056617
-5.0,5.0,-5.0,0.6969587,-2.1736953,-1.6228639,3.468358,-2.6840997,-0.57202226,5.0,3.6312175,2.6856182,-5.0,2.6379201,-2.4087627,2.8691437
-5.0,5.0,-5.0,-4.891467,0.41222635,1.0074587,2.9297447,2.055692,-4.1887445,-3.95598,5.0,0.03146358,-5.0,-5.0,-5.0,-3.9590716
-4.8519735,5.0,-5.0,-8.170546,5.0,-4.3453126,-5.0,5.0,1.9880527,-1.5876967,0.5727408,9.466114,0.9343071,-5.0,4.1220737,-5.0
2.783486,-4.152041,3.4760513,0.56580484,5.0,-0.7330836,-5.0,0.6762395,2.8016315,5.0,-5.0,-3.3994284,5.0,0.053356647,2.3881328,-0.32179824
0.53876853,-4.844027,4.5066257,-0.15610383,5.0,-5.0,-5.0,-1.1270169,2.5497055,5.0,-5.0,-7.0236263,1.4862977,5.0,5.0,-1.055369
-2.1639662,1.5082917,-2.338357,-4.8743234,5.0,-5.0,-5.0,-4.946019,5.0,5.0,-0.9656068,-8.10251,-1.6047541,5.0,5.0,-1.1618426
-5.0,5.0,-5.0,-7.70822,-3.325047,-0.014376923,1.064647,-0.047583994,-1.5247087,5.0,0.8827864,-0.029730164,-4.9268475,0.9720206,-2.6895828,-0.8969135
-5.0,5.0,-5.0,-5.067978,-1.3230189,0.9719423,2.3036451,0.5911518,-1.1089981,-2.4064012,5.0,0.3659875,-4.176082,-5.0,-5.0,-5.0
3.6544368,5.0,-3.22715,-7.0949774,5.0,-5.0,-5.0,0.7402318,5.0,0.036342382,-5.0,4.227098,5.0,-5.0,1.5221417,1.4061134
1.4617324,-3.4662457,1.9827031,0.5651545,5.0,-3.5608933,-5.0,-5.0,4.338873,5.0,-5.0,-10.0,5.0,-0.84128225,0.97398674,-0.21123146
0.29583824,-4.65685,5.0,-0.17686242,5.0,-5.0,-5.0,-5.0,4.9177322,5.0,-5.0,4.943916,2.1939106,5.0,5.0,-0.95880145
-5.0,1.6628586,-5.0,8.726827,5.0,-5.0,-2.904869,5.0,2.41218,5.0,1.19224,0.2951138,-3.9393823,5.0,2.8022916,-0.24778613
-5.0,5.0,-5.0,-1.5883051,-5.0,3.099788,3.9105535,0.19927269,-2.4307294,0.06837058,3.9629064,-1.0150485,-5.0,-1.6925969,-5.0,5.0
-5.0,5.0,-5.0,10.0,4.3474827,0.118531704,0.64608836,0.32076174,-0.6227484,-5.0,3.0926692,0.10673227,-3.0545702,-5.0,-0.83055806,-2.7071745
3.6247463,-1.38778,0.3764912,-0.08321394,5.0,-3.040358,-5.0,5.0,3.3659048,5.0,-5.0,1.098932,4.2648907,-5.0,0.6685734,-0.15250412
0.76990426,-4.40674,5.0,-1.1347439,5.0,-2.39028,-4.687655,5.0,5.0,5.0,-5.0,-5.091113,3.3150148,5.0,5.0,-0.6599744
-5.0,5.0,-5.0,0.71803916,5.0,-5.0,-0.23917276,-3.6140025,5.0,5.0,2.1959972,5.192002,-3.8032527,5.0,0.8454057,2.1636615
-5.0,3.146366,-5.0,-4.1513896,-3.335532,0.8419352,2.6206503,0.64916116,-3.9031005,0.2421192,2.860467,-0.7170309,-5.0,-5.0,-5.0,5.0
-5.0,5.0,-5.0,10.0,4.867765,-1.4826126,-2.4460952,-5.0,1.8859457,-5.0,5.0,-1.8193122,-3.3918092,-5.0,-2.2741427,-2.839388
0.7866434,-0.5371268,-0.18786764,0.09197256,5.0,-4.5607553,-5.0,-1.3020346,5.0,3.657547,-5.0,1.1789178,5.0,-5.0,0.49075317,1.3150342
2.3181596,-5.0,5.0,-0.7961546,5.0,-4.111637,-5.0,-5.0,4.7354374,5.0,-5.0,3.1536405,5.0,3.0598834,3.9118953,1.0701786
-3.3648014,-3.1846967,2.4311616,-2.9923322,5.0,-5.0,-5.0,5.0,5.0,5.0,-3.457358,8.073744,-1.4737954,5.0,5.0,-3.9099226
-5.0,4.500934,-5.0,0.3701731,5.0,-5.0,-0.4733379,-4.0738783,3.9429214,5.0,2.781801,3.1974308,-2.6645794,5.0,1.8608902,0.33823174
-5.0,5.0,-5.0,-2.1074111,-4.295787,3.179944,3.2160285,0.30593318,-4.7061687,-0.54891545,4.047871,-0.32049015,-5.0,-5.0,-4.2017775,-3.018672
-5.0,5.0,-5.0,-2.6589308,4.97715,-1.715364,-0.24253047,0.69712156,-0.13887727,-5.0,5.0,-0.034565937,-4.7353144,-5.0,-3.5941448,-5.0
3.2979946,-2.5302935,-0.11399782,-0.36913458,5.0,-5.0,-5.0,-5.0,5.0,5.0,-5.0,-3.1825027,5.0,-5.0,0.52714014,-0.1093112
1.3751028,-5.0,5.0,0.028399453,5.0,-5.0,-5.0,-5.0,2.1164627,5.0,-5.0,-8.944853,5.0,5.0,3.855004,-0.7597053
-1.3599515,-1.8930573,5.0,-0.6804574,5.0,-5.0,-5.0,-4.8667173,5.0,5.0,-4.5128775,-10.0,-0.73451096,5.0,5.0,-0.72812593
-5.0,4.668861,-3.9275675,-0.017157521,5.0,-5.0,-0.27818537,5.0,3.3957682,5.0,-2.893307,-5.7881536,-2.594191,5.0,1.71103,-0.26875067
-5.0,5.0,-5.0,-2.1259031,0.4907552,1.7833376,1.3861489,-2.0224023,-3.576436,-2.7714806,4.9322987,0.17919761,-4.4673843,-5.0,-5.0,5.0
-5.0,5.0,-5.0,-6.297157,5.0,-2.1909993,-4.9805746,-4.189483,0.27715325,-2.991476,2.2192798,-0.42486936,-1.1959685,-5.0,-2.336033,-2.2625606
1.4755294,-1.8618729,0.31464648,-0.08651239,5.0,-5.0,-5.0,-1.86727,5.0,5.0,-5.0,-4.6813574,5.0,-4.91884,1.478466,1.4073892
-0.42749333,-3.1043072,5.0,-2.876225,5.0,-5.0,-5.0,5.0,3.433467,5.0,-4.6296616,2.7033472,-0.8594413,5.0,5.0,0.13832304
-5.0,3.5092053,-5.0,-0.48783848,3.9155896,-5.0,-4.0205936,5.0,5.0,5.0,-1.3858998,-3.4784467,-2.2078953,5.0,2.3670826,0.25708818
-5.0,5.0,-5.0,-10.0,-3.9842944,1.6380396,4.165428,-0.64969367,-3.6829257,4.606253,2.5338786,0.10582376,-5.0,-0.45699403,-2.39713,-0.35458767
-5.0,5.0,-5.0,1.4269464,1.2290894,0.6275798,1.3237214,2.6291215,-0.8461339,-5.0,5.0,-0.3592246,-2.8896964,-5.0,-5.0,-3.8373253
2.3849492,5.0,-3.607718,10.0,5.0,-5.0,-5.0,-5.0,4.563511,2.783186,-3.034758,0.4807983,1.1473835,-5.0,-1.0064918,-4.4710636
1.3844056,-4.0310864,3.9835124,0.25058684,5.0,-0.89425325,-4.6210117,5.0,3.4242902,5.0,-5.0,-7.644064,5.0,4.0686073,5.0,-0.7170746
-3.1495512,-1.4527028,3.956608,-1.1388434,5.0,-5.0,-5.0,5.0,5.0,5.0,-2.98053,10.0,-3.0156264,5.0,5.0,-4.1872053
-5.0,4.3096437,-5.0,-3.2688665,1.471791,-5.0,2.191534,1.9309485,1.23682,5.0,-0.08985197,9.717354,-4.088214,5.0,-0.44732046,-0.4283482
-5.0,3.5154543,-5.0,10.0,-2.610802,0.7586277,2.562675,-0.25513828,-3.5388474,0.040915012,4.4252276,0.09243791,-5.0,-5.0,-5.0,5.0
-5.0,5.0,-5.0,2.6395268,0.9771085,-0.17412001,2.3512783,2.1139772,-0.93553066,-5.0,5.0,-0.06764269,-2.9307103,-5.0,-5.0,-2.192032
-3.2537746,5.0,-3.923784,-0.4393803,5.0,-4.8471684,-5.0,5.0,3.7021728,-0.29708683,-1.8545495,0.086355954,2.5637164,-5.0,0.17860734,-0.26406792
2.392372,-4.124612,5.0,0.12532048,5.0,-2.688055,-5.0,5.0,2.3448515,5.0,-5.0,10.0,5.0,3.8276143,2.4591203,-0.10821914
-0.47217882,-2.8556347,5.0,-0.55307645,5.0,-5.0,-5.0,-5.0,5.0,5.0,-4.931302,-10.0,0.1647675,5.0,5.0,-0.38571814
-5.0,5.0,-5.0,0.19203196,2.6135252,-3.7329311,-0.0040205717,-0.059516124,4.7776012,5.0,-1.9500687,-8.650471,-3.539297,5.0,0.60639894,0.5132893
-5.0,2.3358133,-5.0,10.0,-5.0,0.57923985,1.8275808,0.21200904,-5.0,3.5617056,2.8750496,0.01727052,-5.0,0.039514184,-5.0,5.0
-5.0,5.0,-5.0,-5.841043,0.41642398,0.088450044,1.4736378,0.26645705,-1.0049901,-5.0,5.0,0.03798996,-5.0,-5.0,-5.0,-3.8258717
1.5409694,4.9606385,-2.2731516,-2.4412405,5.0,-5.0,-5.0,-1.85075,5.0,2.3332233,-4.9844656,0.30570027,4.7295756,-5.0,0.18218017,-0.50526947
1.1003714,-1.8185468,2.538422,7.3609934,5.0,1.751338,-5.0,5.0,5.0,5.0,-5.0,10.0,5.0,-0.9371172,3.3699372,-0.80070883
0.40598232,-1.4981887,2.1126738,4.313685,5.0,-4.0423603,-5.0,5.0,3.7452428,5.0,-5.0,7.87611,3.963755,2.5743194,5.0,-0.7823576
-1.312494,1.8745,4.93544,10.0,5.0,-5.0,-5.0,-5.0,5.0,5.0,-5.0,6.996378,-5.0,5.0,5.0,-3.211204
-5.0,3.3038604,-5.0,-1.971662,5.0,-5.0,-4.689437,-5.0,1.7961156,5.0,-0.3069688,-1.8393708,-5.0,5.0,0.22758585,-0.27237758
-5.0,-0.26705855,-5.0,2.0307856,-4.515871,-1.393984,5.0,-4.4547753,-1.2690356,-3.0698726,5.0,-0.99438715,-5.0,5.0,-5.0,-0.19695297
-5.0,5.0,-5.0,8.0804825,-0.80376923,-2.1711674,2.9129996,0.02412553,-0.17800117,-4.004086,5.0,-0.46563438,-0.9080835,-5.0,-5.0,-2.7273648
1.5354933,4.943976,1.5804915,2.7894084,5.0,-4.1603823,-5.0,-2.0306752,4.2850194,2.0282874,-5.0,-0.24597573,5.0,-5.0,2.1229534,0.09695877
1.0519943,0.25955966,0.16250932,-0.1331661,5.0,0.44064903,-5.0,-5.0,2.576556,5.0,-5.0,-2.7534945,5.0,-5.0,0.9328481,-0.3026563
0.13361719,-1.1487429,5.0,-0.6998362,5.0,-2.6743355,-5.0,-5.0,0.6751672,5.0,-5.0,-10.0,-0.24267757,5.0,5.0,1.27772
-3.6956854,0.57095385,-0.6505823,-3.746292,5.0,-2.0273666,-3.2925978,5.0,3.4531908,5.0,-4.988395,-4.286139,-4.560023,5.0,5.0,-1.0659125
-5.0,-0.9038298,-5.0,-4.3446107,-5.0,-0.86768794,4.417095,-0.34151587,-2.8651016,5.0,5.0,3.3992414,-5.0,5.0,-4.2895927,3.3220637
-5.0,3.0634885,-5.0,-9.141348,-2.6148992,-1.5844648,2.1090865,-0.9115628,-2.0503132,1.5654118,5.0,0.61295545,-5.0,-4.7809186,-4.9543004,-0.4080577
2.6879592,2.4706197,-2.2612295,-1.0633655,5.0,-1.6160989,-5.0,3.955007,5.0,-1.7308629,-5.0,8.56242,5.0,-5.0,3.454513,-4.6774387
4.5709214,0.24570763,0.8333994,0.099303834,5.0,0.5531826,-5.0,-5.0,2.3819504,5.0,-5.0,10.0,5.0,-2.2719932,2.7506242,0.20979577
1.4952412,-2.7313733,5.0,-0.85058826,5.0,0.09653771,-4.437222,-5.0,1.0933995,5.0,-5.0,-1.3819009,0.93619704,5.0,5.0,0.95974374
-5.0,-0.32204306,1.8720964,1.6930052,5.0,-3.0745282,0.9264599,4.957803,5.0,5.0,-0.23403361,-8.530438,-3.4426904,5.0,3.7147777,-0.14720766
-5.0,-0.21211004,-5.0,0.23966494,-3.1610618,-1.9749538,0.58458424,0.11373997,-1.6881359,3.9476748,5.0,0.14994168,-4.267469,5.0,-5.0,0.76749957
-5.0,-0.24017984,-5.0,-0.24735022,-0.23197812,-2.5778425,1.4723794,2.7816367,-1.2376118,-1.9080058,5.0,0.5334711,-3.8448577,-5.0,-5.0,0.18207645
0.36798108,5.0,-5.0,4.9284763,5.0,-2.6649876,-5.0,-5.0,5.0,0.9404521,-3.4351,0.04982023,5.0,-5.0,-0.62985134,-2.1041439
4.94689,-0.4341834,1.4495809,-0.07185544,5.0,-2.108161,-3.6013677,-4.0157213,5.0,5.0,-5.0,-7.2253833,5.0,-5.0,1.3420929,0.548586
1.7350429,-1.5254363,5.0,-0.8022394,5.0,-0.6667199,-3.028488,-5.0,3.766714,5.0,-2.8159328,-3.4217424,0.8928938,5.0,5.0,-0.6089855
-1.7416801,1.2769885,-0.6983284,1.5493746,5.0,-4.7236314,-4.171486,-5.0,5.0,5.0,0.47352648,-8.182742,-1.8277856,5.0,3.5920672,0.31337658
-5.0,-5.0,-5.0,10.0,-5.0,-0.63010716,1.5650873,-0.25427267,-2.1000848,2.3529065,5.0,-0.24663316,-3.1907334,4.862092,-2.9139147,-0.36370504
-5.0,0.8561886,-5.0,-9.209603,-2.1310291,-2.2051988,0.7204051,0.081079006,0.26988077,-2.2864385,5.0,-0.32988536,-2.5593863,-5.0,-5.0,-4.6648054
3.9249382,-0.83282053,2.388457,-0.36855066,5.0,-0.6264515,-4.4363103,1.1745936,5.0,-0.45427966,-5.0,0.12502235,5.0,-5.0,1.678953,2.2574837
1.6434993,-2.790846,4.477261,0.06338615,5.0,2.6504202,-4.7284274,5.0,2.1957822,4.5794535,-5.0,10.0,5.0,-2.8218184,2.1626253,0.41473836
0.85830784,-2.3978295,5.0,-0.5226946,5.0,-4.1597714,-2.8107045,1.8511713,1.2716442,5.0,-5.0,3.755876,1.0051845,5.0,5.0,-0.35343605
-2.106176,0.7437532,0.05142635,0.18988532,5.0,-1.8325886,-1.949944,-4.220719,5.0,5.0,-1.2986443,10.0,-0.7910806,5.0,5.0,-0.67772824
-5.0,0.067065835,-5.0,-2.3973155,0.5428134,-3.951055,1.5160334,2.2328713,0.525823,5.0,4.5681424,3.1905959,-3.929645,5.0,-1.3881601,-0.25999933
-5.0,0.42934716,-5.0,-5.242089,-2.578733,-1.2952287,3.1613064,2.1709893,-4.3751516,3.414721,5.0,0.55680776,-5.0,-1.1698029,-5.0,3.6220176
-5.0,3.7439063,-5.0,3.502304,5.0,-4.111841,-3.6764174,-2.5525572,-0.14722562,-5.0,3.9685702,-2.9303467,-1.2584305,-5.0,-2.0218081,1.4056315
5.0,-1.1772851,-1.8917522,1.4332746,5.0,-3.3981118,-5.0,-5.0,5.0,0.9964944,-5.0,0.011020422,5.0,-5.0,0.44857883,-0.36805344
4.9735713,-0.23722637,3.6978223,-0.24011946,5.0,0.77184224,-3.8342447,5.0,1.3526843,5.0,-5.0,10.0,2.658895,-0.035976887,3.4495325,0.4174308
-0.9055146,-0.57635045,4.796123,-0.14232059,5.0,-3.3875246,-2.9904928,-1.3846842,5.0,5.0,-1.4232887,2.40167,-0.5758618,5.0,5.0,-0.30100572
-5.0,-0.50674415,-5.0,0.32058582,-3.6480865,-1.3535782,3.038426,-0.7238356,-0.9857673,5.0,3.5093265,10.0,-4.393083,5.0,-3.7569733,-0.032049224
-5.0,-2.4438396,-5.0,6.537176,0.53489137,-2.9110217,-0.47375607,-3.097028,-4.3503413,0.23242497,5.0,-0.5158981,-3.354807,-5.0,-5.0,-0.47407806
-4.1617155,5.0,-5.0,-4.3588815,5.0,-5.0,-5.0,2.219895,2.41972,-2.60938,-0.8123431,-6.8584466,2.1402628,-5.0,2.8120623,3.0793614
4.751604,-2.6686125,-1.2808471,-3.5932279,5.0,-3.0691013,-5.0,-5.0,2.7704897,0.5487839,-5.0,10.0,4.6869555,-5.0,1.6827871,-0.41607767
2.9447286,-0.25076783,2.8615832,-2.2910619,5.0,1.5800025,-3.83427,5.0,2.0429318,5.0,-5.0,-2.7124403,1.112387,0.33949912,4.8887005,-0.6215671
-1.0092072,0.32547975,5.0,-0.87441385,5.0,-4.838648,-5.0,-1.0086598,3.1324058,5.0,-1.7023821,8.686078,-2.889788,5.0,5.0,-1.2730519
-5.0,1.8741512,-5.0,0.38005206,-0.73714894,-2.5948403,3.7905183,-4.719555,-1.8464887,5.0,5.0,-1.1936601,-3.2336307,5.0,-1.4687078,-0.10159777
-5.0,0.81517774,-5.0,-9.81213,-0.90460646,-2.1817453,1.6195662,2.7309887,-4.792333,1.0322933,5.0,0.15945071,-4.0867286,-5.0,-5.0,-0.8482325
-5.0,5.0,-5.0,-10.0,4.8855877,-5.0,-5.0,0.33373427,0.9342019,-3.2884967,1.4286287,0.35556528,-4.1651216,-5.0,-1.3020914,-5.0
2.3780403,-3.5477834,3.4142487,1.9557502,5.0,-0.20205498,-5.0,5.0,4.801761,2.7602556,-5.0,0.5495456,5.0,-5.0,3.2635472,0.3335744
0.9512027,-0.5685086,2.0281234,-0.071346246,5.0,-1.5038639,-4.1708946,2.9801862,4.586278,5.0,-4.04652,10.0,5.0,1.8723056,4.6158633,-0.0923198
-2.9891768,2.1603694,-2.2108922,-0.80750257,5.0,-4.751267,-2.0675488,-4.1561804,5.0,5.0,1.2971883,-2.2144206,1.174478,5.0,3.363441,-0.19969298
-5.0,-0.9844249,-5.0,10.0,-2.947838,-1.2873944,0.87700176,0.24452548,-3.7556345,5.0,3.9360387,0.2251472,-5.0,5.0,-3.8032289,-0.28159896
-5.0,-3.1191993,-5.0,10.0,-0.78245246,-0.41438723,2.7206335,4.396474,-3.704103,0.08535707,5.0,0.6262934,-5.0,-3.8297002,-4.8396096,0.02059555
-5.0,2.2873251,-5.0,-10.0,-0.5029454,-1.0760086,1.6766194,1.1038446,0.21302962,-4.4326,4.4057803,1.1223909,-5.0,-5.0,-1.9022715,5.0
4.1144385,-0.9762607,2.3780122,-0.17379664,4.9559145,-0.53921366,-5.0,5.0,5.0,-0.4692253,-5.0,-0.2309349,5.0,-5.0,-0.7967088,-2.153934
1.2126014,-0.9171784,3.130701,0.32492903,5.0,3.0344539,-5.0,5.0,5.0,4.3599796,-5.0,1.4950674,5.0,-4.804895,1.3636693,0.09306132
0.905951,0.5307287,2.8700237,1.4263192,5.0,-3.708452,-5.0,-3.2516785,5.0,5.0,-3.8668938,-2.3973339,-2.20893,5.0,5.0,-0.2866006
-5.0,0.6868198,-1.1254922,0.36070132,5.0,-2.5259771,-5.0,5.0,1.7872567,5.0,-1.5034747,-3.449755,-3.260723,5.0,3.994944,-0.5957732
-5.0,0.79724133,-5.0,-1.9765649,-3.4210145,-1.0546045,2.56399,0.42144284,-2.9457393,3.3444748,5.0,-0.2080956,-5.0,5.0,-4.515607,0.21249413
-5.0,2.3778868,-5.0,-10.0,-0.13549376,-2.4397566,-0.59423697,-5.0,-2.510932,-1.2671562,5.0,-1.0593011,-4.9969163,-5.0,-3.8984525,-5.0
-4.549212,5.0,-5.0,-0.055082977,4.829157,-4.390104,-5.0,0.29851747,1.0713902,-3.408721,2.4139915,0.44700214,-0.2731762,-5.0,-3.2622473,-5.0
5.0,-2.7371042,1.4435229,3.7525492,5.0,-1.1352994,-5.0,-5.0,4.2302923,-0.902882,-5.0,0.06820441,5.0,-5.0,0.7342404,1.6501122
1.3705199,-1.5443327,4.533964,0.50989825,5.0,-0.8906076,-5.0,-5.0,1.729092,5.0,-5.0,-8.449732,3.4394157,0.6093652,4.4680996,0.52387846
-0.5100652,0.1264472,5.0,0.39265487,5.0,0.703422,-1.4253839,5.0,3.81855,5.0,-5.0,-10.0,-0.5938461,5.0,5.0,-0.32411665
-5.0,3.2314286,-5.0,-0.27903372,2.3921187,-3.8783438,3.0356154,1.0151374,4.2735367,5.0,-0.76320577,4.715431,-3.806849,5.0,2.2292807,0.16573068
-5.0,-1.5324503,-5.0,0.84452724,-4.0936446,-1.6845227,1.0753704,0.9569832,-3.4178157,5.0,3.210062,0.31167173,-5.0,5.0,-3.5876427,0.07192975
-5.0,4.3266087,-5.0,-0.068847775,1.4364343,-3.372116,-3.3310673,-5.0,-1.367146,-0.8202746,5.0,-0.93890387,-3.0491517,-5.0,-5.0,-3.0737545
1.0615506,1.9090874,-5.0,10.0,5.0,-5.0,-5.0,0.08275199,3.9937124,-0.92065525,-5.0,0.3725053,4.782632,-5.0,2.1051202,1.5699987
5.0,-0.44460738,-0.2218597,-2.005506,5.0,0.6340351,-5.0,-5.0,3.5867128,3.2020679,-5.0,1.383483,5.0,-5.0,0.727053,0.22391997
0.44291723,1.7769256,5.0,-0.62855154,5.0,-1.330806,0.2274999,4.355057,1.3972105,5.0,-4.275425,-4.2289615,0.36158788,5.0,5.0,-0.257724
-5.0,0.5995898,-1.6355746,-2.044545,2.6196394,-5.0,0.35891166,-3.6760557,2.4599192,5.0,3.2803795,2.8050914,-3.6627,5.0,1.2002071,0.77479464
-5.0,1.4074885,-5.0,-7.7351823,-4.335215,-1.8643439,3.4478064,2.1746345,-5.0,4.881449,5.0,-0.59780353,-4.106967,-0.8438132,-5.0,-5.0
-5.0,0.07992077,-5.0,10.0,2.8138885,-0.7376832,-2.4714487,5.0,-2.8663049,-3.1523347,5.0,-1.0282047,-4.367791,-5.0,-4.282094,-4.2888556
3.5637257,1.52528,-2.8409252,-4.6907053,5.0,-4.9721394,-5.0,-5.0,5.0,-0.85735667,-5.0,0.8037659,4.0148697,-5.0,0.89777464,0.32426712
1.6005952,-1.630438,5.0,0.8252385,5.0,-1.0453776,-3.356295,2.9203386,0.21070695,5.0,-5.0,0.598266,0.35341778,2.379199,5.0,-0.58738065
-2.2690573,0.075280905,1.9247462,0.094456725,5.0,-4.4374814,0.35933387,1.7285917,5.0,5.0,-1.1831816,-10.0,-0.12285912,5.0,4.257164,-0.0772161
-5.0,-0.9758054,-5.0,0.32016745,-0.81172395,-3.4987369,0.29802334,0.13198063,-2.4943366,5.0,3.7966776,-0.19727089,-3.6070814,5.0,-3.8205116,0.17071803
-5.0,1.6518649,-5.0,0.8868712,-1.1022956,-1.4800284,0.9976386,0.13432801,-1.0941204,-0.20118618,5.0,-0.03640129,-3.3047037,-5.0,-5.0,1.052612
1.6462852,2.7525465,-3.4916697,10.0,5.0,-5.0,-5.0,-2.5178437,5.0,-2.7186904,-5.0,0.9294238,3.8418736,-5.0,-0.98412406,0.58404565
2.7032902,-1.3827965,0.047363162,2.3540092,5.0,0.22655511,-5.0,1.9495492,2.2673655,1.3961983,-5.0,-7.753619,5.0,-5.0,1.508257,0.47815076
0.47097108,2.1230307,5.0,0.40072107,5.0,-0.41169375,-5.0,1.5849848,-1.7210939,5.0,-5.0,3.556308,-0.4591074,4.9522834,5.0,-0.5335567
-4.18217,2.1774015,2.0610921,1.7253039,5.0,-3.9165072,-4.9821005,-0.7421739,4.8100114,5.0,-0.24777079,2.7227502,-2.1673393,5.0,5.0,-0.24643102
-5.0,-0.7704817,-5.0,0.4343528,-3.1311479,-2.9273393,4.2739596,-1.9812909,-2.8706808,5.0,5.0,-2.647852,-4.0948067,5.0,-4.1209073,5.0
-5.0,-3.261065,-5.0,9.440729,-0.29717755,-3.210392,0.7997128,-0.012743499,-5.0,0.7446635,4.5090384,0.18271509,-5.0,-2.7792609,-5.0,-2.1309547
-5.0,0.72668135,-5.0,10.0,-0.4307996,-1.5173504,1.1517196,-0.09965187,-0.861778,-2.55406,4.66109,-0.14083016,-5.0,-5.0,-2.474582,4.919282
5.0,-1.7498549,0.727242,0.21961,3.8180487,1.6370144,-5.0,5.0,4.6722074,-0.37575865,-5.0,0.09130502,5.0,-5.0,0.058777273,1.5019242
1.8148423,-1.8027391,3.0348804,0.07886104,5.0,1.2143061,-5.0,5.0,1.9049368,5.0,-5.0,-2.6007607,4.794264,-4.285388,2.9367979,0.033620387
0.26110357,0.6005486,5.0,0.19177677,5.0,-2.4640589,-3.837461,-1.4568343,4.6403074,5.0,-5.0,0.8605881,-2.187046,5.0,5.0,-0.36386818
-5.0,2.4653597,-4.4703884,-0.11192645,2.5081499,-4.762883,-1.4130121,-5.0,5.0,5.0,1.2190852,10.0,-1.5659442,5.0,0.4139384,-1.5174564
-5.0,0.4179963,-5.0,2.5978396,-4.9871397,-1.193978,0.27283144,-3.129113,-4.7686605,5.0,5.0,-1.964583,-4.163452,1.3617747,-5.0,5.0
-5.0,4.107907,-5.0,-9.049135,0.9152596,-3.6063998,0.9751315,1.7302369,0.18767324,-2.8716729,5.0,-0.38412,-1.7887825,-5.0,-0.5468204,-5.0
3.7456517,-0.33705157,0.3200716,0.17744228,5.0,-1.4761162,-5.0,-4.2306004,5.0,3.7198277,-5.0,0.5433715,5.0,-5.0,0.37396526,-0.119260624
3.06441,-0.09964919,5.0,-1.0164168,5.0,2.1681228,-4.03014,-5.0,0.63108736,5.0,-5.0,1.6951798,-0.5389576,2.630687,4.393911,0.39260197
-1.126913,-0.28235936,5.0,0.39921167,5.0,-2.4134638,-0.44774598,-4.5527487,3.1155324,5.0,-5.0,8.517762,-0.42466486,5.0,5.0,-0.22339323
-5.0,-1.8569455,-5.0,-0.33798847,-2.6023793,-2.9821212,1.4977208,-0.08196741,-0.40259624,5.0,3.5848622,0.39745796,-2.165429,4.6587076,-3.96944,0.5162454
-5.0,1.7400613,-5.0,-3.9206245,-0.37322944,-2.3921878,-2.3919106,-5.0,-0.8264233,5.0,5.0,0.4062205,-0.09941208,-4.402992,-5.0,-0.41208303
-5.0,5.0,-5.0,-0.15356374,0.52312505,-2.9638383,-0.93784404,-0.4308043,0.015847683,-2.4975295,4.649383,-0.090359844,-1.1614457,-5.0,-4.6363297,1.8140008
5.0,-1.5661576,0.52732,0.28606322,5.0,-5.0,-5.0,-3.8727696,4.8272686,-0.94006085,-5.0,0.6498744,5.0,-5.0,0.28503543,-0.38692814
1.7213962,-0.42954576,4.955123,-0.22597054,5.0,0.91566,-3.4745927,5.0,1.0369744,5.0,-5.0,-3.1705995,2.3933918,-2.0073254,4.7879395,0.35422522
-0.13667536,-0.93713534,5.0,-0.07419961,5.0,-0.8717654,-3.1323042,-1.9351912,3.769394,5.0,-4.067579,4.026757,-0.59157693,5.0,5.0,-0.24024363
-5.0,-0.5215728,-5.0,10.0,0.33772773,-1.1131983,4.008906,-4.560384,-5.0,5.0,5.0,10.0,-4.8037086,5.0,-5.0,5.0
-5.0,-2.7522054,-5.0,10.0,-2.1301281,-0.2227614,1.0250762,-0.048830897,-5.0,1.3256818,5.0,0.18193558,-5.0,1.3327746,-5.0,-0.7459489
-5.0,-1.3052915,-5.0,-10.0,0.004186511,-3.4529314,-0.5398127,0.324187,-0.5431981,-4.055703,5.0,-0.31977057,-4.1164956,-5.0,-1.7976527,2.6432981
2.5166092,-0.19266665,2.2715693,4.6387777,5.0,-0.71013963,-5.0,-5.0,5.0,-0.880589,-5.0,-0.06503184,5.0,-5.0,0.1028713,-1.769564
0.60348785,-0.7244943,3.8820999,-0.040724736,5.0,1.6413686,-3.300581,-4.659464,3.7226095,5.0,-5.0,-6.6227827,5.0,-5.0,2.2768273,-0.20783284
-0.085234284,-1.9701409,5.0,-0.9639141,5.0,-0.021131575,-4.02484,5.0,2.5116234,5.0,-5.0,-2.2817173,0.33603513,5.0,5.0,-0.35423547
-5.0,0.8579674,-5.0,0.37780067,0.9482116,-2.692847,1.0129218,-4.2063217,2.592342,5.0,1.2958846,10.0,-4.5502234,5.0,0.2748593,-0.20866513
-5.0,0.36630082,-5.0,-7.9322095,-2.7321465,1.0288606,3.928188,1.6602376,-5.0,3.2869742,4.756031,0.3139775,-4.064227,4.653125,-1.5518408,2.2318566
-5.0,4.2200727,-5.0,-0.5092194,-2.036797,-2.2646997,1.2563074,2.5631754,-0.47323453,-0.36045772,5.0,-0.2560486,-2.0717297,-5.0,-5.0,4.0196776
1.0133455,0.93552196,-4.627316,10.0,5.0,-4.1829033,-5.0,-2.8336816,5.0,-4.685888,-5.0,0.21325757,4.7146955,-5.0,-0.57134223,-5.0
5.0,-0.27668345,1.3543346,-0.4059542,5.0,4.8890934,-5.0,4.9797974,4.7371626,0.12786078,-5.0,-0.48442984,5.0,-5.0,1.2935914,0.49796697
2.0624232,0.31063068,5.0,-0.26934168,5.0,-0.48577726,-5.0,-5.0,2.1537108,5.0,-5.0,-5.005997,1.7177395,1.6134782,5.0,-0.1362609
-5.0,2.3469357,-3.326863,0.052319907,3.4704447,-3.518798,-3.0311303,3.7982478,5.0,5.0,-3.8601222,-4.2033277,-3.171596,5.0,2.0890205,-0.20133744
-5.0,4.1987057,-5.0,-1.1471517,-0.9873602,-1.1077229,2.5902367,2.0099874,-2.6957397,5.0,5.0,-0.3604409,-4.367265,3.7227132,-1.9815092,-0.15266474
-5.0,0.8090379,-5.0,10.0,0.5923969,-4.7051497,-4.3535576,-5.0,-0.2761736,-4.8974276,4.3107243,4.8094034,-5.0,-5.0,-5.0,-1.3743477
-0.07149643,1.4192281,-2.2798336,-0.22805342,5.0,-3.6929693,-5.0,-5.0,4.592968,-1.3933554,-5.0,0.7775113,2.4447951,-5.0,0.44799995,-0.5487886
1.6443987,0.88245994,4.467728,-10.0,5.0,2.5941825,-3.6774929,5.0,2.9004376,5.0,-5.0,-6.428189,4.172529,-4.7559447,3.0472207,-3.3339396
0.55408216,1.0669289,4.809036,-0.38588017,5.0,-0.8947813,-5.0,-0.24211359,3.4040174,5.0,-5.0,-9.194435,0.81433296,5.0,5.0,-0.539413
-5.0,0.34115335,-5.0,-0.16790701,4.890377,-4.221544,-0.42542428,-5.0,3.5351105,5.0,-0.72309643,2.891957,-3.5242476,5.0,0.73888385,0.7166523
-5.0,-5.0,-5.0,9.491911,-1.6380959,0.5167756,3.385643,-5.0,-5.0,5.0,5.0,-2.593728,-5.0,5.0,-4.2563496,5.0
-5.0,-0.056671977,-5.0,-5.1312256,-0.8943437,-2.5983176,-0.5819576,0.12401226,-5.0,-1.5227265,5.0,0.22700283,-5.0,-0.17884237,-4.374611,-0.18034565
-5.0,1.089184,-1.2207155,10.0,2.0115135,-5.0,-3.881399,-1.378626,-0.15547419,-5.0,1.9200778,-0.043457493,-4.168198,-5.0,-2.0145917,5.0
5.0,-3.1728268,3.747579,-0.64222443,5.0,1.1756376,-5.0,-5.0,5.0,0.70680106,-5.0,0.06841607,5.0,-5.0,1.5170124,2.199959
2.577054,-0.07222307,5.0,-0.13009459,5.0,-1.0058887,-5.0,0.9707866,1.7567586,5.0,-5.0,-4.724526,2.730564,0.72595453,3.8678644,-0.9071515
-4.928521,2.46427,-2.7947967,-0.43720198,5.0,0.4901843,-0.11698955,5.0,5.0,5.0,-3.4880075,-10.0,-1.5070312,5.0,5.0,-2.8200395
-5.0,-1.6880366,-5.0,3.6867495,-3.0345187,-1.5782154,3.1111894,-0.10455433,-3.0911527,5.0,3.4515584,0.35194328,-5.0,5.0,-4.1371017,0.61194056
-5.0,-1.1871347,-5.0,2.5025148,-1.6663632,-4.969233,1.1488069,-5.0,-2.8840914,0.57967436,5.0,-2.374465,-5.0,-5.0,-4.005146,-0.21745682
-2.6734662,2.5031471,-5.0,9.011691,5.0,-4.0229754,-2.629825,-0.03314516,1.1621481,-2.1823106,2.659084,-0.31684172,-1.2269497,-5.0,2.4933152,-3.4507546
5.0,-0.8545321,2.2905674,0.029470388,5.0,2.4584045,-5.0,5.0,5.0,2.3959444,-5.0,7.91212,5.0,-5.0,2.065761,0.7352151
2.837505,-1.6012777,4.534099,-0.9216981,5.0,2.7187574,-5.0,-0.8200495,2.729141,5.0,-5.0,-7.693544,1.1914138,0.01687479,3.6528347,-0.615503
0.3849558,-1.762222,5.0,0.29403615,5.0,-3.1209354,-4.3607316,-2.6020346,4.933146,5.0,-2.8054829,-6.324704,0.5940892,5.0,5.0,0.34979576
-5.0,2.229842,-4.017258,0.11861196,1.4245248,-4.3183274,-1.2476008,-5.0,3.8363128,5.0,3.4025393,2.7140493,-1.7331074,5.0,1.2009884,1.8866688
-5.0,2.4303067,-5.0,10.0,-5.0,0.06274387,0.79502463,0.75560975,-4.232084,5.0,5.0,0.36654872,-2.862626,-3.8020735,-5.0,3.689694
-5.0,5.0,-5.0,-3.9268575,0.13885665,0.09583306,0.8822696,3.881208,-3.9098616,-2.0624337,5.0,1.278426,-5.0,-5.0,-5.0,-5.0
2.7739081,0.68210965,-1.6972476,-3.9220207,5.0,-5.0,-5.0,-5.0,3.5528345,2.618002,-3.9380164,0.3698276,3.0091574,-5.0,-0.21548072,-0.3758935
3.7666023,-4.766887,4.1417823,-0.45696995,5.0,-4.957493,-3.9000487,-5.0,-0.17959553,5.0,-5.0,3.2016468,3.5834913,1.4794292,4.4723744,-0.86601084
0.97958267,-5.0,5.0,-0.91257656,5.0,-5.0,-5.0,-1.7505407,2.750392,5.0,-3.987277,6.750717,-0.17208576,5.0,5.0,-1.1955613
-4.1371264,2.813199,-1.6311325,0.54300123,4.911914,-4.70511,-5.0,5.0,3.3088822,5.0,-1.8896674,10.0,-0.97816837,5.0,1.2142766,-0.8030847
-5.0,5.0,-5.0,-2.2461982,-5.0,5.0,1.9814672,-0.715858,-5.0,3.6440134,1.731456,0.32485223,-5.0,-5.0,-4.772047,-3.2023296
-5.0,5.0,-5.0,-2.918817,-3.3445532,5.0,0.113101244,0.39935076,0.25650647,-2.8096197,3.3843482,0.12108056,-5.0,-5.0,-5.0,5.0
4.307199,-2.1593173,1.2235323,10.0,5.0,-2.369773,-1.1036409,-1.3312457,5.0,-0.6891918,-2.0651605,-4.0248184,-4.1858463,-5.0,0.8591156,-1.0965095
4.036557,-5.0,0.40782017,0.6038506,5.0,-5.0,-2.0818233,-5.0,2.8113093,5.0,-5.0,8.811319,3.3791754,-0.56384957,5.0,0.35658652
0.8463003,-5.0,3.2345433,0.34155327,5.0,-5.0,0.25388694,-4.397591,4.4782,5.0,-5.0,5.6397166,4.390673,5.0,5.0,-0.4114546
-1.3559957,-2.310572,2.6773252,-1.8341744,5.0,-5.0,-2.7565358,5.0,3.4376,5.0,-5.0,9.424794,-2.6293426,5.0,5.0,-0.093281336
-5.0,5.0,-3.0766568,8.773746,-5.0,3.4666078,-0.28974664,-5.0,-4.1372366,5.0,3.1867728,2.6461096,-5.0,-3.2368424,-5.0,5.0
-5.0,5.0,-1.8942479,7.517461,-5.0,3.8928747,1.4721113,0.79063267,-4.6822357,-2.6589208,5.0,0.18564084,-5.0,-5.0,-5.0,5.0
-5.0,5.0,-5.0,-4.881768,1.8099257,1.331446,2.9173017,-5.0,1.2027304,-5.0,4.097184,-2.581447,-4.1547313,-5.0,-5.0,-1.3505936
3.8060749,1.2160408,0.4691323,2.6870859,5.0,-5.0,-3.9629726,-4.414805,5.0,-0.811627,2.1176531,3.728736,0.3593079,-5.0,-2.6746445,-4.633809
3.611452,-3.8682356,0.42700884,0.6428844,5.0,-5.0,-0.90781975,-2.0839825,2.318722,5.0,-5.0,8.798527,2.100247,1.2884359,4.46434,-0.64696574
-0.00762406,-3.951787,1.6466922,-0.24490187,5.0,-5.0,-2.0068648,1.759305,-0.3012696,5.0,-5.0,9.122832,3.0333414,5.0,5.0,-0.45428887
-1.3077974,-1.9825128,4.724371,0.017304614,5.0,-5.0,-3.6768882,-0.6577382,2.714154,5.0,-5.0,10.0,-1.3605155,5.0,4.3515544,-0.08587238
-5.0,5.0,0.17517462,6.514386,-0.6264698,-3.7687097,2.4839592,2.7196336,-1.3448596,5.0,1.583741,10.0,-5.0,1.9865983,-0.5699146,2.6176515
-5.0,5.0,-4.923078,5.7261434,-5.0,5.0,0.41311508,0.7405654,-4.515563,-1.1157182,5.0,0.2605267,-5.0,-5.0,-5.0,-0.5037327
-5.0,5.0,-5.0,-3.131864,1.7912765,1.6496303,2.5859416,2.1493688,0.98592854,-5.0,4.9482055,-4.631158,-0.5466472,-5.0,-5.0,0.94929695
3.6514673,-0.7647834,0.79623556,2.0203488,5.0,-5.0,-4.0712605,-5.0,5.0,0.09658682,-2.884101,-3.92809,-0.5511072,-5.0,-2.390181,-3.8333406
3.9331722,-2.8049593,0.58468986,1.4342318,5.0,-5.0,-1.9674456,0.08535266,0.73168814,5.0,-5.0,10.0,4.4045434,-0.16843987,5.0,0.19247147
1.4716333,-2.997133,3.878929,0.6677402,5.0,-5.0,-0.751197,0.42884922,1.6805471,5.0,-5.0,-4.320898,2.5027845,5.0,5.0,-4.978933
-0.993397,-1.7129481,2.7775056,0.7176038,5.0,-5.0,-4.039398,-3.8752794,4.0716453,5.0,-5.0,4.1070337,-2.6374068,5.0,5.0,-0.52516747
-5.0,5.0,-2.9400811,-8.126366,-5.0,2.5779681,1.8516699,0.35610265,-1.6792618,5.0,1.8923628,1.8667355,-4.932843,-3.138036,-2.799026,-0.15665421
-5.0,5.0,0.35520363,10.0,-5.0,3.2501502,0.15534729,0.04140827,-0.61109614,-2.6524692,5.0,-0.12814635,-3.7200406,-5.0,-5.0,5.0
-5.0,5.0,-3.6039362,-9.311587,0.67610884,-0.092558384,1.2790779,0.69331545,-0.4201401,-5.0,4.3378615,-0.3624055,-3.6412137,-5.0,-5.0,5.0
1.4026763,4.4446754,-2.1706562,3.1472344,5.0,-5.0,-4.499185,-5.0,4.3876553,-3.5989208,0.9476727,2.1516132,1.5152001,-5.0,0.6240088,2.192864
5.0,-3.4952376,0.9691737,-1.0869019,5.0,-5.0,-0.53060925,1.4679008,1.7308813,5.0,-5.0,8.927168,5.0,1.3331199,3.6430106,0.05325913
0.22340159,-3.7375708,3.9558067,-0.7953842,5.0,-5.0,-3.0902812,-1.385107,3.621094,5.0,-5.0,-5.310135,3.744463,5.0,3.5325584,-0.59521616
-4.9058285,1.4567416,2.5210445,1.9833229,5.0,-5.0,-1.75119,3.1530247,1.7413628,5.0,-5.0,10.0,-5.0,5.0,-0.4170894,0.35309103
-5.0,5.0,-3.923976,10.0,-5.0,3.8861394,0.9484796,-0.5964466,-2.5012903,1.5121121,2.57547,-3.8032255,-5.0,-5.0,-5.0,5.0
-5.0,5.0,-1.5290338,10.0,-5.0,2.6134977,0.5035862,0.41228628,-0.42875284,-4.695597,5.0,-0.17429361,-5.0,-5.0,-5.0,-0.99570894
-5.0,5.0,-4.672157,-3.051486,1.8618319,-1.4062004,1.8383203,-4.5592136,2.757131,-5.0,4.6519623,0.34056973,-5.0,-5.0,-3.2950392,-1.83881
4.4399967,-2.256257,0.8368343,3.6137795,5.0,-5.0,-0.6807318,-0.35942563,5.0,2.60999,-2.126539,0.7601845,1.7297782,-5.0,2.3602242,0.5552077
3.073209,-5.0,0.8684392,0.7153362,5.0,-5.0,-1.9982332,-5.0,4.0286393,5.0,-5.0,-6.380154,5.0,2.720121,3.2178824,0.16203101
0.52215445,-5.0,2.335228,0.7322568,5.0,-5.0,-3.2802875,4.082527,3.8924017,5.0,-5.0,5.540586,4.921076,5.0,3.6629481,-0.10133882
-0.738003,-3.2018106,4.34273,0.3325407,5.0,-5.0,-0.8057834,5.0,5.0,5.0,-5.0,-7.452593,0.5453799,5.0,5.0,-0.25575376
-5.0,5.0,1.0793157,-0.015507641,2.233029,-1.8889475,0.9650321,-5.0,1.8655962,5.0,-3.8349464,-4.8921204,-4.4053183,0.7274902,-0.306803,1.5052519
-5.0,5.0,-2.0606987,2.1377902,-5.0,5.0,0.44638532,0.7241687,-0.13834143,3.138286,5.0,0.34904158,-2.1674976,-5.0,-5.0,5.0
-5.0,5.0,-4.1893063,10.0,-1.4335842,4.187584,0.3647368,0.25461394,-1.4158987,-5.0,5.0,-1.425284,-1.8357226,-5.0,-5.0,5.0
-5.0,5.0,-5.0,0.78286123,5.0,-0.3406359,1.436037,0.16495934,1.7992446,-5.0,0.32688802,-0.28464767,-1.1258794,-5.0,-2.5007832,-2.6892004
5.0,-5.0,1.4355451,2.7174685,5.0,-5.0,-2.5919487,5.0,1.5375524,5.0,-5.0,-1.239563,4.277483,-3.952598,4.3943896,0.17370632
3.2701917,-3.078092,2.6796632,0.3612252,5.0,-5.0,0.13639319,5.0,2.1270726,5.0,-5.0,-6.6974525,4.6203527,2.8365865,3.6050851,-0.38523653
0.5300559,-4.2103176,1.656237,0.28997368,5.0,-5.0,-5.0,-2.799408,3.333283,5.0,-5.0,10.0,-0.7568568,5.0,5.0,-1.8478675
-5.0,5.0,0.8243433,-0.21382912,-3.4899192,0.46834496,3.3342052,0.30219817,-0.4328339,5.0,-2.3846505,0.060113102,-5.0,0.5096524,-0.39621913,-0.1577542
-5.0,5.0,2.9019787,-6.0491347,-5.0,5.0,0.7101116,0.49698204,-0.31960618,-4.186003,5.0,-0.5465621,-5.0,-5.0,-5.0,0.3546152
-5.0,5.0,-3.9336748,-2.6750612,-2.457605,2.8321073,0.017476857,-1.4825184,-0.3657378,-5.0,4.4828005,-0.29402697,-5.0,-5.0,-4.7766867,5.0
-5.0,5.0,-3.5472367,-10.0,5.0,-0.55512166,1.9612836,2.4176772,3.4301367,-5.0,1.7033771,-0.37349498,-4.562349,-5.0,-0.83063984,-3.268052
5.0,-5.0,-1.3340706,0.02666891,5.0,-5.0,-0.83083,-3.4840941,5.0,5.0,-5.0,-3.1456566,5.0,1.8844638,1.671895,0.18731107
0.7230042,-5.0,1.150041,0.0946917,5.0,-5.0,-1.4917605,0.6542268,2.5968547,5.0,-5.0,-0.32669783,5.0,5.0,3.8644395,-1.0845569
-0.2432065,-2.040075,2.3623173,2.4423692,5.0,-5.0,-1.2691429,2.102551,4.038082,5.0,-5.0,-7.1171327,-0.20345235,5.0,5.0,-0.013991561
-5.0,5.0,0.43221036,-5.3950124,-0.40215534,-5.0,1.5721692,-0.286645,-1.4851955,5.0,-2.4828112,10.0,-5.0,0.04855299,-1.3651633,-0.36591637
-5.0,5.0,-2.1102424,-1.8788753,-5.0,5.0,-0.44949216,2.2072618,-0.8971237,-1.0437537,5.0,0.14623235,-5.0,-5.0,-5.0,0.6762371
-5.0,5.0,-2.5449376,1.1495368,-2.088054,3.3463354,0.8053951,3.257261,-0.86569977,-5.0,5.0,-0.47850245,-2.734684,-5.0,-5.0,-0.8380718
0.80349934,5.0,-3.560268,-5.882291,5.0,-5.0,-2.279115,2.2794309,5.0,-3.5489333,-1.7284642,-7.1523333,0.99361175,-5.0,-2.011559,-5.0
5.0,-5.0,-0.025103226,0.69514877,5.0,-5.0,-1.489058,-5.0,-0.023286343,5.0,-3.873499,10.0,2.7796574,-1.3486396,4.9843616,0.42342764
2.3481994,-3.3773828,1.3649127,0.6620513,5.0,-5.0,-1.0823506,5.0,1.3863078,5.0,-5.0,-10.0,3.4730892,3.693315,3.6512444,-0.6523464
-0.10223913,-2.9284916,3.027123,0.22794366,5.0,-5.0,-3.5428843,5.0,3.3752656,5.0,-5.0,-7.998625,-1.3202815,5.0,5.0,-0.045480855
-5.0,5.0,-0.8219733,-0.53293514,-4.7247634,1.1328429,2.4936466,0.30614784,-1.3356787,5.0,0.6365786,1.4467124,-5.0,-1.9975828,-3.336128,1.330947
-5.0,5.0,1.0223725,-10.0,-5.0,4.508067,0.12511957,0.61675954,-0.9299675,-1.5451583,5.0,0.064170405,-2.1734314,-5.0,-5.0,5.0
-5.0,5.0,-1.0676848,1.5937635,-3.7645779,4.4236145,2.8452606,-0.09967984,0.3914683,-5.0,4.481146,-1.8788015,-1.7141923,-5.0,-5.0,5.0
-4.568305,5.0,-5.0,2.5698519,5.0,-2.3059864,1.8640699,0.08028322,2.550391,-5.0,1.1652808,0.5524629,-1.769229,-5.0,-4.9168243,-5.0
5.0,-4.3255796,-0.29657045,-0.74677753,5.0,-5.0,-0.9397391,4.6061983,3.434564,5.0,-5.0,10.0,3.428951,1.2066634,3.4999955,0.13144913
1.2846935,-3.1428504,2.4412909,0.62502223,5.0,-5.0,-0.7798531,-0.084674954,3.525968,5.0,-5.0,-5.799061,1.5307765,5.0,3.3996375,-0.39834332
-0.4536631,-1.1465564,2.7087743,1.07559,5.0,-5.0,-3.1712968,3.649465,3.1351967,5.0,-5.0,10.0,-1.8405977,5.0,4.788617,0.0023389831
-5.0,5.0,1.4750247,-3.6560686,-5.0,-1.1039695,3.7127604,5.0,-2.184766,5.0,0.9948675,-10.0,-5.0,-2.6641603,-4.817981,3.3533607
-5.0,5.0,1.0486223,3.1904745,-5.0,2.8546238,2.3879561,-2.3524957,-2.0019257,-3.3774421,5.0,-1.4358065,-3.4081483,-5.0,-5.0,5.0
-5.0,5.0,-0.89373046,10.0,-1.8273995,4.1974335,2.1227472,-0.3902576,-0.9663372,-5.0,4.7852693,-0.6323688,-1.9635546,-5.0,-5.0,0.41865635
-5.0,0.7967838,1.0731086,-8.324695,4.581215,-0.79644525,2.234185,1.606389,2.8412333,-5.0,-1.547737,0.69832313,-4.555415,-5.0,-5.0,-5.0
5.0,-5.0,0.085702196,0.69195426,5.0,-5.0,-5.0,-5.0,5.0,2.438494,-2.2054338,-0.06147691,-2.001497,-2.4352171,2.6847024,-0.056812547
5.0,-5.0,0.32157004,0.38608426,5.0,-5.0,-5.0,-5.0,5.0,5.0,-1.5148052,4.911886,-3.0673268,5.0,5.0,-0.30350196
0.30253112,-3.6716986,1.0292631,1.0418755,5.0,-5.0,-5.0,-5.0,5.0,5.0,-5.0,2.649931,-1.4168307,5.0,5.0,-1.0294327
-5.0,0.12221682,1.2855823,-0.43137413,5.0,-5.0,0.3211639,-4.0379763,1.8571749,-0.32477844,5.0,-3.0078988,-4.3277473,4.4386015,-1.7644864,-0.33959693
-5.0,5.0,0.27276763,-6.911028,-3.439587,5.0,5.0,-0.13434336,-5.0,-5.0,-0.4103732,3.876293,5.0,-5.0,-5.0,-5.0
-5.0,2.076904,0.6544057,-8.498151,-1.6499455,5.0,5.0,0.02290254,-5.0,-5.0,-2.2069707,0.32846755,-0.1284827,-5.0,-5.0,-5.0
-5.0,0.7952497,0.18457851,-7.180103,1.2681371,4.9229274,5.0,-5.0,0.13361222,-0.86094904,-1.4808929,1.2263961,0.64921284,-5.0,-5.0,1.3011444
5.0,-5.0,-2.2801504,-10.0,5.0,-4.1018076,-2.0488257,-3.7440603,1.9661758,5.0,1.9737445,2.203914,-5.0,-5.0,-1.8269906,5.0
5.0,-5.0,-2.020422,4.3171415,5.0,-5.0,-5.0,5.0,5.0,5.0,-0.65276456,10.0,-5.0,-0.16206193,3.707465,2.7350056
5.0,-0.9847365,0.5588453,0.16027075,5.0,-5.0,-3.9394073,5.0,3.2353525,5.0,-0.7345767,-10.0,-5.0,4.106898,5.0,-0.5022625
-5.0,3.3228202,5.0,-1.2803108,5.0,5.0,5.0,5.0,-5.0,-1.358432,3.1292033,-9.891439,1.8640414,4.541059,-5.0,1.1016281
-5.0,5.0,2.2574773,8.186715,2.7404487,5.0,5.0,-0.26071832,-5.0,-5.0,-1.6417121,-1.8120891,2.6536644,-5.0,-5.0,5.0
-5.0,5.0,-2.5448904,-3.81659,0.66733,5.0,5.0,-0.14636686,-4.2137666,-0.6062845,-1.9508381,0.45216495,3.7764003,-5.0,-5.0,1.9185896
5.0,-5.0,-2.2269554,0.51609004,2.8545504,-5.0,-5.0,5.0,5.0,5.0,3.0564497,3.9313657,-5.0,-3.5185556,1.4299273,0.3415425
5.0,-1.1824203,-1.6169156,0.6244497,5.0,-5.0,-5.0,-4.339624,3.9182613,5.0,0.8038932,4.7602267,-5.0,2.8308713,5.0,-0.17206678
1.0207853,2.2975914,-0.025084257,2.2352984,5.0,-5.0,-3.3406975,5.0,3.4394279,5.0,1.1406006,-0.931447,-5.0,5.0,5.0,-0.43154162
-5.0,5.0,3.3221176,-1.1363952,2.189159,5.0,5.0,0.9796223,-5.0,-5.0,1.6869968,1.180655,2.6249795,1.9496834,-5.0,0.06332387
-5.0,5.0,1.0442531,0.59248817,-0.88939977,5.0,5.0,-2.160221,-5.0,-5.0,-5.0,-0.30763066,5.0,-5.0,-5.0,-4.485096
-0.10598302,0.49335098,0.12302327,10.0,2.164897,3.814224,4.5601144,-5.0,-2.856689,2.3280463,-2.2633061,-0.22040173,2.1230874,-5.0,-5.0,5.0
5.0,-5.0,-1.5260327,0.12870175,5.0,-1.0359467,-5.0,-0.561316,5.0,5.0,3.8643045,10.0,-5.0,-1.515228,1.3793936,0.19228841
5.0,-1.1414303,-1.077797,0.53047144,5.0,-5.0,-5.0,3.2336597,5.0,5.0,-0.89567184,5.401394,-5.0,3.6050549,5.0,0.025824383
-5.0,-1.0101442,5.0,8.757604,5.0,0.27944905,-2.604096,5.0,2.7724626,5.0,3.1985984,-10.0,-5.0,5.0,-5.0,3.174629
-5.0,4.676087,1.5494974,-9.410475,-1.4164205,5.0,5.0,-1.1900246,-5.0,-5.0,-2.720551,4.362217,4.839821,-1.6223958,-5.0,-5.0
-5.0,5.0,-1.5016348,-0.7463552,1.0571526,5.0,5.0,-0.114914045,-5.0,-4.43186,-1.922634,0.35987753,1.9709318,-5.0,-5.0,-1.5472317
1.4819618,-1.2978566,1.5952647,10.0,1.8018047,1.9201703,-0.56658685,-2.1595352,-1.9606657,4.821016,1.2922657,1.4636849,0.2862891,-5.0,-5.0,-5.0
5.0,0.56975055,2.5349655,2.254154,1.4175436,0.24320534,-0.79609346,1.8494782,-5.0,5.0,-2.1646729,-0.31829596,-1.7344785,4.8154793,5.0,-0.6907145
5.0,0.11174226,3.1958482,0.46052498,1.4785882,0.9693122,-2.3211162,3.5462775,-0.832232,5.0,3.151126,0.005187273,-2.6290612,5.0,5.0,-5.0
5.0,-2.0200443,3.9402068,0.18463424,3.5681498,-0.68279546,-1.9062259,5.0,-0.6346704,5.0,3.3187978,10.0,-2.2162566,5.0,3.204612,0.10664673
5.0,-4.473968,2.8077233,-1.0634189,3.9460454,-3.730536,-2.0139642,5.0,-3.0135305,5.0,-1.0161549,-7.395205,-2.9554498,5.0,4.3750377,-0.5724199
2.2313719,-2.7911472,2.524648,0.45419484,4.2700634,-0.8489538,-3.760139,1.6473243,1.0941753,5.0,2.688118,-10.0,-0.36885735,5.0,3.4620647,3.571312
-0.44937527,-1.4725184,1.2327771,0.122836426,5.0,-0.655077,-3.6907854,-3.4959106,2.858068,5.0,-2.1158636,-0.0899778,0.7077642,5.0,1.4437295,-0.48710272
0.41398668,-1.877747,1.67658,-3.4961312,1.6802464,-4.2019086,-3.4356847,0.7023906,-2.0162234,5.0,-2.2309537,0.7573986,-1.4474186,5.0,5.0,4.263973
0.2715509,-3.8349688,3.6400433,0.88068664,3.4628406,-2.4853754,-4.990922,5.0,-0.930677,5.0,-3.3090084,10.0,0.4367588,5.0,4.6833935,-1.7412405
0.84391165,-2.650724,3.1519678,-0.26191455,3.008896,-3.435588,-5.0,5.0,1.1508615,5.0,-0.9433139,-7.2026863,0.24517334,5.0,5.0,-5.0
-0.53736454,-2.2210867,3.3489814,-0.0324055,1.2832954,-2.1335285,-1.5608525,5.0,0.7088107,5.0,0.030206054,2.5845213,0.30574834,5.0,4.34086,5.0
0.17632258,-1.8112979,2.907877,0.48653194,0.3697254,-4.7141194,-3.378989,3.3704724,-0.37946504,5.0,0.78855264,0.124251366,0.7719943,5.0,2.7868447,5.0
1.1956508,-4.5292892,4.4736676,0.0019055626,2.302095,-5.0,-5.0,5.0,0.571414,5.0,-2.851409,-3.980482,0.5758265,5.0,3.934813,-5.0
-0.4839859,-1.9024041,2.7395868,-0.68573666,-0.23068845,-5.0,-1.6516845,5.0,-0.5029261,5.0,0.58150274,-7.6635017,0.56544757,5.0,3.3578796,-5.0
1.2390354,-0.16037455,2.4070826,6.758859,-0.97235876,-5.0,-3.6688325,5.0,0.5131368,5.0,0.8655715,5.0696535,0.4254256,5.0,2.6565022,-5.0
2.4528556,-0.11386302,2.5440528,4.9562807,2.3330245,-5.0,-4.798994,0.9831449,-0.35170516,5.0,-0.3463366,-0.21861947,1.2999864,5.0,5.0,4.8474455
1.8715858,-2.2372909,3.0543146,0.01021837,3.0190825,-5.0,-5.0,5.0,-0.23171306,5.0,-3.649871,-5.963604,1.513907,5.0,5.0,5.0
-3.2245634,-3.4682112,4.409405,-0.7156771,-1.5993438,-5.0,-5.0,-5.0,-0.63835347,5.0,2.214415,10.0,-0.8844771,5.0,-2.061657,-5.0
-3.676939,2.496563,-0.5287607,0.45621425,-1.2668121,-5.0,-4.084626,5.0,-1.2030485,4.0031605,5.0,2.6647856,-1.9676411,-0.6438517,-4.7172503,-5.0
3.5823975,1.1057494,2.431641,3.6055198,3.3865886,-5.0,-5.0,-4.9771338,1.7133167,2.8821092,-3.6331346,-0.59470254,3.9116652,-5.0,0.7351092,-2.1678743
1.3976107,-3.0967722,1.8890587,-2.4719236,4.000397,-5.0,-5.0,-5.0,-1.6728861,5.0,-5.0,-2.0077589,-0.022971302,3.5773077,2.7838101,0.26703975
-5.0,0.2675876,2.7597194,0.15114024,-5.0,-5.0,-5.0,-5.0,0.8743433,5.0,-5.0,0.8705635,-5.0,4.6596274,-5.0,-5.0
-5.0,5.0,-5.0,-9.214999,-0.9469359,-5.0,-5.0,-2.734898,0.676358,-0.21852964,1.8108398,-0.17699209,0.006811112,-5.0,-4.6494274,-5.0
3.5861957,-0.6854069,-2.0969012,-3.8989513,5.0,-5.0,-5.0,-5.0,-0.68409574,-1.3087006,-5.0,-5.908678,2.4319606,-2.112173,1.5446358,0.18729891
0.29986438,-3.8615594,3.6629918,-0.14529723,2.0456407,-5.0,-5.0,5.0,0.68793476,-0.692623,-5.0,3.1220522,0.7400118,4.6726255,5.0,-0.086379476
-5.0,-1.2776784,3.513946,0.4909106,-3.079834,-5.0,-5.0,5.0,3.122119,3.4081407,-2.8442807,2.4012282,-2.9131093,5.0,-3.0701008,-0.15999892
-5.0,3.7504761,-5.0,0.2678831,-2.1819916,-1.6435239,1.8259441,-0.16753656,-2.4764147,1.5193145,5.0,-0.5061539,-1.157457,1.3075918,-5.0,3.0156212
-5.0,4.007685,-5.0,10.0,-0.6867931,-5.0,-1.2529848,5.0,2.5361452,-0.43888652,1.7685825,1.7319435,0.8572837,-5.0,-5.0,-5.0
-0.035370708,-0.62024176,-2.5296562,3.3234,3.281748,-5.0,-3.2405457,5.0,2.3922696,0.41468775,-4.982501,-0.9705228,3.3236964,-5.0,1.0591853,0.61742216
5.0,0.48500955,2.1540651,0.6968882,5.0,-1.6266679,-5.0,5.0,-0.9257088,2.4184065,-5.0,-8.181828,1.9400856,-2.4624345,1.8676364,1.7834007
-5.0,1.6804317,5.0,-0.024646375,-0.22650489,-5.0,-1.8940655,-5.0,1.2450209,5.0,-3.0190732,10.0,-3.850659,5.0,-0.9713285,0.23266837
-5.0,2.6921496,-5.0,0.053694844,-4.76334,-4.801139,0.7472733,0.106276445,-1.3174982,3.0992184,5.0,0.36296868,-0.117115915,-0.24267924,-5.0,-0.43558764
-5.0,2.936036,-5.0,10.0,-0.38078386,-3.5942812,2.827805,-1.742635,-0.72372735,-2.366268,5.0,-0.8340968,-1.6286261,-5.0,-5.0,5.0
2.4933083,-2.8524895,5.0,2.3963416,5.0,-1.1824235,-5.0,0.38998184,-0.6237319,0.5779664,-5.0,-4.6404,3.4217114,-5.0,4.0341907,4.885994
-0.19493616,0.015673906,-1.262256,-3.5455534,5.0,-1.5444062,-5.0,-3.9799616,0.49352175,2.992257,-5.0,-7.9856844,3.5229201,-5.0,3.1888785,0.4177059
1.4997154,1.0494572,4.2031426,0.6773917,5.0,-4.1203995,-3.3962424,-3.1112816,1.4891392,5.0,-5.0,10.0,-0.7526419,3.243635,5.0,-0.20258628
-2.2070773,1.7824184,0.85710317,-1.0026274,5.0,-2.88158,-0.89423585,-5.0,4.394012,5.0,-4.256758,-0.18532658,0.028266668,5.0,3.7420096,-2.5554214
-5.0,0.58637846,-4.6168942,0.44513664,-3.81389,-0.3723173,2.4765906,0.2300812,-0.42001295,5.0,3.3635397,0.3276353,-1.0699774,5.0,-3.9426012,-0.7574834
-5.0,-0.4893769,-5.0,10.0,-1.827611,-0.32505262,3.0602584,3.665543,-2.899795,5.0,5.0,-0.37806746,-1.3079907,1.9530832,-5.0,-0.071073055
-5.0,3.8821619,-5.0,-6.0749435,-0.76444876,-3.013127,0.32481325,2.3577464,0.9074286,-3.2303104,4.291139,-0.9983719,-1.2479963,-5.0,-1.6107922,-3.7531579
5.0,-0.5872963,4.607581,0.13508628,5.0,5.0,-5.0,5.0,5.0,-0.20979953,-5.0,1.082386,5.0,-5.0,2.4136763,0.90727735
2.5880475,0.5276253,5.0,0.8152246,5.0,0.27336586,-4.986517,-0.60439587,1.7325933,5.0,-5.0,6.6176105,0.7091936,-1.3866303,5.0,-0.4539603
1.155988,1.3597753,5.0,-0.6434277,5.0,-1.1142337,-0.8911815,-5.0,3.7912455,5.0,-2.3927054,8.4469,-1.193635,5.0,5.0,-0.45432022
-5.0,-1.1114742,-5.0,0.26438963,-5.0,1.6149023,5.0,-0.3848151,-2.7827466,5.0,5.0,-7.2576346,-2.616016,5.0,-4.956239,5.0
-5.0,0.2778908,-5.0,-4.840632,-1.3154144,-2.7849083,1.2391902,0.38768223,-4.208375,5.0,5.0,0.22319698,-2.2974257,1.3137842,-5.0,0.37365222
-5.0,4.0615826,-4.9499316,-7.768541,2.1644652,-5.0,-1.4192853,1.2329531,0.88106465,-3.261589,5.0,-1.4722369,-2.781549,-5.0,-4.025668,-5.0
5.0,-0.08597088,2.0475793,-0.47080705,5.0,2.0281909,-5.0,-5.0,5.0,-0.69902027,-5.0,-0.13434914,5.0,-5.0,0.042758346,-1.9103905
1.5512562,-0.65017414,5.0,0.3596315,5.0,1.0387633,-2.374164,-2.575604,1.6148387,1.8498285,-5.0,10.0,2.8780475,-3.935451,5.0,0.7387669
-5.0,0.038490534,3.0847652,-0.07979438,1.8530087,-0.7105541,3.5618012,5.0,3.863348,5.0,1.9780773,0.17834082,-2.2093062,5.0,0.6978822,0.23632032
-5.0,-1.1738576,-2.6215675,-0.643064,-4.9242673,-2.4248786,2.020574,0.2547225,-2.088232,5.0,5.0,-0.108491234,-2.0392814,2.224756,-5.0,5.0
-5.0,0.4043056,-5.0,8.342004,0.36423817,-2.5151649,1.239183,2.1542745,-0.60395885,1.058918,5.0,-1.5372008,-2.7288136,-5.0,-5.0,3.3866248
-2.6020622,3.2263987,-2.084562,-1.0444189,5.0,-2.22187,-5.0,4.2059984,4.9250603,-3.3470392,-1.6689191,-0.15622872,2.9681356,-5.0,-0.84634876,5.0
1.6656041,-1.2997924,1.1428287,0.40239412,5.0,-0.9301642,-3.773298,-2.9400563,3.7203784,1.8460574,-5.0,-3.281539,5.0,-5.0,1.4352179,0.6850864
0.11671002,-0.107306,4.438923,-0.17095806,5.0,-3.0611258,1.236177,-0.9914441,2.5174623,5.0,-5.0,-10.0,0.33460626,-2.1450481,5.0,0.29024705
-1.520229,0.7121407,5.0,0.3573407,5.0,-0.68584067,-0.19053268,5.0,4.953999,5.0,-3.8906648,-5.2994366,-0.39507663,5.0,5.0,-0.8627752
-5.0,-2.6099362,-5.0,6.9649687,-5.0,-2.4910903,3.9776664,-0.79357743,-4.605817,5.0,5.0,-0.29333878,-2.2844014,5.0,-5.0,5.0
-5.0,0.74078465,-5.0,4.7341394,-2.4951916,-3.3903782,-1.1338159,-5.0,-3.5101879,4.1353264,5.0,-0.7778053,-5.0,-0.97975945,-5.0,1.4222038
-5.0,0.69938564,-5.0,10.0,0.51356447,-2.181378,0.053754926,-0.7829876,0.096048236,-3.8611395,5.0,1.0324694,0.35084206,-5.0,-5.0,3.1472926
4.200817,1.181634,1.028769,-4.782521,5.0,1.8303938,-4.520495,1.2883261,5.0,-2.9370103,-5.0,6.677889,5.0,-5.0,2.7900782,-0.37728572
1.9658861,0.79614043,3.4266386,0.27269712,5.0,1.3644167,-5.0,-1.4458776,2.7999938,5.0,-5.0,1.339076,5.0,-5.0,1.6938266,-0.24222958
0.14078853,0.8894105,5.0,0.57151973,5.0,-0.9418841,-1.864881,-0.6315823,2.0811875,5.0,-5.0,-3.56501,1.1327276,3.8553507,5.0,0.043701217
-2.6356175,1.8951195,0.31185818,0.3067466,5.0,-0.41971618,-1.1719645,5.0,5.0,5.0,-2.4254696,-6.6036663,-2.1750197,5.0,2.501135,0.7769258
-5.0,-0.8517302,-5.0,1.8961705,-5.0,-1.0107623,1.3976074,-4.714419,-5.0,5.0,5.0,-2.8968723,-3.5214632,5.0,-5.0,5.0
-5.0,0.98119986,-5.0,-3.5106432,-2.4041538,-2.0000772,2.3874416,4.111908,-3.7921205,0.7965951,5.0,-0.31313267,-2.5427926,2.361196,-5.0,-0.96072537
-5.0,4.9917107,-5.0,-10.0,2.2580018,-5.0,-2.2276502,0.05133132,1.7111433,-4.8102546,3.0740325,0.18008704,-1.5136555,-5.0,0.67198586,5.0
3.777246,-1.6387093,1.6275148,0.446842,5.0,3.7835035,-5.0,-2.0940735,3.846434,-1.7179964,-5.0,-0.51081336,5.0,-5.0,0.6875689,0.2658413
-0.19760287,1.6410173,5.0,-2.6914358,5.0,-1.322248,-0.7727729,5.0,2.1917315,5.0,-5.0,1.9519398,-0.5729433,-1.0489302,5.0,-4.303307
-4.252595,0.5783937,2.1203017,1.593221,5.0,-1.7449044,-1.8155462,-5.0,4.9570518,5.0,-0.85571134,-10.0,-2.7843628,5.0,0.5685108,5.0
-5.0,-4.193166,-5.0,-1.3173717,-4.896863,-2.479084,3.8446908,0.23310035,-3.2626321,5.0,5.0,-0.105790496,-2.0319948,5.0,-5.0,5.0
-5.0,-2.3139815,-5.0,7.0688357,-0.9954278,-1.6670871,2.7880778,3.567418,-2.5724373,5.0,5.0,0.1792942,-2.1822054,1.9164095,-5.0,5.0
-5.0,3.4523413,-5.0,-2.1464036,1.1438076,-3.1858907,0.3696736,-0.19026649,-0.4267478,-3.7911267,5.0,-0.8272912,-1.3914198,-5.0,-2.4874308,-5.0
3.3645735,-1.0755603,2.1025302,2.4054072,5.0,-0.7305241,-5.0,-4.3086786,5.0,-2.5800507,-5.0,0.17633897,5.0,-5.0,1.2222085,1.9610108
1.5095477,0.4208989,4.7711077,0.6998897,5.0,1.4063436,-3.5809646,-5.0,0.40689015,5.0,-5.0,-9.648262,2.8752031,-1.9268663,4.7183056,0.63311136
-0.058463454,1.5266817,5.0,0.33405167,5.0,-0.82252973,-3.918752,5.0,4.266447,5.0,-2.3707602,4.461515,-0.8462509,5.0,4.2898965,-1.3211294
-5.0,-2.2542567,-5.0,0.30223763,-5.0,-0.014986038,3.4725542,0.4295465,-2.7923052,5.0,5.0,-10.0,-1.5818069,5.0,-5.0,2.8920114
-5.0,-0.3053397,-5.0,-7.0603724,-3.9658337,-1.6608169,1.1340191,0.09392627,-2.4364645,3.1348085,5.0,-0.4119191,-2.5385175,-5.0,-5.0,-5.0
-5.0,0.75549376,-5.0,8.033085,1.3003327,-1.681591,0.17681456,0.32188413,-0.1311922,-2.9949768,5.0,-0.7299697,-0.2560166,-5.0,-5.0,-5.0
5.0,-0.75836325,4.5183425,-1.679206,5.0,2.17042,-5.0,-2.647817,3.8564796,-1.7488636,-5.0,3.3425252,5.0,-5.0,1.2539067,-5.0
1.7667595,-0.86080146,5.0,-0.68966675,5.0,2.5990784,-5.0,4.632337,-0.28400284,5.0,-5.0,0.4176753,0.66497767,-3.405531,5.0,0.67135364
-3.509875,0.19141734,0.99416506,-0.3317154,5.0,-2.008298,-1.8301121,-0.24634326,4.774952,5.0,1.5107334,0.75154346,-1.5821202,5.0,0.7425747,-1.3235701
-5.0,-1.7758827,-5.0,-3.4211512,-0.6663797,-5.0,-0.4046384,-5.0,-4.2332325,5.0,5.0,-5.7573204,-1.477248,-1.7145517,-5.0,5.0
-5.0,-0.42573357,-5.0,10.0,-0.121105075,-0.90222454,3.5702944,3.735014,-2.7156992,-0.30274343,5.0,-0.9231334,-1.6867324,-5.0,-5.0,4.287221
-5.0,1.0613436,-5.0,-9.802978,1.6958667,-4.270712,-2.1411102,-0.8679204,1.0101217,-5.0,2.3710756,0.21137418,-1.2485558,-5.0,-1.5323538,-5.0
3.1040573,-1.0948515,0.88220423,3.7998083,5.0,-0.21590137,-5.0,-3.2112737,5.0,0.28090382,-5.0,-0.5336805,5.0,-5.0,0.2786764,0.047463134
3.54525,0.07125771,3.5466955,0.4106173,5.0,-0.02413392,-5.0,-5.0,1.630403,3.4423347,-5.0,10.0,2.2091367,-5.0,4.8524647,0.6673545
-1.6571071,2.6891494,5.0,0.25915247,5.0,0.9754076,-4.7506433,3.152577,5.0,5.0,-5.0,-2.8710327,-3.1896515,5.0,3.6809332,0.18128681
-5.0,-0.29961812,-5.0,0.99189276,-3.1835294,-0.937673,4.095767,3.2221763,-5.0,5.0,5.0,-4.125538,-3.1158004,5.0,-4.733579,-0.10702048
-5.0,0.7316617,-5.0,-2.7154274,-3.9803443,-2.759005,-0.1820778,0.18363616,-3.3414845,3.7045283,5.0,0.18670927,-4.0031686,-4.794548,-5.0,-0.120324016
-5.0,2.2666354,-4.2158804,7.0592136,0.42518756,-5.0,-3.342607,-0.085188985,0.42141593,-3.7957497,5.0,0.037447415,-0.7030498,-5.0,-5.0,5.0
4.2868123,-0.59899545,-1.077495,-6.4563265,5.0,0.12096381,-5.0,3.9999325,3.8272538,-3.387136,-5.0,5.562024,5.0,-5.0,4.387076,0.69755876
0.3166346,0.49630105,2.5870967,2.6881626,5.0,-0.93181574,-2.2848577,-2.4976726,1.2397023,1.6174606,-5.0,-1.7268927,5.0,-5.0,4.695556,0.25052786
1.9194729,1.5982373,2.726027,5.60808,5.0,0.22811973,-1.2252188,5.0,5.0,5.0,-5.0,10.0,0.11593975,1.3477036,5.0,0.00034171343
-0.16811967,1.8875811,4.8039665,7.052414,5.0,-2.4294777,-0.63561344,5.0,3.7148936,5.0,-5.0,6.0084662,-1.6275303,5.0,4.839117,-0.16424146
-5.0,-0.8744296,-5.0,-10.0,-5.0,-0.58514714,3.2349484,0.784629,0.33675933,5.0,5.0,-10.0,-1.631788,5.0,-5.0,-0.92577237
-5.0,2.6146646,-5.0,-6.201435,-2.3758383,-0.5584197,3.4714227,3.3464692,-1.3161935,4.5060225,5.0,-0.24212028,-1.4821237,-3.990518,-5.0,-3.5027905
-5.0,-0.31847823,-4.1518555,-3.7503586,2.0938709,-4.8032093,-5.0,-5.0,2.827936,-5.0,1.6928065,10.0,-4.9339714,-5.0,-3.6344495,-5.0
5.0,-3.9213638,3.6495528,-0.73498255,5.0,-0.9585034,-5.0,-5.0,5.0,-1.4260074,-5.0,-0.43933058,5.0,-5.0,1.1953673,-1.7270626
1.9991016,0.53602195,5.0,0.46024707,5.0,-3.401158,-3.6449213,-5.0,-0.6665304,5.0,-5.0,9.019615,-1.9323055,-0.77490044,5.0,0.42495367
-5.0,0.8013561,-1.362355,-2.6228461,5.0,-4.0275173,-1.5705001,-3.9581618,4.2613544,5.0,0.73875034,-4.6164436,-2.6045327,5.0,-0.74913347,-1.5096562
-5.0,0.96728075,-5.0,-1.9389703,-3.4996192,-0.51750827,2.53087,3.6598737,-0.98869145,5.0,5.0,-0.02728559,0.16300857,1.5130289,-5.0,-0.75435066
-5.0,3.1179104,-3.2851248,4.742405,-0.2631294,-3.354562,1.9433068,3.8005176,-1.2546835,-2.3719358,5.0,0.15219754,-4.3399086,-5.0,-5.0,5.0
-1.7875898,0.34026283,-0.6103009,0.9189692,3.7446551,-4.1397023,-4.017039,0.38658875,3.4938107,-3.8050785,-0.44284964,-1.7444497,1.7339982,-5.0,-2.6344266,-4.0407696
3.8127804,-0.8776718,2.2533932,0.016848896,5.0,0.98517025,-5.0,-1.2340828,-0.0811798,2.4359372,-5.0,-3.1171103,3.8630435,-5.0,1.7573347,0.30257225
1.1743417,1.6847762,3.0820858,5.5840216,5.0,-1.2607231,-4.496598,1.5633581,-0.103969336,5.0,-5.0,1.1646905,0.05496937,-5.0,5.0,0.41922644
-0.23676038,2.6559553,5.0,0.19262566,5.0,-0.40764195,-2.1994822,5.0,3.6903682,5.0,-2.8166347,-1.575166,-1.4618509,5.0,5.0,1.1573517
-5.0,2.1601868,-5.0,0.21293025,-0.09627396,-1.3502806,2.253308,2.0399709,0.83176947,5.0,4.9406786,-5.950513,-3.3821883,5.0,-2.6670244,-0.30764422
-5.0,-0.84888315,-5.0,-6.8098283,-2.5128608,-4.1458426,1.6176503,0.1692782,-4.3502584,5.0,5.0,0.60888934,-4.1145606,-4.607465,-5.0,3.2158897
-5.0,0.287584,-5.0,1.9051664,-1.131126,-1.7750252,1.4123288,0.6020627,-0.47681952,-0.95080936,5.0,0.0052172076,-5.0,-5.0,-3.2055027,5.0
0.57234097,-0.2147165,-0.5184058,-10.0,5.0,-0.6518785,-5.0,5.0,5.0,-2.0441835,-5.0,-0.3218367,4.1311297,-5.0,2.792469,-1.8255033
3.9894276,-1.796338,1.256916,0.36937544,5.0,2.402801,-5.0,-0.42279768,2.6358852,2.5322149,-5.0,-4.576028,5.0,-5.0,1.8045108,0.35067165
1.6567833,0.7108933,5.0,0.4229975,5.0,1.2392892,-3.2519379,-3.970244,1.8642449,5.0,-5.0,-5.8142653,-0.03387791,2.741581,5.0,-0.87691617
-4.678128,1.1903116,-1.895847,-0.49677885,1.8597814,-1.9810436,-0.28559065,-2.8622053,4.8460426,5.0,-0.24598563,10.0,-4.4937754,5.0,0.0021434128,0.1524445
-5.0,-5.0,-5.0,4.6768107,-1.8599072,-2.9375672,0.1779921,-5.0,-5.0,5.0,5.0,-8.140217,-5.0,1.796892,-5.0,1.9303818
-5.0,0.002994299,-5.0,-7.3765655,-1.3853803,-2.067721,0.69610196,0.48542327,-2.8710706,0.9583528,5.0,0.9569582,-5.0,-4.1692553,-1.9620957,-4.4444647
-4.4638653,-0.056505144,-2.7403212,10.0,3.6295595,-4.220236,-4.403414,0.61534894,3.205915,-4.6788335,0.5810082,-1.5361347,0.15554452,-5.0,2.8499806,3.8353884
3.6945386,-2.2075038,0.70143926,0.41179883,3.1958516,5.0,-5.0,5.0,4.3301077,-1.8768663,-5.0,0.33432883,5.0,-5.0,0.5716884,0.52658767
2.193427,1.0573194,5.0,2.8233054,5.0,1.5511924,-5.0,-5.0,5.0,5.0,-5.0,-10.0,5.0,-5.0,2.0220747,0.9105898
1.1142993,2.1712742,1.7295244,-4.458151,5.0,-3.5403237,-5.0,3.8963675,4.0805664,5.0,-2.5203202,-0.44050062,0.41290888,2.3120747,5.0,-0.27484226
-1.1837249,3.1692333,-0.47197974,-10.0,5.0,-5.0,-1.6369933,1.3737813,1.3994253,5.0,0.5008207,10.0,-5.0,5.0,4.8384867,1.3609858
-5.0,0.89031875,-4.6234117,0.042097762,-3.1623745,-1.6216501,2.2031202,-0.09631574,-5.0,5.0,5.0,-0.024512231,-3.2812023,5.0,-5.0,0.667132
-5.0,-0.32074857,-5.0,-2.8831487,-0.3675982,-2.4780965,0.76139754,-0.058061525,-5.0,5.0,5.0,0.38396457,-5.0,2.6199641,-4.252442,-1.8538175
-2.287602,3.5301895,2.2267516,9.869211,0.98737395,-1.3531911,-2.1420746,-5.0,5.0,-3.6993055,2.3482807,-1.0323539,-1.1996492,-5.0,0.34533596,5.0
5.0,-1.4058574,2.885001,0.0670745,5.0,-1.3987209,-2.9023287,-4.367699,1.6212171,5.0,-5.0,-2.6547675,2.1021745,-5.0,3.0175345,0.040254854
5.0,-5.0,4.9601345,-0.44035432,5.0,0.88840973,-5.0,5.0,0.2636894,5.0,-5.0,-4.5956573,2.7565153,-0.10681051,1.0679017,2.4821024
-0.3797589,-4.8132105,3.630984,0.0392242,5.0,-5.0,-5.0,-2.709922,1.0394715,5.0,-5.0,-10.0,-0.704051,5.0,5.0,0.13515697
-4.856719,2.4378443,-2.647716,-0.72004277,1.5409923,-5.0,-5.0,5.0,2.8042839,5.0,-2.657438,-8.568424,-2.6736937,5.0,1.3043097,0.52676755
-5.0,5.0,-5.0,-1.4742088,-5.0,-0.7824954,-0.5307156,-2.2159145,-2.3529775,4.991517,2.7893717,-0.2862168,-3.178375,-1.9876785,-5.0,5.0
-5.0,5.0,-5.0,8.999739,0.7194904,-3.7647176,-1.7783194,-4.0851855,-0.98112726,-5.0,3.9327698,-3.6140947,-5.0,-5.0,-3.1146622,-5.0
4.0581036,2.3274257,-0.6281265,-1.6606987,5.0,-5.0,-5.0,5.0,3.9347396,2.4528575,-5.0,0.61779225,4.7512727,-5.0,1.7415543,0.77679217
2.7439327,-4.472972,5.0,-0.07608277,5.0,-0.84800506,-5.0,3.4793525,3.4481075,5.0,-5.0,-8.8348055,3.9817014,0.23731887,2.2260556,-0.19077699
-2.24162,-1.2942361,3.0748878,0.65442985,5.0,-5.0,-5.0,5.0,4.5260057,5.0,-3.3009331,10.0,-0.3611312,5.0,5.0,-0.36799282
-5.0,5.0,-5.0,1.7094803,-3.7753828,1.8337364,3.1893053,-2.1915967,-2.2242746,5.0,4.029759,0.8380575,-2.2793798,-1.1442416,-5.0,0.09054115
-5.0,5.0,-5.0,2.6080122,-3.718083,1.1412283,2.5838125,0.45787454,-2.0683439,-2.8208413,5.0,-0.61786133,-4.3746705,-5.0,-5.0,5.0
-5.0,5.0,-5.0,5.041539,4.115368,-1.6205579,-0.45007443,0.58334243,0.16275215,-5.0,3.1296191,-1.0175745,-4.6232867,-5.0,0.60071385,5.0
3.1334262,-1.3300173,2.155583,4.8320723,5.0,-5.0,-5.0,5.0,5.0,2.4113579,-5.0,0.38305244,4.3707743,-5.0,0.7518661,0.38337162
1.5011796,-3.5972571,4.048654,-0.33478242,5.0,-4.6243434,-4.507976,-5.0,-0.32801735,5.0,-5.0,0.91579187,0.521361,3.7010975,5.0,-0.4650338
-0.38993573,-4.685678,4.636455,-0.40397522,5.0,-5.0,-5.0,0.26605952,1.8721938,5.0,-5.0,8.759274,-0.18898821,5.0,5.0,-0.24756072
-5.0,5.0,-5.0,-1.5578685,0.24946296,-5.0,-0.96940684,-3.7509089,0.6069703,5.0,0.9434004,-0.1023421,-3.6662838,5.0,0.10376549,-0.47733256
-5.0,5.0,-5.0,-4.11406,-1.7407901,0.1541625,1.7856456,0.22417662,-3.6003227,-1.3994517,5.0,-0.5897342,-2.8648362,-5.0,-5.0,0.6449591
-5.0,5.0,-5.0,5.7947564,5.0,-1.2970271,-0.022177935,0.27956393,-0.094209194,-5.0,2.7817433,0.42675048,-4.6289577,-5.0,-0.48543948,-3.2918766
2.3031452,-3.200166,1.0348436,0.83396935,5.0,-3.538437,-5.0,-4.728444,5.0,5.0,-5.0,10.0,5.0,-2.9765434,0.40981448,-1.9771097
0.87373596,-4.8679786,4.4009814,-0.54848427,5.0,-3.52579,-5.0,5.0,1.652394,5.0,-5.0,-0.45352793,2.666422,4.675425,5.0,-1.2490964
-0.3783033,-3.8480864,5.0,-0.5082752,5.0,-5.0,-5.0,-5.0,5.0,5.0,-5.0,-5.0492935,-0.67314184,5.0,5.0,0.9164254
-5.0,5.0,-5.0,-1.6187009,5.0,-5.0,-3.0723658,-3.224891,3.1055908,5.0,3.2303672,3.007301,-1.9223198,5.0,2.0223613,-0.83969706
-5.0,4.4761405,-5.0,0.46872437,-5.0,1.632086,3.0761423,0.051012564,-5.0,0.5729995,2.747431,0.68300545,-5.0,-2.257713,-5.0,-1.5210965
-5.0,5.0,-5.0,7.8263454,2.171084,0.42815828,1.9151279,2.8284621,-1.0387703,-5.0,5.0,-0.13892394,-4.1823936,-5.0,-3.9526088,-5.0
1.9356695,-1.2486595,2.4989288,5.6378336,5.0,-5.0,-5.0,0.13707495,5.0,3.5647333,-4.2466774,0.768261,5.0,-5.0,0.5490001,1.4279639
0.9912525,-2.9140253,5.0,-0.16820835,5.0,-2.1016464,-5.0,5.0,4.4626155,5.0,-5.0,-6.5450706,3.9982178,5.0,5.0,-0.41828465
-1.5314567,0.26925677,-1.0979667,0.094820246,5.0,-5.0,-5.0,-5.0,5.0,5.0,-1.4890547,1.4930676,-0.14042652,5.0,3.8864002,-0.6748324
-5.0,4.3891754,-5.0,10.0,-2.5066948,-0.43934906,1.1410437,-0.12709743,-2.148198,5.0,1.7436819,2.0120857,-3.8168757,0.59496355,-2.1455922,0.11484779
-5.0,5.0,-5.0,-10.0,0.17596072,0.9870365,1.907243,2.310839,-3.0852094,-3.6794868,5.0,-0.68139863,-2.807899,-5.0,-5.0,5.0
-1.8498714,5.0,-5.0,-2.362877,5.0,-4.4997087,-5.0,5.0,4.2087636,2.0326948,-3.2595186,0.34894314,2.8168898,-5.0,3.7884824,-1.0323262
2.5201354,-2.4402106,0.3505199,-0.22672467,5.0,-0.99590015,-5.0,5.0,5.0,5.0,-5.0,-6.3172874,5.0,-1.1687638,-0.9614984,-0.32257068
0.80635446,-4.9676323,5.0,-0.15406117,5.0,-5.0,-5.0,-5.0,2.315938,5.0,-2.5287561,10.0,0.05811155,5.0,5.0,-1.0338793
-5.0,3.2173953,-3.5116096,0.20255344,5.0,-5.0,-3.4457698,-5.0,2.257582,5.0,1.6736059,-2.9386382,-2.7423453,5.0,2.576463,0.5605611
-5.0,5.0,-5.0,4.4181576,-5.0,3.8849823,2.9158714,0.2674794,-4.9816847,-2.0426261,3.7946496,-0.4796572,-4.1487293,-4.1787643,-5.0,5.0
-5.0,5.0,-5.0,3.1205406,0.7906046,1.423665,1.9598782,1.7268283,-0.75486386,-5.0,5.0,0.0411945,-3.6406596,-5.0,-4.37727,5.0
3.7595468,2.6845124,-2.7494617,-2.5462348,5.0,-5.0,-5.0,-5.0,5.0,2.9162254,-5.0,0.060776796,5.0,-5.0,-0.26362717,-5.0
2.3480215,-3.2020087,5.0,0.16626532,5.0,-5.0,-5.0,-5.0,3.3582096,5.0,-5.0,10.0,5.0,-0.11970556,2.598477,0.19341135
0.36217892,-5.0,5.0,-1.1734945,5.0,-5.0,-5.0,0.28795195,3.9373536,5.0,-5.0,-10.0,0.93419313,5.0,5.0,-0.35456604
-5.0,3.871171,-5.0,0.25827098,5.0,-5.0,-1.9778736,-0.12867844,5.0,5.0,-0.8104708,-4.1736207,-5.0,5.0,2.3592048,0.26695725
-5.0,5.0,-5.0,-6.9606347,-5.0,2.9516594,3.490962,-0.22923535,-1.4124026,1.9787301,3.572995,0.2293296,-5.0,0.33193517,-5.0,5.0
-5.0,5.0,-5.0,1.705354,4.6844883,0.4256993,1.6528245,5.0,-0.6962848,-5.0,4.5828776,-0.3149371,-4.205573,-5.0,-3.3880792,-5.0
0.69121253,4.654444,-0.28154325,10.0,5.0,-5.0,-5.0,0.49613914,5.0,-0.93559784,0.43783772,2.4360948,1.531724,-5.0,0.9373226,0.027229741
1.4082525,-3.5264597,3.7565923,0.50443804,5.0,-0.099585414,-5.0,5.0,3.647145,5.0,-5.0,-7.972021,5.0,2.0641801,4.340949,-0.1649642
-0.76283395,-4.071081,5.0,-1.3534974,5.0,-5.0,-5.0,-5.0,5.0,5.0,-4.1437874,10.0,0.60638905,5.0,5.0,-0.00019061565
-5.0,4.7061753,-5.0,1.3272963,-0.943046,-3.0056589,4.3165812,-5.0,-0.42448014,5.0,2.213506,0.74837244,-5.0,5.0,-0.80974984,0.16362906
-5.0,4.19731,-5.0,8.08928,-2.5594594,3.4725924,3.6369908,0.1471056,-4.0924687,-0.48727053,5.0,0.84030247,-5.0,-5.0,-3.9107165,5.0
-5.0,3.6133487,-5.0,4.1254206,1.9818457,-2.0046983,0.17313778,0.68223804,-0.6579815,-5.0,2.6624484,-0.3938434,-5.0,-5.0,-2.4526992,3.1592553
4.668058,-1.3074927,-0.2692273,0.24189983,5.0,-5.0,-5.0,-5.0,5.0,3.681589,-5.0,0.79288137,5.0,-5.0,0.5632055,0.005196184
2.4272566,-3.917502,5.0,-0.40532136,5.0,-3.05831,-3.865606,-5.0,3.3813393,5.0,-5.0,-7.6857452,4.7810435,4.584175,5.0,-0.12921518
-2.7741199,-0.30753934,0.36789948,-0.36325496,5.0,-5.0,-5.0,5.0,5.0,5.0,-1.3464537,6.4354305,-0.75039923,5.0,5.0,-0.28238735
-5.0,5.0,-5.0,-2.3536508,-0.6862412,-3.2245002,1.8707694,-0.049096916,1.6442319,5.0,-1.6287675,-10.0,-5.0,4.6910067,-1.3224857,1.547229
-5.0,4.72108,-5.0,3.3499808,-2.772872,1.3153256,1.9502064,-0.13511011,-2.712576,-1.8264767,3.4479108,0.44825402,-5.0,-5.0,-5.0,-5.0
-5.0,5.0,-5.0,-4.6958714,1.7156303,-1.23492,0.0053815097,0.25255907,-1.5451243,-5.0,5.0,-1.3954588,-5.0,-5.0,-2.738223,-0.796451
5.0,-3.7739308,0.7940161,-7.502326,5.0,-4.2712827,-5.0,5.0,4.7434673,5.0,-5.0,6.8687773,5.0,-5.0,2.9314008,1.2947426
0.46086466,-4.1290646,5.0,0.0354485,5.0,-4.8530474,-5.0,-2.5230315,3.5457492,5.0,-5.0,-10.0,4.6463327,4.452842,5.0,-0.7621989
-3.4166398,-0.45619702,1.086647,0.36058116,5.0,-5.0,-5.0,-3.402491,5.0,5.0,-1.8583882,4.289612,-0.75894463,5.0,5.0,-1.2488803
-5.0,4.5564575,-5.0,3.3425565,-4.779603,3.622685,2.8418493,-0.553788,-5.0,5.0,2.3742185,-7.202855,-5.0,-1.486212,-4.8881564,5.0
-5.0,5.0,-5.0,-1.4793458,-1.1636585,3.1687422,2.3608725,0.81017894,-3.9273224,-4.459139,5.0,-1.3679607,-5.0,-5.0,-5.0,3.4360745
-5.0,5.0,-5.0,6.765668,5.0,-1.5414729,-1.2924495,0.81658053,0.020085573,-5.0,3.118728,0.29561594,-5.0,-5.0,0.14821869,1.0510538
4.742279,-2.2387562,-0.35525692,-1.3094972,5.0,-5.0,-5.0,-3.9078865,5.0,5.0,-5.0,0.018835843,4.581115,-4.9846134,2.5320244,0.6620887
0.7752607,-5.0,5.0,-0.61571836,5.0,-5.0,-5.0,0.13044447,4.352578,5.0,-5.0,-9.047564,3.990004,5.0,5.0,0.34746778
-2.8372939,0.14131752,0.59057736,-0.08668175,5.0,-5.0,-5.0,-5.0,5.0,5.0,-2.367207,0.2539869,-1.3063924,5.0,5.0,-0.2508015
-5.0,5.0,-5.0,-3.7956367,-4.336482,0.030665964,1.7226384,2.9110584,-3.5932622,3.3522606,3.5725923,2.5113728,-5.0,-2.097216,-5.0,-0.94279885
-5.0,5.0,-5.0,0.06970966,-2.2890563,2.9110312,3.7488728,-0.8666901,-1.6914251,-4.4622054,5.0,-0.62508607,-5.0,-5.0,-5.0,-0.2465272
0.44088307,4.847503,-4.4264116,4.6306677,5.0,-3.8077135,-5.0,5.0,5.0,0.036263168,-0.74275947,0.26653892,1.1357536,-5.0,-0.09111416,0.22614668
3.5168843,-4.4238567,3.9292274,-1.1220268,5.0,-2.4207258,-5.0,5.0,4.3549085,5.0,-5.0,10.0,4.7936635,-1.2862403,3.4501836,0.047804017
0.6056109,-5.0,5.0,-0.48172286,5.0,-3.0065506,-5.0,5.0,5.0,5.0,-4.0547466,10.0,0.6675333,5.0,5.0,-0.23092082
-5.0,1.2669625,-3.9560993,0.2624526,5.0,-5.0,-5.0,-5.0,5.0,5.0,-0.33828303,-7.8728075,-4.781104,5.0,2.9790323,-1.9925737
-5.0,5.0,-5.0,4.2373557,-5.0,2.51929,3.0924,-2.3903775,-5.0,3.0439255,5.0,-4.454834,-4.383795,-5.0,-4.8350725,2.4826481
-5.0,5.0,-5.0,0.9466388,-0.533514,0.18838131,2.153913,-5.0,-0.97813094,-5.0,5.0,-0.3834948,-5.0,-5.0,-5.0,3.5142102
-0.33638275,5.0,-5.0,5.1810737,5.0,-4.6788177,-5.0,-4.7316175,5.0,-0.6955968,-3.082542,0.9291946,2.7249746,-5.0,1.8787526,0.97073364
4.578844,-2.539268,2.1943605,0.13218233,5.0,-5.0,-5.0,-5.0,3.3364842,5.0,-5.0,-5.3322124,5.0,-1.241943,0.29169655,0.4233284
-1.189847,-3.3503292,5.0,-0.21154548,5.0,-4.9778523,-5.0,-5.0,5.0,5.0,-2.8023098,-8.7772255,1.5573678,5.0,5.0,-0.4560786
-5.0,2.9764416,-5.0,1.0609576,5.0,-5.0,0.065825164,2.8252053,5.0,5.0,-3.0459042,1.1479484,-3.8924685,5.0,2.1549191,0.13220114
-5.0,5.0,-5.0,-7.412727,-4.7724776,1.3761615,3.0180924,0.38942042,-4.0264964,3.8162136,1.0775915,0.3162709,-5.0,-2.9443889,-4.401505,-4.7517657
-5.0,5.0,-5.0,10.0,0.121842384,0.17683214,1.3986374,1.0500499,-0.5740206,-3.9337647,5.0,-0.27910298,-3.4229589,-5.0,-4.990668,4.5223646
-1.155501,5.0,-5.0,8.23983,5.0,-5.0,-5.0,-4.0526905,3.0828214,-2.1750448,1.5107101,4.077774,1.3671868,-5.0,3.6588554,-4.7383337
2.998401,-3.0458913,1.5486792,-0.6542811,5.0,-3.1041622,-5.0,5.0,2.20928,5.0,-5.0,10.0,5.0,0.9425342,3.5868475,0.5627351
-0.10086429,-4.2087116,5.0,-1.1041932,5.0,-5.0,-5.0,-0.15883386,2.7655087,5.0,-5.0,-9.75202,0.40867442,5.0,5.0,-0.95068014
-5.0,5.0,-5.0,1.1392893,2.4513192,-5.0,0.051557004,5.0,0.69727784,5.0,2.9624772,2.8842795,-4.941148,5.0,0.39025617,-0.41232648
-5.0,5.0,-5.0,-9.310692,-5.0,-0.0019232035,1.0167739,2.3181043,-2.6985478,0.3539914,4.410147,0.049150817,-3.3115017,-5.0,-5.0,-1.2832581
-5.0,5.0,-5.0,-7.453843,3.125482,-0.2346761,1.0595262,0.28641176,-0.798747,-5.0,5.0,0.18177903,-3.5378687,-5.0,-5.0,1.2284875
3.415523,-1.9922206,3.2273061,4.9433475,5.0,-5.0,-5.0,-5.0,5.0,5.0,-5.0,-10.0,5.0,-5.0,0.8543749,0.88548577
-0.36418533,-1.7009913,5.0,-0.95466465,5.0,-3.5434804,-4.0329003,5.0,3.9952803,5.0,-5.0,10.0,5.0,5.0,5.0,0.29878378
-1.8362428,0.0896959,1.2551482,-10.0,5.0,-5.0,-5.0,5.0,5.0,5.0,-2.3634167,-2.582654,1.5612704,5.0,5.0,-1.1654409
-5.0,5.0,-5.0,10.0,-3.9263973,2.2695956,4.2637625,-1.3016912,-5.0,4.389987,2.619875,-10.0,-5.0,-0.06799865,-3.9597325,3.0771208
-5.0,5.0,-5.0,8.828949,-2.8112087,4.40073,3.2294452,0.14254102,-2.3459234,-3.7050805,5.0,0.54470676,-5.0,-5.0,-4.2640533,-5.0
5.0,5.0,-2.6152995,-1.7032764,5.0,-5.0,-5.0,1.715056,5.0,-7.522106e-05,-5.0,1.697093,5.0,-5.0,-0.38306898,1.1841415
2.0840735,-2.391941,3.4689405,0.44072786,5.0,-3.1838632,-5.0,-5.0,5.0,5.0,-5.0,-6.534215,5.0,0.750109,2.015951,-0.39571348
0.34728813,-3.9554863,5.0,-0.12938622,5.0,-5.0,-4.752423,-5.0,2.8766568,5.0,-5.0,-5.8754854,0.20579469,5.0,5.0,-0.269267
-5.0,3.6041121,-4.6410723,0.4803974,5.0,-5.0,-2.4520607,5.0,4.713758,5.0,-1.1416172,1.0363026,-4.583236,5.0,1.8979955,0.6059902
-5.0,5.0,-5.0,-6.2849197,-3.6421566,0.85623765,3.148334,-0.67129076,-4.738785,0.59941316,1.0846125,0.17484464,-5.0,-5.0,-5.0,-5.0
-5.0,5.0,-5.0,-10.0,-2.0106347,1.9966924,4.763169,0.8869723,-3.2169008,-5.0,5.0,-0.4343304,-5.0,-5.0,-5.0,5.0
-5.0,4.3858275,-5.0,10.0,3.7562842,-1.8247575,-1.0600531,0.20836127,-0.1674937,-4.994678,2.4027472,-0.66902167,-5.0,-5.0,-0.29814917,-0.4554236
1.0434585,-1.7387911,1.2627413,10.0,5.0,-4.147558,-5.0,5.0,4.585678,3.8870702,-5.0,0.97389585,2.8470287,-5.0,-0.0029990673,0.5266758
1.0360312,-5.0,5.0,-0.8065042,5.0,-4.454062,-4.528039,0.13676322,1.9311064,5.0,-5.0,-8.551935,1.8451151,5.0,5.0,-1.3207814
-1.0824385,-1.7925893,4.854026,-0.30086,5.0,-5.0,-5.0,-5.0,5.0,5.0,-1.4653399,-0.39038467,-0.058507323,5.0,5.0,-0.51592326
-5.0,5.0,-5.0,2.1818252,-3.7809002,-1.0709448,3.3233624,0.95610446,-0.43932402,5.0,1.4470153,-10.0,-4.551191,1.8643383,-4.2478733,-0.6976389
-5.0,5.0,-5.0,2.4333959,-1.0831045,1.9596822,1.3314776,1.6782271,-1.4847926,-2.6615484,5.0,-0.18843396,-3.0212684,-5.0,-5.0,-4.8455987
-1.5559767,5.0,-5.0,6.989316,5.0,-5.0,-3.823421,1.1263224,1.8873854,-1.1220585,2.0221844,4.0708485,-0.48900154,-5.0,0.07711983,-0.2967086
1.2773945,-3.7844696,4.156123,0.067151025,5.0,-5.0,-5.0,-5.0,1.9873687,5.0,-5.0,-6.4402585,5.0,-1.1264555,4.0382533,-0.77274024
-1.6452807,-1.3875939,4.972477,0.4871006,5.0,-5.0,-5.0,-5.0,4.991325,5.0,-5.0,10.0,-0.55424356,5.0,5.0,-0.90574425
-5.0,5.0,-5.0,-5.6026206,3.4143884,-5.0,0.77109456,5.0,4.336749,5.0,2.5703657,2.7521503,-2.704971,5.0,0.28335598,0.45718062
-5.0,5.0,-5.0,0.5331652,-4.0793476,2.1735516,3.5791368,0.139694,-3.9522643,2.628334,1.981741,0.11826745,-5.0,-3.9597208,-5.0,-5.0
-5.0,5.0,-5.0,-0.87011814,4.9313674,-2.6081965,-1.2095817,0.7667485,0.3961528,-5.0,2.3410063,0.43280748,-2.509043,-5.0,-0.8031451,-5.0
5.0,-1.9991955,1.8786778,4.6488137,5.0,-5.0,-5.0,-5.0,5.0,3.6706543,-5.0,-0.89288414,4.1171894,-5.0,1.151718,-2.0589464
1.8745092,-4.2465453,4.4020987,-0.039859306,5.0,-3.6080797,-5.0,-5.0,3.1426785,5.0,-5.0,-6.4859715,4.1331854,2.7375343,2.8317213,-0.07453963
-2.900167,-0.41221523,2.4791188,-0.4665444,5.0,-5.0,-5.0,5.0,5.0,5.0,-4.136921,1.0234641,-2.210766,5.0,5.0,-0.18126544
-5.0,5.0,-5.0,-1.6762465,-1.5925145,-5.0,1.8169956,3.2788022,0.058285713,5.0,-1.0996623,-10.0,-5.0,5.0,-0.9496905,-0.19097222
-5.0,5.0,-5.0,-3.1476917,0.06989443,1.4593546,3.1294138,0.09066906,-4.465028,-3.547566,4.5230017,1.0950127,-3.546894,-5.0,-5.0,5.0
-5.0,5.0,-5.0,-6.2087097,5.0,-1.9896724,-1.0581894,0.23805499,1.0118259,-5.0,2.7168694,0.54045326,-4.128249,-5.0,-0.9264343,5.0
5.0,0.084320664,-0.21423614,-0.24784774,5.0,-5.0,-5.0,-5.0,2.4321303,5.0,-5.0,10.0,5.0,-2.9135056,3.0554392,0.34563756
1.2868968,-3.848021,5.0,0.19362935,5.0,-4.63542,-4.898498,-5.0,3.6976624,5.0,-5.0,-10.0,1.8895429,5.0,4.9751134,-0.2926493
-4.8062463,0.7535364,-0.8674362,0.18950412,5.0,-5.0,-1.707645,-0.33215532,4.6041584,5.0,-0.58686936,2.8095994,-2.3357859,5.0,2.0531945,-0.5839995
-5.0,5.0,-5.0,-4.951992,-5.0,2.811845,2.6177702,0.3084226,-5.0,0.42449498,4.718063,0.08422868,-5.0,-3.6213582,-5.0,-4.1319485
-5.0,5.0,-5.0,-5.646283,0.15793514,-1.0974498,0.40179566,-0.2566745,-2.788792,-3.764624,5.0,-0.37714088,-5.0,-5.0,-5.0,5.0
1.4415016,-0.99528015,-0.5060704,-3.218212,5.0,-5.0,-5.0,5.0,5.0,0.9243181,-5.0,0.4162352,4.9768424,-5.0,2.2229757,2.153725
2.6459765,-5.0,4.3339705,-0.75038415,5.0,-3.908548,-5.0,-5.0,5.0,5.0,-5.0,-7.0720615,5.0,0.39971644,1.6569426,2.852512
0.57156634,-5.0,5.0,-0.35509276,5.0,-5.0,-5.0,-5.0,3.8509088,5.0,-5.0,-5.873971,2.0217514,5.0,5.0,-0.60954255
-4.625182,-0.18024717,-0.055711746,0.16722448,5.0,-5.0,-5.0,-2.7080598,5.0,5.0,-2.6143155,-4.2896643,-2.1829119,5.0,5.0,-0.6932631
-5.0,5.0,-5.0,-9.799728,-1.8416684,-2.612193,2.7496376,3.6932387,-1.5093426,5.0,1.6784086,-0.40742373,-5.0,4.085811,-0.70210874,-0.41396946
-5.0,5.0,-5.0,-6.816872,-3.9571948,0.3426541,0.35079205,0.41327387,-5.0,1.1976358,3.6920063,-0.10713126,-5.0,-5.0,-5.0,0.101860106
-5.0,5.0,-5.0,4.84995,-0.26753807,0.35295892,0.575563,-0.11506853,-4.427258,-4.9992476,5.0,-0.32407066,-3.948608,-5.0,-4.8098326,1.9070218
4.7153006,-2.360253,1.7127787,1.8168623,5.0,-3.8647733,-5.0,5.0,5.0,3.5669096,-5.0,0.44583043,5.0,-5.0,-0.40057158,-1.0234697
-0.16858459,-3.2911508,4.041324,-2.2450018,5.0,-3.6379733,-5.0,-3.9631991,4.6618886,5.0,-5.0,10.0,5.0,0.2958911,2.5702438,0.16891146
-1.2935824,-4.136421,4.6739254,0.03384,5.0,-5.0,-5.0,5.0,5.0,5.0,-4.3827257,10.0,2.122656,5.0,5.0,-0.22243208
-3.8321157,2.2033296,-1.7567317,5.8075333,5.0,-5.0,-5.0,5.0,5.0,5.0,-2.6604874,7.57105,-3.7779398,5.0,5.0,-3.5085042
-5.0,5.0,-5.0,-9.978895,-0.13624695,-2.0500278,1.1798961,1.6519264,-0.5378035,5.0,3.7995543,4.79458,-5.0,4.5185976,-1.3990123,-0.34363756
-5.0,4.1911464,-5.0,10.0,-5.0,4.465294,5.0,0.14904957,-3.204146,-3.1441212,3.9882479,0.0818328,-5.0,-5.0,-3.0798829,5.0
-5.0,5.0,-5.0,10.0,-3.0327654,3.5363014,2.2181,0.37025803,-1.4542034,-3.6930048,5.0,-1.156623,-5.0,-4.686774,-5.0,5.0
-5.0,5.0,-5.0,7.0163994,0.5152024,-1.2598472,3.2826715,-4.574415,1.3322207,-5.0,5.0,-0.6376432,-2.956336,-5.0,-3.2145352,5.0
-5.0,5.0,-2.6914997,10.0,5.0,-5.0,-5.0,1.4174914,3.655797,-5.0,0.40074337,-0.60281056,-1.8408635,-5.0,0.54742944,0.73399085
0.7782115,-1.0138371,2.1949952,1.7975855,5.0,-2.3915474,-5.0,4.9264755,5.0,5.0,-5.0,10.0,5.0,-2.9483094,2.6029048,0.022933997
0.7325924,-4.9291925,4.084597,-0.78911835,5.0,-2.7116208,-4.1996202,1.0083704,5.0,5.0,-5.0,10.0,5.0,4.1903286,4.4339595,1.0766269
0.2841997,-3.3354192,4.39142,-0.61755645,5.0,-5.0,-3.585732,-0.29345298,5.0,5.0,-4.432519,10.0,-0.13914734,5.0,5.0,-0.16260621
-5.0,2.147857,-5.0,-5.2103386,5.0,-3.7863276,1.4321811,5.0,5.0,5.0,-1.6176453,0.90075743,-1.6904246,5.0,2.2582605,0.30092677
-5.0,5.0,-5.0,-4.9306126,-5.0,3.452393,3.2231002,0.6211234,-3.4458327,2.1820915,1.7392505,1.9980633,-5.0,-1.3928657,-5.0,-5.0
-5.0,5.0,-5.0,-7.1379037,4.3352346,-0.6299424,-0.6623301,-2.155764,-0.15154243,-5.0,4.471357,-0.34906358,-3.797865,-5.0,-2.2146025,5.0
4.3228445,-1.0188825,-2.6135793,-1.5080044,5.0,-5.0,-5.0,5.0,5.0,2.601567,-5.0,0.7756414,5.0,-5.0,0.717865,-1.5276273
1.6391578,-2.6487021,4.3628845,0.10512545,5.0,-0.003769517,-4.117514,5.0,2.9759576,5.0,-5.0,10.0,5.0,4.346071,5.0,-0.6794785
-1.094383,-3.5324397,5.0,-0.8206224,5.0,-5.0,-5.0,-0.12149811,5.0,5.0,-5.0,-2.5667164,-0.0049476027,5.0,5.0,-1.2343594
-5.0,2.1252224,-5.0,1.2510097,5.0,-5.0,-1.6800299,5.0,5.0,5.0,-1.3968216,10.0,-5.0,5.0,2.635721,0.73247355
-5.0,3.0564003,-5.0,10.0,-3.5741973,-0.056967437,2.6069195,-0.20144401,-2.299449,4.1690016,1.2440591,-0.39464134,-5.0,0.90576863,-5.0,5.0
-5.0,5.0,-5.0,-4.717277,-0.46588552,0.9925395,1.9179779,2.094761,-1.7604796,-2.9581208,5.0,0.10033249,-3.799613,-5.0,-5.0,-0.6495898
-4.778659,5.0,-5.0,2.5250287,5.0,-0.9971062,0.111389756,-0.25695518,1.7933232,-5.0,2.649727,0.3808107,-0.8599849,-5.0,1.077158,5.0
5.0,-0.01847756,0.42883158,-0.38036513,5.0,-4.051313,-5.0,5.0,5.0,4.3290334,-5.0,6.4172482,4.849059,-5.0,0.9529606,0.40631902
0.38816166,-4.4915547,5.0,0.11165942,5.0,-5.0,-4.101242,-5.0,5.0,5.0,-5.0,-8.192469,1.3228394,5.0,5.0,-1.2160983
-5.0,-0.28525436,-0.69696015,0.24368101,5.0,-5.0,-5.0,4.667695,5.0,5.0,-1.2992375,-6.8972425,-1.9209743,5.0,5.0,-1.1568805
-5.0,5.0,-5.0,-1.6634941,-5.0,-2.6352139,4.0301003,-5.0,-4.5221806,5.0,0.7528286,-10.0,-5.0,3.358685,-4.8498588,3.859695
-5.0,3.2021875,-5.0,10.0,-5.0,2.4130113,3.5246048,0.42548952,-4.5305505,-0.76559645,3.2493007,0.13553399,-4.618729,-5.0,-5.0,-1.9313116
-5.0,5.0,-5.0,-4.8147554,4.4561577,-1.1050369,0.48329446,-5.0,0.50732815,-5.0,5.0,-6.1313043,-4.002241,-5.0,-2.9663067,1.8938618
-1.5377619,5.0,-3.3118315,-5.3423767,5.0,-5.0,-5.0,-2.9879313,5.0,-1.1303407,-0.46967578,0.45663655,3.0689504,-5.0,1.7248864,1.279501
2.3343918,-2.0146594,0.9617212,0.08010789,5.0,-0.7291088,-4.507725,5.0,5.0,5.0,-5.0,10.0,5.0,-2.4478426,2.2590528,0.04869108
-0.43409967,-4.1566253,4.149301,0.05999665,5.0,-5.0,-5.0,-1.769413,3.5587974,5.0,-5.0,10.0,1.9668838,5.0,5.0,-0.6989432
-3.490177,1.8294811,0.8517131,2.3750901,5.0,-2.9659474,-3.4122882,5.0,5.0,5.0,-2.0131068,-5.053135,-1.6594806,5.0,5.0,-0.9563585
-5.0,5.0,-5.0,-3.0681877,2.6799393,-5.0,0.2089346,5.0,5.0,5.0,3.0104425,1.6109793,-3.5940137,5.0,1.0518924,0.64537126
-5.0,5.0,-5.0,10.0,-0.9997475,-1.3201334,1.1477783,-0.19844931,-0.20988476,5.0,-0.4530564,-2.3099093,-4.3177733,2.6587393,-1.6437687,-0.48107103
-5.0,5.0,-5.0,5.9905634,-5.0,2.711697,2.9029353,-0.4439282,-2.0573874,-0.26692748,4.0027413,-0.351124,-5.0,-5.0,-5.0,5.0
-5.0,5.0,-5.0,-1.0109494,5.0,-0.6277133,3.3147693,-2.5277746,-1.2059505,-5.0,4.5447984,-4.2841434,-3.1551604,-5.0,-0.7086685,-4.5446177
0.08399433,5.0,-3.8860803,3.7974844,5.0,-4.6581764,-3.2818315,0.45968252,5.0,-2.0225396,-0.83048654,0.57392806,3.536954,-5.0,1.971545,0.38585967
0.41450942,-1.1439201,1.4876703,10.0,5.0,-2.7478223,-2.4596753,-5.0,5.0,5.0,-5.0,0.7768729,5.0,-0.39835477,2.981973,0.11334819
0.73828715,-3.40491,3.6279483,0.3362406,5.0,-5.0,-5.0,-1.9113111,5.0,5.0,-5.0,-8.380854,4.619681,4.49664,5.0,0.77935034
-0.8696548,-0.39959013,2.577259,-0.13637196,5.0,-4.881114,-2.564767,5.0,5.0,5.0,-5.0,5.09471,0.7681172,5.0,5.0,-1.362701
-5.0,5.0,-5.0,10.0,5.0,-3.010103,0.83728206,-5.0,5.0,5.0,1.5626562,3.9063954,-2.6361046,5.0,0.7264049,-0.59001505
-5.0,5.0,-5.0,4.2069426,-2.5199094,3.844086,4.4647684,0.49995008,-4.9689975,-1.9942893,5.0,-0.72819954,-3.4906826,-5.0,-3.4934068,5.0
-5.0,5.0,-5.0,0.48135424,5.0,-4.089064,-1.4288813,-0.35564262,1.115089,-3.9688978,1.4439261,-0.10137804,-0.34023482,-5.0,3.4708233,-4.932761
3.025106,-2.775699,0.9228269,0.4601234,5.0,-3.0184407,-5.0,-5.0,5.0,5.0,-5.0,-3.2869792,5.0,0.34997585,1.0152965,2.451934
-2.635841,-1.8169818,3.0665545,-0.44456333,5.0,-5.0,-4.8363547,3.2592366,5.0,5.0,-5.0,-5.4658165,0.46604574,5.0,5.0,-0.8787799
-5.0,4.133791,-5.0,-0.30884784,5.0,-5.0,-1.8758302,5.0,5.0,5.0,-2.142041,4.5675855,-1.6780553,5.0,3.3908098,0.19614546
-5.0,5.0,-5.0,-4.887308,-3.9136708,2.6013503,1.8196144,0.33190578,-2.4285283,5.0,2.6889791,0.62704664,-5.0,-5.0,-5.0,-5.0
-5.0,5.0,-5.0,5.8351517,-0.08055651,0.7732024,3.441202,0.44920465,-0.839092,-5.0,5.0,-1.0826205,-3.1792612,-5.0,-4.0718465,-4.484908
5.0,0.5080707,-0.34259444,1.4106879,5.0,-5.0,-5.0,1.9454231,5.0,3.870837,-5.0,0.64494425,5.0,-5.0,2.508542,3.0008144
1.1405078,-4.398308,2.919147,-0.0044943797,5.0,-2.0672402,-5.0,5.0,4.334463,5.0,-5.0,-8.555027,5.0,2.735213,4.8375654,-0.23438734
-2.2872558,-1.0305575,4.0922003,-1.1885037,5.0,-5.0,-5.0,-0.1385498,5.0,5.0,-5.0,-3.7162113,-3.0855117,5.0,5.0,-3.8582566
-5.0,5.0,-5.0,1.0720046,0.6095406,-3.850016,-0.6446563,-0.1554699,2.7527516,5.0,2.5813088,2.367047,-1.2145063,5.0,-0.26023436,-0.4468721
-5.0,5.0,-5.0,-0.8439972,-3.7620583,1.2009864,1.8924937,0.21273953,-4.157257,-0.8456933,5.0,-0.124729194,-2.3577845,-5.0,-5.0,4.9187164
-5.0,5.0,-5.0,-6.090623,0.8027549,0.78274804,2.507966,4.2329984,0.11008179,-5.0,5.0,-0.4414633,-1.2819756,-5.0,-1.3180169,5.0
4.210929,0.04202044,-0.6685612,0.3174922,5.0,-5.0,-5.0,5.0,5.0,3.4091017,-5.0,0.7580516,5.0,-5.0,0.32508326,0.5717495
-0.5418305,-4.758193,5.0,-0.101418406,5.0,-4.4077806,-4.520601,3.934598,5.0,5.0,-5.0,-0.25075632,4.298758,4.598178,5.0,0.93574244
-1.2552907,-0.9524395,2.4515126,0.019512815,5.0,-5.0,-5.0,-5.0,5.0,5.0,-3.3894792,3.6402612,-0.7118951,5.0,5.0,-0.456703
-5.0,5.0,-5.0,-2.3666034,-1.8455313,-0.016337931,1.1904117,1.6092786,0.624122,5.0,0.5906992,0.28028128,-2.5566905,5.0,-1.7880917,-0.35118666
-5.0,5.0,-5.0,6.569519,-3.1269696,2.4345465,2.6832485,-0.09984445,-4.8475275,-0.090348125,5.0,0.04281569,-4.702075,-5.0,-5.0,-5.0
-3.2728965,5.0,-5.0,10.0,5.0,-1.9977505,-5.0,2.3740413,5.0,-5.0,2.6315057,-7.13575,-2.000374,-5.0,-1.5160931,0.630497
4.75405,1.4109279,-2.7960558,-3.9810781,5.0,-5.0,-5.0,-5.0,5.0,4.6575985,-5.0,1.1830777,5.0,-5.0,1.8066131,0.4991091
-1.9592721,-0.210702,2.3723562,-7.152905,5.0,-3.9165535,-2.72572,5.0,3.9872296,5.0,-5.0,0.26122236,4.079449,5.0,5.0,-1.7997683
-2.5698833,-0.58684546,2.9863667,0.5566332,5.0,-5.0,-4.14229,-5.0,5.0,5.0,-5.0,-1.6174011,-0.83564365,5.0,5.0,-0.28338596
-5.0,2.3776307,-5.0,5.5932255,3.71593,-5.0,-1.0650814,-4.42874,4.8919563,5.0,-2.03523,-7.179307,-2.315508,5.0,0.8814875,1.552201
-5.0,5.0,-5.0,6.654481,-3.4942753,2.5170054,2.1018329,1.2817086,-5.0,-1.8464124,5.0,0.03535782,-0.6770774,-5.0,-5.0,-1.4602318
-5.0,5.0,-5.0,-5.047677,5.0,-4.208671,-2.888678,1.4699261,0.32254744,-4.3599215,0.7254154,0.24946699,-0.7614299,-5.0,2.653698,-0.3725348
5.0,-2.0575602,0.67914915,0.62237597,5.0,-2.6609614,-5.0,4.0288496,5.0,4.983033,-5.0,-2.9598696,5.0,-5.0,0.14955509,-0.078495815
0.8921223,-3.8948784,5.0,-0.17928477,5.0,-5.0,-4.574888,-1.2511526,3.2850819,5.0,-5.0,-2.0896666,1.7494476,5.0,5.0,-0.20048732
-1.8112388,-0.6051957,2.6298792,-0.35084382,5.0,-5.0,-5.0,-4.3096523,5.0,5.0,-3.619874,-1.4545536,-0.20570576,5.0,5.0,-0.23181838
-5.0,5.0,-5.0,-0.8257185,-5.0,4.1699915,3.7520034,-0.66623163,-3.8788977,1.0081668,3.729078,3.5154488,-5.0,0.21388847,-5.0,-0.9495919
-5.0,5.0,-5.0,9.742867,-0.26537687,1.3618083,2.8146462,-0.3015365,-2.4900408,-5.0,5.0,-2.7222319,-2.8961244,-5.0,-2.6957667,5.0
-1.590335,5.0,-5.0,-5.619849,5.0,-4.0204663,-2.6601038,0.20221074,3.6117053,-2.8481917,1.1844838,2.322502,0.36300826,-5.0,-0.7195096,-5.0
5.0,-2.8108764,1.5919355,-0.24414635,5.0,-1.0261258,-5.0,4.8434205,5.0,5.0,-5.0,9.592937,5.0,-0.17445374,1.0022533,0.34290242
1.1115868,-4.957717,4.586991,-0.26940364,5.0,-5.0,-4.365168,-2.3286972,1.1581126,5.0,-5.0,-0.8792478,-0.33253908,5.0,5.0,-0.21838732
-2.5196095,-1.5458231,3.330352,0.6074261,5.0,-5.0,-3.8087237,-4.0235033,5.0,5.0,-2.5756211,-9.210073,-1.3139396,5.0,4.255016,-0.98755884
-5.0,5.0,-5.0,0.0037842393,-5.0,0.82615304,3.2443452,0.23757383,-5.0,-0.60699975,3.3331225,0.20889413,-2.491995,-5.0,-4.742956,5.0
-5.0,5.0,-5.0,10.0,0.42462873,0.8187823,2.1043625,-4.12506,-2.516093,-5.0,5.0,-1.4185518,-4.8181915,-5.0,-5.0,-3.673662
4.885235,-1.6646979,-0.023213148,-0.52211595,5.0,-5.0,-5.0,5.0,5.0,3.7662632,-5.0,0.98025036,4.247608,-5.0,0.76452255,0.22059503
0.34022367,-4.061713,3.5231829,0.22608359,5.0,-3.515685,-5.0,-5.0,3.3189394,5.0,-5.0,-7.4734025,4.8361993,4.1034474,5.0,-0.6034676
-0.83214533,-2.0861852,4.5177894,-0.052711476,5.0,-5.0,-5.0,-4.3832426,5.0,5.0,-5.0,10.0,-1.408391,5.0,5.0,-0.06158453
-5.0,3.07995,-5.0,1.1027067,2.5647664,-5.0,0.16020799,5.0,3.5491621,5.0,0.19289297,8.685993,-2.6448386,5.0,-0.44174063,-0.52280045
-5.0,5.0,-5.0,-0.69688463,-1.4441607,2.9837675,3.3395963,0.58083326,-4.690276,-1.8862971,5.0,0.17640194,-2.6940506,-5.0,-5.0,-5.0
0.11157709,5.0,-5.0,-10.0,5.0,-5.0,-5.0,5.0,2.4860594,0.20958698,-1.1205852,2.4703405,0.5602158,-5.0,0.0876559,0.42653117
2.6102185,-2.152914,2.438825,0.15922053,5.0,-1.5490453,-5.0,5.0,3.6358066,5.0,-5.0,8.402367,3.147667,0.64502114,3.7698843,-0.12902106
0.42192185,-3.4314337,4.793053,0.18935767,5.0,-5.0,-4.403254,-1.9706368,4.547571,5.0,-5.0,9.158493,0.13063264,5.0,5.0,-0.19244549
-5.0,4.4950747,-3.406651,0.09714517,2.5613089,-5.0,1.0343459,-2.6531334,4.1463027,5.0,0.15881404,-1.7053895,-2.0066185,5.0,0.54281974,1.3838835
-5.0,5.0,-5.0,-5.3000293,-5.0,2.443906,3.0277743,-0.77891725,-5.0,-0.2554481,3.3147686,0.18990503,-5.0,-5.0,-5.0,5.0
-4.1742764,5.0,-5.0,9.777425,5.0,-2.045754,-1.048318,-0.15438606,-0.5525868,-5.0,1.6252024,0.24995756,-1.6084654,-5.0,1.6527945,-1.3244451
4.1906495,-3.592237,-0.034371644,0.43570486,5.0,-2.7917113,-5.0,5.0,4.3770037,4.2586966,-5.0,1.2613214,2.8696554,-5.0,0.9900266,-0.30816513
0.59271,-3.365685,5.0,0.0030824717,5.0,-3.8553925,-5.0,5.0,4.9901137,5.0,-5.0,8.262846,0.70302427,5.0,5.0,-1.1247278
-0.9814329,-0.90101624,3.2020512,0.66330916,5.0,-5.0,-5.0,5.0,5.0,5.0,-1.6083145,-0.33507586,0.21641517,5.0,5.0,-0.056292653
-5.0,5.0,-5.0,-5.6166873,-5.0,1.4010344,0.4731102,-0.41686797,-0.7670915,3.1235795,5.0,1.5404284,-1.8814465,-1.3107154,-5.0,0.114154905
-5.0,5.0,-5.0,-9.504289,-2.1921203,1.6330937,1.7270837,-0.48020226,-3.1168914,-3.8324707,5.0,-0.10231428,-2.5038462,-5.0,-5.0,-5.0
-2.7194676,5.0,-5.0,10.0,5.0,-3.2396388,-1.9791663,0.23878163,0.8744457,-4.950892,1.7083323,0.03091465,-1.6350881,-5.0,0.8077563,1.900497
5.0,-0.7646277,0.9850477,-0.33086693,5.0,-0.6821548,-4.2705693,4.3233743,3.8518543,5.0,-5.0,0.46745366,3.3341162,-1.3780509,1.6874838,-0.32097033
-1.7098644,-4.5464473,4.7660003,-0.08484223,5.0,-4.5838056,-4.6702414,4.4859676,3.309381,5.0,-5.0,3.8944168,0.9426966,5.0,5.0,-0.77620864
-2.053843,0.4604652,1.4444882,-0.20718294,5.0,-4.9141726,-2.2326112,5.0,5.0,5.0,-2.9050424,4.3792796,-1.3790953,5.0,4.6077,-1.0354767
-5.0,5.0,-4.1443944,6.079608,-3.3908067,-0.026953667,1.7545601,0.39808038,-3.3247948,0.7277851,1.9262944,0.58086574,-4.872446,-5.0,-5.0,5.0
-5.0,5.0,-5.0,10.0,0.8761288,-0.36536372,3.5112007,-2.93272,-3.3738956,-5.0,5.0,-4.8582807,-5.0,-5.0,-2.647037,0.13077748
2.6040192,3.3486242,-1.6682256,0.2530113,5.0,-5.0,-5.0,-5.0,5.0,-0.13132596,-4.0383153,0.14715713,2.9921558,-5.0,2.4842358,2.5309045
2.210375,-2.4342985,0.7044853,2.418964,5.0,-5.0,-5.0,-5.0,5.0,5.0,-5.0,-9.924493,5.0,1.0058844,3.168168,-0.8034184
-1.7070969,0.29397526,1.8588954,5.7599845,5.0,-5.0,-5.0,-4.3853374,5.0,5.0,-5.0,-4.585684,0.4488982,5.0,5.0,-0.99418944
-5.0,5.0,-5.0,-6.2446957,1.4498314,-5.0,1.4506088,5.0,5.0,5.0,-2.24482,-4.124424,-3.7277498,5.0,-0.34656495,0.31192076
-5.0,5.0,-5.0,-5.02975,-2.4306276,2.8547602,3.242877,0.039127674,-3.5446372,-4.0248547,4.425277,0.09270197,-3.709574,-5.0,-5.0,-0.0033916235
-5.0,5.0,-5.0,-1.0252926,0.4741304,0.07370496,2.1786392,-0.1068629,0.1389975,-5.0,5.0,-1.0777233,-1.6422477,-5.0,-0.74977326,5.0
4.625227,-2.3683677,-1.4051571,-1.4020362,5.0,-3.8253753,-5.0,5.0,5.0,4.12908,-5.0,10.0,4.670072,-5.0,2.8900208,0.07242809
-0.16735333,-2.8169422,1.4462733,0.28967598,5.0,-5.0,-5.0,-5.0,0.38585782,5.0,-5.0,-1.527431,3.1190746,4.2976384,5.0,-0.376524
0.3430878,-2.6118853,4.175153,-0.8560477,5.0,-5.0,-5.0,5.0,4.492447,5.0,-5.0,10.0,0.54865557,5.0,5.0,0.46792674
-4.399373,1.5351295,-0.95584977,0.6590697,5.0,-5.0,-4.2716856,5.0,5.0,5.0,-4.8447313,-3.4441245,0.2488612,5.0,4.649575,-0.2914734
-5.0,5.0,-5.0,10.0,-5.0,0.92554355,2.531418,1.9005153,-1.0478913,4.712948,2.5906906,1.0579776,-0.4913742,-4.5137906,-5.0,1.2637258
-5.0,5.0,-5.0,5.597432,-2.7712574,0.7472342,2.4154034,1.0354261,-0.47262108,-3.8064666,5.0,0.06884096,0.44814935,-5.0,-5.0,5.0
5.0,-0.5113361,2.2287226,6.2592754,5.0,-5.0,-5.0,5.0,3.7456336,3.1706958,-4.93442,0.6807623,4.8176117,-5.0,1.0127554,0.34904408
3.48495,-3.1398711,4.8990626,-0.33364,5.0,-3.342227,-5.0,-5.0,1.9053129,5.0,-5.0,-5.1365657,2.5278897,1.6247038,4.3502693,-0.9951693
0.3383776,-3.3797357,4.381216,0.020459997,5.0,-5.0,-4.398067,-2.262847,2.5242896,5.0,-5.0,-5.1837845,0.0048886538,5.0,5.0,-0.34172213
-5.0,4.0135145,-5.0,5.821451,-0.9156786,-5.0,1.2062571,-2.0429027,0.48022813,5.0,-0.3338732,2.7916431,-4.873011,5.0,-0.27806658,1.9450601
-5.0,5.0,-5.0,10.0,-3.9801626,0.5770483,0.33513045,-2.949738,-5.0,5.0,2.4914434,0.34548765,-3.6818428,-5.0,-5.0,5.0
-5.0,5.0,-5.0,10.0,0.49155843,0.6537311,1.7054813,1.1153234,-1.0268296,-2.7248073,5.0,-0.08959646,-3.787352,-5.0,-5.0,1.9513156
0.05327031,3.7267587,-3.783269,10.0,5.0,-5.0,-5.0,4.082288,3.3201826,-0.9613018,-3.973285,-0.49007386,2.3994696,-5.0,1.3983433,2.3158414
1.4645895,-2.0716817,2.3009868,0.32742485,5.0,-4.543536,-5.0,5.0,0.4167229,5.0,-5.0,0.80247974,2.2821243,1.5289307,5.0,-1.0833108
-1.8801292,-3.5242896,5.0,0.08485002,5.0,-5.0,-5.0,5.0,4.865628,5.0,-5.0,-6.653628,0.21561575,5.0,5.0,-0.46976283
-5.0,5.0,-5.0,-10.0,-2.4503286,-3.1305993,1.3399824,-0.281141,0.05714217,5.0,5.0,-1.330832,-2.3025796,1.9506179,-4.488236,-0.38260794
-5.0,5.0,-5.0,-4.500147,-2.4027042,0.33496767,1.5320268,0.477651,-2.4886298,-2.0019696,5.0,-0.20499049,-0.77156353,-5.0,-5.0,-4.6193676
-1.365896,5.0,-5.0,7.6176233,5.0,-5.0,-5.0,-5.0,3.8216267,-0.30989903,-0.48343742,-0.06173137,2.767075,-5.0,2.1517298,-1.7362294
1.3804705,-1.2353138,0.14735383,10.0,5.0,-5.0,-5.0,-5.0,3.0996122,5.0,-5.0,10.0,5.0,-2.3699677,3.7297053,-1.5285586
-0.277485,-0.9254607,5.0,0.36202428,5.0,-5.0,-4.566514,-5.0,4.3134303,5.0,-5.0,10.0,0.29238835,5.0,5.0,-0.12816794
-4.0404205,0.5071056,-0.01978308,0.12475722,5.0,-5.0,-3.4421167,-5.0,5.0,5.0,-5.0,5.237402,-1.8160797,5.0,5.0,-0.4349003
-5.0,5.0,-2.1787608,10.0,-1.4455965,-0.6390015,1.7796462,5.0,-1.0461345,5.0,0.7579092,2.3310187,-3.3831222,-0.058559656,-4.358526,0.20806314
-5.0,5.0,-5.0,4.1627464,0.09042549,0.033224076,1.1391906,2.6268668,-3.2219949,-5.0,5.0,-0.9622783,-4.976764,-5.0,-5.0,-4.4033613
-0.41807672,4.0604753,-4.8983064,10.0,5.0,-4.89012,-5.0,2.8366494,4.3666644,1.9952376,-2.1854649,0.6793676,4.0979214,-5.0,-0.11073816,-0.42962465
0.7120299,-2.110598,2.1259463,8.984401,5.0,-2.9853847,-5.0,3.6612873,4.556281,5.0,-5.0,4.9115505,5.0,0.5023056,3.2465627,0.07353951
-3.1705217,0.3578719,5.0,-1.030376,5.0,-5.0,-3.095535,2.8843658,5.0,5.0,-5.0,-10.0,-1.4394333,5.0,5.0,-2.5998788
-5.0,5.0,-5.0,0.78375393,1.3991333,-5.0,0.27325022,5.0,5.0,5.0,0.36939698,10.0,-4.4161587,5.0,0.53269887,-0.1287566
-5.0,5.0,-5.0,2.0117478,-5.0,1.9407368,4.2287526,1.052055,-3.6470802,4.8932934,1.109543,0.11540613,-5.0,-4.0675373,-5.0,5.0
-5.0,5.0,-5.0,2.8434834,-0.30059052,1.377357,2.4747143,-1.8646381,0.37385392,-5.0,5.0,-0.15044697,-2.3716602,-5.0,-1.2928294,1.4748571
2.7651346,4.7937217,-4.674937,-1.3639355,5.0,-5.0,-3.0653148,0.28661948,5.0,2.6956565,-2.5266817,-0.4465613,3.304515,-5.0,0.7426709,0.017338093
1.1861767,-4.847003,3.8668664,0.09512727,5.0,0.2755394,-4.775674,5.0,5.0,5.0,-5.0,-6.7802534,5.0,1.8199451,3.6037602,0.38097835
-0.56930053,-3.6966956,5.0,-0.20681539,5.0,-3.4716523,-4.049838,5.0,5.0,5.0,-5.0,5.586262,0.5498055,5.0,5.0,-1.2768775
-5.0,3.473527,-2.8350706,-0.20565002,5.0,-5.0,-3.3715038,-5.0,5.0,5.0,2.2384315,3.289365,-1.7610025,5.0,1.9265379,-0.88418907
-5.0,5.0,-5.0,-0.5943861,-3.4882672,3.1057281,3.3804064,0.6498397,-5.0,-0.7415275,4.701764,0.44683117,-3.6918507,-5.0,-3.728372,5.0
-5.0,5.0,-5.0,-7.929947,3.0863833,-0.6485688,-0.81203604,-3.3479862,-0.4884743,-5.0,4.4941974,-0.22715253,-1.8373444,-5.0,-4.776718,-4.642782
3.180778,-1.9104235,-1.3866394,-0.012638524,5.0,-4.604935,-4.908791,5.0,5.0,5.0,-5.0,1.2152766,5.0,-5.0,2.9494963,0.4865991
0.66008466,-3.5837703,4.433091,0.8279833,5.0,-3.7313004,-5.0,5.0,2.640036,5.0,-5.0,8.673347,2.6080475,5.0,5.0,0.010206055
-1.2527952,-1.5204761,3.627525,0.58118707,5.0,-5.0,-4.9783144,0.7962413,5.0,5.0,-5.0,10.0,0.25981665,5.0,5.0,-0.13277613
-5.0,5.0,-5.0,-6.425957,1.0370587,-5.0,3.3044071,5.0,3.6593993,5.0,-0.79656804,0.6746302,-3.0545878,5.0,-0.1827972,-0.23024718
-5.0,5.0,-5.0,10.0,0.65543884,-0.6060464,1.3280417,0.003720887,-5.0,-3.4518332,5.0,-1.677532,-2.4886377,-5.0,-4.181944,5.0
0.20081222,5.0,-5.0,6.5283685,5.0,-5.0,-5.0,-5.0,4.8368435,-1.5981239,-0.42510462,2.515181,0.55230796,-5.0,0.972236,0.19488607
3.4693804,-1.2778678,1.0596808,3.6956806,5.0,-5.0,-5.0,-5.0,4.641794,5.0,-5.0,-5.2062883,4.6883526,-0.42205596,1.2230072,-0.09251181
-0.972525,-2.0967073,3.5363557,0.4955526,5.0,-5.0,-5.0,-5.0,4.094044,5.0,-5.0,10.0,0.416065,5.0,5.0,-0.31041297
-2.3397155,1.8798903,-0.405652,-1.7629521,5.0,-5.0,-5.0,-2.174524,5.0,5.0,-2.1040728,7.97901,0.35063255,5.0,4.210164,-1.0100147
-5.0,5.0,-5.0,-1.0772094,-3.5258937,-0.98140347,2.1889687,0.275799,-1.0602231,5.0,4.885154,5.953053,-3.7348938,1.4370458,-1.9595679,-0.04837875
-5.0,5.0,-5.0,10.0,-1.7517729,2.6211178,2.4949126,0.57245696,-2.7571762,-3.7950933,5.0,-0.46729353,-0.77891505,-5.0,-5.0,5.0
-1.3217335,5.0,-5.0,4.9965987,5.0,-3.1476097,-2.4244473,0.7746698,4.752416,-2.1671653,1.4648118,-0.51802367,-0.23132646,-5.0,-2.3829365,-5.0
3.784966,-0.67025435,0.19900274,-1.8020576,5.0,-1.6871259,-5.0,-0.22583723,5.0,5.0,-5.0,0.1725297,5.0,-5.0,2.260619,0.6503318
0.19883496,-2.7946432,3.7470324,-1.439409,5.0,-2.6906939,-3.6570895,5.0,4.9979806,5.0,-5.0,-0.5073366,4.4466896,5.0,5.0,-5.0
-1.4183664,-3.6279118,4.638734,-0.6631462,5.0,-5.0,-4.146735,-5.0,5.0,5.0,-5.0,-4.589119,0.027225882,5.0,5.0,-0.45481357
-5.0,2.6695101,-4.270115,0.9885792,5.0,-5.0,-1.129826,5.0,5.0,5.0,-1.9507654,-1.7213476,-4.467226,5.0,4.606225,-5.0
-5.0,5.0,-5.0,10.0,-0.0172389,-2.7144628,2.2622876,3.8858905,1.5375983,5.0,2.4883475,2.148757,-1.6866741,5.0,-0.36691737,-1.0920862
-5.0,5.0,-5.0,-5.9310703,-4.7510138,3.1812103,2.7316747,-0.8854364,-4.2122397,0.4518453,3.5479758,0.022839319,-3.4018757,-5.0,-5.0,-3.8342261
-5.0,5.0,-5.0,-2.2687201,4.484992,0.542275,1.2124913,3.4624727,-0.84548485,-5.0,4.474776,-0.32153964,-2.9320967,-5.0,-1.8140061,5.0
3.3112268,1.572638,-0.6014379,1.0768056,5.0,-5.0,-5.0,5.0,5.0,3.0946393,-5.0,0.48092356,5.0,-5.0,-0.5341579,-1.3171259
-0.1303128,-1.4486333,0.38803923,-0.11578128,5.0,-1.7852842,-5.0,5.0,3.4008045,5.0,-5.0,-4.331728,5.0,2.052024,5.0,0.044147346
0.83836454,-3.7955384,5.0,-0.687005,5.0,-5.0,-4.0158987,5.0,3.6583745,5.0,-5.0,-0.7392435,0.29861718,5.0,5.0,-1.0954709
-4.0672083,1.8853421,-1.188469,0.6190482,5.0,-5.0,-4.5494776,5.0,5.0,5.0,-1.9389946,1.3283653,-1.1856364,5.0,4.7197366,0.1929408
-5.0,5.0,-5.0,-2.8313086,-4.9281273,-0.52334225,4.7186813,-3.2090592,-4.598956,5.0,2.790682,0.67468786,-5.0,-2.049735,-4.2422104,-0.3321753
-5.0,5.0,-5.0,10.0,-2.8148263,1.855741,1.3164555,-0.54492325,-0.64563787,-0.98792255,5.0,-1.0031486,-0.57610494,-5.0,-5.0,4.0155225
-5.0,5.0,-5.0,-6.682845,4.2184067,-2.5958502,-0.22379738,-0.26720744,0.045511127,-5.0,1.3235897,-0.036973372,-2.5026104,-5.0,-0.7802648,5.0
4.723894,-0.31665385,-1.6084127,-3.1112294,5.0,-5.0,-5.0,-5.0,2.6684818,4.466375,-4.5269384,1.0492938,4.249139,-5.0,2.4529743,-0.02898831
0.58380866,-2.26367,-0.005206585,-0.018514369,5.0,-5.0,-5.0,-3.1789112,1.2366343,5.0,-5.0,-9.157462,3.461874,3.010627,4.986649,0.070807606
-0.03652239,-2.2301714,3.7898927,0.19370198,5.0,-5.0,-5.0,-3.4508348,0.59084654,5.0,-5.0,-4.3222814,0.0700587,5.0,5.0,-0.8433732
-3.0663013,0.62858486,1.8534868,-3.4781952,5.0,-5.0,-3.725719,2.0387197,5.0,5.0,-5.0,3.223157,-1.9575012,5.0,5.0,-1.7431535
-5.0,5.0,-5.0,-10.0,2.2525434,-5.0,-2.1170049,-5.0,0.71186817,5.0,-1.3553605,7.334717,-4.6281004,5.0,0.1522817,0.27086127
-5.0,5.0,-5.0,-7.6712027,-5.0,0.2557251,1.5649035,1.3089101,-3.47652,0.64048684,1.6706282,0.66965485,-5.0,-5.0,-5.0,-5.0
-5.0,5.0,-5.0,-10.0,-5.0,3.4165456,4.5947533,-0.3138733,-3.4704843,-1.9954839,5.0,0.8458969,-5.0,-5.0,-5.0,5.0
-5.0,5.0,-5.0,10.0,0.97512484,-1.7880132,-2.9202242,-3.523309,-0.69513834,-5.0,4.0131745,-1.0847726,-5.0,-5.0,-1.9106772,-1.5418302
1.0958203,2.526598,1.1435755,2.0987594,5.0,-5.0,-5.0,3.7348475,5.0,3.2080564,-2.9857674,0.42939043,4.9875345,-5.0,-0.18461108,-2.2597232
0.6933258,-2.7360432,4.477752,-0.9185126,5.0,-3.7195585,-5.0,-5.0,2.706964,5.0,-5.0,10.0,5.0,0.40140045,1.5233408,-0.45637283
-1.538586,-2.7064652,5.0,-0.8470147,5.0,-4.6099396,-5.0,3.7455292,5.0,5.0,-3.7116213,-3.1824412,0.61638284,5.0,5.0,-0.26033977
-4.869889,2.5544908,-2.7710228,0.26778346,5.0,-5.0,-4.9491434,-5.0,5.0,5.0,1.532515,1.0674711,0.09085262,5.0,4.2677903,-0.020366592
-5.0,5.0,-5.0,-0.8574252,-5.0,0.8802019,3.037881,0.26950267,-5.0,4.3855696,4.4634876,1.5843018,-5.0,-2.2200494,-5.0,0.049024597
-5.0,4.2643604,-5.0,10.0,-3.8381944,3.169219,2.8600962,0.49912447,-4.171399,-1.4648972,5.0,-0.9997197,-5.0,-5.0,-5.0,-2.126677
-5.0,5.0,-5.0,-5.6723995,1.745926,0.3948069,1.5191054,4.1392055,-0.7104289,-5.0,4.9291725,-0.49986908,-3.492703,-5.0,-3.6915607,-1.058934
2.6163187,-0.6378066,-0.35217834,-0.72804284,5.0,-5.0,-5.0,5.0,5.0,2.3279104,-5.0,0.6330747,1.8011363,-5.0,-0.038599133,0.30910146
