ancorasir/BennettWheelLegRL/experiment_data/2024-02-05_04-40-02/joint_position_env0.csv
Joint_1,Joint_2,Joint_3,Joint_4,Joint_5,Joint_6,Joint_7,Joint_8,Joint_9,Joint_10,Joint_11,Joint_12,Joint_13,Joint_14,Joint_15,Joint_16
0.117060654,-0.0,-0.0,0.0,-0.29101133,0.0,0.0,0.0,-0.26635113,-0.0,-0.0,0.0,0.18543826,0.0,0.0,0.0
0.14300352,0.005156331,-0.006295825,8.450996e-08,-0.26448867,0.0057283733,0.006464189,-0.00014069382,-0.23520747,0.0022836453,-0.0057123345,0.00062816206,0.20155448,0.009308313,0.013878364,-0.00068656815
0.057642676,-0.04519202,0.02118087,-0.12925307,-0.12836641,-0.013155462,-0.04266965,-0.2890454,-0.03687713,-0.07321702,0.06126331,-0.006046416,0.123563156,0.17101343,0.22345716,0.05553729
-0.09334146,-0.032668237,0.262297,0.11952815,-0.08182304,-0.050957736,0.061426997,-0.40271875,-0.08440541,-0.09168624,0.14013676,0.1551218,0.08794053,0.276057,0.30604795,-0.31848365
-0.08211065,0.01228444,0.25666752,0.008457384,-0.001663821,-0.11932978,0.33520687,-0.49999613,-0.092878975,-0.07908748,0.38104096,-0.037414216,-0.004885278,0.3163989,0.23485696,0.14705202
0.010775987,0.0078865355,0.25397435,0.31505254,0.107718535,-0.09560777,0.24215665,-0.19470961,-0.010746188,-0.14952219,0.30228874,-0.2646803,-0.05608422,0.1792528,0.16130139,0.077982605
0.16768278,-0.050622016,0.4000274,0.101104125,-0.018936357,-0.051398877,0.26423964,-0.09092933,0.08724223,-0.22479442,0.32483456,0.1463637,0.24090546,-0.08433176,0.4000132,-0.02971918
0.07527008,0.12687182,0.4000087,-0.003464128,-0.13843365,-0.0043958165,0.29433894,0.0058286414,0.2278231,-0.21320336,0.18822663,0.29586327,0.43290547,-0.088724576,0.40002397,-0.2770586
-0.14204247,0.2202462,0.29557186,0.06925385,-0.08905259,-0.02478416,0.25112057,0.1497434,0.27027336,-0.1889924,0.08786398,0.20152572,0.16504483,0.03140851,0.40068722,-0.19273894
-0.08955772,0.16009194,0.22839722,0.13486297,-0.18413477,-0.1163926,0.3501576,-0.122026555,0.010970595,0.083058655,0.28885552,-0.22851193,-0.03262287,0.12253465,0.35069472,-0.2235736
0.027768336,0.10479374,0.3149575,0.05269773,-0.1756915,-0.03197155,0.4000004,-0.28053564,-0.26379448,0.1182261,0.3999981,-0.20594142,-0.12182562,0.22237235,0.3189689,0.31228316
0.058661174,0.031953197,0.3094839,0.13782796,-0.009538867,-0.070281915,0.29034323,-0.26773039,-0.16454789,-0.035436817,0.3784497,-0.2917411,-0.17870685,0.15296365,0.25165367,0.1294905
0.16115522,0.041472506,0.40002823,0.14223686,-0.04290735,-0.046721607,0.30393687,-0.04025,0.01797953,-0.0851711,0.2195389,0.005327428,0.16272318,-0.09644477,0.40009746,0.041994676
0.009940653,0.12450351,0.40002227,-0.10331995,-0.13058427,0.0077768373,0.30935928,0.20332272,0.1411866,-0.108995035,0.095253356,0.25670546,0.37864348,-0.10207183,0.3999654,0.06126207
-0.17644933,0.15343428,0.254806,-0.044760942,-0.11331351,0.0010075007,0.24837881,0.24017724,0.173765,-0.09115796,0.024272557,0.30670658,0.12364263,0.010606622,0.3999915,-0.28157508
-0.12253144,0.1158794,0.2700038,0.14804369,-0.1508153,-0.071085624,0.4000045,-0.009696618,-0.011930435,0.055462234,0.17522024,0.0022586857,-0.08650137,0.16906671,0.26804468,-0.116742134
-0.026116977,0.055785958,0.30988726,0.23257235,-0.12003069,-0.0062875063,0.40123254,-0.18408489,-0.25171354,0.09715263,0.39931822,-0.22903544,-0.20781657,0.19741988,0.12900993,0.4464444
0.05044962,0.0050908774,0.29839164,0.40510428,0.005194591,-0.007343454,0.24017,-0.2802685,0.01399729,-0.054076027,0.21926214,-0.21765083,-0.07830993,0.004444536,0.19325593,0.23724605
0.19485529,-0.04508927,0.39999834,0.11750534,-0.14439455,0.041663103,0.3666737,-0.25113168,0.107650325,-0.101122804,0.23597646,0.062336702,0.29621193,-0.08472829,0.39914048,0.102705665
-0.0008999897,0.12688632,0.40001464,-0.15098117,-0.2227483,0.05079771,0.36135805,-0.26836532,0.23020266,-0.06884065,0.10508767,0.051794674,0.37137663,-0.026788466,0.3999963,-0.009420035
-0.20103958,0.18347877,0.22588567,-0.09709885,-0.17407574,0.042213608,0.30912006,-0.04811894,0.21511641,-0.09504867,0.06651721,0.062453117,0.08451748,0.11443,0.34804615,-0.28324848
-0.109927125,0.11266279,0.2956362,0.1608736,-0.26321116,-0.011142897,0.4000903,-0.13531777,-0.07518006,0.017827487,0.39961758,-0.020376636,-0.05707656,0.19966847,0.24890262,-0.033091053
-0.06862718,0.060711984,0.293808,0.2118618,-0.024800332,-0.028919041,0.36728278,-0.36187357,-0.21799323,-0.025669714,0.3935465,-0.27620018,-0.14328288,0.16215608,0.13424757,0.20090114
0.037538446,-0.006537791,0.30773768,0.42481726,0.07278645,-0.021511355,0.26345977,-0.25877342,0.02350725,-0.15687405,0.25740385,-0.26184404,-0.08404901,-0.010083169,0.15143386,0.24931568
0.20640032,-0.059974603,0.4000098,0.120665,-0.051918246,0.0022455147,0.3534078,-0.22342505,0.14643437,-0.18016763,0.20511818,-0.05772138,0.29866615,-0.13142626,0.4000667,0.15464848
0.03392969,0.113890454,0.40002024,-0.060017634,-0.118090235,0.06892881,0.34400988,0.11588486,0.23231764,-0.1779787,0.11625831,0.00079612917,0.39406323,-0.09357186,0.39912224,0.056210794
-0.17365058,0.16338189,0.28265253,-0.008906506,-0.11105513,0.06494005,0.2817177,0.240121,0.26379773,-0.16331753,0.051780775,0.0837478,0.16906592,0.0069153043,0.39929494,-0.16999921
-0.123792954,0.13777092,0.27328247,0.13654158,-0.23689604,-0.05299572,0.39088365,-0.16914968,0.021787183,0.078047395,0.31865123,-0.16259287,-0.033737376,0.15071757,0.31491935,-0.026505975
-0.025404017,0.057598606,0.35135803,0.16882281,-0.2286793,0.018556073,0.401498,-0.29296198,-0.21530512,0.15187973,0.39996952,-0.15230067,-0.15284638,0.18834677,0.22562519,0.44380775
-0.02473672,0.021183461,0.3220921,0.24582429,0.030975837,-0.011289239,0.25205404,-0.21699777,-0.049885444,-0.018494463,0.32406488,-0.32793078,-0.13587686,0.0622831,0.16912946,0.24916385
0.19899487,-0.018015236,0.3988532,0.11546308,-0.097265385,0.027601402,0.342927,-0.28471792,0.08203263,-0.104598895,0.27906382,0.046011858,0.2299707,-0.20848882,0.40003657,0.106813386
0.10400725,0.14256215,0.3912197,-0.149484,-0.18517178,0.09264512,0.37011865,-0.10413741,0.18861799,-0.101414666,0.21558858,0.22269428,0.38915417,-0.19001217,0.39989194,-0.12045244
-0.09331337,0.105883025,0.25364846,-0.0057396404,-0.1493402,0.12536654,0.3334364,0.34058353,0.24808942,-0.051176656,0.06567977,0.018070832,0.102020934,-0.032980815,0.39879838,-0.25482368
-0.0031431767,0.031157564,0.32085833,0.25505117,-0.22158341,-0.05631651,0.4000903,-0.23240149,0.033277676,0.13309893,0.26365796,-0.0031025682,-0.115434386,0.15708035,0.28097114,0.013214967
0.06808596,-0.00011160174,0.35590324,0.25488558,-0.21830101,-0.045516163,0.40133595,-0.17678265,-0.16765417,0.1366059,0.39974862,-0.2370015,-0.17795908,0.18748942,0.2760481,0.34881532
0.04795568,-0.013007896,0.29832014,0.22011757,-0.02321634,-0.08984685,0.30446696,-0.16297027,-0.04097638,-0.03973774,0.34783152,-0.24394934,-0.16925837,0.119204685,0.24649392,0.3547971
0.18143848,-0.10727677,0.40002275,0.08945442,-0.10716901,-0.05011349,0.36355385,0.086360954,0.084669605,-0.14939159,0.27695903,0.39385495,0.20224306,-0.16312447,0.39739025,0.018922523
0.02328285,0.06360639,0.39962342,-0.099621624,-0.17505665,0.0014675783,0.3869441,0.29475322,0.1816717,-0.15834218,0.16874573,0.47865123,0.37635773,-0.12949245,0.40003625,-0.04736452
-0.19093645,0.077518225,0.2566839,-0.022685796,-0.11063483,0.006874718,0.29372156,0.3542407,0.22875091,-0.095201194,0.010628088,0.30544296,0.062459446,0.058585763,0.36549655,-0.14958313
-0.09832506,0.025741937,0.30620626,0.05555855,-0.24965943,-0.08898844,0.40024596,-0.18032494,-0.0907172,0.07332678,0.40008107,-0.034960292,-0.12893762,0.17089881,0.25027677,0.27847612
-0.07875107,-0.019521069,0.33051726,0.18054645,-0.021544382,-0.104242325,0.26386657,-0.2291251,0.024135815,-0.07067967,0.35067055,-0.20939378,-0.16494277,0.078176,0.19533534,0.23400708
0.061524004,-0.08007357,0.3529554,0.007048246,-0.0507295,-0.062877275,0.29484856,0.04731207,0.10226572,-0.15909016,0.25306338,0.08050645,0.089123406,-0.14511316,0.33584535,0.062097978
0.09348323,-0.081792854,0.40000674,-0.05164235,-0.14769502,-0.044897173,0.35182068,0.1937313,0.17044526,-0.2138815,0.25173816,0.37951067,0.41181,-0.18380398,0.3992837,-0.11214636
-0.12147191,0.016755508,0.3891007,-0.07350772,-0.18582962,-0.0360519,0.3128778,0.24661955,0.26161012,-0.23229606,0.14740054,0.26712504,0.35545155,-0.11660877,0.38895726,-0.28412685
-0.18117931,0.011640108,0.2532718,0.20135036,-0.12615366,-0.13582605,0.38585356,-0.08637688,0.17941393,-0.09290275,0.1667665,-0.034977607,-0.05557413,0.1214491,0.28288585,-0.21737051
-0.11213243,-0.014272763,0.30374995,0.26454735,-0.21458852,-0.06589269,0.40014532,-0.27355498,-0.07885268,0.117282316,0.39953238,-0.092516065,-0.12251221,0.16540952,0.26705804,-0.04265435
-0.054197084,-0.022529924,0.21646617,0.29165232,-0.010136842,-0.04907553,0.29215494,-0.17512786,0.097188085,-0.0124906255,0.24453615,-0.31103587,-0.08044484,0.0114695225,0.23738848,0.026836947
0.120777234,-0.0917827,0.40002638,0.11649076,-0.092094325,-0.023531687,0.35120013,0.038286988,0.17763734,-0.12364032,0.25622314,0.15924525,0.29692626,-0.21506535,0.40009484,-0.072870426
0.027667843,0.033139728,0.40000373,-0.099251315,-0.1601784,0.026274497,0.37768418,0.24194226,0.24641974,-0.10032045,0.19193372,0.34574667,0.44469467,-0.18261468,0.39897946,-0.16739388
-0.14923719,0.093928665,0.2745145,-0.018002342,-0.10853973,0.025240997,0.31473923,0.14045621,0.2716133,-0.09022879,0.09689858,0.14766936,0.16138631,-0.03815715,0.3988292,-0.2425542
-0.10444859,0.038996294,0.30404693,0.0836942,-0.24475288,-0.085315995,0.3984556,-0.27991974,-0.058173243,0.16800304,0.40018567,-0.03797904,-0.065604165,0.09897084,0.22963881,-0.058491338
-0.057159558,-0.015645646,0.32025406,0.17335737,-0.07390225,-0.084500544,0.35931617,-0.3212413,-0.13223013,0.103368916,0.39922768,-0.2763282,-0.17146185,0.08344132,0.12458457,0.24340063
0.06517009,-0.018774925,0.34353742,0.36331078,0.004550881,-0.015140576,0.27055126,-0.07180793,0.12439879,-0.053926256,0.17676447,-0.13380124,0.029469587,-0.123162754,0.20978484,0.18648346
0.16292314,-0.027034616,0.40000314,0.0049874657,-0.112381734,0.0066334833,0.32837817,0.1316782,0.16205116,-0.0869975,0.27165747,0.03389463,0.39446005,-0.26900277,0.40010744,0.03576838
-0.014393397,0.07478454,0.4000215,-0.17494394,-0.15776004,0.026737696,0.3253706,0.25378382,0.22635692,-0.13588008,0.22197314,0.42314905,0.43120915,-0.18051617,0.39997053,-0.11425319
-0.110932566,0.04636164,0.29625517,0.044732936,-0.11550065,-0.02201151,0.30302575,0.22216535,0.20787826,-0.047080457,0.118704915,0.20847583,0.012330254,0.0555523,0.30639073,-0.28887948
-0.06621877,0.059625175,0.3070366,0.15561779,-0.2202392,-0.06411956,0.39999557,-0.2504856,-0.1834865,0.15003371,0.39993763,-0.11595804,-0.15730359,0.1527989,0.15353657,0.39131543
-0.040294778,-0.00010050874,0.29710028,0.2509498,0.0044036508,-0.045462716,0.28267583,-0.33004454,-0.15815966,0.049146548,0.3993403,-0.35372266,-0.23455527,0.026889464,0.0702887,0.20515016
0.14528422,-0.041111443,0.40000796,0.19481389,-0.04641727,-0.012029995,0.32500663,-0.26218924,0.042456973,-0.0976219,0.2561119,-0.0008063038,0.114334054,-0.22290574,0.35112906,0.24541593
0.20745224,0.008941943,0.40000713,0.043752015,-0.14948301,0.03927646,0.40090132,-0.15307592,0.10139228,-0.13997042,0.28033215,0.3415179,0.34980968,-0.1109757,0.39999464,-0.00556575
0.0001335903,0.16516566,0.3926224,-0.13864921,-0.21886148,0.08672095,0.37310427,0.15815686,0.20104946,-0.12270279,0.1633077,0.5076014,0.35676095,-0.050805576,0.39646974,-0.10743819
-0.20828938,0.19040056,0.21240094,0.01905536,-0.18375084,-0.025150383,0.3884058,-0.08710856,0.19057173,-0.027039537,0.1360769,0.28495306,0.06482183,0.14810637,0.34895468,-0.06043412
-0.04200483,0.109364,0.3504338,0.14184783,-0.2682155,-0.02093355,0.40063816,-0.2922234,-0.09317707,0.14767304,0.40012053,-0.062214937,-0.067575656,0.21168442,0.28110114,0.31944865
-0.023598865,0.012219345,0.344421,0.15154003,-0.06058236,-0.018253703,0.32385623,-0.19319881,-0.059826374,-0.019165456,0.36525396,-0.18582812,-0.13597491,0.09838526,0.19166586,0.1272287
0.18583444,-0.099797085,0.40003464,0.05413139,-0.07371765,-0.046338882,0.31461874,-0.027838837,0.050953943,-0.10990147,0.22762431,0.15434003,0.17770904,-0.17003547,0.40002173,0.1170852
0.13541093,-0.044079654,0.40000272,-0.035903547,-0.16744693,-0.00464525,0.35885963,0.1449616,0.12579201,-0.13602617,0.1713264,0.26951456,0.44634503,-0.18125647,0.39994657,-0.067109905
-0.16898689,0.14258666,0.37357906,-0.23102236,-0.19512297,0.004616616,0.32231462,0.17861207,0.22586861,-0.10289873,0.02659964,0.030977353,0.27167553,-0.08257736,0.40000576,-0.21021123
-0.18611486,0.13373484,0.27991113,-0.0011017242,-0.18018669,-0.08291279,0.36974695,-0.05981029,0.11113508,0.028321462,0.14417523,0.085505515,-0.041568555,0.110861704,0.28367844,-0.14967284
-0.080091275,0.03463992,0.36279225,0.22146383,-0.28304496,-0.020661613,0.4000944,-0.2960051,-0.24403563,0.23033875,0.40007895,-0.18933481,-0.12458786,0.15034328,0.22572201,0.28462803
-0.08396463,-0.04570241,0.33634207,0.34364283,-0.051797844,0.009258367,0.2661673,-0.23598213,-0.11275215,0.09086334,0.3755383,-0.41857922,-0.16998902,0.034273468,0.1213104,0.23911859
0.11545731,-0.0812947,0.40003783,0.1602344,-0.10678512,0.021450993,0.33360058,-0.06945612,0.07342185,-0.065241955,0.18176216,0.12378762,0.18959361,-0.22921678,0.37796578,0.10118748
0.08156055,-0.002540113,0.3995636,-0.014648709,-0.20129722,0.03625745,0.3554428,0.03199851,0.15044615,-0.08532944,0.15202245,0.35289037,0.44769475,-0.17627093,0.39862895,-0.0047024954
-0.1583757,0.08476019,0.3047261,-0.09424526,-0.21405263,0.059471272,0.30594087,0.23342444,0.2121291,-0.06489531,0.062117748,0.1883351,0.26056814,-0.06899106,0.40008616,-0.2230361
-0.09177479,0.09249327,0.28360105,0.15849163,-0.18604457,-0.06533665,0.39999655,-0.11430486,-0.0051325704,0.07721639,0.2341731,0.0737981,-0.020002587,0.08819856,0.24040747,-0.10292091
0.0009361927,0.04391931,0.3036892,0.24281196,-0.029830394,-0.07073489,0.3608415,-0.29370064,-0.19790068,0.016969841,0.39922,-0.2789072,-0.15911971,0.040215362,0.09523815,0.20732284
0.106003664,0.02303259,0.34625417,0.06518265,-0.012488429,-0.013680862,0.24970117,-0.035503376,0.043222375,-0.08141252,0.21447368,-0.1332348,-0.019825622,-0.16809306,0.26457316,0.12936477
0.15177,0.03394262,0.40000793,-0.070928775,-0.16044065,0.0426294,0.31648692,0.16499077,0.12880394,-0.10595192,0.22166657,-0.0001564937,0.3151904,-0.18445835,0.400077,0.0904574
-0.08303507,0.10853613,0.28396237,-0.027336441,-0.14537741,0.040987805,0.2559451,0.25403932,0.17598106,-0.10663221,0.103907034,0.0022497126,0.14436677,-0.06450437,0.39590916,-0.2897665
-0.01280057,0.10445667,0.27512327,0.14252101,-0.20206723,-0.10464685,0.39999098,-0.17615166,-0.060266867,0.07333518,0.34792483,-0.109147996,-0.08308769,0.13208796,0.29463837,0.18895315
0.078767665,0.043967094,0.32517204,0.25414798,-0.1551022,-0.09640473,0.3698291,-0.40597427,-0.29425958,0.10886345,0.39607307,-0.21748671,-0.19994476,0.11641961,0.17625584,0.31232893
0.1196869,0.022383755,0.34935373,0.19893539,-0.036419075,-0.04522693,0.22711922,-0.042302173,-0.011526406,-0.09490379,0.22717118,-0.11337238,-0.09325472,-0.12342448,0.22698253,0.10006625
0.20555007,0.032009576,0.40000328,0.14679137,-0.09749523,-0.058779318,0.25571784,-0.012959244,0.051741622,-0.16414195,0.21011838,0.15829812,0.2069978,-0.23194934,0.40012237,0.11521313
0.02487903,0.18949682,0.39210552,-0.16152671,-0.2078652,-0.0076264488,0.2782832,0.2578232,0.17595826,-0.17177936,0.113197446,0.32843056,0.32919824,-0.18725908,0.39147246,-0.13207452
-0.13989167,0.15973109,0.25751486,-0.036046647,-0.16700816,-0.03370198,0.20434514,0.14400339,0.20558257,-0.13466565,0.0327848,0.10841734,0.098793246,-0.06091629,0.40006423,-0.27948916
-0.050686453,0.11473801,0.31022438,0.088989854,-0.28210452,-0.08871401,0.4000102,-0.28411952,-0.13780123,0.1008877,0.37329507,-0.10613945,-0.1076059,0.0748017,0.21534994,0.09152496
0.014131779,0.0587318,0.33459488,0.15576896,-0.11538387,-0.031058555,0.33696157,-0.3829576,-0.25145334,0.07562504,0.39836934,-0.2612778,-0.14890751,0.11378742,0.17070317,0.44582182
0.171912,-0.11452498,0.3575929,0.17091675,-0.06295228,-0.024576832,0.3059722,-0.25122586,0.0034070283,-0.09497938,0.21948788,-0.13200064,0.025008677,-0.20742191,0.36298808,0.22015241
0.23506229,-0.1962593,0.40000218,0.10304936,-0.17619336,0.0042669117,0.36863956,-0.21762553,0.07504591,-0.14230847,0.22802441,0.11287113,0.31531197,-0.18740487,0.40001073,0.16650648
-0.018510422,0.0084930435,0.40001434,-0.103345945,-0.27659997,0.05068501,0.35213464,0.08072726,0.21343087,-0.12456806,0.083615415,0.13328087,0.39213273,-0.102134824,0.39977902,-0.07401654
-0.18147705,0.105092786,0.25071332,-0.008520251,-0.2230904,0.056359597,0.27756977,0.2886034,0.2226985,-0.09542025,0.029955944,0.23950046,0.094905265,0.0354431,0.39650553,-0.37855902
-0.044145897,0.08250373,0.3374486,0.1575537,-0.2506918,-0.016074859,0.39419582,-0.26078913,-0.06184282,0.1057171,0.3999838,-0.06929869,-0.1065972,0.17469074,0.24307787,0.03933392
-0.032748148,0.013900902,0.33003205,0.2276834,-0.020677397,-0.07205237,0.29058263,-0.22959392,-0.08952166,-0.03317637,0.39997065,-0.26717967,-0.16870834,0.088058874,0.13410717,0.05456111
0.10112284,-0.076835655,0.3501344,0.19959217,0.015589637,-0.011235687,0.27797118,0.15918192,0.08939678,-0.14177877,0.1837591,0.109810434,0.084278375,-0.16533464,0.32872704,0.02216964
0.12403851,0.006238661,0.39938885,-0.005135764,-0.089280486,0.021102393,0.33640534,0.2081424,0.16909961,-0.16407421,0.15037476,0.30764985,0.385181,-0.24309054,0.40004042,-0.0235255
-0.10396601,0.09925594,0.32469663,-0.11838143,-0.10298063,0.09021148,0.30200818,0.36399248,0.2644561,-0.09037525,0.0031115245,0.32615834,0.1963338,-0.089911625,0.3988478,-0.18544762
-0.12883253,0.102310866,0.30985087,-0.024765816,-0.21403606,-0.08136556,0.39724508,-0.09638754,-0.014087017,0.14023437,0.23389931,0.11524899,-0.08594906,0.106295384,0.18056673,-0.034873907
-0.060865596,0.06784462,0.40231225,0.057328515,-0.1822297,0.087223366,0.40086436,-0.17268105,-0.23989716,0.17977042,0.39921764,-0.20405108,-0.13762787,0.16201548,0.1349502,0.39517325
-0.030524481,-0.024876479,0.35477275,0.245115,-0.004191166,0.035734594,0.24962385,-0.15372601,-0.003659573,0.004951093,0.24300347,-0.25258756,-0.11914959,-0.0042179567,0.168619,0.034351945
0.18555592,-0.028787892,0.40002167,0.05802137,-0.102805436,0.032745987,0.33433402,-0.11008834,0.06526107,-0.047206376,0.2593645,-0.003308412,0.2320473,-0.21962851,0.4000632,-0.06322904
0.033048235,0.07084199,0.40001562,-0.10176003,-0.18922666,0.08474778,0.34398633,0.11270054,0.1750145,-0.024817647,0.15929607,0.013669201,0.42824608,-0.16876826,0.3999899,0.031729314
-0.17920665,0.118892774,0.2051642,0.094986215,-0.15918268,0.07068504,0.28095585,0.19903415,0.22548261,-0.024641996,0.05549613,0.21138494,0.072986536,-0.001615867,0.39738008,-0.34656104
-0.10714369,0.064780585,0.24810983,0.293842,-0.25973862,-0.032610413,0.40007234,-0.072674744,0.0014930207,0.13208155,0.32511914,-0.14634389,-0.06327437,0.16799396,0.32704526,-0.0020760698
-0.018462678,0.018963464,0.25838968,0.3417142,-0.124221295,-0.041101776,0.40123385,-0.16984226,-0.19651408,0.14629777,0.39987174,-0.3139976,-0.1765897,0.15742004,0.24177416,0.26790974
-0.0070488937,-0.050279964,0.23151658,0.3085832,0.036511995,-0.017520875,0.2394674,-0.049724545,0.010111166,-0.045977075,0.28211236,-0.28262553,-0.16721387,-0.011297017,0.18068418,0.056632116
0.15978754,-0.07738335,0.40003136,0.1366473,-0.028631452,0.009537708,0.30322713,0.06708718,0.122576065,-0.10781547,0.2215082,0.027577113,0.20275094,-0.1913015,0.40022865,0.013100236
0.026184214,0.0990503,0.4000124,-0.06539091,-0.12203078,0.044880666,0.31166023,0.21397988,0.23986626,-0.097802006,0.09535098,0.13956472,0.38612512,-0.09473579,0.39999914,-0.034564063
-0.17483164,0.17552853,0.223723,0.03747494,-0.029257929,-0.02431133,0.29523566,0.12927635,0.2427196,-0.079335384,0.049043536,0.05275071,0.12420241,0.017552873,0.39698872,-0.26062274
-0.11690249,0.13712639,0.30040878,0.1396505,-0.14415912,-0.09819894,0.40003648,-0.08752175,0.002098733,0.08735769,0.24464674,-0.12698264,-0.057381954,0.18321973,0.2850276,-0.0382637
-0.031034121,0.062335335,0.38967597,0.11228726,-0.16734739,-0.095700175,0.40013945,-0.49442965,-0.28331858,0.1989166,0.40012977,-0.25163123,-0.14441974,0.23259927,0.2180254,0.40009335
-0.0005853,-0.0023614303,0.32841694,0.19320959,-0.04533932,-0.0034549981,0.27110294,-0.13633305,-0.009162077,0.009407932,0.2551224,-0.28471234,-0.067395516,0.046810158,0.22518946,0.24781469
0.12368071,-0.08183904,0.40195358,0.33612698,-0.07245614,0.05824987,0.31196064,0.16660333,0.03889151,-0.09146005,0.24146257,0.021707062,0.19221783,-0.18595883,0.39835796,0.101890855
0.0506052,-0.1346195,0.40200022,0.30862468,-0.12914355,0.10189333,0.3467471,0.28306648,0.08899344,-0.14312029,0.19665104,0.38990763,0.39341933,-0.30695343,0.39866918,-0.08307432
-0.08954499,-0.03945583,0.40288928,0.34031582,-0.13502422,0.12366684,0.30030048,0.22935878,0.13196576,-0.20978944,0.09318573,0.57139426,0.4054005,-0.26869804,0.39119455,-0.3443349
-0.15514842,-0.03853256,0.3549966,0.26097018,-0.1397794,0.16813783,0.21585853,0.34300134,0.2104046,-0.16755053,-0.09577623,0.5127732,0.106001355,-0.14503124,0.39761907,-0.3446223
-0.1769977,-0.13334394,0.27260932,0.32859528,-0.089717746,0.03550283,0.24439222,-0.021845447,0.18936922,-0.07844132,0.051444974,0.158575,-0.15551378,0.12564297,0.18624946,0.0043562916
-0.15369184,-0.24614987,0.2691443,0.3437219,-0.046729267,-0.179182,0.38831303,-0.32037947,0.03841307,-0.06687441,0.39992756,-0.20546621,-0.27276263,0.2909036,0.06059689,0.5730279
-0.108817324,-0.27920222,0.23394595,0.5070668,0.1388656,-0.17745268,0.20190284,-0.20262942,0.16871163,-0.21533112,0.23883079,-0.136527,-0.16630322,0.14483963,0.07806055,0.23236127
0.08917096,-0.29253343,0.40000123,0.40528613,0.07611092,-0.07374608,0.28086203,0.040622067,0.23814037,-0.34227556,0.15639219,0.05982395,0.11737943,-0.117671505,0.35228723,-0.095256165
0.1071469,-0.069694795,0.39896917,0.40527746,0.058655433,0.021101031,0.2731523,0.26545975,0.24504936,-0.43842214,0.14173587,0.4030296,0.3683572,-0.3398004,0.40015122,-0.34523627
-0.06812828,0.17430867,0.37869352,0.26528928,0.046365302,0.094531134,0.20770058,0.29315898,0.3350317,-0.42402607,-0.068929024,-0.015988294,0.19087979,-0.29160804,0.40007457,-0.35218692
-0.19349597,0.13913554,0.21193694,0.5424425,0.10423078,-0.059629824,0.2394035,-0.09352446,0.21561159,-0.32067,0.10365589,-0.12520817,-0.102589,-0.054757155,0.26081064,-0.06034462
-0.16147563,0.04546751,0.26046017,0.606577,-0.04219078,-0.18414676,0.39831644,-0.39465436,-0.06432098,-0.011708474,0.39999244,-0.6800474,-0.20728314,0.16520584,0.1566213,0.32348156
-0.15252513,-0.0126268305,0.22796299,0.5231495,0.15487617,-0.19705193,0.17057058,-0.12598813,-0.0067158295,-0.07023623,0.3604173,-0.12051344,-0.24640821,0.08807589,0.07467494,0.092660636
0.060874205,-0.032741908,0.36706686,0.41508856,0.09348597,-0.057920236,0.184349,-0.108130656,0.13587591,-0.21882008,0.18781586,0.06570658,0.10345085,-0.21213481,0.36231187,-0.11321123
0.12555261,0.119957834,0.39917138,0.4335068,0.050766766,0.022509648,0.1896762,-0.10368454,0.18978193,-0.29162183,0.15488909,0.2114578,0.315457,-0.31899822,0.40012318,-0.20161965
-0.08110517,0.3515512,0.40051472,0.34398296,0.06699634,0.09426593,0.11376322,-0.0356845,0.23780558,-0.28713554,-0.014616352,0.06890399,0.04898402,-0.31243765,0.3998745,-0.3268171
-0.22632071,0.17478098,0.18306835,0.6657554,0.105112754,-0.10181834,0.27042717,-0.3906658,0.09677816,-0.07751674,0.2444964,-0.30149695,-0.23805115,-0.022026269,0.18880694,0.2711171
-0.15567784,0.063920476,0.32314494,0.788861,-0.025559472,-0.2843468,0.278931,-0.19005628,-0.08103022,0.14050974,0.39998502,-0.53108275,-0.24257581,0.14588138,0.26838604,0.43610725
-0.18677028,0.05752046,0.3961837,0.54537404,0.10003726,-0.17697184,0.15141344,-0.029808018,0.05505917,-0.016297093,0.308716,-0.23154935,-0.23880012,0.07034207,0.15045428,0.15941948
-0.015563507,0.08594604,0.39999917,0.44584382,0.14028943,-0.10113902,0.12882379,0.11668592,0.13994762,-0.16360357,0.17905891,0.0013400376,0.061293285,-0.18711855,0.32482606,0.012613931
0.0678145,0.25582778,0.4000193,0.4108785,0.11750916,-0.06370983,0.15100498,0.20398359,0.19885343,-0.23220675,0.09817563,0.14443552,0.29611808,-0.3425373,0.40007865,-0.26172617
-0.09314619,0.27481195,0.32676852,0.47984886,0.09570958,0.018863713,0.13721487,0.24829389,0.26855576,-0.25074682,-0.044733036,-0.06134403,0.11338642,-0.2665928,0.3998491,-0.24368212
-0.16935828,0.15215199,0.15243047,0.6301094,0.102805175,-0.14612976,0.29909906,-0.19686647,0.074119896,-0.03249466,0.21726358,-0.3230803,-0.26167783,0.11635611,0.115930304,0.113939315
-0.116951995,0.045886353,0.19023585,0.79496115,-0.032225635,-0.27139682,0.30152163,-0.45659837,-0.0881251,0.12587978,0.39979163,-0.47567543,-0.28798848,0.22497047,0.11684844,0.30231085
-0.07333916,-0.0650708,0.20486698,0.6357716,0.09342352,-0.26390088,-0.014149527,-0.30486134,0.12657079,-0.08398924,0.2670643,0.07835886,-0.22675472,0.07459408,0.103823036,0.12800781
0.056781005,-0.02383921,0.40001214,0.5074596,-0.039056137,-0.12700452,0.14525965,-0.28986937,0.24882528,-0.19892716,0.15282892,0.22619039,0.09171552,-0.18125874,0.3662271,-0.24385948
0.034914214,0.11454647,0.4000114,0.5074534,-0.118558146,0.06604498,0.18157707,0.06233951,0.32025093,-0.3367444,0.117279895,0.49187404,0.38287374,-0.31795582,0.4000499,-0.17439716
-0.16556409,0.32011437,0.35967365,0.45610642,-0.108526506,0.1256832,0.11292381,0.29579368,0.3280304,-0.34651598,0.08351016,0.21350977,0.23532806,-0.32907152,0.3999146,-0.36664617
-0.2638384,0.2218635,0.18264271,0.6523322,0.02408119,-0.021667665,0.1715396,0.26856703,0.29296952,-0.3314236,0.07428781,-0.076304905,-0.08158265,-0.14702736,0.31628233,-0.39468026
-0.29488152,0.1656025,0.25233972,0.8226883,-0.018296437,-0.18011379,0.32867515,-0.3569574,-0.012591458,0.056291956,0.40006647,-0.68815386,-0.20048515,0.13424838,0.1889171,0.32915315
-0.2526219,0.008437758,0.31265724,0.74852806,0.15038328,-0.22431426,0.18486556,-0.55838305,-0.038352557,0.123815775,0.39293772,-0.38265643,-0.2638132,0.17694719,0.061742287,0.29782102
-0.17632654,0.050917998,0.24023105,0.53907084,0.1871592,-0.09291373,0.12866072,-0.20500511,0.23154184,-0.12481256,0.1465587,0.14604461,-0.046644535,-0.044670172,0.107985966,0.12227129
0.031392556,0.041311715,0.39934543,0.500763,0.14937766,0.008297659,0.16402392,0.053236052,0.27669328,-0.21304795,0.10617504,0.2389182,0.24043407,-0.25668907,0.40012544,-0.20520161
-0.08482423,0.33875984,0.40000972,0.32846472,0.110045426,0.13539135,0.14872116,0.14638278,0.35008696,-0.2972125,-0.047430493,0.396171,0.18812302,-0.28495488,0.39996707,-0.4005139
-0.26282075,0.2700329,0.13375252,0.4270382,0.16930722,0.001829283,0.22173347,-0.094133176,0.27593213,-0.24729142,0.041442376,0.05168388,-0.1417789,-0.028944327,0.26295596,-0.106084466
-0.248143,0.14632028,0.26752362,0.8217766,0.035798226,-0.1310433,0.3495822,-0.62793607,-0.019246086,0.046543386,0.40010232,-0.5204365,-0.26393944,0.25817212,0.11942953,0.5151575
-0.26119342,0.12365218,0.3550637,0.4471531,0.16956006,-0.16436894,0.24836619,-0.23585916,0.017662087,0.019358456,0.3791135,-0.35165074,-0.23245466,0.17689124,0.068861574,0.37593228
-0.08377481,-0.037928894,0.28715652,0.15628181,0.2006653,-0.07618554,0.19647649,0.08863076,0.15127516,-0.20093606,0.20441766,0.25183782,0.10169585,-0.14197744,0.30812868,0.10107629
0.116015,-0.0912566,0.39371565,0.42007765,0.16540772,0.00016914336,0.20746474,0.18242341,0.1996256,-0.27505645,0.15065727,0.592728,0.3251484,-0.3561447,0.40007126,-0.30126956
0.014701411,0.20688447,0.3982896,0.34571412,0.13447131,0.098930925,0.19330291,0.15847316,0.28092888,-0.33228895,-0.080423556,0.40443218,0.121666454,-0.3385154,0.40000173,-0.46104544
-0.17812237,0.22806495,0.22455662,0.46872878,0.20269178,-0.003464874,0.15848985,0.0038752146,0.27686465,-0.2725624,-0.11854598,0.016453082,-0.18400057,-0.11347477,0.31018278,-0.2700469
-0.16360813,0.028945018,0.22862647,0.9209955,0.03850805,-0.2805744,0.28418207,-0.17309657,0.018989913,0.0074336887,0.30170345,-0.5519881,-0.31028676,0.20124373,0.17648251,0.41728276
-0.13367608,-0.04043748,0.24850594,0.8872783,0.15959798,-0.31266373,0.07451638,-0.31228733,-0.05241229,0.028540015,0.39688334,-0.37211975,-0.34438848,0.19796796,0.09957666,0.17112929
0.004543687,0.07684898,0.37332097,0.37608862,0.11975192,-0.14467481,0.15429062,-0.05990905,0.21843721,-0.17904879,0.084119946,0.45717165,-0.09564008,-0.028408075,0.23511332,-0.14622557
0.03195316,0.14729369,0.39982536,0.38060355,0.04299512,0.04489084,0.22728354,0.29594216,0.23777016,-0.3159651,0.09997105,0.5208403,0.19188659,-0.2733238,0.40004042,-0.35182002
-0.13352919,0.23577258,0.28901777,0.38034883,0.059444223,0.06065496,0.1818278,0.22780704,0.29677668,-0.26000404,-0.027197264,0.14597736,0.17778563,-0.2507491,0.39849785,-0.21567108
-0.17589055,0.12823178,0.22133648,0.7777056,0.07696257,-0.15821297,0.3182047,-0.23686218,0.17339174,-0.10745429,0.14427373,-0.17798406,-0.14697908,0.005087607,0.19467695,0.032442134
-0.20741215,0.04099923,0.28463373,0.8531109,-0.04474366,-0.23998828,0.34036252,-0.21365859,-0.0617631,0.08748257,0.4001689,-0.40760612,-0.17976506,0.20155646,0.17500494,0.23068777
-0.21019848,0.0017807463,0.32184115,0.5090567,0.03680354,-0.3470741,0.22657605,-0.27418387,-0.086571746,0.11216924,0.39969712,-0.33776203,-0.20002426,0.22129698,0.114904895,0.32812274
-0.09972115,-0.07383451,0.32380798,0.4982971,0.08903157,-0.23351794,0.17144321,-0.16269396,0.16457543,-0.11065921,0.19984682,0.2029494,-0.09239326,-0.00044208742,0.122231975,0.007266954
0.066049844,-0.06822125,0.40001965,0.398516,0.056509614,-0.075277194,0.25579986,0.23851016,0.2232713,-0.25471276,0.1016872,0.44642422,0.19912994,-0.25825655,0.34670928,-0.28624117
-0.0425326,0.0710745,0.40063155,0.44893968,0.02039835,0.038658403,0.2736438,0.25890213,0.26744157,-0.33368418,-0.0011181996,0.52631646,0.37356013,-0.39382884,0.40004498,-0.30278924
-0.19895244,0.2960998,0.3170644,0.33924976,-0.026097057,0.14770816,0.20798129,0.36225328,0.39383405,-0.31755197,-0.23082246,0.39765167,0.09659442,-0.30245826,0.39997476,-0.36088136
-0.21698472,0.16811623,0.19821003,0.54070294,0.012362402,0.014300668,0.31828818,-0.09551366,0.2558209,-0.09759159,0.032426666,-0.03646712,-0.19570251,-0.008503168,0.2010423,0.11558656
-0.19529894,0.06086225,0.28380263,0.959744,-0.06352314,-0.15578957,0.39393395,-0.19772112,0.027249437,0.09625739,0.40001696,-0.38175172,-0.27419654,0.21462604,0.08690987,0.4373636
-0.18886076,-0.0034647826,0.32454675,0.70794195,0.14139792,-0.24213566,0.19114238,-0.3297362,0.0069427616,0.09055979,0.39867717,-0.36509863,-0.31051993,0.19430724,-0.017271426,0.43119416
-0.047451768,-0.07230751,0.31995353,0.512447,0.19252601,-0.186571,0.15702516,-0.32390925,0.23225711,-0.13864987,0.14507042,0.05722471,-0.08494021,-0.023502672,0.14178157,0.19017538
0.1694436,-0.12320426,0.4000363,0.47313625,0.14276269,-0.05751521,0.19197346,-0.16491961,0.23640186,-0.295419,0.19830254,0.29583913,0.320363,-0.31979895,0.40010697,-0.080959015
0.03997187,0.0898676,0.40003237,0.40121177,0.16073042,0.04588883,0.13705324,0.17152785,0.27922708,-0.3410204,0.081121005,0.37093946,0.26612237,-0.3513447,0.39999264,-0.27836305
-0.17683376,0.2182429,0.27631694,0.4126697,0.21183278,0.08940797,0.09061736,0.23773073,0.31486845,-0.32793954,-0.036249217,0.21251851,-0.025198815,-0.24000484,0.39997894,-0.51448786
-0.20293716,0.1009821,0.20233116,0.761489,0.20706363,-0.12835358,0.24151431,-0.194464,0.16662565,-0.14595115,0.19770162,-0.33061308,-0.31175703,0.053438812,0.111710176,0.03959376
-0.19080241,-0.029857047,0.29881358,0.76915646,0.16332415,-0.23940462,0.21343367,-0.5274287,-0.06960608,0.12226609,0.39992467,-0.4824219,-0.33028582,0.25036702,0.0882254,0.32407838
-0.18537596,-0.06867522,0.28462073,0.72434247,0.21557672,-0.15868913,0.13828883,-0.21353045,0.12431645,-0.07384753,0.25747314,-0.24663381,-0.27028134,0.14267732,0.05901814,0.32133234
0.012242842,-0.12460032,0.39208165,0.42869347,0.19327942,-0.10120693,0.15255366,-0.24676734,0.24225572,-0.2312944,0.12901661,0.07316122,0.047688127,-0.09012921,0.2945906,0.20466222
0.13293752,0.1765336,0.4000187,0.5135208,0.16273053,0.07714166,0.12948433,-0.076762676,0.29348397,-0.33776763,0.047297265,0.09796325,0.2400107,-0.29381108,0.4001211,-0.23592232
-0.09145253,0.34034038,0.34271967,0.3815672,0.22252311,0.120893866,0.026403874,-0.18494625,0.30530593,-0.34639606,-0.06211541,-0.191356,-0.024397861,-0.23141666,0.3999378,-0.33521256
-0.18733494,0.11743274,0.1522861,0.8370245,0.13709569,-0.06642239,0.23904361,-0.3850286,0.101394504,-0.10475508,0.22907495,-0.5780216,-0.24878596,0.10984405,0.1546817,0.21462461
-0.1424932,0.089601554,0.23989023,0.8143581,0.1833271,-0.18962154,0.16251175,-0.36879405,-0.11111559,0.13371138,0.3975206,-0.45945397,-0.2639762,0.18204458,0.1625451,0.20907506
-0.06896158,0.07295686,0.1712891,0.4364758,0.1731536,-0.06496059,0.15993623,-0.27085048,0.08677574,-0.062365945,0.2579972,0.018069481,-0.13298485,0.03794369,0.14632516,0.16288184
0.13227074,0.12561537,0.40005985,0.5058718,0.13763246,0.044854473,0.15024853,-0.15633498,0.21229443,-0.22566779,0.13709454,0.25892583,0.19083595,-0.19921744,0.4000572,-0.23768821
-0.12304982,0.39472902,0.4000203,0.32330298,0.14236772,0.16558431,0.104048304,-0.027742479,0.24035197,-0.26666507,0.004100965,-0.09374011,0.001007244,-0.21664524,0.39917794,-0.4760825
-0.29186404,0.25638145,0.12503935,0.5991923,0.1642245,-0.027382843,0.1780234,-0.36093947,0.10975905,-0.1251585,0.14180139,-0.19164886,-0.26512513,0.059365913,0.21833526,0.007517028
-0.21750835,0.037327193,0.29745558,0.77660924,0.03726304,-0.24654992,0.2481765,-0.53663415,-0.0837403,0.08669999,0.40006185,-0.43316066,-0.2834771,0.2195613,0.22096878,0.3052105
-0.17931204,-0.16613047,0.3395289,0.8286996,0.15320313,-0.20071048,0.17320268,-0.41593373,0.1492686,-0.029730039,0.2995324,-0.13340528,-0.26247472,0.14106828,0.091820076,0.13296206
0.015893064,-0.25264224,0.38512295,0.64999926,0.14189345,-0.07267469,0.2112421,-0.16421944,0.3029906,-0.21457544,0.15768307,0.34184515,0.05769668,-0.08996325,0.31527513,-0.14532177
0.14387447,-0.04468013,0.40003335,0.46098584,0.08185823,0.12540466,0.24600627,0.20782894,0.37738627,-0.33353812,0.07192855,0.70579946,0.30397746,-0.30651087,0.40005022,-0.5676425
-0.0071900343,0.20118017,0.4007074,0.32003084,0.09062178,0.20268868,0.178773,0.34251028,0.39185634,-0.40038428,-0.06361073,0.574732,0.08874301,-0.2734745,0.39990717,-0.750477
-0.1896356,0.2574411,0.18703742,0.42727944,0.18313646,0.107090235,0.18063362,-0.005520714,0.3479027,-0.322946,-0.050762072,-0.032766204,-0.20131621,-0.05066835,0.2755927,-0.33379728
-0.18588887,0.085260846,0.19196719,0.8844353,0.09434016,-0.13431305,0.31626835,-0.3084723,0.12094881,-0.05967351,0.30016425,-0.3131953,-0.29708543,0.22443266,0.12776108,0.276474
-0.19485974,-0.0011528804,0.23405801,1.0237969,0.15715146,-0.31475934,0.19814798,-0.41165242,-0.005461925,0.054946493,0.40009692,-0.4173045,-0.29209292,0.32664135,0.081321105,0.5068768
-0.07806224,-0.059600107,0.28244546,0.5988096,0.20005542,-0.18489362,0.16699801,-0.2248427,0.25333276,-0.19644734,0.19721682,0.09253576,-0.12334811,0.10080753,0.11754797,0.1419612
0.10308665,-0.048446275,0.40000668,0.5053949,0.18927062,-0.031191895,0.20326792,0.18259428,0.26937562,-0.33000907,0.18915093,0.1835964,0.16930248,-0.17347795,0.39054236,-0.29944858
0.12848143,0.19819406,0.39141038,0.41915813,0.19288485,0.051414333,0.18177472,0.30950806,0.26688996,-0.40183392,0.1730827,0.25540417,0.2459559,-0.3089092,0.3928248,-0.6208672
-0.12168953,0.2888894,0.2539698,0.40340203,0.20815235,0.094646305,0.1300146,0.26054966,0.3255031,-0.41298205,0.023096887,-0.13352108,-0.092563316,-0.1708882,0.36832768,-0.54038763
-0.1274209,0.1426818,0.19848195,0.66346645,0.196716,-0.07192632,0.34761357,-0.18214896,0.15412167,-0.18794328,0.3146711,-0.5281228,-0.27884483,0.10907441,0.13097672,0.03456275
-0.074208245,0.06372195,0.23480375,0.68486375,0.1773164,-0.2595149,0.272987,-0.19588701,-0.063482165,0.047813665,0.39823496,-0.34056935,-0.3132618,0.22785667,0.07810458,0.08692859
-0.007422814,0.0582615,0.21341796,0.43103808,0.23848449,-0.16389164,0.095544934,-0.16080396,0.120841146,-0.13905127,0.24237148,-0.07914297,-0.12384834,0.061163288,0.21748911,0.021074152
0.17774817,0.14267263,0.39783224,0.43240672,0.1455847,-0.045124143,0.14495711,-0.09418548,0.17820957,-0.27451319,0.30243155,0.0018626263,0.10500754,-0.19288667,0.398363,-0.4195092
0.03479362,0.4103427,0.40003186,0.37721625,0.1387934,0.11955642,0.07872949,-0.16070955,0.2750994,-0.37770244,0.1424548,0.15726754,0.028794026,-0.21872433,0.4001174,-0.33800578
-0.1844601,0.29336455,0.2167292,0.5603355,0.19794805,-0.029267216,0.2303418,-0.07722632,0.17492422,-0.29607686,0.20698906,-0.30684438,-0.26125363,-0.0016072913,0.2693452,-0.10101718
-0.1549488,0.17092243,0.25567502,0.6859858,0.12006553,-0.1728022,0.2722875,-0.46414724,0.006014485,0.02100361,0.40010858,-0.634336,-0.2912546,0.18442938,0.33555582,0.2712731
-0.13329215,0.06557604,0.32312793,0.62398684,0.26890144,-0.27067402,0.15461725,-0.45640013,-0.05156049,0.14289953,0.39990604,-0.41060394,-0.349952,0.2696505,0.21286346,0.40341905
-0.06615673,-0.06763518,0.30182675,0.49963623,0.26856312,-0.15956599,0.14325964,-0.4157925,0.19882664,-0.10965175,0.20195891,0.25055626,-0.16668493,0.1051725,0.19836378,0.19925241
0.11772299,-0.014459441,0.4000081,0.5273448,0.19670735,-0.0016753443,0.17523935,-0.19232038,0.2627604,-0.24701293,0.15819167,0.5684633,0.16525929,-0.21888179,0.4000623,-0.3969948
0.08089096,0.24005528,0.4000086,0.3511535,0.18794894,0.07162416,0.13032655,-0.1673068,0.31758976,-0.2968295,0.029850585,0.66388535,0.16291581,-0.31477433,0.40002808,-0.4303521
-0.15978026,0.26914582,0.24278915,0.37084413,0.1736916,0.049153678,0.095845506,-0.024711078,0.32139218,-0.24202967,-0.038208503,-0.025716731,-0.13695061,-0.13647938,0.31167424,-0.21607126
-0.12525077,0.014908996,0.20526072,0.828679,0.0983674,-0.14492732,0.31240118,-0.42016923,0.05683536,0.088216454,0.3531798,-0.48799008,-0.28329995,0.21205226,0.12201113,0.5333529
-0.09547698,-0.0025723216,0.23469836,0.6166591,0.105622336,-0.3209159,0.16639225,-0.5037765,-0.021114951,0.1832736,0.3981009,-0.4160227,-0.29467785,0.30634394,0.07559514,0.53805166
0.002951163,-0.05588666,0.26128003,0.67260987,0.14274982,-0.18282188,0.1201033,-0.31674364,0.21059325,-0.042502742,0.20324342,0.067959055,-0.17011058,0.124460116,0.10634105,0.1350085
0.13677366,-0.023937011,0.39999962,0.45085248,0.13484052,-0.07015033,0.14848167,-0.12603286,0.26501524,-0.18800846,0.16212486,0.2117957,0.11576048,-0.13514574,0.3819694,-0.04507339
0.09968318,0.176925,0.3974665,0.44731724,0.12553462,0.046085346,0.114804566,-0.024716727,0.32739392,-0.3094249,0.068954885,0.58846056,0.29261503,-0.32385564,0.4000959,-0.41991875
-0.12731834,0.28585136,0.27525038,0.3830048,0.18719226,-0.0042927745,0.11537697,0.03458134,0.31331313,-0.31835222,0.025308792,0.30958778,-0.038862698,-0.22071864,0.34584472,-0.42283353
-0.18874572,0.09413524,0.2441789,0.8326235,0.10580398,-0.18723646,0.28886428,-0.41574705,0.05838126,0.018336602,0.33579725,-0.39852214,-0.2982165,0.14050938,0.110251084,0.20827618
-0.15439704,-0.034407288,0.36703435,0.6974027,0.03715644,-0.28196096,0.19719668,-0.21614374,-0.14699571,0.24189177,0.39992285,-0.46443802,-0.2746134,0.29705065,0.17273429,0.3261104
-0.139699,-0.14722696,0.35001552,0.7382739,0.17775607,-0.27299425,0.14027469,-0.25455344,0.01381178,0.05931357,0.30198038,-0.048082333,-0.26768422,0.16185923,0.070714675,0.27776748
0.021111222,-0.24319239,0.40003413,0.5136113,0.18046236,-0.18364012,0.1681998,-0.1191061,0.18583335,-0.17723635,0.10814288,0.46087274,-0.00649744,-0.08302906,0.25213107,0.034797158
0.15014349,-0.026862165,0.4000126,0.5322874,0.13183312,-0.06191643,0.19099896,0.06636553,0.21365722,-0.28293535,0.063348934,0.65072393,0.32344392,-0.3361607,0.40010127,-0.3317544
-0.083361655,0.1659778,0.3391963,0.36282212,0.15987134,0.027709233,0.104436025,0.30870247,0.23706356,-0.30916774,-0.079226136,0.3057214,0.05047321,-0.27271327,0.3981712,-0.4369977
-0.1252928,0.03678397,0.19251263,0.6365424,0.15397124,-0.17042269,0.27305013,-0.1015618,0.12740435,-0.054006338,0.1401028,-0.2682179,-0.28968075,0.03302494,0.09759928,-0.011869603
-0.050512638,-0.09886818,0.28232947,0.72160536,0.1115036,-0.26257938,0.21895228,-0.48021087,-0.0824339,0.11406921,0.4016314,-0.28060865,-0.27706695,0.20352226,0.1874445,0.20581023
-0.06008572,-0.12821448,0.19513749,0.5251129,0.16219491,-0.25168228,0.09980843,-0.27785838,0.13027743,-0.10011534,0.2742211,0.016441882,-0.2388694,0.09092131,0.13981931,-0.14554858
0.1164645,-0.1976175,0.40137845,0.61638016,0.15718989,-0.17111494,0.11805486,-0.1715015,0.21717374,-0.2585176,0.15922856,0.33752644,0.06772274,-0.14833187,0.32811457,-0.34198827
0.10697226,0.0483102,0.40001708,0.48650998,0.10918702,0.009748307,0.13824967,0.34343612,0.28816962,-0.34346896,0.0745702,0.46643767,0.27456862,-0.337683,0.40005568,-0.5653525
-0.073635064,0.321102,0.3767398,0.37990123,0.07482589,0.16913347,0.14104593,0.3513144,0.38822627,-0.38132402,-0.16749348,0.21661362,0.02031273,-0.26490235,0.39944878,-0.5711059
-0.20546356,0.109406926,0.1385765,0.91680974,0.15523948,0.0065295934,0.11134933,-0.29767305,0.28972307,-0.22495416,-0.03772814,-0.17302603,-0.25824147,0.050412536,0.18780127,0.058939636
-0.2034349,-0.03183397,0.19605884,1.0291426,0.042819545,-0.14362614,0.17894536,-0.52852434,0.09551899,-0.0083614355,0.35959113,-0.4672713,-0.28817907,0.280294,0.09458406,0.50940365
-0.19697674,-0.06812066,0.20784472,1.0360603,0.076310374,-0.1268484,0.15717669,-0.49680492,0.073040806,-0.0017022382,0.39997417,-0.2929147,-0.3225459,0.25675124,0.02926016,0.35117203
-0.107550904,-0.047290616,0.22486086,0.63470083,0.11023239,-0.094196476,0.11170576,-0.4357452,0.36456293,-0.23027988,0.032420132,0.31819743,-0.028089946,-0.0061437287,0.16909644,0.018034952
0.0476806,-0.0075739194,0.40005106,0.5520211,0.024921952,0.1124865,0.21119063,-0.04583175,0.4024091,-0.37835804,0.03610256,0.44008458,0.30923492,-0.25533703,0.40011626,-0.4846126
-0.07481388,0.23911163,0.39944753,0.37990737,-0.008575666,0.22779983,0.212243,0.06727491,0.3977316,-0.42508623,0.0022918093,0.3723344,0.22167936,-0.25056383,0.399988,-0.50695896
-0.21378408,0.25175267,0.16600919,0.6597785,0.16071317,0.11359694,0.27345365,-0.09192972,0.3015523,-0.33376887,0.0852477,-0.43501195,-0.11232979,-0.0401968,0.26786768,-0.13747284
-0.22168991,0.1784579,0.22030112,0.8111614,0.032123312,-0.083394684,0.37004977,-0.39306536,-0.0036573103,-0.015891034,0.40005627,-0.51561815,-0.21851264,0.20457993,0.13033849,0.17953508
-0.23798284,0.10385473,0.29556558,0.8075693,0.20172828,-0.22516672,0.18061276,-0.35834292,-0.05394293,0.03825905,0.39994824,-0.4727463,-0.2612097,0.24093409,0.009313543,0.17909388
-0.05966637,0.008769015,0.301148,0.38465792,0.21538296,-0.12673599,0.16893432,-0.088741206,0.16814528,-0.1580865,0.16596273,0.11658893,0.0056136576,-0.041290093,0.22534254,0.021538334
0.1148666,0.036106024,0.39819685,0.46140316,0.13779067,-0.028687904,0.212159,0.07025871,0.2186488,-0.2654619,0.18157835,0.3505338,0.29015487,-0.27540943,0.40001923,-0.2927583
0.08287672,0.24083303,0.4000183,0.32842305,0.124995045,0.014007219,0.18982229,0.23263592,0.26049584,-0.2931526,0.08765557,0.36808684,0.25247207,-0.3284002,0.4000943,-0.43366706
-0.12789108,0.3685997,0.32642967,0.14038499,0.13733631,-0.041496888,0.17703338,0.32524043,0.30451941,-0.27527145,-0.020481165,-0.077755645,-0.0015362464,-0.22544871,0.3733906,-0.5197396
-0.1483808,0.25302827,0.15996467,0.35394987,0.058117602,-0.13554852,0.3238267,-0.28949696,0.10383327,-0.015742576,0.24659282,-0.30635387,-0.19898368,0.0004935827,0.21078804,-0.17106643
-0.089348994,0.21800001,0.25930855,0.25227016,-0.0633215,-0.13033073,0.37380064,-0.48342183,-0.114751145,0.18121609,0.4002392,-0.33536628,-0.17184645,0.103575885,0.31178933,-0.03048972
-0.020283991,0.09622939,0.28367862,0.41007116,-0.01071997,-0.08607719,0.27006605,-0.22125247,0.048438568,0.021374892,0.24863936,-0.16423829,-0.12362125,-0.013289776,0.28839028,0.010272889
0.14104922,0.048647843,0.39999968,0.086416125,-0.09033416,-0.114034876,0.3137126,-0.25141588,0.14113334,-0.028990285,0.23487942,0.19698559,0.22816677,-0.20570691,0.40000418,0.11860111
0.0873241,0.15981375,0.39761394,-0.32340685,-0.19364135,-0.058305994,0.37184128,-0.049637783,0.22422488,-0.005856259,0.17243867,0.37661794,0.3796165,-0.1572509,0.3990947,-0.096732445
-0.122230805,0.21849744,0.30210993,-0.5098829,-0.21989822,0.017306646,0.37551805,0.32975692,0.2666121,0.004707509,0.114687875,0.4465905,0.22283675,0.010651521,0.39672357,-0.35818174
-0.12977964,0.31669664,0.26203534,-0.4965111,-0.3606064,0.06899278,0.3978844,-0.057106923,0.004225452,0.1728996,0.30425146,0.19821043,0.055171855,0.09220437,0.35537004,-0.2198571
-0.008962692,0.22968645,0.38264555,-0.14423752,-0.50718784,0.30934778,0.34945348,-0.6135395,-0.21111333,0.13157421,0.40007657,-0.1656687,-0.009570328,0.21646482,0.3379892,0.5004257
0.042843197,0.15736873,0.3103577,-0.07634465,-0.23694725,0.48087302,0.27537802,-1.0001898,0.054479763,-0.08914592,0.36992502,-1.1317631,-0.044213627,0.23312119,0.3028521,0.9353229
0.29484648,-0.09716408,0.39317462,0.043276742,-0.28565207,0.38498896,0.3861054,-1.1023102,0.15017721,-0.10099849,0.41043836,-0.86583394,0.18626203,-0.042931717,0.39991122,0.89613986
0.35774022,-0.24747734,0.400014,-0.31559744,-0.2963397,0.26647517,0.39684704,-0.78490335,0.19314437,-0.10834469,0.40517002,-0.11435923,0.36829773,-0.10060131,0.3993669,0.5786522
0.16536537,-0.4268555,0.39480782,-0.8758781,-0.32368922,0.29681647,0.3861519,-0.052447014,0.26802114,-0.11941087,0.35472015,0.647476,0.38174126,-0.04457723,0.39986593,-0.23592816
-0.050706763,-0.22517857,0.34555772,-1.0920373,-0.23533215,0.18864176,0.3902986,0.39554912,0.24737121,-0.11144965,0.2218368,0.41575184,0.01716392,0.13963734,0.35411295,-0.44710064
0.007609627,-0.2175908,0.39466798,-0.7539913,-0.38810703,0.30812967,0.40014026,-0.0809376,-0.03662488,0.01540374,0.400189,0.4170571,-0.052825533,0.17677708,0.3120821,0.25842428
0.053693548,-0.26108006,0.39693382,-0.1442433,-0.37262025,0.49114704,0.40126017,-0.66302705,-0.14341527,0.011358287,0.3742573,-0.5376554,-0.10697415,0.27294174,0.32648435,1.159566
0.18070474,-0.21071865,0.37980548,0.40506586,-0.10944683,0.4343082,0.37292984,-0.9585214,0.1859561,-0.1735363,0.33785573,-1.1044598,-0.15785164,0.13982452,0.24970634,1.2263606
0.37909833,-0.35154134,0.4000422,-0.089087136,-0.08607949,0.2916775,0.39678803,-0.96597636,0.18477054,-0.16328503,0.3746244,-0.72987276,0.0919183,-0.068992935,0.40004277,1.2626672
0.45738164,-0.51953065,0.39934987,-0.43701583,-0.08382395,0.22200027,0.4042968,-0.6996703,0.19375944,-0.19927081,0.4006642,0.09958324,0.28990158,-0.08705077,0.39981303,0.5535935
0.19707271,-0.37993574,0.39999795,-0.98767674,-0.09915611,0.25553536,0.3801657,0.13852878,0.26694375,-0.16976516,0.30486497,0.59860337,0.17388374,-0.010373357,0.39998227,-0.33581403
-0.006370582,-0.2396577,0.39935327,-1.2142526,-0.10537301,0.19036925,0.39303613,0.49167615,0.24846804,-0.18857071,0.19572352,0.5194523,-0.1276336,0.17030625,0.3218342,-0.62958014
0.0054155234,-0.17631632,0.4171584,-0.7979934,-0.2547479,0.32617244,0.40006813,0.09021716,-0.023925453,-0.02195596,0.40004233,0.45614466,-0.17700759,0.15565613,0.31475282,-0.21110243
0.01644977,-0.14658688,0.40022022,-0.1335798,-0.34872407,0.5622553,0.32209596,-0.61197114,-0.1772972,0.019857699,0.3764351,-0.30209523,-0.2210526,0.2492939,0.33017886,0.78134584
0.09462335,-0.16647506,0.3918383,0.41153336,-0.09834652,0.51196265,0.36633176,-1.0790796,0.119327694,-0.14130351,0.33921343,-1.2090387,-0.2449413,0.19930781,0.27521887,0.9937621
0.2936876,-0.29261938,0.4004501,-0.11453884,-0.056661326,0.44389427,0.40325925,-0.73733014,0.20143233,-0.09128416,0.34093627,-1.0106672,0.042202972,-0.042049415,0.40017733,0.9850294
0.42917225,-0.4690666,0.38566396,-0.506203,-0.052780338,0.321837,0.4047455,-0.6030822,0.17746663,-0.1811851,0.40899944,-0.037091844,0.29168013,-0.10681399,0.39058405,0.45532703
0.22903638,-0.51606655,0.40004128,-1.0602496,-0.074488014,0.3009257,0.388297,-0.11924845,0.26060522,-0.16064546,0.2939132,0.5922981,0.2338452,-0.0425922,0.3999156,-0.16513012
0.018123003,-0.25872183,0.40769127,-1.259446,-0.0826199,0.201598,0.40002435,-0.020632366,0.13632067,-0.10791696,0.31924394,0.60161924,-0.16305813,0.11983194,0.209386,-0.45382965
-0.00833927,-0.20797537,0.3953762,-0.76250786,-0.256179,0.4457829,0.39253342,-0.09427256,-0.04205916,0.079985656,0.40024665,0.35878915,-0.17440124,0.14858235,0.24384002,0.14896162
0.0016201104,-0.17789042,0.3844024,-0.19382845,-0.27140942,0.57613736,0.36637557,-0.6170226,-0.05740609,0.035919297,0.39923778,-0.44371817,-0.21419793,0.19021933,0.22977346,1.1193832
0.06548982,-0.25840756,0.38988107,0.4476421,-0.05445135,0.46958527,0.35571802,-0.9629467,0.19386645,-0.16652098,0.3574334,-1.0681217,-0.23791495,0.115114935,0.17193007,1.0875032
0.29233572,-0.4040011,0.40015805,-0.041183796,-3.9573704e-05,0.32648265,0.39818135,-0.835977,0.23422304,-0.15988323,0.37862235,-0.6973559,0.07078933,-0.15973017,0.4003773,0.9763938
0.3889446,-0.5242324,0.3981986,-0.47477692,-0.008814972,0.2594031,0.39960212,-0.58549017,0.2564756,-0.15662909,0.35212514,0.09719585,0.36000156,-0.11130453,0.40002352,0.4138161
0.09465125,-0.31160772,0.40066984,-1.2151715,0.029581424,0.2575738,0.34176928,0.3024732,0.28679472,-0.2068244,0.23634736,0.4891621,0.091138,0.041153446,0.39940464,-0.5869045
0.017075974,-0.16097744,0.41083354,-1.0358034,-0.088808194,0.28846812,0.39985842,-0.042079102,0.020971546,-0.06268937,0.3952488,0.35141176,-0.11643038,0.16231315,0.22317979,-0.2917299
0.018230328,-0.10409744,0.40964708,-0.77623826,-0.2734621,0.48388934,0.3999765,-0.34288436,-0.21829166,-0.013056337,0.39997932,0.20683067,-0.13993941,0.23090757,0.21146709,0.5235406
0.06782052,-0.1555533,0.4065053,-0.09747594,-0.25292027,0.5415549,0.38655663,-0.76290375,-0.24276271,-0.05528188,0.37580675,-0.71622646,-0.21224536,0.27040645,0.13093337,1.294646
0.18744579,-0.2029493,0.37737757,0.35158077,-0.0035118663,0.33829075,0.23862705,-0.82428026,0.100343846,-0.21519555,0.26538557,-1.0109318,-0.21137272,0.05298014,0.17346162,1.054343
0.37183654,-0.3866779,0.40004513,-0.013843315,-0.057380628,0.19327155,0.34525758,-0.9086909,0.10979685,-0.194101,0.36336342,-0.77084553,0.050292216,0.008777565,0.40002254,0.83095515
0.44764286,-0.55275065,0.4000542,-0.42872778,-0.11791538,0.17132846,0.41125298,-0.6465609,0.12988229,-0.2679555,0.40294644,0.064482376,0.27875274,0.09198241,0.39974585,0.33257195
0.27565178,-0.47902507,0.4000179,-0.84008044,-0.10848742,0.106197685,0.35923764,-0.39248627,0.19861901,-0.23630422,0.36833724,0.4632221,0.25609678,0.15060326,0.3998406,-0.18622875
-0.06629339,-0.2623037,0.3900193,-1.3412746,-0.06145134,0.07978898,0.35736632,0.105286635,0.2375085,-0.24441695,0.28416866,0.5059872,-0.10263726,0.30010936,0.3156073,-0.6177319
-0.04081059,-0.24427883,0.40108302,-0.8923943,-0.18073581,0.17868038,0.4000655,-0.1884758,0.019741928,0.009044752,0.40010083,0.381788,-0.18476927,0.28034443,0.3066849,-0.11465028
-0.06872849,-0.16097789,0.40902606,-0.18461326,-0.37488118,0.51827264,0.34225306,-0.50554824,-0.049599644,0.07496188,0.39988992,-0.1904152,-0.2508847,0.3586134,0.2934277,0.9328476
-0.06833541,-0.17951988,0.40559337,0.313261,-0.16596366,0.58979857,0.33902907,-0.9852695,0.10670202,-0.07474349,0.38630065,-1.0453588,-0.2859228,0.3450672,0.2541606,1.331395
0.17112128,-0.25982058,0.38422048,0.15374833,-0.070945665,0.41264564,0.39528483,-1.0975144,0.2670435,-0.106216975,0.32339287,-0.96865773,-0.09583777,0.074107446,0.40046608,1.1076524
0.39504164,-0.459782,0.400036,-0.14881143,-0.043532897,0.2524159,0.40704957,-0.8394602,0.22836119,-0.1127031,0.39403495,-0.23093231,0.21536538,-0.046139944,0.40001494,0.7544427
0.28995332,-0.5352999,0.40004745,-0.9520763,-0.06471728,0.2331976,0.4208485,-0.32812148,0.25114107,-0.14152715,0.3592398,0.5530391,0.37702754,0.025575077,0.39844948,-0.086148314
0.023750931,-0.32227898,0.3776515,-1.4091097,-0.04172641,0.10627821,0.39997298,0.038287587,0.17778571,-0.14438371,0.29382858,0.80728894,0.04368366,0.14933035,0.32607812,-0.3939151
0.002001354,-0.21159613,0.404481,-0.81784874,-0.18577938,0.2777464,0.400115,-0.2787398,-0.044366553,0.056932393,0.40009394,0.3863667,-0.08510577,0.060671765,0.24381612,0.03123479
-0.017804084,-0.10114954,0.39865115,-0.74841875,-0.36505666,0.5458231,0.37834096,-0.6027756,-0.18199876,0.047517885,0.4000851,-0.12217197,-0.11618261,0.1143435,0.20447269,0.9465349
0.022949751,-0.18350083,0.39162832,0.02277941,-0.17409492,0.58206296,0.3800093,-0.80020964,-0.04333167,-0.089648075,0.39527097,-0.870459,-0.21127899,0.045090523,0.08209598,1.0810236
0.2228755,-0.23998249,0.39242983,-0.023185177,-0.02656229,0.3568282,0.25692973,-0.99584824,0.16139357,-0.13763142,0.325755,-0.968308,-0.037552945,-0.1751595,0.3070651,1.1509016
0.39449555,-0.48210508,0.4000055,-0.38451046,-0.12102317,0.30837756,0.40224978,-0.8811065,0.1829522,-0.18607272,0.41043383,-0.23450498,0.26380327,-0.059815418,0.39837343,0.6475235
0.2841196,-0.57895905,0.4009993,-0.8619748,-0.13279782,0.27262023,0.39922678,-0.3017298,0.23543417,-0.18915832,0.37884638,0.44594234,0.2908455,0.043180272,0.40006527,-0.018903928
0.047865544,-0.4462386,0.40056247,-1.2902218,-0.114499226,0.2574826,0.39280963,0.22220747,0.30007356,-0.18734801,0.24009131,0.32374424,0.020346593,0.20394865,0.3843686,-0.5542932
0.0024779,-0.2864752,0.41238973,-1.2135528,-0.21193612,0.2281509,0.38760063,-0.059615143,0.10186354,-0.069491096,0.39994204,0.4761612,-0.15056752,0.21847567,0.30903783,-0.14924625
-0.029630786,-0.20635639,0.39992923,-0.5459202,-0.35322237,0.5242885,0.3669359,-0.4043177,-0.1155066,-0.018690987,0.39988744,-0.16530657,-0.19132742,0.25867942,0.31754345,0.77849716
0.0058151064,-0.2433332,0.40035403,0.23740917,-0.12738787,0.50080407,0.3918822,-1.1572647,0.052603085,-0.1900214,0.39888436,-1.0051751,-0.25407454,0.231121,0.2827829,1.2745544
0.21576929,-0.39701077,0.39729366,0.09384491,-0.0777018,0.35785264,0.40584642,-1.0240316,0.22666372,-0.23087758,0.3160166,-0.8308173,-0.0034433994,-0.03705096,0.4000177,0.95669043
0.41124377,-0.5839216,0.4000529,-0.10508045,-0.06892339,0.24623397,0.39675018,-0.8904464,0.2245322,-0.24004523,0.38698664,-0.32550937,0.26217335,-0.029883524,0.40010136,0.6712231
0.28600746,-0.584177,0.40001956,-0.8047071,-0.10631223,0.23490158,0.40500808,-0.29142013,0.29914963,-0.27746207,0.36661696,0.4780716,0.28454646,0.08163477,0.39996195,-0.26232257
0.012095419,-0.360164,0.40006125,-1.2600652,-0.043785393,0.0935169,0.39604396,0.11822606,0.26709822,-0.28312293,0.34766772,0.58939826,-0.05475793,0.17389198,0.3248982,-0.43878266
-0.022612816,-0.24811764,0.39811575,-0.7394024,-0.25742763,0.3060781,0.3497719,0.033377267,0.035255022,-0.011233752,0.4000723,0.30195343,-0.11807977,0.11228824,0.29410583,-0.0030917816
-0.08774977,-0.15106739,0.39386663,-0.26051134,-0.36006814,0.5635645,0.2652083,-0.46595913,-0.07236072,0.052466605,0.37913015,-0.270427,-0.14896427,0.11142871,0.2662107,0.715225
-0.055835072,-0.16164118,0.40621623,0.3772411,-0.14078419,0.65014476,0.3212384,-0.9763599,-0.028045714,-0.15089679,0.3989231,-1.1004422,-0.2134173,0.112030745,0.17662336,1.4712844
0.22297603,-0.34933543,0.37458,0.11370297,0.02149095,0.38306123,0.35267806,-1.1949396,0.18390757,-0.18027648,0.38999662,-0.93602157,0.016283447,-0.16092677,0.4002197,1.1427836
0.4390977,-0.5305977,0.4000423,-0.32108715,-0.007081183,0.2472106,0.3871201,-0.8025917,0.25033325,-0.1914481,0.37089264,0.16892302,0.33337927,-0.11594448,0.3999918,0.38975358
0.29463652,-0.55737835,0.40017247,-0.85674125,-0.04971371,0.2948351,0.42893627,-0.15452789,0.31301945,-0.21567431,0.3385794,0.6285828,0.30703217,-0.04514076,0.39957058,-0.26504883
0.0192137,-0.31288618,0.38949808,-1.4648136,-0.017768778,0.194227,0.3724625,0.2903801,0.32767764,-0.19589189,0.20152593,0.385586,-0.048854567,0.10386283,0.33592737,-0.7280614
-0.09254918,-0.13101026,0.4204087,-1.3002032,-0.15614703,0.19209152,0.39349046,-0.14664987,0.15470158,-0.10277498,0.39967418,0.5093924,-0.15738754,0.046233222,0.24054159,-0.45920867
-0.16427007,0.0059615346,0.39653122,-0.9240532,-0.2698057,0.3043349,0.3871267,-0.46031564,-0.03199632,-0.095687866,0.38872463,0.049651053,-0.1317097,0.008108499,0.22882189,0.08006329
-0.1694752,-0.051010944,0.41742474,0.43241206,-0.11173612,0.2827569,0.3919634,-1.3072807,-0.07429679,-0.27274668,0.37354407,-0.8857306,-0.09288846,-0.050857477,0.18689077,0.62978446
-0.01696462,-0.266371,0.40004292,0.72986555,-0.053173963,0.1916594,0.39340264,-1.1064646,0.2403228,-0.37777036,0.17398381,-0.624114,-0.07007509,-0.28457475,0.22255659,0.27575943
0.20579894,-0.5275416,0.35393423,0.54969656,-0.12488067,0.16869305,0.39187205,-0.64237684,0.3431803,-0.40815565,0.21362916,0.11494995,-0.18125759,-0.28156385,0.40025145,-0.3694188
0.3290188,-0.75311446,0.2620637,0.13000655,-0.26287076,0.17485294,0.36915636,-0.2071058,0.50602484,-0.45961946,0.16840129,0.7234214,-0.43195337,-0.21986061,0.40008122,-0.6400468
0.10714299,-0.80968887,0.30783275,-0.5122179,-0.30928528,0.14791818,0.2846049,0.196063,0.66141254,-0.3873268,0.17469525,0.3438208,-0.7000285,-0.066337876,0.30279133,-1.172967
-0.06293515,-0.68457973,0.39743918,-0.40276852,-0.23667938,0.06264866,0.3988081,0.5685731,0.5654679,-0.49135017,0.3364878,-0.3745567,-0.5270663,-0.10595102,0.29172114,-1.3519948
-0.22064324,-0.6050135,0.39403576,0.16731733,-0.13584158,-0.031650223,0.39869973,0.24511243,0.2623682,-0.7844667,0.25343278,-0.57909197,-0.3504676,-0.17805712,0.3652922,-1.1705514
-0.38380188,-0.58125997,0.3745494,0.31954244,0.018005827,-0.14949654,0.38517722,-0.2322093,0.00220375,-1.0052505,0.10325385,-0.80622774,-0.21170507,-0.2572277,0.37375015,-0.99738216
-0.5394137,-0.61528146,0.3784553,-0.124782935,0.12492034,-0.3665653,0.30043304,-1.2502356,0.17041412,-0.8343895,0.014473469,-1.0715965,-0.11342093,-0.38049015,0.29596376,-0.98651445
-0.23055378,-0.94810015,0.22702265,0.83480644,-0.029744279,-0.43648794,0.19732326,-1.1107268,0.36970672,-0.8446855,0.26629263,-0.3538896,-0.24649476,-0.5435657,0.40122887,-1.1800693
0.10069241,-1.1352096,0.06880871,0.5392487,-0.35957333,-0.37266356,0.08967183,-0.4407865,0.6464519,-0.7837513,0.35974094,-0.1524316,-0.52202857,-0.5853289,0.39990714,-1.4297252
-0.031712767,-0.95634407,-0.010741881,0.137668,-0.4063516,-0.39585298,0.009793737,0.3482344,0.76355314,-0.6559148,0.40132937,-0.65225714,-0.81646585,-0.460993,0.3365757,-1.6636907
-0.29764092,-0.80539894,0.28158113,0.25893238,-0.08652391,-0.3639795,0.38981795,0.36389214,0.5514604,-0.8041219,0.31960344,-0.9218917,-0.60877573,-0.37359133,0.22824164,-1.3410202
-0.50216717,-0.6474713,0.37535447,0.45166117,0.16090949,-0.42621508,0.40020922,-0.49052456,0.118303835,-1.0274675,0.070760965,-1.1098223,-0.3208583,-0.46578556,0.27853984,-1.0952611
-0.46935248,-0.7329903,0.3303683,0.5540031,0.12918372,-0.5740289,0.22133072,-0.9504682,0.3689085,-0.7784145,0.06953619,-1.0288128,-0.22517541,-0.6527531,0.38586447,-1.2184715
-0.17037225,-1.0128545,0.090755515,0.712937,-0.10525369,-0.55873156,0.114015,-0.4115808,0.5879325,-0.79395306,0.18024033,-0.6726624,-0.44608802,-0.7110846,0.4002365,-1.5495331
0.03718556,-0.9960792,-0.060086418,0.4379729,-0.36744332,-0.48219198,-0.02519079,0.36264455,0.82740045,-0.6851455,0.25077647,-0.4179722,-0.6836449,-0.65652364,0.3998473,-1.7464176
-0.2687466,-0.8425486,0.11509876,0.14878356,-0.16076636,-0.471916,0.18011312,0.7475648,0.7636346,-0.53610736,0.4016825,-1.0130613,-0.724362,-0.39908978,0.22474067,-1.7502714
-0.50725216,-0.7541996,0.22300696,0.33738878,0.095796734,-0.49002016,0.39749697,0.018426694,0.43442813,-0.8628972,0.24063385,-0.96717656,-0.42476007,-0.46320757,0.20426825,-1.2226566
-0.6806325,-0.6383948,0.2495957,0.00012283704,0.23514472,-0.5448005,0.38748956,-0.6469181,0.11532305,-0.96802706,0.029182581,-1.1839579,-0.20049766,-0.56404936,0.15529163,-1.2919915
-0.48677304,-0.85525084,0.33877617,0.21358152,0.21367683,-0.6708149,0.3105745,-0.8941214,0.15523034,-0.938461,0.21148099,-1.0199826,-0.19723593,-0.78026235,0.29328012,-1.5229989
-0.13516176,-1.1692326,0.09964872,0.19537361,-0.0560358,-0.622155,0.20524028,-0.00089495245,0.4356166,-0.9945112,0.3343912,-0.30545464,-0.5002802,-0.7809038,0.40014982,-1.7099261
0.03614634,-1.0697378,-0.12762734,-0.072109304,-0.30260575,-0.5100533,0.061518785,1.0077178,0.70243263,-0.8752445,0.39200392,-0.3184249,-0.8143842,-0.66465163,0.3992564,-1.844001
-0.25287578,-1.0146207,0.23774098,0.21651557,-0.090583384,-0.51598394,0.25467995,1.0305332,0.64434606,-0.76685274,0.3903673,-0.7956075,-0.7497711,-0.45166424,0.10998426,-1.7861246
-0.4202239,-0.84698826,0.31040046,0.6731253,0.16190241,-0.53640324,0.40002,0.22692971,0.2972874,-1.0735838,0.1944384,-0.92262805,-0.46929556,-0.48133484,0.165812,-1.1475201
-0.5276434,-0.7991296,0.38614863,0.36873224,0.39519086,-0.536729,0.3955893,-0.93964803,0.006157345,-1.0405477,-0.008403175,-1.0688164,-0.24551871,-0.573986,0.05373953,-1.0836532
-0.38968986,-0.61486965,0.38022408,0.13189298,0.48893344,-0.41278884,0.2998496,-0.34584084,0.06713532,-0.86744094,-0.018751133,-1.8995968,-0.09537685,-0.6428099,0.40007567,-0.2897108
-0.1321132,-0.42781565,0.400038,0.4151812,0.46662575,-0.30070618,0.27690497,-0.18702973,0.06864443,-0.8235007,0.117790654,-2.2048664,-0.20106357,-0.6702468,0.39338484,0.355426
0.05403788,-0.23232651,0.40001345,0.52081454,0.4361862,-0.1403119,0.23681547,-0.23830299,0.11773338,-0.7671325,0.18099132,-2.225403,-0.1627035,-0.6281573,0.40015206,0.5441079
0.19461134,-0.19209072,0.40002728,0.5164802,0.40647262,-0.06804763,0.21437463,-0.2567094,0.12092687,-0.6977383,0.21112086,-2.3036168,-0.10085061,-0.57591766,0.40013945,0.62586683
0.36321038,-0.2819997,0.400039,0.45257923,0.39252254,-0.050001323,0.22307993,-0.29756987,0.117863074,-0.65610814,0.19673231,-2.639985,-0.08757222,-0.524513,0.40174037,0.56326896
0.46300054,-0.38685974,0.40000942,0.44195157,0.39950058,-0.018679379,0.18407181,-0.34211543,0.10007635,-0.6016289,0.22542317,-2.4884162,-0.10438997,-0.38819456,0.39999303,0.6820793
0.50395733,-0.4466012,0.39043507,0.44556004,0.4274917,-0.019982608,0.18958028,-0.14137606,0.114133164,-0.6121377,0.16077802,-2.7831483,-0.1618546,-0.2996097,0.40642953,0.703445
0.525298,-0.46371093,0.4000576,0.50634193,0.44697908,0.0047049294,0.20584333,-0.18335006,0.08509408,-0.62723726,0.19569072,-2.3755164,-0.13833413,-0.20796505,0.4015161,0.6238356
0.5636568,-0.50134903,0.39954665,0.5218836,0.48470834,0.027726682,0.22502768,-0.15845723,0.0542713,-0.6445556,0.17418508,-2.444462,-0.2063926,-0.23257369,0.401574,0.6637133
0.59547573,-0.4930006,0.39999333,0.60340697,0.5206301,0.056390963,0.22464792,-0.18292817,0.041402735,-0.63029224,0.15506928,-2.3228824,-0.28851303,-0.20915341,0.41246745,0.8195113
0.63402104,-0.48565722,0.40002653,0.60327196,0.5332325,0.08901156,0.22130509,-0.14190717,0.015196893,-0.61603284,0.11075238,-2.2209423,-0.3467517,-0.20003727,0.40754825,0.6868937
0.5578116,-0.36431912,0.39999548,0.52598965,0.53003126,0.12738924,0.20199043,-0.11420949,0.016378753,-0.5620195,0.08024423,-1.84114,-0.32993904,-0.12649406,0.401313,0.6679125
0.4448304,-0.37960353,0.40001988,0.5164316,0.51875126,0.14938127,0.20584998,-0.09088577,-0.017351333,-0.4753089,0.054073792,-2.1746514,-0.30865353,-0.10271904,0.3976633,0.6690286
0.36961666,-0.40355602,0.40002254,0.61948586,0.48196864,0.14911446,0.22491974,-0.13188109,-0.05695713,-0.39434782,0.07957921,-1.8823888,-0.3160254,-0.053621523,0.39772308,0.68942785
0.3775198,-0.4292433,0.4015677,0.5120245,0.44426343,0.20529002,0.29229313,-0.19222435,-0.09430028,-0.27874503,0.057219174,-1.7924352,-0.25086665,-0.053298317,0.4013711,0.7871096
0.49089527,-0.40835902,0.40000138,0.35719147,0.4258675,0.24906516,0.3249032,-0.18542314,-0.07596252,-0.30088115,0.008124119,-1.6864742,-0.21185887,-0.124647416,0.40225813,0.60866976
0.46523643,-0.2062722,0.40000933,0.3360167,0.4629082,0.2606437,0.2993508,-0.29113483,-0.13466346,-0.25374264,0.0039347582,-0.9672244,-0.28967145,-0.13596465,0.3952679,0.51899046
0.16557825,-0.083388984,0.34145445,0.21784057,0.4344541,0.2660305,0.33886325,-0.6260086,-0.10556508,0.03615431,0.103712946,-0.7913106,-0.37223363,-0.021042995,0.32428294,0.78055346
0.21758299,0.02383718,0.17344174,0.10368779,0.44770512,0.34486446,0.40455487,-0.5383395,-0.021773493,0.17232876,0.17191677,-0.5293078,-0.30515093,-0.183365,0.32553586,0.58293194
0.45124072,-0.21541321,0.39330325,-0.014447931,0.50595975,0.29896015,0.38968888,-0.6513099,-0.13313752,0.08682716,0.34898064,-0.29019535,-0.041213535,-0.26067728,0.40005094,0.40003735
0.20665392,-0.15816677,0.40000913,-0.16028589,0.5240206,0.1954898,0.33813345,-1.0056368,-0.16586338,-0.009802891,0.30013397,0.14616382,-0.19735344,-0.0682134,0.31770504,0.33526736
0.116633415,-0.1569335,0.34630457,-0.033294708,0.42815164,0.2691022,0.389538,-0.67392397,0.0021225654,0.03345702,0.39830595,-0.027224068,-0.27013984,-0.0075560072,0.13281773,0.2943355
0.24681202,-0.22015798,0.34468254,-0.0072162934,0.43209535,0.3097861,0.36678594,-0.59574205,0.10369279,-0.08418552,0.26726818,0.12902533,-0.05800704,-0.23501748,0.26505196,0.1507051
0.29180607,-0.2540179,0.40000388,0.0880901,0.47424808,0.3235641,0.32911673,-0.62536573,0.07825184,-0.22722465,0.27550727,0.51038986,0.048905347,-0.23568013,0.40008008,-0.056148324
0.04381895,-0.09034132,0.40003458,0.07544722,0.43858615,0.23671852,0.2599441,-1.1254553,0.12018147,-0.30597958,0.13265353,0.58604205,-0.18448777,0.029320257,0.2414493,-0.079478726
-0.123386174,-0.08561982,0.2869453,0.44127366,0.30038378,0.14146969,0.33012536,-0.81731176,0.12461682,-0.15405199,0.32301685,0.11748505,-0.19007844,0.18452494,0.18818676,0.42502928
-0.08258182,-0.20761943,0.25119326,0.47350833,0.28666708,0.29833004,0.35985264,-0.5542162,0.10547268,-0.071596555,0.40128118,-0.017218184,-0.22418201,0.24481946,0.08459275,0.32955772
-0.057789464,-0.2904607,0.1618602,0.21291839,0.35033846,0.38776502,0.23574935,-0.33482054,0.21756697,-0.25063896,0.1763461,0.090506874,-0.1913082,0.076236695,0.019017601,-0.04495765
0.13995112,-0.3141094,0.26257122,0.4097382,0.3236964,0.4202636,0.16934878,-0.46581277,0.2956137,-0.3639226,0.028399086,0.2337893,0.10105839,-0.15755597,0.30915242,-0.0918021
0.07609202,-0.0476341,0.40001085,0.5490625,0.32946792,0.37868136,0.08154671,-0.9936516,0.22840334,-0.42835492,-0.0065933736,0.05452644,-0.00973354,0.006360624,0.33808848,-0.050493598
-0.06002985,-0.14525881,0.18173194,0.71172404,0.11446596,0.10941791,0.3894575,-0.42530194,0.071178034,-0.17089313,0.31515056,-0.6357661,-0.19710565,0.3180665,0.12846649,0.40181518
0.023598965,-0.32332098,0.22852294,0.704143,0.011063452,-0.1939292,0.39915794,-0.47452512,0.04877077,-0.00301991,0.40003896,-0.55777824,-0.2407026,0.44480395,-0.0011863761,0.5432974
-0.012646475,-0.37397933,0.21215013,0.23494537,0.18014312,-0.21590537,0.15536809,-0.079535805,0.24089834,-0.1726917,0.30618674,-0.10976398,-0.120264575,0.27509966,0.13156301,0.23965152
0.11164373,-0.3101094,0.3772792,0.16211633,0.11118638,0.009456413,0.18380392,0.24534683,0.30374658,-0.3612699,0.2775324,0.26586843,0.15288675,-0.036372334,0.39661136,-0.5546451
0.15880314,-0.040436275,0.40005746,0.5277559,0.12853946,0.13689834,0.11607316,0.5004404,0.3237203,-0.4636954,0.21114889,0.40163952,0.1726874,-0.33245578,0.40008366,-0.91685766
0.033544876,0.22466734,0.39983603,0.4899013,0.1581577,0.15151054,0.119588606,0.38409764,0.33547172,-0.501463,0.043747477,0.22011045,-0.06732927,-0.3215172,0.3937793,-0.9051633
-0.16745923,0.19536324,0.14863674,0.7636522,0.24507937,0.0074972473,0.20401686,-0.0022715207,0.23524442,-0.38113374,0.11022851,-0.580636,-0.33009464,-0.04036951,0.22659136,-0.32086506
-0.15465191,-0.0031878862,0.20616423,1.1070696,0.09647581,-0.13049445,0.315859,-0.065750726,-0.0032893878,-0.07257483,0.40012455,-0.81057876,-0.35822532,0.23652945,0.21773879,0.44528788
-0.12943128,-0.18013628,0.17673953,1.130555,0.09243821,-0.3506944,0.11385213,-0.5240878,-0.029479502,0.10801448,0.39996198,-0.42181665,-0.38444978,0.35383338,0.096697204,0.43153036
-0.092524916,-0.15396824,0.2351258,0.75510734,0.07598993,-0.21606573,0.061823703,-0.3184693,0.27019992,-0.1572085,0.115575835,0.15952545,-0.17847274,0.08530363,0.20593588,-0.08266408
0.108305484,0.026265118,0.4000646,0.6977538,0.026805257,0.035091516,0.11299599,-0.0015075001,0.3502549,-0.3233329,-0.021987377,0.27434808,0.19739231,-0.22342987,0.40008852,-0.28625107
0.10476475,0.29332244,0.40002152,0.6459924,0.04657291,0.16381818,0.102605686,0.34566188,0.32513303,-0.40366045,-0.083727114,0.21972074,0.14616227,-0.29988623,0.40006793,-0.64314747
-0.13550645,0.2669209,0.23987702,0.80766374,0.19296838,0.06927686,0.14682987,-0.004670188,0.19316961,-0.3905186,-0.109746195,-0.9849997,-0.1910488,-0.14482929,0.30324364,-0.19359788
-0.12052774,0.016481033,0.24239574,0.96030235,0.069215596,-0.084538706,0.27749255,-0.31261572,-0.058266487,-0.08418696,0.30391124,-0.955045,-0.29213482,0.18547738,0.2689317,0.34157515
-0.08195123,-0.13107061,0.23476006,1.0417491,0.08554833,-0.2255715,0.11373549,-0.36392617,-0.10889094,0.10194165,0.39522183,-0.482191,-0.3464355,0.3129209,0.22117145,0.23570679
0.012643826,-0.07118551,0.25448957,0.7784272,0.13337058,-0.12282373,0.0320932,-0.37572393,0.19454965,-0.10771564,0.17338416,0.11089176,-0.17872103,0.17781925,0.19307518,0.11363115
0.13817306,0.027467432,0.40002555,0.6254904,0.13388671,0.05069518,-0.003285429,-0.2409112,0.28127995,-0.25352883,0.0670968,0.36297747,0.114367545,-0.10597736,0.40019575,-0.22345328
-0.013750702,0.31770217,0.4000131,0.41567913,0.20477676,0.11348581,0.022899061,-0.030189998,0.24216463,-0.38509974,-0.05117496,0.041602623,-0.119815186,-0.10831958,0.37607023,-0.4955704
-0.14025655,0.082049884,0.18708998,0.8807536,0.17099063,-0.08042359,0.24626279,-0.34408167,0.08501437,-0.21496613,0.18748783,-0.43928388,-0.28827226,0.1889471,0.21834144,0.105265014
-0.10230992,-0.030807048,0.2264277,1.1027173,0.08302801,-0.24077286,0.2143993,-0.38037664,-0.09238765,0.055439435,0.40008748,-0.6349575,-0.3190396,0.36553773,0.25665954,0.32160568
-0.09805195,-0.12823395,0.15837115,0.87866026,0.12265116,-0.28026712,-0.0032551219,-0.33710155,0.03559384,0.010989419,0.35091996,-0.08909882,-0.32251498,0.34760758,0.117399044,-0.14338233
0.048158836,-0.17832385,0.37950212,0.70971817,0.0969761,-0.10889741,0.029378183,-0.18229441,0.2233697,-0.22457114,0.16001286,0.48545548,-0.0012532043,0.11990285,0.32260287,-0.27531603
0.10059381,-0.077408634,0.40000755,0.62366974,0.12779467,0.04981855,-0.02657598,-0.060589407,0.21092288,-0.35343498,0.13933206,0.6538304,0.24293657,-0.2369482,0.400093,-0.5805483
-0.02244349,0.19508746,0.40003523,0.50231475,0.15821035,0.16597074,-0.08717447,-0.10886046,0.24541454,-0.42793882,-0.05443592,0.27906415,0.07939617,-0.30393526,0.39948538,-0.3890926
-0.23807186,0.17149878,0.22693352,0.7127319,0.23377416,0.022949906,0.111827604,-0.2508079,0.164481,-0.31481114,0.041892327,-0.40335295,-0.22910044,-0.068126135,0.2097916,-0.17527826
-0.20753141,-0.05447377,0.3058337,0.7385749,0.10275056,-0.18964519,0.30066013,-0.48465943,-0.10776866,0.035265066,0.40024632,-0.7285446,-0.28692898,0.23791711,0.1877634,0.5185368
-0.17395811,-0.21077254,0.2818203,0.88572544,0.086284734,-0.37365466,0.22486235,-0.40882087,-0.13368152,0.17153367,0.40023768,-0.6379823,-0.35067016,0.32987216,0.0640897,0.57289547
-0.17889535,-0.18389861,0.17176393,0.45783323,0.23970874,-0.30320624,-0.018171934,-0.14661525,0.1540944,-0.08796953,0.26925266,-0.0102569135,-0.22503562,0.14973824,0.07731788,0.2746724
0.040303335,-0.16626325,0.40002856,0.4247083,0.13355754,-0.022968767,0.14862345,0.10530503,0.26860666,-0.2850431,0.13472283,0.026200546,0.12169892,-0.1571787,0.38494006,-0.13562664
0.11784164,0.11419614,0.40004924,0.51312095,0.11535303,0.14204448,0.13011023,0.36134446,0.31896946,-0.4059094,0.01836595,0.19968048,0.25167647,-0.40232658,0.40008482,-0.41510263
-0.031066136,0.33217397,0.34775496,0.63990384,0.11233569,0.24850357,0.068351075,0.4902729,0.36173177,-0.36621994,-0.16539423,-0.35910782,0.013604387,-0.3340541,0.40006378,-0.49094206
-0.13277191,0.16987526,0.09628477,0.84683394,0.21598789,0.07339033,0.2290847,-0.17734966,0.24617833,-0.20223662,0.0059772204,-0.7988385,-0.31626913,-0.025768727,0.16066438,0.15490994
-0.13018781,0.018911565,0.17758486,1.0241038,0.033037513,-0.11218411,0.3050547,-0.06065509,-0.05381175,0.12711924,0.39987025,-0.73608816,-0.34716272,0.28079182,0.11126748,0.4434029
-0.1028936,-0.092021465,0.15051217,1.031902,0.09964134,-0.2803219,0.12017198,-0.24171005,-0.05654501,0.16447417,0.39995173,-0.44320095,-0.37181666,0.32166687,0.029967973,0.38123086
0.029317057,-0.13481021,0.33236238,0.65424156,0.070881635,-0.12828049,0.070401184,-0.24269782,0.3045003,-0.17331342,0.0051074233,0.25485477,-0.091418885,0.045852814,0.19835865,-0.21134025
0.13765067,0.010319587,0.40002322,0.6507617,0.042061638,0.04081986,0.09155138,0.008879887,0.28882554,-0.33463135,0.05637691,0.29593793,0.16694151,-0.22504914,0.40017492,-0.51864874
0.08587527,0.35968447,0.40001783,0.51521,0.046002373,0.22432019,0.06779059,0.23975216,0.25289342,-0.43056068,-0.021613317,0.08553406,0.026967863,-0.3436293,0.40014923,-0.71260875
-0.13106254,0.23368181,0.17752767,1.0081677,0.13814999,0.0517311,0.1844097,-0.13562857,0.17988607,-0.3182766,0.04058302,-0.91517323,-0.30091032,-0.03362051,0.22782436,0.14815758
-0.1258089,0.0756984,0.22196183,0.9391638,0.03375183,-0.066417314,0.3050757,-0.366492,-0.03984345,-0.011207353,0.40009156,-1.0039848,-0.33063206,0.21740407,0.21532843,0.44291866
-0.09899828,-0.10531908,0.2272651,0.99757695,0.12303956,-0.30008942,0.20032798,-0.29339468,-0.031220995,0.15144461,0.39834884,-0.563619,-0.3656183,0.33308423,0.11557486,0.34665626
-0.07307891,-0.12922032,0.2406291,0.85525846,0.12390344,-0.18133058,0.1351632,-0.27530143,0.24465534,-0.10235292,0.22111419,0.22326446,-0.19515604,0.18088129,0.15723561,0.30001855
0.12056045,-0.0626041,0.40006733,0.68120843,0.12754066,-0.055455096,0.12184656,-0.13038334,0.34082234,-0.2802439,0.08628732,0.3777074,0.13913289,-0.10830527,0.3974175,-0.3942897
0.032395255,0.2547868,0.4000356,0.45726612,0.1822612,0.11005822,0.05851123,-0.041009374,0.35183197,-0.38557604,-0.09279457,0.3980603,0.03610831,-0.2074454,0.4000154,-0.48398206
-0.19057067,0.30693504,0.23840559,0.73030967,0.25812826,0.015692396,0.21200679,-0.18677385,0.2515787,-0.36158428,-0.012066166,-0.075893074,-0.24828827,0.004199563,0.272606,-0.22081073
-0.23694947,0.07054955,0.17575191,0.93567556,0.073136084,-0.19046985,0.36102808,-0.4351444,0.015759205,-0.012917558,0.32905647,-0.78986615,-0.2823828,0.32749185,0.27650672,0.2624534
-0.21589437,-0.01591456,0.17568386,1.0762409,0.11873581,-0.30228168,0.2166291,-0.45556536,0.032922227,0.12932739,0.3998046,-0.5553312,-0.32717657,0.40880296,0.17300254,0.27452666
-0.097211204,-0.006436116,0.24069537,0.60015506,0.13991003,-0.14231081,0.1750065,-0.3196434,0.30491862,-0.12485271,0.19652584,0.2997672,-0.118400574,0.2473411,0.17952019,-0.15685815
0.07282349,0.12504032,0.40000567,0.6099935,0.12944642,0.01881968,0.16235399,-0.15949138,0.3710997,-0.30344525,0.13390686,0.4197357,0.21132703,-0.102842994,0.40020758,-0.5388107
-0.13828276,0.4139094,0.3992922,0.4493607,0.21270636,0.16552746,0.06242281,-0.19646479,0.36283526,-0.41845116,-0.030919513,0.07792399,-0.07759827,-0.055585735,0.38830003,-0.4796029
-0.2700635,0.16423777,0.16677305,0.8056242,0.16709897,-0.03025082,0.27653039,-0.53737354,0.19926202,-0.24351737,0.19399783,-0.54997236,-0.24886979,0.26365858,0.23207867,0.29902303
-0.24218535,0.044604704,0.26694894,0.60861117,0.047224823,-0.24388976,0.30478203,-0.54739445,-0.020226775,0.052810866,0.39803636,-0.59468055,-0.2509298,0.42816478,0.24917209,0.45924494
-0.21818535,-0.09183624,0.25706965,0.9394772,0.13463578,-0.31458828,0.28273258,-0.40112993,0.010493303,0.09106104,0.39458644,-0.3974961,-0.31020325,0.46192303,0.09872753,0.43156987
-0.13756506,-0.12839708,0.25907603,0.69607973,0.2097419,-0.1736999,0.17322916,-0.21593812,0.27338645,-0.15915024,0.087256156,0.05172984,-0.08065266,0.19784717,0.23025808,0.037995256
0.035383575,-0.05730439,0.40002263,0.65247864,0.1469344,-0.009947002,0.20940399,-0.05798282,0.30897593,-0.31230894,0.092390604,0.3079663,0.22203752,-0.069807634,0.4001779,-0.38871977
0.038691524,0.31706208,0.4000372,0.4813801,0.17646056,0.13151802,0.115213715,-0.038405154,0.36010525,-0.38128275,-0.13726035,0.40249515,0.028616726,-0.150248,0.40006748,-0.6243373
-0.1614503,0.2663046,0.23273617,0.7081141,0.1792196,0.032789934,0.24373269,-0.07710014,0.34746483,-0.25523454,-0.12586616,-0.13892135,-0.2484738,0.111278154,0.24615493,-0.08009815
-0.14108658,0.0060305167,0.14296,0.8367066,0.07319537,-0.21970062,0.26365158,-0.5898054,0.077483855,0.12169522,0.3143588,-0.6242764,-0.3041267,0.4445256,0.27956876,0.49598908
-0.07607474,-0.155349,0.14475773,1.1185608,-0.016612578,-0.2781863,0.21787436,-0.5749844,0.058928255,0.22732589,0.40008655,-0.4729163,-0.35444534,0.57917297,0.21411103,0.43124092
-0.15756467,-0.18728127,0.03644845,0.69619286,-0.040417597,-0.045901548,0.24248862,-0.25012544,0.32376245,-0.0015968877,0.26009485,0.04070164,-0.26487866,0.5163383,0.13271314,-0.25999692
0.048120793,-0.20113377,0.3260413,0.80756956,-0.017885966,0.08905703,0.13757741,-0.14541821,0.4229387,-0.18988462,0.10314954,0.22193985,0.10039926,0.20324813,0.40003085,-0.37735456
0.023565238,0.030893723,0.31649426,0.45164,0.06797142,0.2089592,0.06869321,0.19221011,0.34822947,-0.30810922,0.15961297,0.19205357,0.24190022,-0.12122384,0.39325428,-0.7597968
0.02262908,0.21642026,0.36567622,0.79616,0.06763986,0.32942942,0.03526122,0.067714706,0.35782945,-0.39226025,-0.00085488666,-0.015699394,0.092749216,-0.1476531,0.40004355,-0.7444119
-0.15249732,0.18981993,0.12563433,0.703094,0.1635428,0.21896863,0.224773,-0.06391941,0.24216202,-0.3480142,0.07341314,-0.7786574,-0.21549065,0.18534207,0.13461219,-0.31587732
-0.13452564,0.055603992,0.16440722,0.95183074,0.031718295,0.08260356,0.38414893,0.08334908,0.021018857,-0.0815527,0.40002292,-0.79009044,-0.24001472,0.34924188,0.13262285,-0.32587042
-0.14916725,-0.0471172,0.10125829,0.73438215,0.05443368,-0.13632499,0.27205715,-0.26855117,-0.06178148,0.08231925,0.4038956,-0.28892773,-0.2826044,0.41858357,-0.003223648,-0.40828878
-0.10389547,-0.09873827,0.20020819,0.6252936,0.12112929,-0.03119371,0.09613807,-0.3445298,0.20975703,-0.17096314,0.14149062,0.20130758,-0.05512036,0.28728753,0.15780123,-0.3541859
0.035282627,0.05171391,0.40003306,0.55878866,0.03350999,0.14579278,0.121695176,-0.18278828,0.2979246,-0.3072646,0.02897176,0.08142483,0.19644801,-0.03382387,0.400138,-0.55448985
-0.16745798,0.30176762,0.35658392,0.45811167,0.11743988,0.19526048,0.031565446,-0.33003333,0.31866494,-0.34815714,-0.15468517,-0.32459378,-0.09266879,0.010724918,0.37956512,-0.42835853
-0.2764015,0.07506764,0.15215634,0.9410655,0.029151661,0.011806084,0.3050407,-0.37786672,0.15099154,-0.1513414,0.18548107,-0.64635897,-0.25087377,0.36315143,0.23402075,0.094238594
-0.25026315,-0.03730616,0.19918929,0.8545248,-0.06889902,-0.18983953,0.38536882,-0.5585569,0.08255692,0.082828395,0.3999717,-0.6253086,-0.2782966,0.48556593,0.18645838,0.15462954
-0.27745837,-0.14741771,0.10874619,0.809951,0.05695108,-0.3038144,0.23031428,-0.34199604,0.23884113,0.004210991,0.34070998,-0.3349373,-0.24663469,0.47986007,0.08163412,-0.22277196
-0.064782254,-0.2149191,0.35487583,0.6423694,0.026595382,-0.119869,0.21588524,-0.3779586,0.39027968,-0.22241221,0.19305995,0.2489978,0.12468758,0.28287563,0.36921692,-0.50996345
0.011382274,-0.013324411,0.4009745,0.7992885,-3.0032386e-05,0.10688552,0.232556,-0.096931964,0.4325561,-0.34290314,0.10672799,0.40698186,0.31936035,-0.06760786,0.4002243,-0.8464849
-0.014459632,0.2574594,0.40002948,0.56785554,0.008417899,0.27035055,0.17858426,-0.01410205,0.4733346,-0.42830452,-0.08131025,0.44217747,0.1646208,-0.15364105,0.40017384,-0.91344965
-0.22064254,0.35248056,0.24679917,0.60894936,0.09225995,0.16412969,0.25579458,0.10921864,0.45016375,-0.4234115,-0.120132424,-0.2618093,-0.13222933,0.062713146,0.2897075,-0.4985258
-0.25406826,0.10577457,0.11025925,0.89872926,0.020652719,-0.076326035,0.40001684,-0.40087494,0.21737911,-0.11549801,0.25644848,-0.59340733,-0.23340172,0.4233463,0.1539145,0.4588055
-0.24852534,-0.048844993,0.14671966,1.0445719,-0.055721693,-0.29222274,0.33051166,-0.512318,0.044193435,0.070774116,0.40009186,-0.569767,-0.2612168,0.512379,0.048531655,0.46164718
-0.2546543,-0.15130654,0.09791249,1.042537,0.045539066,-0.32892534,0.10866963,-0.49104568,0.26010582,-0.049408074,0.27277422,-0.10614716,-0.2164256,0.43545267,0.004483999,0.022718605
-0.134488,-0.117994286,0.35423458,0.7185455,0.017822038,-0.13913833,0.1854554,-0.281114,0.41397792,-0.25139466,0.038506843,0.16043255,0.14179723,0.15239744,0.3085613,-0.3940577
-0.0067358697,0.1340924,0.40002403,0.6319568,0.0476376,0.042731505,0.15639411,-0.047137633,0.41534358,-0.3857751,-0.041834928,0.397367,0.3199784,-0.16163217,0.40004548,-0.6914913
-0.17053983,0.33148977,0.30504668,0.57251024,0.16036154,0.10948788,0.1083613,-0.046374384,0.3969265,-0.4602907,-0.14896719,-0.04129388,0.008346825,-0.13043018,0.3998435,-0.5614164
-0.21182582,0.07933259,0.19324411,0.8627477,0.085203886,-0.09863094,0.30608708,-0.20502992,0.21599674,-0.3259556,0.13856259,-0.32901108,-0.17909062,0.19490036,0.21903025,0.041500457
-0.20846842,-0.099608265,0.15551952,0.86233807,-0.012940028,-0.26721433,0.22748058,-0.3480454,-0.028896356,-0.013476479,0.40020192,-0.6243949,-0.21312033,0.35075906,0.13047934,0.254986
-0.2021035,-0.21835805,0.094601065,0.7529494,0.15130769,-0.34212252,0.14469369,-0.31454793,0.06162451,-0.047873102,0.37995708,-0.24987403,-0.28369167,0.3275341,0.007873337,0.19722232
-0.13150251,-0.30607018,0.14334314,0.43721867,0.18253386,-0.1785103,0.11949139,-0.07354488,0.26116163,-0.33351856,0.108030476,0.43883368,-0.067127086,0.10244906,0.11110672,-0.3268459
-0.048674278,-0.33344066,0.26150325,0.13213612,0.18690854,0.013750913,0.1789272,0.33580217,0.24431346,-0.46854427,0.05722383,0.5725471,0.21140474,-0.17688614,0.30606923,-0.7660012
0.065809704,-0.121917956,0.40110883,0.5888164,0.11625903,0.23119599,0.2376169,0.45651975,0.29375568,-0.5027014,-0.07409563,0.38506204,0.3870866,-0.37434942,0.40002245,-0.81399626
-0.002448466,0.14608186,0.36417094,0.3896768,0.109659575,0.29512084,0.14034915,0.28480288,0.36098963,-0.5497229,-0.26403236,0.019989861,0.15739968,-0.3434276,0.4000453,-0.87245923
-0.16685772,0.08925721,0.24188814,1.0233554,0.08267662,0.14519534,0.25185522,0.061941016,0.22764929,-0.43137342,-0.07962056,-0.73193663,-0.21070972,-0.009322614,0.15483299,-0.3154436
-0.17548735,-0.041294422,0.28365707,0.90145844,0.026420815,-0.033480152,0.34024644,-0.26332802,-0.03396408,-0.10770583,0.31431332,-0.8561241,-0.2077097,0.23758945,0.1125358,0.22856706
-0.16659512,-0.10542989,0.27837494,0.56286603,0.047408413,-0.22844677,0.35913187,-0.5789778,-0.06500194,0.05620969,0.3966063,-0.6421612,-0.2262792,0.29601404,0.050545953,0.33086053
-0.0033559138,-0.07667559,0.40000093,0.35093176,0.24147359,-0.2711888,0.1816021,-0.43545428,0.15189981,-0.04175961,0.35494038,-0.6055877,0.041295,0.016685082,0.35984316,0.21924369
0.124609195,-0.026863482,0.40001133,0.16301367,0.07430529,-0.16892946,0.38878986,-0.44642016,0.20836182,-0.14414045,0.39696604,-0.09280575,0.2946175,-0.22600003,0.40140432,0.1681971
0.0770987,0.06616305,0.40000415,-0.16483568,0.021651547,-0.07216225,0.37728447,0.06887651,0.29377887,-0.15931687,0.29232278,0.11969927,0.39143476,-0.15295361,0.40009412,0.0038028564
-0.13088861,0.044051427,0.26837704,-0.069423854,0.056580573,-0.039904937,0.32745886,0.18990056,0.32259312,-0.19254194,0.10451545,-0.016145814,0.117931575,0.02338629,0.39940247,-0.15297222
-0.13869822,0.06354118,0.2023178,0.22911543,-0.035034623,-0.09096595,0.33805043,-0.2625598,0.16218702,0.0068726223,0.25788864,-0.13779092,-0.073617145,0.15188222,0.257078,-0.14200456
-0.045910202,0.05967063,0.25670087,0.20389907,-0.08048278,-0.0032559927,0.39999893,-0.29442397,-0.114867695,0.11809169,0.4000018,-0.22057556,-0.14734758,0.23243652,0.1801682,0.43648827
0.016335163,-0.010015165,0.25651214,0.37102145,0.07637681,-0.018430019,0.25146717,-0.15263166,-0.012693223,-0.045184966,0.32468086,-0.16156183,-0.12041744,0.06260096,0.15409595,0.05024561
0.21824208,0.0036565776,0.40000814,0.086041994,0.0069415346,0.00975164,0.316809,0.010090918,0.11470535,-0.08821422,0.22744584,0.055825427,0.26712894,-0.1938066,0.4001358,0.08753795
0.008407501,0.13748053,0.40004784,-0.19318092,-0.04561575,0.03430868,0.29498848,0.20939621,0.21037865,-0.08576944,0.10865151,0.2744264,0.3185639,-0.14272496,0.3998476,-0.006396874
-0.1390484,0.12504785,0.24433507,-0.009869328,-0.07034449,-0.03687634,0.31801385,-0.121389136,0.13927422,0.10302582,0.19525039,-0.07149148,-0.031366024,0.07986098,0.25541294,-0.04850275
-0.033444673,0.06291377,0.40524992,0.023503417,-0.26811954,0.058961574,0.3999834,-0.34559345,-0.2035766,0.3664419,0.39990768,-0.20576854,-0.099026196,0.19853373,0.21859978,0.37096846
-0.026146539,0.033312153,0.37897643,0.21278611,-0.054898966,-0.027486648,0.3716696,-0.44298872,-0.19815773,0.23938961,0.39665344,-0.2869575,-0.18141945,0.15176162,0.10005176,0.2688657
0.060661603,-0.038491365,0.35972664,0.3827208,0.0526367,0.010904598,0.26827294,-0.13259816,0.09100887,0.025542326,0.18807605,-0.15176919,-0.06133333,-0.08688913,0.23069397,0.23955563
0.2272318,-0.0016275124,0.39911065,0.09579032,-0.075092874,0.032141168,0.3582937,-0.038275134,0.12981704,-0.025090618,0.2984553,0.22762395,0.3263031,-0.2807563,0.40003696,0.013258576
0.05348514,0.11455925,0.3990288,-0.21114847,-0.14024504,0.07808665,0.36120486,0.25241598,0.19885322,-0.033805333,0.2634132,0.387251,0.35808107,-0.20426589,0.40000367,-0.15560474
-0.13384026,0.15106922,0.22727203,0.011556484,-0.12604491,0.036444433,0.31847352,0.112275295,0.19016503,0.01460632,0.13791208,0.16787098,0.034303702,0.019481158,0.36702138,-0.19495647
-0.032700475,0.12038346,0.3058873,0.14233565,-0.25952947,-0.024384929,0.40001902,-0.20708597,-0.09716969,0.21187481,0.39996868,-0.032420307,-0.09282394,0.08278107,0.27281755,0.099891506
0.026377898,0.01967529,0.345224,0.2978057,-0.07492275,-0.011118988,0.32517487,-0.24280524,-0.20113948,0.12537609,0.39943048,-0.2737364,-0.16574152,0.054514367,0.18370484,0.2003052
0.1592239,-0.052785125,0.36153463,0.103799194,-0.033705954,7.313843e-05,0.30347404,-0.036879387,0.02591859,-0.053465176,0.26138693,0.009399787,0.068633795,-0.18355247,0.30429256,0.12256766
0.17541903,-0.09199402,0.4000113,-0.040487424,-0.119807474,0.03559185,0.3391482,0.16994278,0.0950323,-0.106388666,0.27241868,0.29582822,0.3779454,-0.24311024,0.39976928,-0.046385903
0.01737475,0.063415505,0.40001425,-0.117162004,-0.17914337,0.025286354,0.31949857,0.2217084,0.18995391,-0.09996664,0.17923594,0.33828086,0.4272245,-0.16885442,0.4001092,-0.10641269
-0.11782574,0.08308272,0.24876897,-0.0053736684,-0.13489535,0.019768301,0.23785344,0.2228813,0.25385293,-0.04588954,0.086143374,0.32459104,0.14372697,-0.047798477,0.3961482,-0.15624084
-0.06255935,0.071627595,0.27304935,0.16859521,-0.23210405,-0.095116355,0.39999676,-0.20128198,0.0061452407,0.14227839,0.27650562,0.025386736,-0.090777434,0.16228773,0.23332049,0.06468373
0.009955083,0.028834147,0.3060613,0.22780697,-0.14228293,-0.06780126,0.40139258,-0.14563587,-0.16929688,0.11685457,0.3992528,-0.12808877,-0.16176288,0.14851423,0.17792828,0.19269504
0.0738852,-0.0015842683,0.3066775,0.40536273,0.029630814,-0.0331283,0.23321983,0.018194977,0.07214727,-0.10137794,0.170302,-0.052106306,-0.056643378,-0.105673134,0.19115444,0.17871588
0.17799458,0.017557915,0.38927308,-0.04976123,-0.09107737,-0.018423619,0.3174255,0.019695705,0.11304682,-0.14307043,0.21425006,0.100853965,0.2589404,-0.19074064,0.39438635,0.07752758
-0.08789421,0.17392094,0.38209853,-0.13249151,-0.16760163,0.014207551,0.30748126,0.19393605,0.2338995,-0.10803841,0.08070692,0.115289114,0.31483105,-0.0935289,0.39787248,-0.08442476
-0.13408275,0.1337707,0.24922872,0.15315796,-0.1099132,-0.094186746,0.31764895,0.009878747,0.10329871,0.03894289,0.17917353,0.075860046,-0.09098038,0.16398686,0.25459594,-0.16607621
-0.037306122,0.14989412,0.31161785,-0.091113105,-0.18322103,-0.041939136,0.4014823,-0.2045367,-0.15073708,0.18046798,0.39933532,-0.1078749,-0.16336077,0.21497972,0.23974568,0.09814792
-0.01967141,0.07501133,0.3320769,0.14640446,-0.022791192,-0.04541694,0.30630693,-0.2688844,-0.04307887,-0.0019666618,0.33087146,-0.2628267,-0.1747838,0.088082284,0.18715282,0.09407548
0.18033841,0.009393498,0.3752794,0.13988684,-0.05179196,-0.0061030514,0.3344058,-0.013941545,0.07495642,-0.061638284,0.21260312,-0.022153364,0.14142483,-0.15675968,0.36173147,0.05526041
0.09445642,0.0882196,0.4000057,-0.046250466,-0.13338515,0.03672408,0.34453592,0.19195618,0.18026963,-0.08664922,0.12655376,0.32791975,0.4102811,-0.08845591,0.39991468,-0.11398096
-0.1378135,0.1626518,0.291775,-0.15005818,-0.124304816,0.032757133,0.30215266,0.15455906,0.28219244,0.0011648459,0.02542142,0.22329094,0.14862025,0.023477364,0.39998505,-0.35071117
-0.052729473,0.123478726,0.33562824,0.048012782,-0.25858682,-0.023502836,0.40003628,-0.15349838,-0.012343838,0.20684575,0.34262457,-0.027781323,-0.099997975,0.13488238,0.22966503,-0.07896284
-0.007132698,0.09087324,0.36209846,-0.012994013,-0.1907244,0.047092184,0.40084657,-0.2258155,-0.28875276,0.1692118,0.39994696,-0.17393135,-0.15882489,0.20342822,0.16900967,0.42528334
0.060286116,-0.012124458,0.32629988,0.19500394,-0.008147589,0.01195398,0.2791911,-0.15216655,-0.042192716,-0.038901784,0.2782075,-0.1649673,-0.13616133,0.047992986,0.16412991,0.17126615
0.22414842,-0.09629736,0.3929048,0.17117883,-0.065292954,0.017553445,0.33351332,-0.08102062,0.037603844,-0.07846344,0.23970343,-0.06964323,0.13754095,-0.16406794,0.40007234,0.05091666
0.109510094,0.087030865,0.39986405,-0.013472651,-0.1752978,0.09884266,0.36761257,0.21461597,0.15345703,-0.10674809,0.15237671,0.23670167,0.4080203,-0.17588167,0.39999154,-0.021337593
-0.1401762,0.09799848,0.32248625,-0.0800138,-0.17855528,0.11809723,0.34172672,0.28844082,0.19144341,-0.12681754,0.0745132,0.21877481,0.26870385,-0.09549769,0.38926002,-0.19949272
-0.11352237,0.09273473,0.2754177,0.087807804,-0.21108595,-0.048599496,0.39918518,-0.22622001,-0.030575812,0.07797136,0.26305366,-0.026667891,-0.04944105,0.10378167,0.23772894,-0.107298054
-0.00801317,0.043471474,0.32164726,0.24776953,-0.16320731,-0.04655304,0.38230336,-0.43746272,-0.24387108,0.048242558,0.3993561,-0.12410443,-0.15399022,0.14773457,0.16259779,0.43065953
0.027242796,0.012430561,0.290353,0.32354787,0.023635997,-0.013468296,0.19473583,-0.2741492,-0.06280993,-0.07496102,0.32618016,-0.24258916,-0.15544829,0.009813348,0.13709049,0.13941799
0.22813073,-0.019881397,0.4000382,0.041759953,-0.12537734,0.029375505,0.33812594,-0.17496637,0.0558924,-0.112527445,0.26447874,-0.1488461,0.21825469,-0.22616965,0.40009838,0.106916025
-0.021038506,0.15806502,0.3964045,-0.04600403,-0.22759803,0.0729659,0.33029717,0.05505491,0.16917962,-0.14240786,0.16487768,0.15439746,0.40373734,-0.18608476,0.3999294,-0.10988742
-0.22188477,0.21351358,0.2427143,-0.006057627,-0.21154281,0.06319449,0.29710388,0.18893753,0.21723002,-0.10732975,0.09363527,-0.0030417643,0.17837444,-0.02533712,0.37743244,-0.3571239
-0.12831679,0.18637438,0.340796,0.12639804,-0.2604311,0.03612429,0.40006542,-0.25640363,-0.11105965,0.14792061,0.40015134,0.0014714386,-0.027593125,0.093708746,0.22885928,-0.07300969
-0.110848546,0.12891537,0.33274058,0.3300997,-0.08216889,0.028229378,0.3377908,-0.4115345,-0.2834837,0.11227471,0.3993813,-0.3135156,-0.08800549,0.16674641,0.13649385,0.45844626
0.019997206,0.0024740638,0.35493988,0.3530166,-0.007268426,0.0069003007,0.26170272,-0.32500353,0.0013883349,-0.04597892,0.20449835,-0.09596088,0.049338695,-0.045688283,0.22007465,0.2412589
0.14509812,0.0016763716,0.40001023,0.110592395,-0.10420384,0.012819256,0.33170545,-0.35339782,0.08421561,-0.059573174,0.17485754,-0.020191705,0.351537,-0.16482067,0.40008655,0.15980898
-0.047926437,0.15874983,0.40000802,-0.08674091,-0.21969774,0.09823721,0.34473827,-0.08189488,0.22491339,-0.03943218,0.039520964,-0.002787246,0.3840471,-0.1070979,0.39998758,-0.095229276
-0.14014614,0.14765473,0.23073062,0.09984404,-0.1478645,0.021257367,0.35338336,0.07729875,0.2025452,-0.017631363,0.048294608,-0.2165684,0.016699737,0.1105287,0.33020216,-0.3273515
-0.06459487,0.111805536,0.2963788,0.20674445,-0.27314422,-0.005267231,0.4000033,-0.15937184,-0.047647607,0.056730192,0.38220736,-0.12666467,-0.04980014,0.13037345,0.30115217,-0.06440545
-0.020533698,0.081367046,0.3161486,0.25341007,-0.025380326,-0.009182402,0.35540187,-0.34194168,-0.22179246,0.028723596,0.3960164,-0.24782889,-0.104689,0.16356647,0.23810896,0.31383994
0.07843657,0.032118652,0.3052689,0.18142185,0.029973669,-0.010472068,0.29453155,-0.15523016,0.04536032,-0.13410491,0.2124951,0.040304743,0.01125017,-0.026646094,0.24723913,0.16056027
0.14893341,0.03877135,0.40000498,-0.023478508,-0.09228911,0.026210478,0.34609687,0.038436454,0.14933391,-0.1258413,0.18897037,0.070885845,0.36014622,-0.1657643,0.40001297,0.028036615
-0.075186834,0.13457109,0.37312743,-0.19988969,-0.14719474,0.06802577,0.33612996,0.19560723,0.23829234,-0.12564999,0.06066701,0.14079846,0.32407126,-0.105175324,0.39959836,-0.02380858
-0.10977097,0.120459944,0.28225073,0.08960045,-0.12403078,-0.0035582348,0.40007886,-0.0522901,0.110781156,0.018502748,0.15102693,-0.029054694,-0.046620432,0.1299852,0.2586908,-0.13470311
-0.05693472,0.13368604,0.38156062,0.09757615,-0.22393738,0.019350184,0.4000705,-0.33556357,-0.24984482,0.13007315,0.39844605,0.0023300236,-0.08431519,0.19623612,0.24563476,0.3222051
-0.032472737,0.084152184,0.39984426,0.12513559,-0.03711945,0.040167492,0.35207716,-0.2682911,-0.31636608,0.038628906,0.399848,-0.27452213,-0.14107499,0.123716734,0.1567054,0.19529374
0.14066814,-0.03740491,0.39442658,0.16932245,0.04033538,-0.0052609695,0.25085145,-0.010541327,-0.04128146,-0.107067615,0.17488228,-0.0806614,0.032730073,-0.12537993,0.29533163,0.13822874
0.18927817,0.022887109,0.39835566,-0.1123253,-0.08486893,0.03082996,0.31283417,0.17028698,0.037059996,-0.15455344,0.17798099,0.15044248,0.31124818,-0.2028369,0.40005556,0.04233806
-0.061362527,0.15001163,0.4000026,-0.11235021,-0.165382,0.047132473,0.29745054,0.22714406,0.15880264,-0.13275018,0.039282497,0.22105937,0.28092954,-0.12869844,0.39995515,-0.1402783
-0.122923754,0.13661201,0.2686691,0.14634967,-0.17781934,-0.06550821,0.40152946,0.07903293,0.029498447,0.07462051,0.18279448,0.100314915,-0.07009889,0.09318948,0.25963166,-0.24800545
-0.056295983,0.10874186,0.31869715,0.15196846,-0.2097648,-0.061152842,0.3975853,-0.24074407,-0.23517527,0.12878372,0.40001565,-0.091724746,-0.11915233,0.177951,0.24032114,0.2553257
-0.006959301,0.024955548,0.30239955,0.07125461,0.05120697,-0.04053801,0.28047898,-0.27006245,-0.15923297,-0.03548114,0.33071983,-0.33454716,-0.16018738,0.048435625,0.17328382,0.043875005
0.16728719,-0.07250206,0.39725584,0.15178269,0.021698674,-0.023837073,0.33285227,-0.10619022,-0.025242232,-0.12160718,0.23740654,0.0824856,0.1586173,-0.2068152,0.40010425,0.12974454
0.11522465,0.09296146,0.39871472,-0.067497864,-0.113102734,0.031389505,0.38627285,0.1638662,0.10444349,-0.12559752,0.1502853,0.29143652,0.42788154,-0.1629853,0.40000105,-0.024479067
-0.1362922,0.15039748,0.36995858,-0.09473015,-0.1267905,0.009206809,0.34309375,0.20841646,0.16357514,-0.107926324,0.044622183,0.42646903,0.2757732,-0.089492865,0.40066648,-0.13509083
-0.14699283,0.10670382,0.3013748,0.17037354,-0.18720831,-0.10492449,0.39445925,-0.14360504,0.056092937,0.07872201,0.1648658,0.030904405,-0.058152795,0.08746303,0.23358035,0.007610453
-0.05438912,0.07147396,0.36286652,0.15539466,-0.20420755,-0.034317948,0.38750893,-0.4316462,-0.25601494,0.16463402,0.39998978,-0.15789554,-0.12056632,0.14068592,0.23238792,0.4159175
-0.06142616,0.015854688,0.3361042,0.07309419,0.006601085,-0.02495627,0.25331485,-0.29140502,-0.10481582,0.014407128,0.37211725,-0.3912194,-0.21675538,0.025810957,0.13083003,0.03667016
0.1375352,-0.08608918,0.40000996,0.19620252,-0.018594563,-0.024408579,0.2682952,-0.21117063,0.085270084,-0.12250905,0.20069398,-0.07610748,0.10887497,-0.23207054,0.35997546,0.044054694
0.0340275,0.103343114,0.4000057,-0.08459749,-0.16759457,0.0022383116,0.29031786,-0.17053759,0.24450484,-0.11521699,0.0978112,0.054787938,0.40465257,-0.14745972,0.3997316,-0.022890745
-0.17871165,0.18740033,0.23844495,-0.09210126,-0.15333743,0.01599077,0.24445184,0.25405186,0.27840793,-0.12546505,0.056383114,0.12812059,0.15305683,-0.04262532,0.39765498,-0.29065195
-0.09278264,0.15159084,0.29172894,0.038075294,-0.21900618,-3.8003936e-06,0.4000098,-0.14631417,0.074464194,0.09426673,0.30615112,-0.050779883,-0.043358352,0.1182265,0.2779008,-0.21565132
-0.033450276,0.09839692,0.33955187,0.25767347,-0.16549674,0.08298275,0.4009055,-0.21392716,-0.23348783,0.14407586,0.40012035,-0.14163283,-0.12992309,0.17224282,0.18251634,0.32139662
-0.023049518,0.025385587,0.291524,0.21115905,0.03581969,0.045631178,0.2712454,-0.22662011,-0.09863721,0.003060533,0.36947823,-0.2940154,-0.16553718,0.055752557,0.12044196,0.23887664
0.18112266,-0.09311979,0.39115596,0.10424462,-0.006016945,0.047992285,0.3287339,-0.13362111,0.044773705,-0.081993036,0.2806189,-0.045282576,0.17383328,-0.18747957,0.40015012,0.19507436
0.111110695,0.04564269,0.40002483,-0.058864076,-0.118287586,0.09037759,0.36736766,0.020938803,0.15956633,-0.06482562,0.21553808,0.017988157,0.43107218,-0.15886016,0.4000337,0.061141323
-0.10364604,0.07480181,0.26764074,-0.010364906,-0.08090043,0.10834365,0.32628554,0.3009556,0.18468058,-0.068251215,0.08989567,0.24925268,0.12345747,-0.005374979,0.3754727,-0.15253024
-0.005566949,0.03675942,0.32222578,0.115440674,-0.20299608,-0.026233798,0.4009045,-0.14160702,-0.078374244,0.13542229,0.37188506,-0.13612328,-0.0844334,0.15085912,0.27693942,0.13354728
0.038389515,0.024942067,0.36191684,0.092319995,-0.092699446,-0.02668067,0.39994338,-0.27245265,-0.17231104,0.08483257,0.3997985,-0.20379443,-0.15345742,0.15970331,0.22306746,0.37406307
0.12310324,0.023617864,0.3482623,0.1610338,-0.036000542,0.001110151,0.27959427,-0.16587146,0.041321944,-0.079455055,0.29866567,-0.07837617,0.0017931057,-0.08813118,0.33736542,0.0575977
0.18528497,-0.015460456,0.40003031,0.0092147,-0.14256364,0.032825388,0.32394502,-0.08447013,0.13411434,-0.081562795,0.2442507,0.048849083,0.24948813,-0.15149067,0.40001494,0.065436676
-0.10760703,0.123189285,0.37378916,-0.25662562,-0.2275291,0.11848708,0.3051535,0.33203515,0.2650563,-0.0850906,0.08988862,0.32332554,0.3388744,-0.08594699,0.3990543,-0.13662277
-0.1316607,0.06794912,0.3168268,0.10920804,-0.15250099,-0.04309737,0.35576552,-0.061314903,0.19496402,0.050421666,0.14459997,0.2885925,0.022805978,0.10775659,0.30679402,-0.16794713
-0.118789434,0.050069887,0.3485642,-0.03883922,-0.24484195,-0.045146953,0.40000552,-0.30006754,-0.18678038,0.22499055,0.40009177,-0.042185385,-0.0932693,0.16710308,0.18908875,0.28275895
-0.092161566,-0.061791267,0.36304998,0.25948116,-0.0063670543,0.0028100505,0.29607457,-0.27025476,-0.08529246,0.07193985,0.36343017,-0.37044054,-0.1575888,0.030948224,0.14600456,0.10621888
0.16747046,-0.07698886,0.40003031,0.123398796,-0.06103611,0.007945189,0.35482162,-0.17430896,0.07216684,-0.043695834,0.24876206,-0.12810771,0.2467192,-0.2341278,0.40004122,0.13388054
0.14046171,0.043249156,0.40000397,-0.021482795,-0.14755066,0.04968965,0.36709175,-0.0086504845,0.16704154,-0.07818847,0.21579403,0.2792796,0.47225103,-0.20455644,0.4000176,-0.08678783
-0.11588014,0.0973629,0.27981973,-0.116955325,-0.17259255,0.10720351,0.32617137,0.2578508,0.2324907,-0.09682281,0.1066028,0.13966483,0.2276487,-0.09124698,0.39997664,-0.29830438
-0.07802522,0.09904694,0.2571619,-0.086338684,-0.23096389,-0.061244823,0.39863706,-0.18289429,-0.027473163,0.009119741,0.25602624,-0.03766132,-0.025764734,0.081228,0.27430257,-0.03965148
