ancorasir/BennettWheelLegRL/experiment_data/2024-02-05_04-40-02/joint_vel_env0.csv
Joint_1,Joint_2,Joint_3,Joint_4,Joint_5,Joint_6,Joint_7,Joint_8,Joint_9,Joint_10,Joint_11,Joint_12,Joint_13,Joint_14,Joint_15,Joint_16
0.0,0.0,0.0,0.0,0.0,0.0,0.0,0.0,0.0,0.0,0.0,0.0,0.0,0.0,0.0,0.0
0.65163493,1.4711238,-3.295407,-2.4582737e-06,0.66928923,1.4516122,3.2850516,-0.0012089941,2.104036,0.40664467,-0.7378475,3.0922703e-05,1.638193,1.6379755,3.2645116,-0.00031902664
-1.3346329,-1.0613059,1.5863794,-0.00027656555,-4.6345797,-2.771119,9.49725,33.50125,3.7968304,2.7524529,-4.9852757,-4.316332,-1.0313315,3.3646486,3.985966,-0.11887264
-3.8808987,0.5028986,4.0299683,0.10055763,1.7060999,-2.0041585,2.8381612,-2.3154778,0.039532423,4.2650733,-2.1953487,-19.515903,0.5704161,-2.0847352,5.0593286,22.271666
2.0380485,-2.905642,0.6783428,9.993653,-0.5732839,-0.056417078,3.4755025,-0.025672913,-1.2947946,0.06744512,1.3592926,-0.040327333,-3.2162457,1.0315769,-3.1251364,10.61951
3.5038974,1.2352722,4.581616,9.783665,1.1721632,1.6591598,-3.3700452,-0.028358635,3.8155842,0.26495856,-3.4708347,0.033704124,3.4319458,-3.4333096,2.1727405,-0.006490577
1.7610664,0.9258102,-0.062782586,-7.4392074e-06,-0.59520876,-2.0982385,0.32011396,-6.582969,0.6364802,-2.3765378,0.44939315,7.8027153,3.3888829,-3.2008045,-0.05654478,0.022858195
-1.7107781,2.9901593,-0.020475976,-2.797471e-06,0.55306363,-2.2182257,-1.8448822,-4.6775827,0.33246523,-2.2757123,-0.79794925,12.727339,-0.5404279,0.38155335,-0.09805286,0.013967238
-2.7724485,-3.154859,-1.7923284,-1.32251635e-05,1.8904436,-2.7711713,-3.8684983,9.627943e-05,-2.783815,-1.6356435,3.8997629,-0.06283789,-3.8953955,2.4442406,-1.1062202,-0.01449284
-0.87175894,2.6359384,-2.8999462,-38.33777,-3.076037,1.5755782,3.749605,0.030084401,-3.0964627,4.162297,3.7096395,0.02377892,-0.9112387,-1.9064391,0.2522996,-8.342049
0.6201553,0.6241066,-0.2542776,-1.7101755,3.264398,1.6201165,-0.00516849,0.007041476,-3.284302,-1.0177617,-0.015752291,0.010692855,-1.1932085,0.74987084,-0.4355616,4.29073
0.23823977,1.5631628,2.3712802,9.052393,2.472241,-2.728735,-1.9895518,-6.09667,3.416037,-3.4921186,-0.29861593,-0.063965835,-1.9238025,-3.198257,-1.063947,-5.377001
0.16100454,1.0599931,-0.04193592,4.4405315e-06,-1.8170142,2.4463494,2.2781105,13.36691,1.9467613,2.5661066,-1.4998484,-8.850564,3.102225,-3.1367567,-0.19219339,-0.026380572
-3.3428552,-0.5768895,-0.047348455,-2.7059652e-06,-1.381933,2.2406783,1.0093428,5.4439106,1.9324123,-0.29181075,-2.1266391,4.41969,1.0883887,0.9073132,0.036628246,-0.0007215217
-0.22669157,0.595002,-0.42117178,0.37943548,0.024644718,1.7258066,-0.14526762,5.3922935,-1.1564794,-2.3875906,3.4742439,0.09071553,-3.4045303,3.3154905,0.4214038,-0.017190985
2.3539934,0.14728014,1.8959305,-2.02786,-2.5170326,0.6443977,-0.04087378,0.0093322825,-3.2424245,2.2459428,3.3624682,0.012384255,-1.1978624,2.0559647,-0.77173376,10.513889
0.8793349,-0.74241304,0.12417301,1.4473997,4.166511,0.7332903,1.2561572,-0.00089645386,-1.4263815,-1.227712,0.027304113,0.09686646,-2.17571,-1.8716683,-2.4999557,-11.396842
3.3262882,-1.645645,4.4818974,0.00088214874,0.36180764,-2.6593077,0.38477334,-9.079391,3.4778118,-0.38467765,-3.6362228,0.043232802,3.8162231,-3.350708,1.512688,-0.02444614
-0.5902716,1.8065829,0.042775046,-2.365936e-06,-1.8231701,2.6960278,1.1515414,7.54127,1.3633798,-2.2160637,-0.21412116,11.077721,3.3799672,0.87860554,-0.009305492,0.0119285295
-3.2811682,2.8280327,-0.02853353,-8.2768656e-07,-0.45443577,-2.296245,-0.92374533,-9.068777,2.2092044,3.3488016,-3.485177,-12.308691,-1.276492,0.97372663,-0.07585144,0.025135085
1.5569681,-3.4550686,1.645521,3.6709373,-0.2168212,-3.0814438,3.6463575,0.03974819,-1.1382362,0.5457771,1.9763962,0.15802401,-3.3915281,3.6455421,-3.4134896,-0.0031828564
0.5580182,-1.9099184,0.86212707,2.921853,-0.4708108,0.03938554,-0.09574739,-0.03388539,-2.4143217,1.5469952,0.110989586,-0.037397508,-0.99720466,-2.3179002,-1.6937686,-5.8885818
-0.71762484,2.6426008,1.3001269,-0.6166277,2.9164836,0.3412014,-3.5638874,-0.025771685,3.3367455,-3.5107102,-0.020924047,-0.05582287,-0.20869577,-2.6480756,-2.126721,-7.672102
3.4241326,-1.6108743,4.8399057,0.0013179779,1.9473133,-3.161983,-1.1597437,-5.4396744,3.6190581,-0.8235967,-3.6664312,0.061562877,3.854966,-3.2452662,2.5230787,-0.035906963
0.08467212,1.8430669,0.3121062,1.2281502e-05,-1.002061,-1.9450407,0.04932964,-8.286821,1.8849479,2.819359,-1.4976523,-9.252583,3.2862098,0.734782,-0.10013965,0.030638285
-3.4810395,2.408159,-0.010349005,1.4856696e-05,-1.1099609,0.07648784,-0.13406223,0.48532188,1.0446662,3.5606313,-1.4178104,-11.179594,0.87856776,0.7495701,0.019349195,-0.015732175
-2.5316079,-1.4141477,-3.4692051,-1.0444559e-05,1.9253013,-2.8796167,-3.3299708,-17.415257,0.027338356,-0.41517466,-0.4812438,-0.69054127,-3.438747,3.3159692,0.7019692,-0.04989174
0.8719501,1.4288652,1.9720881,-13.154022,-3.2557209,0.5105433,-0.031428635,0.012105353,-3.0734513,4.0962806,3.7763672,0.011108652,-0.41916415,0.28361303,0.41951144,1.7935877
0.96249986,-2.026863,1.0080767,1.5933475,3.475066,0.925999,0.0035530925,5.758314,-1.5346055,-1.243171,-0.12933497,0.006760074,-0.8564218,-0.5628984,-0.45419383,-1.287962
3.241758,2.2597542,-1.3803573,0.8102836,2.4228177,1.9176725,-3.3558855,-0.002276849,3.0056965,-1.7916825,-3.6008503,-0.0037105605,2.392687,-3.4303913,-2.8112454,0.005934298
1.7263765,-1.3047926,0.015968764,-2.579287e-06,-0.43983617,-2.5119877,-0.25075835,-9.012675,0.049147964,-2.5270424,0.85564685,10.399831,3.4073045,-3.2125983,-0.12527415,0.05247529
-3.1659768,2.3486397,-0.00043535978,7.211045e-06,-1.3331449,2.5178132,0.44625115,8.012723,1.9945443,0.541996,-2.3306007,0.95848775,-1.2993847,1.6519306,-0.0066533536,-0.020210482
-1.4999847,-1.7303183,-3.4647913,-7.1670966e-06,2.0744343,-0.32406986,2.9605782,0.6020913,2.2548585,1.0514791,-4.395284,0.000117037445,-3.6633115,3.3736227,0.14764336,0.021507978
0.4524408,-1.6006503,0.7796482,4.881654,-3.1680584,-0.9702275,-0.085772626,-0.03608761,-2.1363356,3.3042028,3.3457124,-0.035870466,1.3947818,2.6493254,2.975984,7.207304
0.006159425,-1.1159824,-0.827343,5.2918625,1.7451746,2.0761778,0.19129544,4.840069,-1.6577717,-1.4625882,0.021055479,0.0017033415,-0.09338483,-0.31497136,0.4979936,-0.7284441
-1.1761318,2.1927996,-2.3149612,-3.3951964,-1.2308208,2.4496472,1.2542149,9.076981,3.3775134,-3.3612592,-1.9961197,0.022614667,2.7028446,-2.5552795,4.1497536,-0.0027065277
0.16113238,-1.5496103,-0.045191772,-2.400675e-06,-1.4493883,2.597064,2.862705,13.95118,1.0833352,0.9649075,-0.003484249,-4.0445423,3.4266038,-1.7635359,0.007016307,-0.03777819
-2.3121746,2.854033,0.105133906,-1.5448086e-06,-0.4940348,1.6992551,-0.00055646896,7.1286736,0.5313771,-1.6477401,-0.8774894,5.6234856,-0.8311346,0.9638682,-0.005372584,-0.04086034
-1.0544372,1.8913381,-1.2634813,-6.876255,-0.7878549,2.21455,0.2512411,6.82399,2.4924068,2.8723261,-3.940551,-5.501628,-3.5573673,3.4308958,-2.8531454,-0.040636826
-2.7371879,3.2464986,-6.8983164,-65.76761,-0.7795161,0.06933352,0.0029982924,-0.0009277165,-1.8442078,1.1782016,-0.3054204,-0.07177794,0.47625196,-0.21824816,0.5437293,0.33124626
-1.6440012,0.48586094,-0.96109706,1.5651228,2.9556684,2.1662552,-3.4261444,-0.0077240784,3.3882825,-3.453474,-0.5933816,-0.012643814,1.8245761,-3.2659223,2.5659907,0.03174662
3.163843,-3.1409433,-0.040391147,-14.74905,-2.236329,2.2831433,2.0670605,7.3879223,0.6800482,1.7137579,0.72839564,-8.28259,3.669128,-3.3578386,2.6226976,-0.061336074
-1.2639341,2.3388312,0.007143289,6.3809134e-06,-1.8330138,-3.363969,3.6867547,-3.828415,2.9858449,2.3422213,-3.6669693,-44.487778,2.7379174,1.1133189,0.037287347,-0.061572015
-3.2836618,1.3982658,-1.5842246,1.0873948e-05,-0.55487067,1.5778751,-0.7137674,5.065383,1.6708964,0.50473976,-2.6760464,1.4472942,-3.3078334,1.6864203,-0.0025432557,-0.020368136
-0.8037621,0.3203571,-0.31298915,1.9257722,-3.2051558,-2.7422926,3.3963017,-0.0061464203,-3.2598825,3.8593366,3.74419,-0.01639336,-3.4073648,3.567127,-3.5298245,0.0046973014
1.7161984,4.067723,3.218683,4.0658875,-0.08599604,0.99225396,0.05043736,-0.060912658,-3.3574724,1.5792904,0.08457217,-0.083999574,-1.9914086,-2.5105283,-1.8580303,-5.736028
3.3326151,3.2718465,-2.1494637,0.016936459,1.046534,2.1334734,0.4429853,9.850167,2.6979392,-1.5634719,-3.5628262,0.034555443,2.3528717,-3.4380991,-0.5928626,-0.029242694
1.606075,-0.17654058,-0.044197753,1.3742247e-06,-1.1815394,2.9136837,1.3451849,7.1817656,0.2130875,-2.5563304,0.611559,12.253742,3.6543803,-1.7401648,-0.17129296,0.009379059
-3.248909,1.9758326,-0.0010021031,-9.048367e-07,0.67098224,-2.5643935,-1.5688645,-13.760258,0.26128381,-1.2776233,-1.1071737,2.78935,-1.5702518,0.9746342,0.016428791,-0.042035967
-0.23244914,-0.24881184,-0.4123096,0.2775309,1.7081662,-2.2816703,-3.1545324,-23.743603,2.5489564,2.387466,-3.357656,0.15965992,-3.475005,3.3584151,0.040683135,-0.0530229
-0.47043467,2.7140236,3.79819,8.246258,-2.0846927,-1.0322312,0.097077355,-0.071742706,-3.683497,2.2157457,-0.29643828,-0.09177976,-1.4165826,-2.5677803,-1.4718294,-5.4419975
0.3504338,-0.85174465,0.16097413,1.1154022,3.1959152,0.91195446,4.4716234,0.37207222,2.4386785,-2.857195,-0.076322034,0.018850256,-1.5682961,-0.98181814,-2.1132932,-0.4631412
3.3138268,-1.4076976,4.385678,0.0008020401,-0.042606473,2.4007294,1.309644,9.803965,3.2494047,-1.3792098,-3.7461705,0.058304004,3.863071,-3.4610991,2.6712701,-0.03501521
-0.1188015,1.5045533,-0.0049560927,-6.4247615e-07,-1.1684026,0.33103707,0.61559933,-0.14449967,2.2761412,3.7296777,-2.9874287,-10.82629,3.1240897,1.0821451,-0.20716235,-0.018016003
-3.0346847,1.9340621,-0.047503248,-2.4412639e-06,-0.10019824,-1.13875,-0.23736095,-5.025844,0.77109265,-1.4360036,-0.75799155,3.990573,-3.0473955,1.1699896,-0.022413932,0.09441658
0.26328653,1.1740541,-0.7912343,0.86752003,-0.88241625,-3.7759662,3.6504867,-0.0022337437,-2.914919,3.547011,3.685531,-0.0062618507,-3.4131298,3.5335605,-3.465134,0.019440573
0.36546692,0.2818769,-0.081261605,-0.72618425,-0.5914123,1.067051,-0.002815999,0.005731128,-3.3942182,1.8941518,-0.0039833756,0.008016566,-0.7206559,1.4630213,-0.3813882,5.5213847
1.1777226,-1.8524604,0.8832805,4.2832475,3.355505,1.4339434,-3.3192782,-0.016429469,3.7159677,-3.3921838,-0.051653408,-0.0003918251,-1.7603986,-2.8339686,-0.87368214,-15.569014
3.3506866,0.7118799,-0.01939835,-1.4844388e-06,-2.1310985,-2.1043472,1.6632627,-9.89583,0.9325122,1.7174771,1.3268845,-8.561616,3.1789033,-1.247494,4.0934505,-0.016596317
-1.0696243,2.2280204,-0.01232921,1.1221905e-06,-0.22307491,1.9883449,0.010203779,9.795845,-0.16686475,-2.9141223,0.78046244,0.2536642,0.6755696,0.7901504,-0.052700933,-0.010071624
-3.111602,2.4304922,0.01455773,-7.673687e-06,-0.7470357,1.8841325,-0.32422698,11.976334,0.79262877,-1.342111,-1.2175946,6.412304,0.45501336,0.6280517,-0.002807498,0.042539563
-0.27966785,-1.3980079,-3.484572,-1.3986424e-05,0.4164887,-3.3291721,2.4060407,-0.012313819,-3.351522,3.003272,4.6584444,6.376257,-1.9819541,2.43547,0.031338513,10.180644
0.32333386,2.9517674,1.176844,-13.154507,2.0643764,-0.34645027,-0.8453492,-0.017398357,-3.5276592,0.3408263,-0.10358453,0.056895748,-0.45990032,-1.295991,-1.269258,-3.9060302
-2.1499138,3.3747916,-1.55694,-3.7773952,-0.7496179,2.0469704,-0.14566272,10.498327,3.3813767,-2.983584,3.8932068,-0.018758938,0.060042083,-3.460135,0.34423104,0.0041900612
2.9901524,-0.012917593,-0.08343102,-8.365333e-06,0.23317623,-1.6410408,0.2220118,-3.3749459,-0.7451769,-3.1589065,1.628297,6.8141117,3.594823,-2.8145137,-0.078578144,0.035163082
-1.209028,1.8092868,-0.0067044385,-9.680152e-07,-0.29991895,-0.272204,-0.34884155,1.1499188,0.8593324,-0.529663,1.4006629,13.053419,2.3860242,0.8859096,0.074149325,0.082679026
-3.1659186,2.4582865,-4.5859647,-0.001203537,0.5375103,-2.7736146,-1.9916995,-16.637264,1.216486,3.5437808,-2.4501796,-3.8424878,-3.630928,1.6691473,0.85120535,-0.039847247
-1.921099,1.324055,-2.1553202,-51.969368,-2.831201,-0.0058968887,3.3523638,-0.017111346,-3.6465502,3.4056435,3.3214483,-0.037924465,3.0718157,1.5136975,3.6851225,4.0113144
0.5112765,-1.541728,0.32163668,8.420049,-0.36964852,0.6676955,-0.089319944,-0.031160183,-2.7629247,0.7644198,-0.13249332,-0.042790268,-0.45949933,1.2611893,-1.0268563,10.826201
2.4817245,0.8749989,-4.4300256,-3.975467e-05,-0.7893232,0.8456391,0.70206016,3.6226115,3.1480303,-3.50457,-2.2614384,-0.024845354,2.195494,-3.9469392,3.6779423,0.01747971
2.9580693,-2.6402957,-0.0869344,-5.4401867e-06,-0.9924185,-2.097811,0.6363381,-5.6515555,0.18204035,2.5951655,0.3376974,-10.976227,3.1821415,-3.1482072,3.231441,-0.017472373
-2.3191648,2.8087103,-0.0008587451,-1.813436e-06,0.20614141,-2.5029643,-1.1969138,-4.7287436,0.012589857,-1.8397244,-0.24757177,12.575223,2.333733,0.6291154,-0.005783044,0.01504305
-1.3351679,2.3051903,-1.6153456,-5.763589,0.43426895,-2.3893664,-1.6514213,-9.754259,2.2250125,2.0387833,-3.4579227,-0.086702585,-4.1955132,2.237592,0.53098774,-0.008338597
2.2082574,0.5712591,1.6345134,-3.7880504,-2.1497753,-0.14534234,-0.031192485,0.0065977974,-2.9928277,1.9982651,3.390732,0.0107912375,-1.5108283,1.8465719,-0.9354692,10.280078
-0.026439667,-1.7085693,0.04634309,3.9220343,3.3009102,0.037214108,0.76600325,-0.032619976,2.1125038,-2.8878837,0.036501136,-0.0327862,-0.52163893,-2.1194272,-0.9560108,-5.628492
3.4029453,-2.8704274,3.2568293,1.5637625e-06,-1.7534033,2.5695744,2.55137,8.091837,-1.0138664,-1.0018884,3.24062,-0.7435634,3.791475,-3.4599185,3.1896558,-0.06665175
-2.5228004,2.1983724,0.65213907,1.2466301e-05,-2.3176146,2.849275,0.8247701,8.868023,2.7486675,2.394976,-2.2364912,-7.1421676,3.3560345,1.2836336,-0.060707554,-0.024985163
-2.1646109,-0.639136,-3.4777899,-7.1830145e-06,1.9968756,-2.7179718,-1.2215629,-11.061306,-0.6588589,-0.008266091,0.3416114,-1.106683,-3.5081387,3.4571257,2.4574997,-0.014872145
0.15805554,1.144878,0.5811726,-4.9604497,-2.994555,-0.69944394,-0.02764791,0.0039803796,-3.349999,3.2063262,3.2662764,0.01026243,0.13226616,2.0912924,1.7758484,13.273094
-1.4421966,-2.3352418,-1.796183,0.8755846,2.563005,-1.4281898,-4.2727447,-0.014744282,1.0946859,-1.4322443,0.061409563,-0.04640522,-0.25226694,-1.3187613,-1.0258691,1.1511931
3.3644238,-2.6084926,3.0633144,1.00801e-06,1.2507656,-0.675254,-0.5336179,1.6882284,2.2925532,-2.467249,-3.5373113,0.03143152,3.576967,-3.3192835,2.1239674,-0.024907734
0.5948215,1.6412088,0.43861794,8.803743e-06,-0.8991267,-1.4522111,-0.1994164,-5.4988275,1.0302471,-1.3028977,-0.37139952,6.8545637,3.2383804,0.5388638,-0.23212409,0.02510259
-3.23165,1.2147835,-0.0041934997,3.208057e-06,-0.20209605,1.3323145,-0.5001681,6.0900083,0.33391768,-3.4346974,-0.77574825,0.61274296,-3.0362082,1.2652019,-0.009490132,-0.027403243
0.36436448,-0.20965002,-0.14396293,1.9280218,3.0768805,-2.6780806,-3.8205037,-0.0042543877,0.23095685,-0.19649154,0.40537506,8.095535,-2.930754,3.4007428,0.5865537,-0.0064585134
0.8209708,1.9477222,0.5601321,-5.9765687,-3.0179229,0.8472543,-0.02928127,0.0060240943,-3.2040422,1.6894478,3.3740094,0.009445822,-0.49594343,-1.6274137,-0.33102167,-4.752463
-0.23191154,2.1304321,0.65674806,-7.418699,3.329165,-1.3599418,-1.7905653,-0.01047701,3.063231,-1.0733236,-0.025986943,-0.008211177,0.8691404,-3.3572664,0.3370791,-3.3104715
3.3381116,-3.3065646,1.5997982,3.395356e-06,-1.2246403,-2.2113056,1.0584188,-9.057785,0.22521156,1.646817,1.1452435,-9.310678,3.698863,-3.2931952,3.2247245,-0.022775128
0.030771155,1.0211676,-0.008416524,-2.727189e-06,-0.44523185,-2.2313895,-0.21866065,-7.809758,2.2909164,3.8298056,-3.9740124,-20.646828,3.187744,2.4305463,-0.022007212,-0.039974093
-3.4186108,3.3743308,-0.0114812255,6.002605e-06,-0.11007263,-2.5180547,-1.2752849,-7.4216805,2.146597,3.5884836,-4.178298,-21.182518,-3.4006114,1.0961097,0.031769592,0.04311072
0.35006905,0.1557811,-0.28243345,2.584062,1.3469574,0.932819,-0.92114425,7.456217,0.5934716,3.4442692,-1.4044665,-8.298651,-3.2849035,3.502754,0.0060287965,-0.0061841942
-0.0341388,1.5590076,-0.3877998,-4.848071,2.3841074,1.7592994,-0.03189236,0.017427443,-2.3950722,2.468146,-0.11341244,0.0091186315,-0.5394522,1.8606098,-1.046135,10.583871
-0.8126873,3.6965342,-0.3382058,-6.1050587,1.1116029,-1.9430649,-1.333125,-6.292975,2.5769093,-2.8985295,-0.023420203,-0.013455756,-0.99918276,-2.3262591,-3.4437017,-4.68656
3.321744,-3.2658644,2.95709,1.6130391e-06,-0.80493486,0.67357993,0.9312178,3.5291786,-1.2595749,-2.2480075,2.4057162,5.6803207,3.594251,-3.4056807,2.066359,-0.009119581
-1.8552494,3.10905,0.08078837,1.6987042e-06,-1.0887105,-2.3206317,1.4282103,-11.844433,1.3513906,0.4255044,-1.2960985,1.1063552,3.3181074,0.7977222,-0.12485485,0.022464149
-0.67412484,-0.39838046,-0.38396475,1.0221466,-0.5609256,2.1083846,-0.23576033,6.291338,3.0091524,2.4545157,-3.9314942,0.016915867,-3.5169504,3.3168063,0.083448954,-0.003740549
-2.2400336,1.8116639,1.3839574,1.0802879,-2.0628724,-1.7299409,0.05769679,-0.043280624,-3.8554373,3.6516826,3.4623585,-0.055345297,4.4775577,1.675035,5.513074,0.2748267
-0.528293,1.2297976,-0.6723313,-4.8517637,3.2970357,3.0408762,2.7580388,13.052584,1.4606975,-1.0255555,-0.077500746,0.07542424,-0.3102451,-1.9287041,-2.425715,-7.1013384
2.0957441,-1.5079623,0.26189512,5.120454,2.2001662,-2.7804105,-1.4209192,-1.2526302,3.2154949,-1.5704402,-3.3691072,0.00094912946,1.4061499,-3.4285152,-3.1184466,-0.0016412288
0.89485717,0.5617417,-0.041406475,-1.0312942e-06,-1.7589741,2.8087878,1.6117781,7.5720925,1.7875767,2.4065914,-1.2252599,-8.162468,3.1152751,0.0118841585,-0.09316102,-0.03922047
-2.4110427,1.6429063,-0.036757067,-2.8099753e-06,-0.8985256,-1.6465403,-0.41397673,-5.443281,3.049378,3.238669,-5.2118535,-38.24456,1.5863985,0.84028655,-0.03083941,0.0074128136
-0.056673765,1.7215188,-0.69803584,-3.306247,1.510623,-2.9101996,0.10814172,4.263571,-2.0934174,-2.7880836,3.970882,0.0035066977,-3.3286777,3.3462815,0.10373373,-0.044593707
0.23387718,-1.7761834,1.0894587,5.5140734,-2.706021,0.11958367,-0.03599762,-0.03858785,-1.9715434,2.4895911,3.4377484,-0.03969,0.34332466,1.9878705,0.5942919,9.498999
2.4633346,-2.021168,1.3962623,2.7471151,3.5302868,-0.613057,0.05506,11.356621,-2.198251,-1.7271104,-0.082617804,0.027185973,-3.3207197,-1.2804289,-3.4580262,0.038046777
0.57949996,0.057497054,-0.12144911,0.9354734,0.20876563,2.642161,1.1955558,7.614518,2.9058018,-3.2000606,-3.2780128,0.008525252,2.9032497,-3.4060798,1.0059569,-0.032193646
1.8103948,1.28065,-0.034519017,1.07966625e-05,-1.1231763,-1.1491542,0.33552444,-5.75124,1.8640066,3.5642073,-2.0302007,-11.61919,2.859617,1.2442665,-0.35749438,0.012791991
-3.3736901,3.0966802,-0.0030335784,1.1912597e-05,-0.52641314,-1.1185238,-0.5381931,-5.4591885,1.704599,3.3447375,-3.7817192,-11.26664,-1.2040058,1.1185856,-0.007914856,0.016623233
-2.10523,-1.7642641,-3.5091095,-1.0881837e-05,3.2577798,-3.2498868,2.223853,-0.027111292,0.1757037,3.353666,-0.49857736,-10.410675,-3.5743515,3.570498,-0.040849473,0.010038458
2.141489,-3.0324645,3.791578,-0.5365939,-3.389471,0.9178301,-0.09038046,0.013962023,-3.4944274,3.815303,3.5290685,-0.018533811,-0.7204691,2.637626,0.3001423,8.67231
-0.43172526,4.0457497,1.3263359,1.1735039,2.78687,0.37392932,0.06373167,-0.048435345,-1.3768331,-1.0090017,-0.050194487,-0.036267944,-1.4997165,-1.9860771,-2.1932008,-9.063906
2.2566872,1.5990646,-0.79818964,1.8702906,2.2650297,-1.1645532,-0.9697279,0.7153956,2.0564947,-3.5513787,-3.5242121,0.013689942,3.286624,-3.3249497,2.3101904,-0.008041345
1.1340785,-0.04299313,-0.5642538,0.0013542175,-0.9914769,2.8378234,1.1170344,9.786225,-0.25775903,-2.4203854,0.9816543,9.279826,3.569233,-3.3730116,0.17886178,0.053759396
-1.5749973,-0.60726106,-0.028531358,0.001613617,-0.5553193,1.7555829,0.13458836,6.333057,0.09987563,-2.6378746,0.067968965,0.5123875,3.3503509,-0.7229696,0.041202992,-0.0033830553
-2.4204555,1.3268862,-0.39938122,2.2958183,1.2571607,-2.9597864,-7.8394575,-44.675316,1.4670911,-0.73178095,-3.9287062,12.199473,-2.3723805,0.82613605,0.030412436,-0.015661776
-2.1708765,1.7757974,-2.2299416,-3.6235788,0.51747245,-2.3498993,-3.9445133,-18.21157,1.741927,2.0597029,-1.8164389,-5.945773,-3.413604,3.5302036,0.020312356,-0.07493951
-1.2503202,-0.3335328,-0.908378,3.3906822,-0.11503887,-3.4226418,2.7111406,-0.018259764,-0.64715683,1.8065139,3.5864017,-0.02001035,-3.0624087,4.7038193,-4.3322444,0.04720578
0.7332634,-1.7922839,0.49201518,-0.63985777,1.989153,-2.523614,-0.030216336,0.00736718,-2.0816545,-0.1302802,-0.10591839,0.0038330741,-1.6733547,-0.22054493,-2.4244473,-0.6848068
3.5676274,1.6480017,2.4959707,0.18070412,0.32153073,0.29145682,0.6361956,-2.0810175,1.9441199,-2.6209295,-3.5582418,0.009665355,2.676282,-3.7977543,3.708297,-0.0172887
3.2857265,2.1385093,0.0015091226,1.3077231e-06,0.9204735,0.029432058,0.16653776,-1.9636141,-1.1658417,-1.0314095,1.3865522,-2.293752,3.440864,-3.498651,3.4437814,-0.0034806728
-1.0471102,3.2936797,0.41132212,1.3416197e-06,-0.40303412,2.8126502,-0.22307235,3.9553006,1.6714327,-1.6941068,-2.6143084,10.317602,2.579277,-0.6509441,-0.31302357,-0.009458266
-3.4441452,3.426633,-3.3712816,-0.00091362,0.77834296,2.789815,-1.2906824,0.968894,1.2442238,-1.3549811,-4.147766,-0.015038591,-4.006928,0.9604014,-0.027101874,0.027370974
-1.409311,2.2050967,-1.376155,-6.750298,-2.2601476,-3.6752021,3.5374508,0.0038958266,-2.708809,4.971805,5.206767,-0.006222248,-3.3990412,3.9267297,-3.7317235,0.0036361404
-0.44271117,2.0820308,-0.34671164,-13.374461,-3.0937192,-3.3077097,0.3511525,0.00026948005,-2.7420592,3.2035544,-0.026438057,0.016221821,-0.0025296006,1.2200549,-0.4882183,1.7639248
-0.12661669,2.364275,-2.0157487,-1.798843,0.080488496,3.3866181,-2.7302277,0.0022765808,3.3898375,-3.5193853,-0.7787406,0.014214713,1.5068755,-3.1458666,0.7885361,-4.7368283
3.4352593,-0.55656236,2.957439,8.415782e-08,-0.51528853,-1.5134435,0.008824229,-7.9543276,-0.022948623,-2.408451,1.0575268,1.4262326,3.5076308,-4.016501,3.8484724,-0.013077229
-0.34197655,3.2703805,0.4099132,-3.2895878e-07,0.8616884,-1.8469275,-1.5543841,-9.190076,-0.15174688,-0.9271482,-0.23715276,-0.26708478,2.6939883,-0.5149792,-0.26524425,0.0104432665
-4.1184883,1.1280468,-0.87239826,3.7854188e-05,-0.38564646,2.123541,-0.84930223,1.5225358,1.5034443,1.4119003,-1.0233232,-12.1749115,-4.2021623,1.7342676,-0.14271921,0.057863474
2.4347138,-3.001254,4.079514,-1.8946548,-3.460513,-3.140264,2.86516,0.035964306,-1.6644288,4.4803104,4.0968614,-0.010157436,1.0226254,2.6145155,3.489663,-3.3451543
0.073776275,-3.163747,1.9604204,0.47674495,-1.9478359,-2.4408286,1.1416014,27.108513,-1.9567286,1.8473039,-0.13424125,0.010223126,0.672722,1.4411232,0.49996674,-2.9622252
-1.5250406,1.7555497,-1.7865064,-8.794738,0.14773846,3.2146533,-0.14741889,7.439772,2.619862,-3.2423756,-3.3596268,-0.007211849,3.1752942,-3.3158004,0.2642854,-0.007140413
3.404462,-0.8032107,-0.0006705143,-7.7458503e-07,-1.5523252,0.63052046,1.2140858,-10.322508,1.8410759,1.6686976,-2.175362,-12.457252,3.5928926,-3.670809,3.5728667,-0.031883344
0.05415216,3.658194,0.046668768,2.358728e-05,0.3659711,-0.19594288,0.9768147,-13.239969,0.43369812,1.1077356,-0.6470152,-10.21846,2.5412683,-0.7197706,-0.02526663,-0.016145043
-2.9154866,0.44235525,-1.3879757,2.8597424e-06,-1.7590488,0.45349157,0.49618387,-3.9103856,2.1227348,1.265479,-1.4029893,-10.9121,-3.5418608,3.3054144,0.22024888,-0.0032152534
0.14867556,-3.0327945,0.38016218,13.6245985,-1.1343696,-1.5292672,2.7762706,0.044548616,-3.1924937,3.9871368,3.8355463,-0.080678195,2.6894524,3.0702634,4.437197,3.50506
-0.46999788,0.9267602,-0.41667128,-11.173395,-3.2534437,-3.2473438,-0.34537068,-0.017270774,1.0569202,1.3786106,0.07896384,0.0121387355,-0.36791736,-0.7787379,-1.6388022,-5.2830334
3.3434432,0.58192694,3.3692074,8.196586e-06,-2.7872,3.3160334,4.218107,0.3845849,2.851924,-3.322189,-3.5349302,0.044544972,3.548811,-3.7233634,3.8409865,-0.06839193
0.9227293,1.8132118,-0.02324742,-1.8491482e-07,-1.4929577,0.27259246,0.9663087,-5.382478,0.23809445,0.43144107,1.4112328,-12.289193,3.303559,-3.8143284,3.6283216,-0.012486877
-1.4863646,3.5074604,0.084926546,1.2519375e-05,-0.5465601,2.3471398,-0.25807577,4.211321,1.2646303,-2.0124116,-1.5345907,6.6857977,3.145764,0.02635201,-0.079568565,0.012110533
-3.3681505,2.8335066,-2.9194717,-4.3726288e-07,0.79295975,-1.9136729,-1.8919449,-9.761524,-2.719049,-1.5923445,4.4532595,-0.039819114,-3.380184,-0.33962286,-0.006751269,-0.031482853
-1.9378254,0.77915406,-1.672411,-2.1282282,0.20043553,-3.484597,4.472532,8.184334,0.60570425,3.317051,5.212315,1.0406799,-3.3545504,3.7940872,-3.65731,0.009880614
-0.58174235,1.0511081,1.3172791,-16.59559,-2.4528432,-0.9152442,3.9646025,0.0418272,-3.3854437,3.6951265,-0.15732461,0.076155335,-0.25973833,2.8439767,-0.3460847,3.735662
1.7428701,-3.0922303,0.7476688,4.225167,3.1008968,-1.4000051,-3.0153952,-6.8912554,1.7714581,-1.9925501,0.039423812,-0.02279268,-2.6837249,-0.73323566,-3.5818503,-0.5279484
3.5173185,0.029791147,-1.2392119,5.840673e-06,2.7670717,-2.8998775,-2.788645,-5.8405375,2.713519,-2.9182074,-3.768372,0.08309229,3.8526099,-3.3045604,3.3651693,-0.073615216
3.3990684,3.1615767,-0.0016811825,-3.440826e-06,-1.27401,3.5814397,1.5596433,0.57370275,1.0565718,-3.0243638,-0.9204807,2.4359758,2.9767842,-3.1075032,1.6506205,-0.0087417215
-3.368071,3.5026839,-0.0027901772,7.3252922e-06,-0.5443618,0.41506165,-0.9170838,-1.4778967,1.3923619,-0.97098786,-2.3586688,4.2776875,-3.4475458,-0.0062770657,-0.02553925,0.012610875
-2.9038796,-3.8751285,-3.7580266,-1.6989212e-05,-2.2641096,-3.5681612,3.5153887,-0.0032593869,-2.6145968,0.14557981,5.726408,-0.09481907,-3.1852615,4.272468,-4.0508933,0.030895518
0.10526705,-2.483968,2.1271472,-6.99024,-1.0479388,-3.4412708,-3.895859,-0.018081665,-2.65581,3.238996,0.0005357042,-0.055758215,0.32713005,2.0896783,0.56724554,0.7864454
-2.422349,1.2651478,-1.0061996,-5.7445416,-1.1681249,2.182103,0.85682833,1.7921107,2.139141,-2.5764241,-0.5789726,-0.0026607513,2.6822941,-3.2232242,4.846066,9.000063
3.4126396,-2.8825178,-4.321816,-0.0008325577,0.5393235,-0.79014814,-1.0677812,-2.5875583,0.086983144,-3.2641494,0.20365244,10.206879,3.582063,-3.9131322,3.6987658,0.0051204003
2.2080052,1.7184988,-0.0034379363,-1.8745777e-07,-0.8293921,3.6615598,0.9451341,2.1680882,0.7297086,0.41492212,-0.7649618,-5.3535433,2.8188777,-3.0252056,-0.11117402,-0.009736055
-2.9514432,3.2976782,0.27990577,-4.832174e-07,-0.09319822,0.6860368,-1.3192015,0.8530602,1.6210217,-2.692975,-2.2842689,3.7914355,-3.3892674,0.21141866,0.015375666,-0.008958718
-1.9419675,-2.5966725,-3.5328636,-1.1257302e-05,1.9590015,-3.3487356,0.7373978,-0.01689286,-1.7735208,3.1697824,3.3808992,0.010318136,-3.4305673,3.786093,-3.5801299,0.013138603
-1.1887032,1.0964682,-0.46643007,-22.63652,-2.9801214,-2.9356382,0.3542187,33.15716,-1.8275548,3.7677047,3.6944203,-0.02933848,1.5976095,2.417621,1.6602423,0.4885924
-2.5747836,3.4228482,-9.557139,-72.82927,-0.38318145,2.6323748,1.9035387,-1.0251857,2.6497242,-3.2931442,-0.12397063,-0.070911065,-1.589187,-2.3710642,-4.1363225,0.0632071
2.7291694,-0.4226449,2.4257693,4.2964944e-05,0.70828533,3.2474384,0.51517314,5.111847,2.1055548,-2.5622594,-3.5968175,0.002595136,3.352184,-4.4055376,4.173784,-0.044933297
-0.46249753,0.51568025,-0.00053379126,-8.3492773e-07,-0.42984036,2.548731,0.10752642,3.0631034,0.12221655,-3.4984078,-0.021396548,0.8512008,2.8467784,-2.0404985,-0.09938021,-0.0034953319
-1.8335531,-0.43304738,-3.4135242,-4.47401e-06,0.9666679,-0.7480638,-1.3321955,-7.6950936,0.76012254,2.4779563,-0.3209543,-2.705805,-2.967701,2.2887514,0.010357812,0.0025596488
-0.59060407,-3.43971,1.17451,0.025504906,-3.2204351,-2.3722997,3.2903006,0.029105593,-3.2213497,4.4013762,4.1090527,-0.028257959,-2.9760306,4.5450673,-4.1437635,-0.0068794666
1.471369,-3.9705355,2.1763983,0.8908416,-0.37594295,1.1487206,4.3006716,17.856358,-3.406196,2.7162144,-0.30118912,-0.010279581,0.51068044,2.7674057,0.49400282,1.1236945
-2.6128979,3.5019433,-1.1084709,-18.801403,-2.675073,0.13199183,3.4027328,13.9862995,3.366723,-0.89172524,-0.101275,0.10090001,2.7052386,0.5451756,2.320879,0.079245485
3.4528115,-0.82400006,3.1235082,7.4856116e-06,0.101534784,2.4233491,1.1714776,10.589952,3.2092242,-3.8438728,-3.8286521,0.061104186,3.813517,-3.513786,-0.47944474,-0.087317765
2.677589,1.2286156,-0.049902022,-7.049722e-06,-0.12439659,3.205,2.3301039,5.991517,-0.7265377,-2.2537174,0.7646507,2.8101137,3.3038275,-3.6824358,3.5210342,-0.014841457
-0.87068754,3.3821876,-0.82737154,0.00017142296,0.009795427,-0.36227012,0.79025483,-11.57901,0.45653293,-0.48977903,-1.8306432,-2.7916691,-1.6475648,0.40191957,-0.032375693,0.04932662
-3.3649623,1.159329,-3.219212,-9.650748e-07,-0.00047913194,2.4678936,-1.0323231,5.8326025,-0.93155015,1.9885402,3.6871967,3.0739613,-3.840187,2.9154918,0.008990943,-0.0012329109
-1.1168247,0.43931583,-0.6074753,-1.8673487,-2.8633046,-2.8614814,3.3632846,-0.0033967143,-1.9221592,4.475882,4.258098,-0.004945278,-3.0781143,4.4056525,-4.168299,0.009938502
-0.13262069,4.37048,3.3124223,2.9995842,2.7844002,-3.000552,-1.3277109,-0.076509476,-3.0216446,2.3843875,0.43719688,-0.13449031,-1.112823,0.46355617,-1.5048115,-3.6802237
-0.7893119,-2.1002398,0.24097872,-0.9630066,2.5308669,3.344103,-3.4416,0.0011006537,3.4633405,-3.3664966,-0.018884726,0.00065956963,0.75619596,-0.7911893,-3.1507602,-19.918755
3.0375319,-3.4076033,3.4518652,0.00016784668,0.8363698,-1.8591388,-0.64897907,-7.6373677,-2.2231743,-0.920465,4.399961,-10.428907,5.0792065,-3.1990273,2.524953,-0.06678115
1.0656333,3.0582917,-0.07674444,-1.4489469e-06,0.77185535,-1.4756021,-1.3198327,-8.742055,-0.124464974,1.3223672,0.11133504,-12.115961,3.4101422,-2.257895,-0.2051534,-0.013156239
-3.3113818,3.4334426,-0.056757703,2.4493343e-06,0.10356616,2.5776634,1.3983749,1.1156567,-0.6572248,3.1343775,-0.8623001,1.2372617,-2.8832405,0.37346488,-0.075680286,-0.011443421
-2.3182974,-1.7197433,-3.569911,-1.39076e-05,3.2561603,-1.9029545,3.414158,0.059480667,-2.6484268,-2.8481686,3.3140845,-0.012020716,-3.735792,3.1020856,0.6710008,-0.013390206
-1.2982978,-1.4526778,0.3376454,3.581952,-3.312847,-3.0617807,3.4175029,-0.0031908236,-3.4952857,4.196573,4.0478187,-0.05393076,-3.286441,4.4108033,-4.234773,0.05247599
0.88726586,-2.5359147,1.0854609,-0.24248149,2.2366421,-1.4629446,-4.17766,0.0009196943,-1.3133533,1.834661,-0.1261062,-0.009631362,-1.5358316,-0.08592871,-2.3557892,-0.9054643
1.1508831,-3.5387836,0.44728714,2.6003304,1.3126731,1.3043094,-0.7056988,2.259285,1.6485373,-3.931355,-3.7593412,-0.027738445,3.18054,-3.165432,3.6539416,-0.03783054
3.3562891,-0.84888685,-0.16170764,5.0449744e-06,-0.24477999,-1.4420244,-0.4995568,-11.235548,0.053659678,-1.5134622,-0.20139495,-1.4413422,3.7174838,-3.3598557,2.6725757,-0.0066350624
-0.416677,3.6912794,0.1803692,2.1248665e-05,0.23015781,3.3367965,-0.92767954,5.4614115,0.44067425,-0.2302655,-2.1012206,-5.2217283,-1.3184881,-0.7486036,-0.07118648,-0.012682639
-3.283469,1.5757235,-3.6378841,-1.6659615e-05,3.210845,-2.2982075,-3.9846184,0.0035818517,-0.77122355,0.14575613,3.4717748,4.3256063,-3.596618,3.2464714,-0.057349283,-0.056652557
1.0855036,-2.6151319,1.963239,5.3385963,-1.4493369,-3.6049552,-2.9466236,0.0230937,-3.220447,4.4174604,3.9748335,-0.030329287,2.1130717,4.9728093,4.9242396,4.352481
2.474136,-3.5765088,2.2104793,-0.22477938,1.1053513,3.6880548,1.2650805,-0.5261997,-2.8118403,0.71838367,0.48636925,0.0038292818,-2.5730093,-1.4103402,-3.2634585,-7.731817
3.7345698,2.0080402,-5.009038,-0.0012226105,2.2923346,-2.734805,-2.799311,-9.0035,3.0280678,-3.8250716,-3.7415261,0.06938641,3.6479268,-3.3012474,3.1849864,-0.0630936
-0.040794685,3.2867508,-0.12050325,-1.4466652e-06,-0.511178,3.094991,0.06698358,4.032613,1.0621896,-1.2712358,-1.1067219,0.06258115,1.4615726,-1.9951786,-0.13801631,-0.029233528
-3.5483677,0.50249493,-0.021546755,7.823773e-06,-1.4032968,3.088289,0.023654796,2.9524987,1.5705643,0.7245949,-1.9363112,-10.95644,-1.0979728,1.369334,-0.080882505,-0.001243718
-2.0674613,-3.9782443,-3.752183,-1.6677755e-05,-2.1785915,-3.3041432,1.9706745,0.015623875,-3.191263,4.2586055,4.0868645,-0.044150777,-3.1913033,4.517124,-4.18189,0.008718264
1.0304102,-3.3481033,2.283585,-0.24190304,-1.834358,-2.783803,2.6212983,0.014630279,-3.1353037,3.0038772,-0.10307087,-0.0047576176,-0.82958174,2.3279405,0.18285716,1.9833525
2.6981516,-3.47829,2.4422774,0.93157214,2.4316547,-0.11334388,-1.2080965,-4.833234,2.7615943,-3.9974384,-3.7961142,-0.016901247,3.171245,-3.3186362,-0.080264896,-0.032527857
3.653875,-3.4912596,1.8006976,1.4349194,-1.4929125,3.1659029,1.6029246,3.244494,1.470629,-0.45299062,-0.70338583,-21.041973,3.5695696,-3.6082904,3.4828563,-0.016026787
0.91737586,4.1194844,-0.023370985,1.566266e-05,0.58358306,2.0914557,-0.5662074,2.9122734,-0.2912842,-2.6276624,-1.3572335,7.779459,-2.9144337,-0.030464936,-0.0887488,-0.037808716
-3.8126278,4.3256903,-0.40299416,0.00042676926,0.042492386,0.72398883,-1.8932034,2.0419466,0.9760128,-0.86756504,-2.024905,1.8011625,-3.5217366,0.71881115,0.052440092,0.03286412
-2.7082872,-3.8677638,-3.6786284,-1.4474188e-05,0.2779748,-3.7420027,3.4805083,0.010444978,0.046923876,0.3597302,1.7766354,-7.157071,-3.3839862,3.9157014,-3.549365,0.035705656
1.1401836,-3.6694822,1.5103709,0.03717085,-1.5931101,-2.629783,0.76881385,0.036957912,-2.9236073,3.069049,3.500455,-0.027809404,-0.59814835,1.5612582,-0.091817185,1.8156345
0.62070894,-3.952836,0.85297704,1.0239632,2.4754028,-1.8224598,1.4207714,-0.006489221,-1.6650236,0.8209579,-0.14117563,-0.010487452,-0.666511,1.117802,-0.6117713,0.37358132
3.4842942,-2.029175,3.0833566,8.802905e-06,-0.028292954,3.0506668,1.1512833,6.9390163,2.8372605,-3.6980758,-3.6874273,0.049948454,3.935332,-3.4575267,1.1896014,-0.120358035
2.7224848,0.39658695,-0.011224598,7.2713976e-07,-1.1300496,4.5951796,2.2734196,-2.020579,-0.55602247,-0.9708345,1.522056,-6.838953,3.308339,-3.9897795,3.6729193,-0.040417176
-1.9762082,2.9926274,-0.00084858947,-4.7905123e-06,-0.765968,3.1038985,1.0114,1.4619782,-3.0106654,2.521508,3.108413,-2.7730293,-2.960083,-0.037399333,-0.0059157424,0.024801195
-2.5367348,-2.1951063,-3.542998,-1.431127e-05,3.159068,-3.1147432,-3.660635,-0.017564416,0.13906941,-3.3721082,0.59440064,-0.77475506,-3.0716982,3.4430625,-1.0832978,-0.038777843
0.5270235,-1.0711108,1.318675,-3.9328835,-2.5132983,-2.3726757,3.3708856,-0.0009772596,-3.2872598,3.8380756,3.6744323,0.0006361818,0.6394521,1.062502,1.6801815,-4.507681
-0.8382211,2.130942,-1.7862636,-12.387946,2.647466,-2.8355453,-0.5384811,0.0016746521,0.5900321,0.7154945,-0.041547716,0.015428305,0.51010555,-1.5817194,-0.57017034,-14.543364
3.448852,-1.0131167,2.522765,4.596289e-06,-0.74333906,0.50292915,1.8117445,-8.94861,-0.53830326,-2.3198786,2.2648196,-1.7475368,3.8293753,-3.3407247,3.2421389,-0.034426298
1.7517498,3.7497544,0.16484779,2.8541788e-05,0.08846761,-1.1163855,-0.51817846,-2.353632,0.2095501,-1.8279299,-0.19813639,0.53277093,-1.0276296,-1.3274295,-0.22134602,-0.0018704385
-3.272758,3.4670615,-0.055060074,3.4892716e-06,1.6396401,-0.92067116,-0.92426157,17.107212,-0.42909706,-3.3215897,-0.4940685,1.6684691,-3.1413155,-1.1463053,-0.14865279,-0.00892405
-2.5062163,-4.058439,-3.785338,-2.0061872e-05,-2.3596857,-3.6947808,3.4779487,0.018011112,-2.3664002,4.3088045,4.1302414,-0.05031049,-3.2684138,4.4733653,-4.1594167,0.034816556
-0.61726516,0.7384347,-0.14987314,-7.4910045,-0.0430215,-2.4270372,-4.649078,-0.00030326843,-1.7620975,3.9520884,-0.16130537,-0.016156686,1.069344,2.0772746,1.7731823,-0.33603543
-0.36876398,-2.3150425,0.21662039,-0.8108587,3.1050746,-0.90000343,-3.3456511,0.00082787056,3.307448,-0.24075186,-0.009440243,0.0012583829,-0.35114968,1.4109638,-2.2559729,1.8128722
3.4895859,-3.2601075,1.1879488,6.0216353e-06,1.2723602,-1.6298083,-1.5151168,-10.088301,-1.2875963,-2.84824,1.4358765,5.519244,3.9726741,-3.365964,1.4749222,-0.046089165
1.0942844,3.4551916,-0.0050219223,3.1535283e-06,0.021698207,2.919972,-0.62760556,7.599395,0.48328206,-0.5772397,-0.28817278,-2.1614833,3.4333074,-3.434636,-0.27498507,-0.03267833
-2.2276442,3.502931,-0.0026129293,6.728248e-06,0.4799013,-0.088035405,-0.89422727,-7.3288083,0.75908035,-1.4631267,-3.0709732,6.042194,-3.3949265,-0.09801284,-0.097672656,0.0228443
-2.9718695,-4.0205793,-3.7600698,-1.8085464e-05,-2.0022435,-3.6039653,-1.3981681,0.014550209,0.9366503,0.97888017,-0.17391086,-13.683104,-3.2472115,4.3429384,-3.9075496,0.026779383
1.7090147,-4.126906,2.2158942,-0.1447672,-2.2824144,-1.3732487,3.1334581,0.0870289,-2.9020338,3.7050967,3.6047616,-0.048706204,-0.19067928,1.8822681,0.6171552,-0.52870303
-2.3155863,2.2228754,-1.7837286,-18.528234,-1.0505425,-3.0623899,-3.1024227,-0.05723694,3.2570214,-0.5280814,-0.022083402,0.08476408,1.1728222,1.1723294,-1.4892018,0.6000593
3.4655585,0.109879225,4.8397517,7.283844,2.8493383,-2.2935326,-2.1490362,-7.1962557,3.1932673,-3.8988569,-3.9731,0.029276349,3.9081666,-3.373956,1.8137203,-0.039091043
1.0847703,2.5615015,-0.0004735086,-4.1721606e-07,0.5312512,-1.028598,-0.46208245,-8.929188,-0.6194771,0.5399606,1.2217189,-11.704435,3.2650406,-3.7679775,3.5944946,-0.0020198189
-3.1487458,3.24493,0.012606024,6.1166465e-06,-0.8080903,3.136168,-0.6173791,6.1849446,1.9864197,-0.08947158,-3.017024,-1.5980649,-1.4742503,0.04475216,-0.115641266,-0.015727118
-3.1527805,-3.1852813,-3.5561447,-1.6456555e-05,1.3393651,-3.3901777,0.8871535,-0.0119223595,-2.2783585,0.52521217,5.141603,-0.013689481,-3.5205011,3.5397604,-0.26011407,-0.009864517
-0.23758996,0.48585534,1.5715201,-3.1137943,-0.560025,-0.22463593,3.2846687,0.0073673707,-3.638656,4.0325685,3.7413921,0.033046253,4.606007,6.5740066,11.082314,0.8390698
-0.41603568,-2.1127863,0.6050479,-0.5196549,-2.038805,-0.9818433,0.9732374,21.04058,-0.37814173,2.014553,-0.049415253,0.011140466,0.37586325,3.069528,-0.06545812,1.7417672
1.3352356,-3.5747917,0.07705471,2.3198953,1.4165989,0.69056803,0.116472125,-5.554401,3.1076853,-3.8789291,-3.7104719,-0.026957233,0.03381756,-3.2311618,-3.4245815,-0.025115844
3.1861613,-1.1861964,1.4597435,3.7029487e-05,0.2827953,-0.34993267,0.10217285,-6.544488,-0.8014798,-2.4994884,1.5572414,2.1483161,3.681087,-3.9977078,3.954941,-0.0413261
0.67513615,3.6166146,-0.0070621334,7.2887706e-06,0.7740294,-1.0524572,-1.7780929,-5.363083,0.5022378,0.89638174,-1.3598688,-16.07773,3.0025094,-2.3525822,-0.11290863,-0.042540178
-3.0762315,-0.82939136,-3.4440873,-8.479086e-06,-0.38246888,2.9194422,-0.28809348,0.7291316,1.432785,-0.50412405,-4.18252,0.001500268,-3.650528,3.3132265,0.17357025,0.02762991
0.18075877,-1.9685485,2.1243806,-1.1572062,-2.0266817,-1.484911,4.411998,6.1010494,-2.326157,4.6106677,4.2365775,0.019102452,-3.3791614,3.9849033,-3.9053738,-0.0027008448
0.97815716,-3.4415855,0.29793578,8.603916,1.357213,-0.78677666,-4.144793,0.024729334,-0.16641551,1.4897122,-3.140322,-0.07099834,-0.3768655,1.8599672,-0.09839007,0.9460152
-0.16574794,1.7694777,-3.3159387,-4.3028012e-06,1.7646632,-2.1858587,-2.1167345,-7.563016,2.6802146,-3.9000695,-3.7307014,0.0018788055,3.2201104,-3.5296812,3.5164862,-0.012957357
0.17593372,0.4631877,-0.033298373,-8.878298e-06,-1.8613299,3.7685428,1.7666025,5.0434875,0.8128038,0.59386694,-0.33145088,-9.696167,3.289006,-3.6966004,3.1833844,-0.065266214
-0.7485225,3.622501,-0.003793329,8.889925e-06,-1.6305208,3.192849,1.5855845,-0.66698015,0.5829673,2.8552544,-1.0517946,-3.8216465,0.8818438,0.31181672,-0.066203,-0.015144652
-3.3516657,-0.20562452,-3.3367872,-1.6505419e-06,0.6844077,0.043583922,-0.67383087,0.55449456,-0.7879678,0.8692515,0.3596437,-6.135929,-3.7873907,3.3345082,0.07274106,-0.0045913737
0.67613244,-3.4158723,0.7371579,0.3694972,2.8114066,-3.3643847,-0.4621411,0.039629683,-3.0257459,4.1522994,3.9148858,-0.03252562,-3.4220333,3.9311836,-3.5454397,0.01053795
-0.6611052,-0.13341486,1.0189558,-6.918515,-2.6378207,-2.26283,0.6263086,-3.5131369,-1.7435092,2.4328282,3.4862506,0.00043832324,1.1702662,2.17661,0.41508648,3.174665
1.606015,-1.7120587,4.217265,0.18746728,1.6066151,-0.1187101,-1.8016193,-0.83520544,0.9748316,-3.0521436,-0.15790863,0.027286462,-1.6070939,0.92789465,-1.4236624,-0.011357183
3.1437988,0.75979877,3.5320995,1.1694072e-05,2.241816,-3.474982,-1.1382233,-4.9226017,1.8132044,-3.2127223,-3.681518,0.033653915,3.459113,-3.9502208,3.9553857,-0.014371507
1.2723895,3.4363182,-0.0057765245,3.802727e-05,-1.4159057,2.9605005,1.3570112,1.474715,0.3068558,-0.30397284,-0.0780108,-7.842338,3.6733487,-1.502068,-0.07097715,0.010243012
-2.3819523,3.3375947,0.45914873,7.0224837e-07,0.55910945,-2.0961068,-1.5411736,-9.412731,-2.6629689,-2.9328077,3.5083978,0.0062120743,-3.287541,-0.8304479,-0.013901427,0.0031668805
-0.10188627,-2.6283708,0.5728941,8.127291,-2.1627202,-3.6221411,3.476509,0.01589508,-3.1722052,4.422,4.138285,-0.027214698,-3.1578367,4.2490115,-3.9754155,0.026465684
-0.66687083,-0.51456743,0.70955884,-5.7735057,-1.6986483,-3.536355,-0.7981648,0.0061531067,-3.2812731,3.620333,-0.052086905,-0.012028612,0.29792392,2.8989654,-0.325252,8.258363
2.716962,-3.2166808,3.4054847,0.15031105,3.3430197,2.151921,-3.0354486,0.020095538,2.0272872,-2.788398,0.041538596,0.014676397,-0.9898093,-1.9056723,-1.8095597,-15.554449
3.3251066,-0.86678636,3.305742,6.5289605e-06,-1.7901268,3.3258367,2.2431424,6.5413184,-0.43944734,-2.7108233,2.349405,4.844839,3.5507946,-3.8636758,3.6655645,-0.07392763
1.0313876,3.1270635,0.2856245,1.5105384e-06,-1.1913286,2.1111803,0.5760528,2.3738172,1.1523523,1.4382885,-0.38622785,-10.87226,3.3315344,-1.7614741,-0.10556412,-0.027363699
-1.4038985,3.6585085,-0.015535772,7.862314e-06,-0.20712252,1.4543549,-0.19628876,1.6179821,1.4098293,-2.3414662,-2.7388093,5.820903,-1.7177144,0.22288513,-0.18056121,-0.024688177
-2.737967,-2.8193045,-3.4395382,-8.852672e-06,-1.0669558,-1.6267043,4.9205093,2.914978,2.5470107,2.0326915,-4.4729214,0.03078537,-3.5688217,3.31867,-3.2971456,-0.016025864
2.375145,-3.4342606,4.720439,4.74211,-3.2605698,0.6011777,3.278596,0.025559234,-2.7308233,4.6410775,4.3291407,-0.08512612,1.6479537,3.0822003,3.6745846,2.502996
0.67043126,-2.848693,1.9530342,7.0118937,-1.8125243,-1.960791,-4.9136314,-0.02180481,-2.127015,1.7859975,-0.27580243,-0.0858039,1.1723282,2.9538178,1.981886,5.985517
3.6686888,-3.358103,3.0954766,0.0009422302,0.36504045,2.190496,0.42683858,8.641196,3.394577,-2.9461198,-3.6985576,0.064611584,3.760429,-3.2909427,0.6370588,-0.062785834
2.5914073,0.3330076,0.35168147,-1.169888e-06,0.100452065,-2.639138,-0.2286079,-7.348167,-0.5280077,-1.459107,1.4610394,6.5098276,3.5073707,-1.6524833,-0.030581683,0.020425834
-2.6086533,2.6199508,0.016122416,-6.2119248e-06,-0.7548515,-0.30990857,-0.3006458,1.4358265,0.55711746,-0.71826184,-1.1144147,8.595814,0.071644925,0.8376405,-0.0076277032,0.044822607
-3.1325037,1.5166961,-3.3082743,-4.888775e-06,-0.035752952,1.7353339,0.19808877,7.509418,-0.17660892,-1.1867124,0.21393561,4.3700814,-3.2085385,3.6180317,-7.786881e-05,-0.00020142272
0.6244091,2.151938,0.73994195,-6.8366737,-3.3719573,3.155561,0.024128422,0.008959702,-3.5882857,3.5986829,3.486873,-0.010686334,-0.59945005,-2.1893418,-0.14872637,-5.52714
0.6491792,1.4264121,0.1559735,-4.910738,-2.3573718,3.307193,-1.9502068,0.00014012214,0.5382302,-1.9303393,-0.13656619,0.007876903,-0.8928662,1.0729773,-1.0605123,9.00107
3.3789377,-0.09351194,-4.4622345,-9.427103e-05,3.3864338,-2.1053884,2.8177288,-0.07536198,3.307605,-3.5618,2.2524934,0.00838089,-1.0251937,-3.4553912,1.3397088,-0.013119221
2.8543987,-3.318282,-0.22566545,1.5983572e-06,-2.6983604,-2.3861575,2.3992748,-8.307226,1.0572988,0.15871257,0.88288605,6.844586,3.5817308,-2.9457517,-0.14370239,0.04549802
-0.402967,-1.1128863,-0.04864733,-8.980713e-06,-0.046264574,-3.2895932,0.15856913,-5.901736,0.4158852,0.9789581,0.0659386,8.885847,2.4237423,0.60025615,-0.11431977,0.022296652
-3.3259099,-0.018301725,-0.0031717382,-7.828792e-06,-0.6166111,1.5333749,-0.2982538,12.642025,1.6788095,-1.2215366,-1.8349603,15.6232395,-3.6638896,1.2299258,0.080073774,0.009464858
1.8444216,1.4953836,1.635505,-2.259163,1.0419616,-2.5679774,3.8856044,26.204107,-1.0830977,1.7527685,2.0229285,2.9633608,-3.5116215,3.3068476,-2.4869552,-0.014361689
-0.2654881,-0.5689355,-0.36170477,13.252156,-3.2047625,3.0364149,-0.11861235,-0.048411652,-3.7093368,1.2086523,-0.36551902,-0.053970605,-0.16038302,0.37432194,1.5383224,6.3510685
0.62784815,2.463211,0.1564244,-2.7988646,3.1650593,0.5538088,-0.04997599,-0.03818442,3.370554,-2.5883546,1.8438634,-0.012192532,-0.652804,-1.3280269,0.13148558,1.8613199
3.7033315,2.704802,0.9415001,0.0012302399,2.3563924,-2.7933276,0.39567474,-3.4517367,3.9228594,-2.2384515,4.3119755,0.038770676,0.9671553,-2.360353,-4.0299253,0.017868035
3.3274639,-3.4813566,-0.10888985,-1.4135073e-05,0.4625687,-2.65664,-0.012138128,-3.1503804,-0.2126036,-1.6103319,0.77565205,13.156447,3.543517,-1.610595,-0.042234898,0.025801335
0.5716224,-2.9461281,0.010172561,3.5278742e-06,0.699413,-1.9421839,-1.002502,4.153628,-0.4970734,-0.7086121,-0.95063925,15.56788,1.741612,0.37033707,-0.06348038,0.031686284
-3.3319886,3.2065856,0.00043101888,-2.0785724e-06,0.09983768,-0.9751129,-0.64911616,3.6621704,0.56643736,-1.449454,-1.3207743,15.239738,-3.4748151,1.5976335,-0.060376734,0.04491241
-0.6977838,-0.38434458,0.09861031,2.1241112,-3.32801,-2.5225694,4.0908175,20.323246,0.26094377,-1.2736696,-0.16922815,16.190567,-2.417966,3.332151,-0.71069956,-0.0008272715
-0.08379498,1.0678362,-0.21153402,5.805125,-3.4482813,3.6927917,-0.12998165,0.080055036,-3.3490193,2.1666956,-0.2947219,0.016977612,0.3089769,-1.8562316,-0.08773732,1.9758167
-0.104578644,2.9779508,-0.41335008,-3.84728,3.1388319,2.9340353,3.610511,0.014864106,2.9887033,-0.77946097,0.025797836,0.026588045,-0.16054276,-1.0525444,0.025941968,3.8811772
3.3462427,-2.1549368,2.8345926,1.150257,1.3733827,-1.9931967,1.6874833,-7.567331,3.445533,0.043468952,-4.5478644,0.019039154,-0.47188258,-2.7605593,-3.7780976,-0.023610119
3.2069502,-2.3490365,-0.78137326,2.6119058e-05,-0.049158454,-2.4506936,0.15336227,-1.5507224,-0.29327986,0.29261976,1.4832038,1.7073164,3.5450358,-2.9071243,-0.26436356,0.016562581
-0.25169408,0.2197356,-0.02568829,2.635693e-05,-0.122531325,-2.9501765,-0.63647354,0.22244275,1.0244529,3.409937,-1.6028938,-1.7008158,2.5132532,0.15902407,0.05594286,0.031736758
-3.324014,0.5429124,-0.1033272,-1.1654818e-05,-0.70752853,-2.9710028,-0.42694575,-5.599718,1.5228195,0.020203114,-2.0829237,10.5218115,-3.6166997,0.8435488,-0.03261955,0.051018782
-0.70023745,0.6741058,0.94602704,7.281572,-3.4220784,1.9896705,-0.09209593,0.052059997,-2.9006708,3.750364,3.3379874,-0.005420677,-2.7794878,-0.32927287,-3.4110878,0.018378582
-0.29753885,-0.09068978,0.3569831,1.7727604,-2.783447,3.3901427,-0.8711105,-0.011959046,-3.186317,1.7918633,-0.40556663,-0.002147071,0.53738946,2.3273087,2.107441,11.377303
-2.4418244,3.5945187,-1.7507863,-4.4374514,2.373562,-0.6240327,3.440021,-0.068479836,3.127254,-1.873683,-0.013403911,0.023474678,1.4227772,1.5285164,-0.5962403,0.7878079
2.0647495,0.14942604,-0.15496668,10.499271,2.4527395,-3.1813495,-0.27692044,-4.24347,3.5539756,-3.430832,-0.12806648,-0.0032116622,0.42342114,-1.7978283,1.6683325,1.7275177
2.9933844,-1.7290207,-0.17259204,4.654005e-05,1.6528423,-3.1062493,-0.9022026,0.7432718,-1.9061613,1.2424657,2.4648335,2.7571106,3.8463192,-1.1686062,-0.34666616,0.0062239193
-0.51814,0.76132286,0.20107725,-6.3256675e-07,-0.22251806,-1.3489001,-0.32953256,1.7618641,1.6212568,3.341632,-2.6318576,-8.763546,3.1689312,2.4206574,-0.07346898,0.005304508
-3.6323516,4.360975,-1.1631575,3.629818e-05,1.6212773,-0.41991413,-1.150654,0.3504197,-1.284702,-0.579291,0.9493621,5.118303,-3.758384,3.4173725,-0.06950853,0.026254669
1.4766511,-3.1938825,1.05145,-5.0227547,-2.3293355,3.293475,-0.07832722,0.113836005,-3.388819,2.9229093,-0.1109432,0.06335651,-0.58773464,0.5657112,0.7896217,8.815486
-0.41929054,-1.4994627,-0.19515443,-20.422447,-3.346754,3.0514812,-0.16952279,0.14762105,-1.6059828,-0.13417959,-0.30081326,0.09136163,0.42453316,-0.9699046,0.7037027,0.22818208
0.9669276,-1.1666535,0.7923871,13.463389,3.203529,-1.1503364,-0.13419569,0.012714624,3.2468936,-1.2097508,-0.17411268,-0.020344958,-0.6094145,0.33437833,-0.4775741,8.3928175
3.7022576,-3.4344854,2.9495635,0.0008068085,-0.18811676,-1.2302694,1.9483215,1.3008845,3.7809289,1.0591729,-3.4966888,0.06854242,3.2070096,-4.120715,4.02439,-0.0574009
3.4001176,-3.6356635,-0.09727505,-6.9389353e-06,0.13680363,-2.763221,0.69025517,-10.667444,-0.12436603,3.4725723,1.1439693,-7.544118,3.3275385,1.0152073,-0.15098608,-0.026577175
0.92958784,-2.7519069,-0.11084297,-9.2733444e-07,-0.29637918,-0.5692258,-0.9531746,8.240677,0.8650708,-0.33915204,-0.81343883,11.265486,2.954166,2.4544137,-0.11263056,0.03325763
-3.3001957,1.0023894,-0.05017574,-8.113713e-06,-0.15066075,0.5624912,-0.0666635,7.3127794,0.35230482,3.5041857,1.0845921,-3.9670448,-2.321298,0.7193922,-0.018306598,-0.0038558915
-3.2974536,3.3201048,1.27253,-9.962263e-06,2.2627351,-3.4019973,0.016072258,-18.406563,-1.5149307,2.3604221,2.9604442,4.21966,-3.5420163,2.133747,-1.3521038,0.077050984
0.99569154,-1.0876727,0.7769841,7.253585,-3.035324,3.7168853,-0.099853605,0.021380892,-1.8220837,3.783173,-0.31906503,0.0033033448,-2.056678,0.6846486,-1.4678607,10.493888
0.9121889,0.26546144,0.64388376,-2.114891,-0.80923074,3.3093033,-2.2852256,0.1272592,0.29263517,-0.077316955,-0.08486569,0.064499736,-0.95086336,0.74513257,-0.42086518,11.666492
-0.6798271,3.1527722,-1.1132469,-4.873764,3.3673751,-0.3204889,2.7871726,0.106183976,3.8979633,-3.2039816,-0.45542896,0.09264402,1.2883321,-2.5719347,1.1860223,-6.4210253
3.336721,-3.4597986,0.88398576,2.6238558e-05,-1.2828737,1.9266884,3.178124,7.4342623,-0.13567305,1.479009,2.0196126,-1.5662198,3.9723551,-3.7342744,-0.3889699,-0.06363307
3.3573036,-1.4240897,-0.05351779,6.978069e-06,0.6533127,-2.0813842,-0.6653676,1.0767918,0.41036355,3.4805484,-1.3523684,-2.7805786,3.027343,0.7955018,-0.19731031,0.008530937
-1.6311978,-1.1444793,-0.045652285,1.9967138e-05,2.0326085,-4.3089542,-1.4673691,-3.0014553,-2.3248944,-1.4022964,1.0750992,13.811934,-4.433618,1.0176117,2.4883513,0.2650441
-3.4307191,3.3573766,0.5398297,-7.166738e-06,-3.0669565,-1.6831207,-0.026449405,-0.0061364155,-3.6040788,0.8930932,-3.2196395,-0.053358164,-3.8321328,1.7388848,-2.8211842,0.04456565
-1.7005806,3.6467369,-0.20588219,-2.0658684,-2.6387367,3.3876743,-0.001989252,-0.044524178,-0.6656834,0.6595228,-0.1435253,0.03507464,-0.059763335,-1.6412773,-0.94450265,4.4825196
-0.56981844,3.0947988,-0.6492828,-4.0907536,-2.397932,3.063921,-0.41652626,-0.006457557,-1.7108669,-0.9760769,-0.18266334,0.008862538,-0.043858737,1.5754579,-0.0326899,2.5628743
-0.6450378,3.351501,-1.3362874,-4.7893124,3.1202557,-0.359412,3.259914,-0.1150018,3.2875693,-3.846336,-0.012242049,0.011265263,-1.011249,-3.5458157,-0.8871487,-1.3037596
3.3024375,-3.1637187,3.3326304,8.15955e-07,-1.2244685,1.3120235,3.089302,-0.03525257,-1.2231581,-1.8357272,4.2457237,7.478199,3.351285,-0.6027166,3.526784,0.008039573
0.74838567,-3.3492754,-0.019056302,-3.3129104e-06,0.5047209,-1.8155997,0.22547269,2.7125235,-0.07528362,3.0489085,0.07122934,-2.5975566,3.4187965,2.5594907,-0.15716384,-0.01915218
-3.0055666,0.003667742,-1.0305436,0.0003504753,-0.047171295,-1.3424882,-0.074753106,5.182253,0.7707689,3.448788,0.057382822,-9.142617,-3.3050263,0.6697944,0.02702199,-0.031785194
-3.2620583,2.542343,-0.049246788,-6.6505745e-05,0.93218595,-3.2317023,1.4465019,-0.045117404,-1.7783848,-0.5250285,-0.3603229,3.872548,-4.0768065,0.7995808,-3.4930236,0.087178476
-1.038765,4.1810255,-1.1376257,-2.7535455,-3.4588273,3.2651188,-0.9561187,0.10954428,-1.6679435,2.5003445,-0.19282916,0.09069612,0.8514049,-1.7964182,0.55270475,5.220602
0.389111,1.5102822,0.076699495,3.9666023,-2.9838161,3.5412183,0.2808915,-0.010908127,-2.3582103,-0.44084865,-0.015515052,0.01818439,-0.50558233,-1.3376422,0.4085085,3.7681298
-0.45113063,2.7717402,-3.8922653,-23.689213,3.3010986,-2.9181554,-2.10517,0.031042904,3.5907252,-3.5559268,-4.059924,-0.05033779,-1.1395497,-3.3540957,-2.0114934,-2.9538212
3.2787116,-3.2717013,1.7347368,6.0146494e-06,1.4087789,-3.5892086,-0.84532815,-1.1833481,-1.2353002,-0.7754126,2.8207934,-4.0007553,3.4864233,-2.8736653,-0.23898214,0.10446201
3.36971,-3.408363,-0.12123519,-1.25156785e-05,-0.24928546,-0.051705003,0.4211694,-0.9657936,1.7082353,1.3675689,0.27941775,-10.866859,3.4306464,2.195571,-0.0077124983,-0.040188804
-3.2874944,-0.70431817,-0.039350726,-1.0433046e-06,0.24427187,0.25099945,-0.97246355,9.129737,0.37884015,3.4822667,0.7672344,-2.6807995,-3.6166224,1.1216345,-0.09212828,0.016171008
-3.3808908,3.6371276,-0.069000185,1.2372067e-05,-1.3715922,-1.7489318,0.0022544917,0.00972965,-3.1103008,3.1356547,1.6793219,0.0065990915,-3.254911,0.26298547,-3.347485,0.0060053496
-3.097658,3.9564967,-1.8898394,-6.9405766,-3.399143,3.289257,-3.0372252,-0.1209483,-0.44499597,2.5164533,-0.11785343,0.076167725,1.8706698,1.1261221,1.067812,11.355499
-0.02696991,2.3687606,0.5447362,-0.9516158,3.2374184,2.0704868,-3.7903216,-0.019938331,-3.3477724,-1.060705,-0.14430022,0.003080286,-2.254268,-0.20488518,-1.5855392,12.017692
-0.43925893,1.3068453,-0.50251603,1.616672,3.4383218,-2.422047,3.0043402,0.07800602,3.922952,-3.331368,-0.1614801,0.07056095,-1.2026384,-3.3321874,-3.3313177,-7.1059427
3.288367,-3.2954931,-0.059914798,1.0060967e-06,-0.8185064,-0.079627424,2.272178,-1.8941797,-0.14693573,-1.255018,3.3075738,-3.3408763,3.737477,-0.9663474,-0.29159665,-0.0022019744
2.3278933,-1.5822883,-0.09734674,-4.9792566e-06,0.12995815,-1.777906,1.4490815,-1.0714171,1.7168559,2.4589953,-0.3416596,-9.378117,3.0838528,2.863974,-0.084703356,0.023441214
-3.1330118,1.5100797,-0.29331356,1.1897304e-05,-0.5127022,-0.9259243,1.5828209,5.083616,-0.77255464,-1.1339412,0.040337563,14.51409,-4.8813524,-0.36361492,-0.18206958,0.2907637
-3.19947,3.044667,-0.0213418,-2.9432005e-05,-2.3578603,-1.8095583,4.9798493,-0.03837204,-1.4075475,2.16332,-4.219118,-0.0030672364,-3.9562762,1.9365026,-2.7777221,0.005148791
-2.3776746,4.014396,-2.8736405,5.565873,-2.823066,1.354219,-0.04584705,0.09861137,-2.685508,1.8016598,-0.116811424,0.036935497,3.1512284,1.1313182,2.989747,11.662931
0.72225356,-0.68954796,0.6214582,4.049823,2.2776444,2.3569112,-0.0030456185,-0.03781104,-3.4214516,-0.6005423,-0.010441337,-0.036688715,-0.5265351,-0.0050456524,-0.8555198,11.329418
-3.2059953,1.1604378,-2.2937157,-12.335844,4.066104,-3.785086,-0.8441882,-0.046413288,3.43458,-3.5252216,-3.4029994,0.07095416,1.0770662,-3.4578807,-2.2283483,0.43736148
3.5211236,-3.6307125,-0.10870746,-1.3442502e-05,0.90753514,0.25426662,-0.23750708,12.8869,3.5683398,0.43340546,-3.549226,0.07190772,-0.93051445,-4.326059,4.0715704,-0.06288431
3.2277453,-3.3125513,-2.42765,1.2631556e-06,-1.6293001,-3.5093381,-0.86539674,5.200952,2.440068,-0.13499312,0.62881225,2.478961,-2.9744449,0.6681069,-0.3735213,0.015829809
1.5502951,-3.317224,1.0187293,-4.178828e-06,0.09895259,-3.524211,-2.2479036,-5.9917765,1.221108,-0.39806473,0.9348714,5.3971457,-3.3385694,0.8838721,-0.08544372,0.016908795
1.0405526,-2.3398716,5.0677123,-0.7480867,0.7659439,-4.84315,-2.6775928,12.106802,3.6016307,2.0087638,0.7985394,0.053777203,-2.3596306,3.7546532,-3.4680977,0.043541823
-3.7942,3.430938,0.5151134,-17.485968,-0.68027604,-0.88927877,0.3564232,-0.055913538,-3.5434947,-3.3562584,1.6644673,1.176522,2.6322203,-3.3716621,1.4136391,-6.45977
-3.8103662,2.546725,0.4907915,-2.1788368,-0.64480513,-1.657154,0.32407755,0.015803814,-3.617677,-4.051017,-3.684569,-0.02220475,2.295342,-3.680865,-0.3920673,-0.40787935
-3.6533294,0.5411489,-1.9887912,-0.00020360947,3.5492697,-0.75172585,-0.03744094,0.019763406,-3.078219,-2.7510586,-0.9807553,-0.11144999,1.1485906,-1.6381472,-0.5484286,0.80956364
-1.3353753,0.07988876,-5.5430827,-15.285339,-0.5841945,-3.314776,-2.6816669,-5.4388685,1.8284544,3.1374779,4.0266356,-0.11744475,2.9672613,-0.63150334,0.8825369,3.3607392
4.0001893,-3.4908123,-2.6033514,7.714424e-05,-3.335929,0.68194926,0.2029528,10.424314,4.357644,0.63241076,-0.41873825,4.446813,-3.8202095,-1.0882533,-1.1288552,-0.0907259
3.6911464,-1.5113491,1.2309184,3.0936262e-05,-4.575484,0.8807179,-2.820888,9.426459,5.168824,2.1098034,0.45789823,-14.474354,-3.4377394,1.3527374,-0.24078234,0.008821964
-3.427215,3.3313568,3.2953782,-1.157676e-05,3.1364064,-2.7620976,-1.685624,-1.4252224,2.6403444,3.5813317,-3.0306435,-3.723713,-3.4065778,3.5012658,-2.4608915,0.07414752
-1.7050364,-0.90701824,3.7958927,-0.18620467,3.6916883,0.502823,3.6249914,0.017839335,-2.697873,-3.441454,-3.6954763,0.07078111,4.0631046,-0.93876445,0.41300774,2.3035889
-3.4123497,3.5359478,-2.7509975,-37.56569,3.4088626,-0.45066276,0.09441681,-0.009510078,-4.2435684,-0.06887405,-3.4079537,-0.18030922,3.1762922,-3.073169,-1.5085001,0.7686329
3.4323041,-4.0406814,-3.6978447,-1.3348725e-05,-3.2748723,-0.4940613,-1.5201554,8.367166,3.077883,-0.85375655,1.9783317,7.1456194,-3.0169148,-3.6596835,3.5302267,-0.032511305
3.7255135,-3.3708787,-3.4178915,1.7283339e-05,-1.7630389,-2.6793067,-6.252028,-23.87429,3.4047527,0.28682616,3.198238,0.7720748,-3.249426,-0.40425944,-0.4538869,-0.072016366
4.7065573,1.5674934,1.07081,0.0011367798,-3.7247765,1.2175941,-3.2903893,13.091003,3.7924433,1.7702564,0.23934546,-2.9412017,-3.394783,2.3294497,0.23990832,-0.0015089978
-2.7776785,-0.6726619,3.3636553,-0.69887805,3.7865796,-0.6035631,3.7167308,0.0046631894,-0.87696755,0.36624926,-0.9708837,-0.15776229,3.054674,-1.9433132,0.35063672,-1.0409281
-3.6580737,2.1138787,0.6938366,-0.8052401,1.0527337,0.22703224,2.7252111,0.004636323,-3.7959523,-4.465846,-4.0415297,-0.03879255,3.7219975,-2.961391,-3.7736588,-19.776043
-2.683332,3.2459288,0.822201,-29.09729,2.2140148,-0.7998848,0.14465955,0.0068849474,-3.9776947,1.1168058,-3.599783,-0.18583015,3.6062229,-3.2580554,-2.8558235,-5.1068945
3.3327372,-3.3795092,-3.3371024,9.200419e-06,-2.637267,-3.2131207,-2.7974691,-0.21141832,2.0121865,-1.2359183,3.9626563,11.594532,-3.4101129,-2.6031852,3.3537183,-0.14022839
3.674397,-3.2566435,-3.3546252,1.7798382e-05,-2.9324825,-0.2872696,-2.5894573,9.399281,3.5566478,0.6256879,1.3763087,8.743141,-3.3369448,-0.1531134,-0.21480078,-0.06131696
-4.9726496,2.638341,-5.0642576,-0.0011997223,-0.67449695,-1.1914154,-4.9415493,5.550484,3.1709886,3.0362241,2.9896345,-0.14773765,-3.9855525,3.4712396,-0.11267602,0.07656127
-5.2023516,4.372703,0.8921988,-21.377026,0.97296655,-1.3170922,3.5880625,-0.08040501,-3.6552591,-3.6044896,-1.4795644,-0.018322967,2.5105042,-2.9693236,-3.003945,-17.190582
-3.519255,2.1345718,1.176469,-0.2503047,3.7781878,-0.57292736,-0.018641174,0.0027396167,-3.8232152,-3.7895148,-3.5496404,-0.039401107,2.3869808,-2.9657042,-2.447624,2.557477
3.2594066,-1.9009732,4.4411154,0.0001569551,2.2051005,2.3635576,-0.51804876,-0.0038604736,-2.7911835,3.3055222,1.6786588,0.25831258,4.912824,-0.032616943,-3.6455746,-0.1651926
2.026864,2.668449,-3.3586626,-3.377418e-05,-1.9432945,0.6710126,-3.784173,-0.0043747686,2.7895722,-0.26601508,3.9690528,-3.4901214,-2.8038359,-0.6508652,-0.06997863,-0.08770192
3.1456974,3.3053274,-0.07597375,-2.3615728e-06,-1.3174688,3.078051,-0.27258754,2.3950238,1.0308918,1.0887861,-0.7057235,-1.6636189,0.96847916,-0.16421972,-0.018937722,-0.020149693
2.787111,2.9844534,-0.02745448,-8.921131e-07,-2.4623115,3.2164829,1.6794212,-0.0056108553,1.7719826,2.5202727,0.32046604,52.21486,3.0537012,-0.89283633,-0.2016046,1.3490229
2.1183183,-1.1898607,0.013754368,2.7323946e-05,-2.6396945,3.6097307,1.9640821,0.7842883,-0.83371127,2.354878,2.6479433,-16.3414,1.7237338,0.72283727,-0.23236799,-0.037161745
3.5346332,-1.0529919,-0.071310565,-7.732988e-07,0.4412025,1.7671673,-0.30570346,6.438954,1.1020057,1.2496232,-1.0456882,21.764849,-0.51980656,1.1857224,-1.4935066,-2.773291
0.29055566,-1.6050862,-0.020392004,-5.533873e-07,0.02440323,-0.81363356,0.0046600997,-5.816232,0.22605658,0.69516087,-1.550602,-1.1229931,0.52477145,3.3539057,-0.012972433,0.012340113
0.17397663,-1.0244834,-0.028232574,-5.98873e-05,0.27068675,0.50579286,0.35586596,-1.4251934,0.32730937,-0.66849935,-0.94944334,2.7028491,-1.0270844,1.1797518,-2.5229528,1.1278934
0.554054,0.23386535,-0.13423234,-8.663216e-06,2.259203,1.6966537,-1.7575263,5.4085016,0.9084219,-1.1239672,-2.3465333,12.517418,-0.8232766,0.092766844,-0.08521992,-0.8524274
1.6565015,0.41684544,0.11710891,-2.5014679e-06,1.7376602,1.9916224,-1.2574853,5.2432885,2.8431964,1.5971031,-4.4978833,0.011939971,-1.6551517,0.085727036,0.5234981,3.6317875
-0.780274,1.2462924,-0.00034280168,-7.749603e-06,1.6702535,0.5076433,-1.1881125,0.4937784,0.743945,0.6943706,-3.6598525,2.0596724,-0.32644117,4.215089,-0.54510397,-10.044847
1.9678953,0.2702499,-0.07561459,-1.2791104e-05,0.62361944,1.762673,0.053527296,2.9163787,-0.25130486,0.2822701,-0.63292134,-2.5935297,0.25214857,2.5595124,-1.8577577,-16.099886
0.9665021,1.7520753,-0.0022091963,-2.982345e-06,1.1547229,-1.787246,-1.0327184,-2.8712845,-2.982946,2.2298186,6.1987753,-0.01771164,0.52496713,-0.83067787,-2.6867664,0.03242579
-3.3909056,0.22784658,0.016925335,2.3538305e-05,0.031205177,0.34888458,-0.28705543,-0.68191934,-4.701687,1.5679709,10.162399,28.988491,0.4506277,-1.4308103,-0.05561897,-0.16685152
0.92025095,-1.9626827,5.030447,0.0017795563,0.083983526,1.4009544,0.5148445,2.2976933,0.30380195,-0.028791562,0.9369164,0.53586775,0.18786511,-1.296034,-0.16084486,-3.6123257
1.5165205,0.027932763,0.29024673,16.72179,-0.6701941,1.6577052,1.5924065,0.231917,0.13889533,-0.33528018,0.85191655,-2.1179082,1.3642908,-0.7804508,-2.1933868,0.049535263
3.19661,0.48975816,0.0002514096,6.5692575e-07,-0.12342219,1.9113457,0.27620804,7.0128202,-0.87314796,0.20128763,2.2279491,19.272585,0.08880521,-1.7890226,-3.305098,-0.028349007
-3.689224,2.6332252,-0.0052595735,4.796382e-06,0.33094448,-1.4831625,-2.6006722,-25.611029,-2.7834942,1.9334594,5.3191648,-0.029286385,-1.8724743,-0.6595717,-1.2228012,-21.13379
-3.2765126,3.0109565,-3.1352277,-2.128805e-06,-0.38441068,1.7718107,0.6776303,1.2659652,1.1633883,4.333755,4.30586,-0.010210859,-1.5368991,-1.6937966,-3.289296,-7.3245993
3.661919,-0.18398291,4.5419464,5.3541336,-0.13395101,-1.2253481,2.1673894,-10.937061,-2.0717845,-0.74115396,4.007476,-1.6326964,3.696308,-3.4741302,1.6302793,0.06564149
2.0702467,-2.149258,-0.006529659,-4.440837e-06,2.300683,-2.1018307,-2.2529583,-7.035387,-0.8908013,1.2105155,-0.26142403,-4.741641,-0.32494777,2.4809976,-0.2406457,0.054095678
-3.3862107,1.3980882,-0.016282842,-1.6348713e-07,0.607105,-2.9502785,-5.3484354,-9.504342,-1.2990739,-1.1575707,-2.3422053,1.996889,-3.9506423,-0.07924011,-3.0186658,-7.5715175
-1.9717034,3.1240804,-2.6386518,-17.773766,-0.24881133,-1.0513486,-1.0515788,-6.8624,3.1723895,-1.2804437,0.0012449031,-0.012192428,-0.30562446,-1.4076419,-1.1582727,-0.7542591
2.9908247,-0.39683914,-4.5068774,-0.0014686584,-1.4483671,-0.8590149,2.1624875,-10.622724,0.77950835,2.4354184,-1.2124746,-22.045141,3.308392,-3.5111005,3.494708,-0.018911913
-2.5170782,0.17581895,-0.00093121827,2.7033236e-06,-0.109263614,2.5744178,-0.17310557,1.8083346,1.5497564,-1.0795081,-2.096325,4.6416106,-0.059288576,0.5141281,-0.1813029,0.020711884
-3.522413,1.3491666,-0.07282378,-3.2574999e-06,-1.6402621,1.921513,-0.49060017,2.931199,1.2027884,-1.6653553,-1.6758921,1.1969516,-3.6691585,4.2224207,-4.082025,0.06356746
-1.0097038,-2.3019037,-3.4587562,-1.1615806e-05,-2.7781348,-0.612975,3.0948179,-5.5361543,-3.1589384,3.6855032,3.6165223,-0.009777401,-1.7659531,2.489208,-2.3114724,7.071683
2.4549768,-3.4684048,1.0057967,1.2634093,2.191151,3.2248042,-1.659896,0.017197013,0.16431063,-0.9479555,-0.28190002,-0.015821457,-2.185656,-1.650878,-4.424939,-7.740223
2.212256,-3.3381505,0.2537291,-3.1272648e-06,1.1742051,2.497794,-1.0384837,8.035887,1.2173973,-3.5323954,-3.617955,0.014120299,2.9467185,-3.5264513,3.5441368,-0.038056407
3.215768,2.185997,3.405693,1.6916543e-05,-0.9394243,3.2209475,-0.30388713,2.3440585,0.8767214,0.83222723,-2.3523493,-10.209709,3.5104897,-2.5337286,3.8616269,17.7832
-3.6657076,3.8614728,-0.0034763308,6.5008003e-06,2.2647245,-2.5374084,-3.981877,-2.9132862,-2.4018633,-3.780164,2.1123357,0.18064713,-3.9492288,3.4988136,-3.4751134,0.09121031
2.3760748,-3.9877343,2.3518007,0.3050655,-3.3914163,-3.3922653,1.8319683,0.054116078,-1.8285484,4.5434933,4.221336,-0.07275607,-1.2895842,3.067849,-0.76373464,3.0026083
1.1240097,-2.3391247,-0.8016684,1.650794,1.5810058,-3.4050894,0.54846054,0.005115241,0.12783304,0.99160534,-0.19054666,-0.002025187,-1.0216295,3.3277135,-2.004456,0.11939275
1.4466641,-0.115008295,3.793331,3.7558882e-05,1.0718321,2.7985144,-3.5173283,0.027296752,3.1796958,1.573612,-1.5213847,-2.588241,3.459581,-2.8707094,4.890925,11.532927
0.35360807,2.8314347,-3.1159196,-20.659958,-0.38788584,0.44071412,-0.6786243,-3.7873597,-0.11964482,0.9163671,0.63784105,-14.343069,3.3091135,-3.9583666,3.7942646,-0.031055618
0.7477553,3.5280104,-0.10178591,1.138693e-06,0.5808909,-1.2230779,-3.5672698,-11.169484,0.54517484,-1.5053016,-2.7600813,1.4373078,-3.355306,-1.3648552,-0.19069377,-0.0338744
-3.2461405,3.3621635,0.45455578,-3.383262e-06,1.3910706,-0.93545794,-2.5195413,-8.887409,0.29546222,-0.35928032,-3.1196032,-1.494904,-3.2306273,0.9800835,-0.014356531,0.023118543
-1.7002451,-3.6248364,-3.5486102,-7.444547e-06,-0.41712213,-1.705339,3.3965771,-0.0011144988,-2.4634712,4.3076706,4.160067,-0.02305914,-2.9327009,4.56638,-4.2921257,0.018061396
0.36633053,-4.2955704,0.4453926,0.62164545,-1.6695242,1.2225039,4.751867,2.228218,-3.4143207,3.9842117,-0.15259345,0.0011299327,-0.003118232,3.0092685,0.61051047,0.20314002
0.37946272,-0.24363399,-0.54528904,-10.778122,0.44802207,-1.8067635,-0.3145864,0.006538391,3.2787344,-0.8687076,-0.047327694,0.040959306,-0.5829766,-0.88149977,-3.029121,-11.798215
3.1064725,1.9735253,3.5234013,1.0657734e-05,0.9363669,2.65972,-0.25915658,8.288884,2.6606326,-3.6189098,-3.664312,0.022170005,3.4536572,-4.0303273,3.8616939,-0.027960189
1.9523641,3.5396032,-0.12145001,-6.4873366e-06,0.21873656,2.8962743,0.1307725,3.1482587,0.6234334,-2.95828,-1.9125568,4.541289,2.950801,-3.450903,-0.19317555,-0.032476626
-0.98727524,3.838586,0.013058245,2.256523e-05,0.44100022,0.43775547,-0.19445515,-9.715099,-2.9052947,-3.3382266,3.0843165,0.03160668,-3.2682772,-1.0799032,-0.0007716939,0.031064164
-2.9022555,-4.00964,-3.7668364,-1.50975275e-05,1.1231432,-2.4216216,3.3784173,0.012277918,-2.3278322,-2.003208,3.5636654,-13.405653,-3.5322154,3.9531195,-3.5592313,-0.0030719377
-0.21627814,-1.3471262,0.85036147,-5.6838613,-3.2511032,-3.188718,1.4462022,-0.0021600947,-2.52206,4.4855814,4.115279,0.014035007,1.1704971,3.28349,1.8929532,0.19639361
0.048185945,-0.2934308,-1.3813639,-2.7146134,0.7629054,1.7833289,0.4085223,-6.64942,3.0641584,0.23383993,0.09828761,-0.008103415,-0.9969344,-1.2585883,-2.9971442,-7.968302
3.3740768,1.2556607,3.2803364,5.5514565e-06,1.8952329,-1.1547401,-1.7782185,-4.1816034,3.0881588,-3.7860327,-3.8278315,0.05305772,3.768743,-3.4207153,2.6941862,-0.06066951
0.6551521,3.39792,-0.051139712,-1.5622359e-06,0.6737316,1.1255234,0.045776457,-5.2779827,1.0706987,-3.0576663,-2.1642432,3.4755292,3.3944204,-3.8366356,-0.33094925,-0.039580934
-3.6274014,1.5531791,-0.008685094,7.1963022e-06,0.2858902,0.11682299,5.337951,8.535374,-1.2288933,-1.8840723,-0.2785492,-1.9374797,-3.4703968,3.2386348,0.055959463,0.03310851
2.0314102,-2.8624125,2.768302,-1.7952886,-3.4039993,-4.123019,3.5810828,0.06385611,-2.2792633,4.901657,4.34205,-0.028373636,-0.6185361,3.7765012,1.4230654,4.803797
0.5047349,-0.31596303,-0.021716237,-12.69515,-1.1076766,-3.2131958,-3.9068604,-0.0048093796,-2.409382,3.4996738,-0.18068111,-0.024157142,-0.5369656,-0.015737236,-0.39849415,-5.980459
-1.8782105,0.9861348,-4.170533,-3.867143,-0.4135793,3.3979363,1.0002747,2.5454197,3.1465943,-3.774687,-3.5040753,0.0145731475,2.765228,1.2011669,3.355667,-0.02113745
3.2438545,-1.839017,3.3550818,6.893403e-06,-0.12645677,0.19342539,-0.22233744,-7.633789,-0.10365355,-1.8568178,0.5701894,-3.0482812,3.414589,-3.7341385,3.5794828,0.0058787204
-1.3249024,3.352804,-0.020397909,-3.2093212e-06,-1.0732154,0.13093781,-1.1272894,0.4372053,1.0847373,0.9764037,-3.4351845,-35.247223,1.2128465,-3.7341073,-0.30739412,-0.04185562
-3.41742,3.5792494,-0.052400976,5.651604e-06,-0.28922746,2.7728555,0.9182858,1.0870514,0.3137055,0.15422261,-2.7510312,-6.032486,-2.3112907,-0.43461293,-0.041177835,-0.0113061145
-1.6639638,-3.5380256,-2.04321,-1.9028084e-06,-0.3109862,-3.7591894,3.4722362,0.048822664,-3.1091673,4.5966544,4.2975554,-0.038669184,-2.8262005,3.7756271,-3.503785,0.015497997
-0.57134753,-3.1161103,-0.5339352,7.2357607,-0.95778114,-3.5024476,-3.093561,0.020447731,-2.7436707,4.9242616,-0.18729845,-0.06388848,0.44708288,2.3836932,1.4644136,0.8905897
-1.2414718,-3.167592,-3.3091063,8.136529,2.527157,-3.3263204,-1.8412517,0.04653418,2.5154753,0.36678985,-0.3959943,-0.03160537,-1.0712395,1.8682522,-2.820448,1.6927645
1.8759521,2.9303374,-2.8246272,1.1843862e-05,0.7622491,3.204166,-3.4514387,8.152798e-05,3.3954763,-3.455409,-1.984768,0.0034374446,3.5191915,-3.7604892,3.6298897,-0.00655327
3.3562982,3.396651,-0.043291703,-3.848695e-06,-0.56431097,2.9088397,0.47237605,-0.42126822,0.380514,-2.4856818,-0.53104055,0.8430878,2.8614938,-4.79207,0.044887304,-0.02578684
-0.057356834,3.5516565,-0.08456327,3.1945983e-06,0.6804815,1.9998503,-0.7897299,0.30734175,-0.5947895,-1.1571069,-1.3796225,-3.213421,-1.2210823,-1.4532889,-0.12527937,-0.035583764
-2.7666688,3.1055956,-1.827396,8.07976e-07,0.6466814,2.423781,3.279059,-5.024846e-05,2.5601363,1.6244553,-4.712778,-0.00039935112,-3.76123,2.882644,-0.045734942,0.055628702
0.1481303,-2.4587398,0.58184946,5.7562695,-1.0064462,-3.488481,0.18215466,0.008750781,-2.8101494,4.304782,3.9126976,0.009294644,-2.6288056,4.0663548,-3.7426915,0.05247579
0.4790427,-2.2683635,1.6021922,-6.2486763,-3.376023,-1.6723179,4.127177,20.458363,-3.2917893,3.264496,-0.0060274377,0.024369767,-0.30772078,3.0774236,-1.0470661,3.3232918
-1.4676542,2.7209077,-7.5773067,-54.650574,1.1339929,-0.58018005,-3.2515554,-0.013125524,3.0406885,-2.6472645,-0.09738165,-0.11877549,1.3251019,1.061783,2.4202013,0.1443866
3.3454397,-1.0252763,3.322225,8.185217e-06,2.0391998,0.81638354,-0.59209526,-2.5093334,1.8921938,-4.035992,-4.0141025,0.033328917,3.6914747,-3.5955303,3.5849037,-0.036214687
1.1717106,3.7661812,0.012144685,2.6237534e-05,0.47309238,4.0202584,-0.42685178,-0.9677296,-0.59281385,-2.373187,-0.2533517,-0.63933235,3.0391524,-3.650732,-0.16424978,-0.026228685
-1.6812077,3.71805,0.104819536,2.3076964e-05,-0.8981514,1.6817985,-0.98456925,-1.7480345,1.8837116,-0.7937717,-3.6779253,0.45075604,-3.2734363,-0.40757126,-0.2187571,0.0130539425
-2.8351755,-4.3736587,-3.965494,-2.3437487e-05,-0.8981148,-4.009411,3.667304,0.03378749,-3.2099094,4.61547,4.446573,-0.07733494,-3.3902683,4.0075345,-3.7317748,0.05181564
0.00949955,-0.8799925,1.0435933,-8.296598,-1.6839114,-3.4982262,-2.3686726,0.00045394897,-2.0579717,5.1025753,2.0117793,-0.0066362396,-0.2949472,1.0392227,0.37284398,-15.136108
0.1980981,-1.9908898,-0.8363769,-3.5820231,3.3133135,-3.2285361,-2.0311716,0.0019222917,2.5056186,-0.118688665,-0.021725617,0.018355751,-0.8477505,-1.0732517,-2.924787,-10.7017765
3.289458,-1.083427,4.0904765,0.0004234314,1.4201885,-1.3100927,-1.223102,-9.719734,2.9903462,-3.9999006,-4.017583,0.059072345,3.897159,-3.4776027,3.778035,-0.08006953
1.9729427,3.3098404,-0.104138374,-5.326798e-06,1.6191938,-2.0933108,-1.886054,-2.0860906,-1.6757387,1.2020333,1.008589,-18.090656,3.0349643,-3.5693712,-0.24356717,-0.03995721
-2.8283947,3.6755774,-0.051490344,5.7389607e-06,0.5658359,3.0514507,-1.9613642,4.8837543,1.5085942,-2.1750405,-3.2917776,2.587591,-3.4674385,0.74964035,-0.008050829,-0.035396032
-2.0821378,-3.6749082,-3.5361018,-9.227022e-06,-0.5970631,-1.214791,3.3398318,0.008850418,0.27811995,3.507792,-1.1017103,-0.0332641,-2.9292758,4.0242276,-3.7763753,0.0060894084
-0.7145525,-0.02834034,-0.012881756,-1.5542217,-3.2768211,-3.195922,2.0172744,-0.017852135,-2.8018074,4.120277,3.9576578,-0.009043265,0.60204804,0.26865697,1.4063965,-6.941061
2.164371,-3.417672,1.8547554,0.16369203,3.3518596,-0.3662673,-0.3636293,0.026324235,1.2627265,-0.21904673,-0.036395736,0.0056909667,-1.2600329,-0.40247473,-3.482853,-9.404576
2.7034447,1.7956904,3.2761517,-3.4490592e-06,1.7109227,0.15712836,-0.82327634,-5.597807,3.01279,-3.4663262,-3.3550653,-0.0046484247,3.5873485,-3.5616214,2.052249,0.0010317639
0.031911902,3.3688262,0.35633475,2.8916384e-06,-1.5339814,3.313102,0.64241284,0.004896314,1.7924926,-1.3970897,-2.3069866,0.2819959,1.7525551,-3.606328,-0.35436296,-0.0023700818
-3.5722542,1.939167,0.052547596,6.841712e-06,2.0021334,-0.2254284,-3.9360144,-0.9408531,-0.7410233,-2.049438,-0.029338837,-2.4360886,-2.676598,3.3805265,0.07998279,0.04376155
1.4267514,-3.5044951,6.3884706,-7.345186,-2.5927753,-3.9986587,-1.9039686,0.2277,-0.6582769,4.4472866,3.4924963,0.030310841,1.0807141,3.5727894,0.4824999,2.1713412
-0.5838599,-3.6244476,0.111211985,1.5634117,0.17927006,-0.33328646,4.4482737,8.403208,-3.2796938,2.9558206,-0.13525741,0.0040046424,-0.041360244,3.3177674,-0.18135646,6.5009375
-2.5844626,3.3046875,-3.5721722,-16.295795,2.0454047,-1.3026707,-3.384901,-0.0122329965,3.5386086,-2.7741578,-0.01314196,-0.037628785,2.286612,-1.5526283,-0.6677891,2.8590093
3.6867867,-2.9519064,4.7269945,0.0015392303,2.2891836,-0.26407346,-1.0830972,-5.0059037,2.2817943,-3.8195448,-4.0005836,0.05559451,3.8328712,-3.4937713,3.5955129,-0.056877658
2.9662154,2.9150465,-0.056714058,-1.0238388e-05,1.2826253,-1.7157562,-2.1610765,-5.7369947,0.72383296,-1.5841949,-2.2005682,2.8196151,3.1814988,-4.0410805,-0.3173411,-0.008249313
-3.4030244,3.90262,-0.036509566,1.5242244e-05,-0.10184996,2.1127968,-1.1935314,-0.01105648,1.2134423,-1.2397196,-4.0797825,0.029012755,-3.6971385,2.0444877,-0.1804393,0.007463984
-1.9469831,-3.8449118,-3.665966,-7.312832e-06,-0.8256326,-1.5711492,4.225233,0.007915974,-0.9602051,3.437368,3.4941115,-0.06347748,-3.3332667,4.532931,-4.2634306,0.014334742
-0.40131834,-0.7041025,0.17487149,-2.492717,-3.2783012,-3.2508543,-1.9845186,-0.001435159,-2.929646,4.260235,3.9697661,-0.009095328,0.99695987,3.4329066,2.6029606,2.657175
2.5422661,-3.3792357,1.5888387,0.26504642,0.9268774,2.8294327,2.9235544,-9.516798,2.3953674,-0.6722319,-0.09126508,-0.02281898,-2.8901563,2.1501434,-3.416206,4.048904
0.38075176,2.128191,-4.373707,-7.029623e-05,0.57716066,2.7260098,-1.6958376,7.4132657,2.4489481,-3.5481825,-2.3585868,-0.0073979422,3.0573962,-3.2562704,3.3598132,-0.006231129
1.8152405,0.90538806,4.4002476,17.443958,0.5975821,0.0045911074,-1.3304082,-8.316298,0.15930809,-1.4285811,-0.91135263,-2.8972006,3.2793958,-4.0352926,-0.13211057,0.042607762
-1.658907,2.3362312,-4.6626587,-0.00049877167,0.35035834,-1.2469344,-0.43004477,-13.214276,-4.875736,1.2816954,6.3635845,-21.5512,0.33573255,-2.1511908,0.057367608,-0.009258568
-0.65453076,0.73015845,4.9418635,20.84711,1.5152837,3.1097379,-1.0742295,2.73581,0.3646686,-2.7812643,-3.4304428,7.7605824,-3.2833052,0.14384182,-0.08303021,0.025706109
-3.292015,3.707,-9.818327,-75.80189,-1.6971674,-1.863565,3.3117456,0.05960518,1.8577545,3.4189446,-0.76511276,-0.068385445,-1.3898041,4.6076145,-4.3777246,0.056133628
0.07180762,-0.82975984,0.6953125,-4.0179005,-2.623845,0.48531714,4.73029,-0.015901566,-1.0470445,3.9539404,0.019462042,0.052303173,0.2652704,0.41738367,-0.34684163,-7.154733
-1.2429613,0.38299853,-2.2439556,-8.6874695,1.9158642,-0.45491427,-4.007019,0.014213365,4.159724,0.23267913,-3.7569728,0.013587803,-0.12847447,0.6841114,-2.2952116,-3.7681408
1.5337343,0.86734617,3.5091634,7.4515383e-06,-0.8259677,-1.8596506,2.5881674,0.004709244,-0.91266716,-3.1083775,1.4988005,1.0117388,3.9005446,-3.4751682,2.8308349,-0.06258637
0.25547886,3.6277704,-0.07028602,5.830587e-06,1.6982977,-1.572546,-2.5464697,-8.025135,-1.9333807,-3.5524006,-0.14763832,1.5531412,-3.2159662,-3.1646755,-0.21680337,0.017818967
-3.2583923,2.7147639,-3.6396556,-3.1441334e-05,3.3431835,-1.7789624,-4.0881104,-0.0014466271,3.0538158,1.9355152,-4.665419,0.084961236,-3.5779002,3.429651,-1.9073267,-0.048503913
0.9651822,-2.669097,1.9647055,-2.9049864,-3.0411172,-0.1933868,4.8794255,0.001964569,-1.2124645,4.5047836,4.1230383,0.035662163,-0.7838808,2.556242,-0.26029325,3.2362208
-0.5990155,-2.1607838,0.6095848,-1.6236537,-0.59405935,-3.1705518,-0.4600749,0.12761688,-0.6154705,2.2009246,-0.24019942,-0.028455913,4.329346,1.0491171,4.3993044,-10.674036
-2.0009313,-1.8477136,-2.4826012,-0.24835159,2.7944298,1.6839321,-3.4978738,2.211146e-05,3.4661913,-3.5838628,-3.556894,0.0020776838,2.5431666,-0.9834271,0.7163484,-14.841786
3.2737868,0.2861552,3.3944728,7.2986004e-06,0.62972707,2.951607,-0.71355164,0.002549572,0.6890203,-2.9228978,-1.1302872,4.0639486,3.6082454,-3.8744526,3.7051387,-0.01616956
1.4967363,1.5676243,0.6457329,31.761131,0.49407732,3.1696687,-0.35934424,1.9695554,0.044891417,-1.8415761,-1.9820518,0.15794434,-0.3177679,-3.902104,-0.051189482,0.057375714
-2.194304,3.8174398,-0.0295817,1.1829889e-05,0.37530833,3.3569381,-2.1826866,5.142636,1.6173346,-0.83023304,-4.2644515,0.03185731,-3.149883,0.15943816,-0.30490887,-0.03649836
-2.5665197,-3.0426824,-3.5219429,-8.415684e-06,-0.25703847,-2.532843,4.100584,26.705486,1.3912857,0.6926789,1.1569949,-16.105326,-3.2594583,4.2859817,-4.029908,0.001990958
-2.5777469,1.8517313,-6.7865124,-64.79649,-2.9685144,-3.7050667,0.029914852,0.083762124,-2.92255,4.7568088,4.1142206,-0.028911486,-0.12291527,2.857073,-0.9059223,6.8693314
0.43681112,-2.994611,-0.24317026,2.7760494,-0.840471,-2.7108078,2.0529509,0.020478785,-2.7045493,2.513415,-0.15866762,-0.019435458,-1.8873732,2.4395752,-3.257702,6.9209433
-0.82992196,1.4875907,-4.737686,-4.477403e-05,-0.4193601,3.5112898,1.9214084,2.8029118,2.4262586,-3.928566,-3.4872108,-0.0385354,1.9699879,-3.0594792,3.7387178,-6.081806
3.3057337,-1.7814356,3.3577194,6.4343967e-06,-0.05412391,2.9616144,0.6980595,2.023233,-0.7871132,-1.9368265,0.5898905,-4.0156918,3.630945,-3.7183785,3.6040444,-0.030909963
0.48282957,3.8161612,-0.020381635,1.0208913e-05,1.3264339,0.30403867,-1.1132298,-6.0861034,-0.98396593,0.27860785,-1.7729403,-10.3018265,-2.5450573,-2.488341,-0.048466325,-0.012840958
-3.3629217,0.8363998,-3.404941,-2.675346e-06,3.2966633,-3.3881066,-2.5835168,-0.2710476,-2.898902,-2.2457972,4.0938234,-0.069181636,-3.8454597,3.21977,0.07351308,0.06464854
2.2700343,-5.8625965,2.7780285,-9.534159,-0.07006027,-3.7832308,-2.994896,0.14956093,-2.2235246,3.6842968,1.311418,-0.09899154,-1.2872704,2.874747,-1.8475752,6.431127
-1.9676712,-1.8785,-5.298709,-0.0010471344,-1.7896045,-3.1201131,-0.6406568,-0.045966227,-3.3083477,3.1147442,-0.21216053,-0.0054131113,-0.5649682,-0.5422518,-1.1692457,-11.134878
-0.93286526,-3.0835013,-0.1380378,9.499571,2.4516196,2.817668,-3.593621,0.07664906,3.5537698,-3.1289046,-1.4348607,-0.06528863,0.24432829,-2.5626054,4.721155,25.715593
3.3741038,-1.9199547,3.1867955,1.0828389e-05,-0.29256707,3.8651533,2.5881085,6.008485,2.2868247,-4.0064955,-3.6804152,-0.016123524,3.6901407,-3.706068,3.6670525,-0.12866056
2.1217008,0.9729956,4.031282,3.156881e-05,-0.034679502,0.8069167,0.7569218,-5.9720926,-1.6808861,0.010806613,1.3465779,-13.63954,3.5899634,-3.6938133,3.6331203,-0.015654564
1.5352937,2.8578513,-0.029088259,-2.9225368e-05,-1.7911582,2.7239032,-0.5553454,1.3570862,2.6733136,-0.36201164,-3.9903998,1.3183007,0.5441926,-1.7291949,-0.17900588,-0.06952293
-3.1781225,2.787016,-1.9473772,-2.4354085e-06,-0.06643593,0.15184152,-2.2839806,0.76099575,-2.4289916,-1.9424064,4.931713,-0.15291975,-3.5217066,0.5960586,-0.408207,-0.07117388
-2.6545594,-1.9273107,-3.413518,-7.679699e-06,-2.332037,-3.5100055,3.4224255,-0.010706069,-3.0031848,4.6652517,4.438648,0.002381525,-2.938414,4.638693,-4.3562713,0.027000964
0.1979459,-2.0251327,1.0437441,-2.3289003,-0.654979,-3.2053962,-0.22027543,-0.0034213592,-2.9016201,4.4450655,4.081379,0.0068622306,-0.31772706,1.3238556,-1.156253,1.2129732
0.5357357,2.6664429,-1.572012,-8.261965,3.1231315,-0.14570677,3.6041338,-0.007936478,3.4426494,-0.83858407,0.34577152,0.0029030256,-0.1406891,-1.6100343,-0.27021748,-12.840875
3.2407694,0.473983,-0.009975627,-3.230638e-06,2.7128596,-1.0611639,-4.1084294,0.0015077621,1.523828,0.3021537,1.9987777,-6.876899,3.4229977,-3.9051194,3.8004081,-0.027439937
2.4906068,1.5535012,-0.0111728385,5.527074e-06,-2.1469562,3.009746,2.3992677,5.652588,2.0464027,2.4731157,-2.223267,-7.416233,2.9719331,-1.0579915,0.07994653,7.304138
-1.7289169,-0.42169866,-0.010488048,-1.1716634e-06,0.23841985,-0.6339323,-0.5825125,-3.871696,2.3195066,3.5248604,-5.6830907,-38.217937,-2.1978028,1.1606864,-0.19076677,0.0019661149
-3.010311,0.051020592,-3.4560173,-9.517005e-06,0.25495726,1.3363022,-0.33261126,2.0201397,0.7299843,0.9229437,-1.604593,-8.4567795,-3.6075115,3.397094,0.015536718,0.029742047
2.5508964,-1.110362,2.231802,0.89156705,-3.2217236,-0.94346535,-0.9946994,-0.0034742355,-3.2758386,4.0437536,3.843061,-0.018218808,-1.5462698,2.158819,-0.18346536,9.288523
0.4309398,-1.4041293,-0.11099911,4.3559217,2.8895302,-1.3934171,-4.3171024,-0.02925396,-1.7137847,-1.7936059,0.037223194,-0.05434832,-0.7684517,-1.0530301,-0.12657231,-6.763891
3.429076,3.3480294,-1.9551736,-7.9751015e-05,1.1206429,1.8587766,0.035708785,9.849165,3.2466068,-1.479472,-3.6066427,0.06606346,3.5196643,-3.6634874,3.622196,-0.056232482
1.8730961,1.4886546,-0.0053029954,4.432227e-06,-1.8789941,2.6074462,1.7573714,6.51538,1.6640686,2.5939188,-1.2466552,-8.978636,3.3500285,-1.2118437,-0.17422691,-0.05172194
-3.4091628,0.5489512,-0.098142296,-6.0354237e-06,0.24041271,-0.97262526,-0.7353903,-3.5872345,1.5722587,1.418066,-2.5601897,-18.691036,-3.7403603,1.1870517,0.14578761,0.022324588
1.8485101,-1.7771803,2.910996,0.90900546,-1.4363905,-3.3488376,-1.5890365,-0.0011698713,-3.6435328,3.6444454,3.238778,-0.003844291,-2.733788,3.4237566,-3.184415,0.0020861104
-0.5179212,0.057843626,-0.2532457,0.58297014,-2.6495204,0.32754713,-0.045493156,0.067537226,-3.1674967,0.7508946,-0.093284905,0.028131226,-0.19448788,1.7711732,1.0352606,7.8122177
0.12471421,-0.2889414,-0.21803994,-1.4982541,3.3297784,-0.70245856,-1.192352,0.0042997594,3.0608084,-3.3916924,-0.035813525,0.012947761,-1.016248,-2.2267919,-1.2137542,-5.3729954
3.4228926,-2.5838661,4.7052116,0.0013427734,0.4271456,2.0834303,0.72109663,9.69218,3.2403066,-2.7720702,-3.744566,0.057097074,3.781117,-3.3548572,3.415471,-0.043639876
0.27897805,1.4578053,-8.226698e-05,-2.0375137e-07,-0.09816742,-2.0258152,-0.18113708,-4.8132277,-0.15500492,0.8864789,0.55721605,-1.285292,2.6156752,-0.08557614,-0.02421917,-0.015040897
-3.0775993,1.9938062,0.062863804,4.245917e-07,-0.2669528,-0.20282865,-0.31903604,0.5396754,0.04522705,-1.4195408,-0.19440937,6.4367857,-3.275896,1.5077683,-0.042112857,0.10439822
0.038787667,0.03764639,0.17399114,-0.40714926,-1.71035,-3.467187,-1.2016914,-0.0011807592,-0.20082036,3.273695,-1.2882649,-0.0038782544,-3.4838655,3.4597347,-1.283207,0.02564358
1.586195,2.2713768,2.1906471,-13.5646305,-2.200647,0.8291931,0.051916137,0.041574143,-3.24005,2.4656332,-0.13193454,0.01932516,-0.806062,0.22804978,-0.6831359,0.9117321
0.786948,-2.4496455,0.7157769,7.615404,3.3485157,-0.7711679,-0.9764589,-0.028120494,0.7154055,-3.394112,-0.019823022,-0.024740368,-1.2052836,-2.7657633,-0.8403925,-5.9018593
3.0338192,-1.715013,3.4855268,1.1951801e-05,-2.2838368,3.158208,2.8158827,7.3170834,0.4183113,1.4014459,1.1356473,-7.433796,3.2831926,-3.732693,3.6504548,-0.065033436
-0.82281244,0.9026389,0.15383315,1.5029325e-05,-1.4226326,3.2632182,1.146566,0.002782546,1.7486557,0.5679033,-0.84925765,0.44874895,3.4318943,1.2464129,0.015765611,0.009798232
-2.8988416,2.5099761,0.014089823,2.1277543e-05,-0.13557619,-2.211156,-1.9378884,-8.471153,3.2435694,2.3930886,-4.5504456,-38.003258,-0.8964492,1.2086943,-0.18298793,-0.035849288
0.77931803,0.32603475,-0.2619597,0.53795886,2.1163938,-2.071593,-2.5571237,-7.9105997,1.5659249,2.0188594,3.6555176,3.4964142,-3.2320979,3.3010926,0.5371255,0.031049564
1.3325167,0.5646429,0.6672728,-1.0609305,-2.2805467,0.18179218,-0.0037800055,0.004255236,-3.3212318,0.8006641,3.2799027,0.0036868565,-0.5768782,-0.04800552,0.6978659,0.43719482
1.4312596,-1.9402486,1.0336862,2.90139,3.9744267,0.74800384,0.21547341,8.620272,-0.85904515,-1.4800487,0.071473524,0.04627327,-2.0970452,-2.2639182,-2.8425393,-4.278057
3.3004637,-2.2691228,4.964929,0.0014972687,0.5228963,0.22898453,0.5644033,2.0546203,2.8378234,-1.2844956,-3.6339562,0.020495202,3.742321,-3.2936158,1.4638808,-0.0043889917
-1.7575669,2.2658055,-0.024836361,1.959364e-05,-2.5830843,2.4302447,1.3379309,8.128038,2.5516589,2.4188957,-2.038661,-8.638141,3.4029703,1.0417879,-0.12749854,-0.02448558
-3.2642999,1.6907086,-3.1019335,-1.6907156e-06,1.215003,-2.257411,-2.2715979,-11.092907,0.8813014,0.66236156,-1.7761343,1.1457639,-3.018046,2.564026,0.008424111,-0.028103553
2.3652353,-3.4732394,2.258825,1.2335011,-0.1566955,-0.020060599,3.3092556,0.03357233,-3.370318,2.0687337,3.9996388,-0.023384094,0.37275052,1.1825691,2.4023628,2.1441302
-3.082548,2.3676238,-7.3947144,-95.583534,0.29346856,1.1076324,0.39630646,6.6866035,-2.9867013,0.43433154,0.26501617,-0.04910452,0.40130243,2.5055637,0.06680629,8.791912
2.254046,-1.1644459,0.7820212,4.981803,2.2017221,-2.5077353,-1.3866999,-6.2728434,2.567194,-2.2978985,-3.4138992,-0.026765734,-0.62887853,-3.0879061,-3.69623,0.019665718
3.3222656,-3.3022816,2.6919653,4.442316e-06,-2.1511495,2.652078,1.870075,6.378929,1.4799275,1.9908265,-0.91066456,-8.686624,3.5108688,-3.3920994,-1.9396198,-0.0708534
-2.2145023,1.8344176,0.08243151,-3.3226606e-06,-0.6123046,-2.6394172,-2.794519,-11.658751,1.2400734,-1.0773553,-1.0455073,3.6009688,0.6097168,0.3292078,-0.0034609586,-0.017411262
-3.0365028,-1.0910561,-3.4361696,-8.2099195e-06,1.7398944,-1.9499836,-1.8769082,-14.520182,2.9559069,3.1773698,0.22510597,-1.3405597,-3.5840726,3.2026665,-0.010591388,-0.029960543
1.4349327,-1.765835,1.853455,3.8057823,-3.098835,1.6675224,-0.017280132,-0.012505547,-3.368442,0.80697167,3.3514583,-0.013360997,-0.536428,2.2219615,0.2719558,8.594452
0.44541258,-1.0303888,0.23851365,4.408554,3.6288886,0.6139867,-0.5865221,-0.002752304,-2.3713472,-1.3907995,-0.07563469,0.033966847,-0.6149647,0.9024647,-0.15695095,3.3296452
3.6828237,2.0304532,-3.862365,-4.3629785e-05,2.2192225,-2.7712219,-1.0734538,-5.278386,3.309768,-2.1901479,-3.6014383,0.02819863,3.4229815,-3.3834767,-0.46227106,-0.01966916
1.5237404,1.9572667,-0.025157837,-9.895921e-07,-0.53933716,-2.47144,-0.06900215,-6.1649427,-0.07917172,-2.3580499,0.9026634,10.645483,3.5494833,-3.1704094,-0.17385551,0.038265884
-1.9222547,1.6326989,1.1726502,-3.7392701e-06,-0.55535233,0.8931331,0.14393267,2.5450587,2.642474,2.6387525,-5.6171627,-49.818947,1.6306573,1.3347805,-0.033325195,-0.056004435
-2.9959211,-2.0798235,-2.557376,1.7402308e-05,0.35410136,1.5409424,-0.32796243,0.52888787,0.8705442,-0.7266624,-1.9272883,5.140511,-3.4359453,3.3921518,-0.0056047835,0.0018048584
0.36870873,1.3835701,0.7479911,-14.383564,-2.48271,-0.030402586,0.07212635,-0.0049218684,-1.9758219,3.8539772,3.7115836,-0.004152298,-1.1108724,1.8290575,-0.63441026,11.164966
-0.42190087,0.8342326,-0.9210448,0.44248152,3.3886628,-1.7649972,-3.046879,0.0027983189,-0.48431927,-1.2365725,-0.025045544,0.015987346,-0.10361984,0.5798879,-0.050761223,2.9388378
2.931454,-1.4811313,4.2299786,0.097554564,1.8243735,2.2347548,-3.3895943,0.03658463,3.651873,-2.8008394,0.7813826,0.049919724,3.0166125,-3.2382607,0.9288703,-0.040005818
1.2882441,0.19764616,-0.07662913,-5.630061e-06,-2.305282,2.9370255,1.8322031,6.9428625,1.9108846,2.6727514,-1.4435844,-8.407612,3.2650328,-0.5144877,-0.16087025,-0.050458767
-2.8145044,2.546953,-0.0009039012,-7.5169646e-07,0.6687046,-2.233101,-1.8334293,-4.016616,-0.058564007,-2.3795009,-0.9533969,11.348691,-0.17788747,0.4291871,-0.013257533,0.044384245
-0.4290751,1.0764993,-0.7793587,0.91642916,0.4937956,-3.4509,2.0882454,-0.0024425555,-1.2275511,3.9549193,3.7421064,-0.006522592,-3.491802,3.7226512,-3.4984598,0.006046962
0.5743209,-1.7494729,1.6556448,6.2716417,-1.0961969,0.40620613,-0.045491852,-0.03187809,-3.4253411,2.2664928,-0.26475847,-0.037623823,-0.5709979,1.855237,-0.7736203,9.425469
0.9558542,-2.0458267,0.67766273,6.6399064,3.321848,-0.66694134,-1.4424101,-0.017309131,-1.5542327,-3.4374194,-0.013168845,-0.019939544,-1.445065,0.56050897,0.31902766,4.39396
3.4974844,-3.2527251,0.54292434,2.0541956e-06,1.498244,-3.1815338,-0.5623908,-2.4496775,3.210517,-2.0612612,-3.6906872,0.041969754,3.8386393,-3.451795,3.4870772,-0.0033049658
0.48750433,2.535955,-0.0030275285,6.20383e-06,-1.3276689,-2.325013,0.28784245,-10.888078,1.753587,2.7875364,-1.11262,-10.72717,3.3497455,-0.34687614,-0.11163962,0.0044716573
-3.4596472,-1.0059044,0.093149036,9.643764e-06,-0.41286987,0.43586516,-0.73810756,2.57233,1.5928857,3.4706933,-2.521791,2.1344404,-3.8944108,1.1573306,-0.009062797,-0.010914889
-1.5424205,1.8741899,-1.7305344,-1.515089,-1.0449773,-3.454906,3.3586414,0.0012002289,2.303922,2.028998,-4.6563344,-0.0057480484,-3.6625814,3.415052,-2.4486442,0.041082196
2.0582526,-1.9526172,2.3679159,3.429647,-2.2844684,2.0009737,-0.010078133,-0.0055621015,-2.5177567,-0.73541707,3.3997362,-0.0063951006,-2.2026434,-2.6089346,-1.9540417,-5.3270946
-0.3324911,2.864977,-0.13559127,-10.697696,3.2982016,-3.0235536,-1.8850341,0.015782885,-0.55917406,-0.8783173,-0.05160386,0.04139141,-0.46576464,-0.45631465,-1.1039445,1.2032404
2.9289913,1.5949736,-3.7349453,-3.7919264e-05,1.0158169,1.3135242,-0.5071849,11.893487,1.8456491,-2.542183,0.1313044,0.018226422,3.2390428,-3.951579,3.690709,-0.031090807
-1.2960823,2.097114,-0.010409816,-2.8486693e-07,-1.2469215,-0.34200895,-0.009621739,-1.5761101,2.3049161,3.6703405,-2.967525,-11.1239395,2.916518,0.26528892,-0.027522113,0.0020605223
-3.3341691,-0.23125617,1.6887493,8.242873e-08,0.8588134,-2.1460109,-1.9458678,-6.8703256,-0.2526493,-1.9762638,-0.77633905,8.773474,-3.4897835,1.0878267,0.95921636,0.023207735
-0.4019428,-0.097468674,-0.23848732,6.3887725,-2.2891107,-0.11672443,1.5127461,-0.014012946,-3.847514,3.5574994,0.519999,-0.020427637,-3.0933824,3.2774243,-2.1686954,0.0075001493
-0.32275504,0.83467174,0.13887507,-2.1464705,0.16610573,2.1138117,-0.1308974,0.0072101033,-3.314246,-0.005758507,-0.013390949,0.005227221,0.6548704,0.66043925,0.50770307,1.2859135
1.5314777,-1.9594115,0.5558233,7.6081305,1.2860539,-0.81982964,-1.444352,0.8919033,1.5205039,-3.1349645,0.09244919,-0.038238212,-1.0407205,-0.6080228,-0.64718485,-3.0730987
3.300347,-2.9125836,3.503436,1.1262076e-05,-1.0136739,3.0433736,1.977132,2.8212056,-1.3231018,-0.9577425,3.0945373,-0.17340708,3.8277059,-3.8416178,3.6787357,-0.024422728
-1.7362971,1.9880725,-4.0212508e-05,-2.6663201e-06,-2.1664064,3.2597094,1.4911427,0.18366486,2.2457323,-2.7186542,-1.3953012,11.835865,3.45123,0.8445761,-0.16500896,0.02722238
-3.4149318,0.22480541,0.060593605,3.5070816e-06,0.7314211,-2.5422142,-2.3470986,-6.3016605,1.3260071,0.6932495,-2.2868395,-0.8076517,-3.5985005,1.2853951,0.12584318,-0.029860102
0.6302644,2.889696,2.1301408,-11.278432,-2.9833276,-1.1372006,-0.26812327,0.00834465,-3.3839703,3.8459501,3.9933863,0.049427032,1.1744053,0.44164348,1.7059346,-0.2587456
0.7275539,0.4260169,0.16102558,-1.0543453,0.9942196,-0.6400266,0.015293505,0.0049087517,-3.3531287,-0.7144706,-0.056295544,0.005228581,-1.0288726,-0.20187384,-0.7804622,2.3941891
2.2124398,-2.0206063,0.5408807,6.4878683,1.0065546,2.237298,0.31362212,9.455623,3.3580968,-0.9179216,-3.1653101,0.0058892514,2.264589,-3.3572295,1.2057669,-0.0044968063
2.4582016,0.15075211,0.06295324,2.6504204e-06,-2.664268,3.0004373,2.7053447,6.834605,1.1209438,-2.798118,0.6204946,10.955404,3.5301194,-3.321049,-0.24317026,0.0105389925
-1.992566,2.0986261,-0.0004091279,-8.3744953e-07,-1.6391122,2.1689496,1.4596355,5.3123093,1.6282012,-2.3741684,-1.5917516,14.559419,2.4755216,0.74905705,-0.080428995,0.0069409627
-3.0741417,-1.2478865,-3.429677,-4.935153e-06,0.57184327,-1.5999295,-1.0574251,-9.073229,2.0057397,2.6169162,-1.3660936,-17.899094,-3.8004994,3.4226444,0.06609,0.012445593
0.0065248907,-0.5123204,0.38661802,5.7102075,-3.273399,-0.5519556,0.026207354,-0.022718227,-3.384069,3.7240734,3.560551,-0.03620689,-2.0026891,1.4276781,-3.3997273,0.02651721
0.7757697,-0.27170923,0.69227195,-0.3082506,2.2459517,-0.0053513646,-0.03350842,0.0044119344,-2.5263638,-1.0842793,-0.14777991,-0.018779468,-1.0688579,0.7765852,-0.9420968,5.714093
0.13016462,0.3175038,-0.6834799,0.12742531,0.18129554,2.0957222,0.074034065,6.7718086,3.265395,-3.5779045,-3.5024383,0.013204845,-1.4995502,-2.8782969,-3.8673851,-0.012176798
3.3963797,-1.627728,-0.019562043,-2.1052074e-07,-2.02564,-2.0039568,0.8976518,-9.771699,1.7247452,2.3121264,-0.3648674,-10.781519,3.6440701,-3.0188844,2.3261602,-0.034088023
-3.4011257,2.7632298,-0.004852252,3.8560556e-06,-0.7654251,-2.2867715,-1.0531883,-7.501153,1.8670425,3.0369766,-2.1025424,-10.381387,1.3936493,0.88860905,-0.017277136,-0.003708519
-2.3830383,-2.6659756,-3.5178676,-1.1150498e-05,1.457346,-0.77492803,0.82801026,0.8564054,0.4956224,0.18887095,-1.6783873,1.1970683,-3.632042,3.3393352,0.19895047,-0.00036486425
-0.31258178,1.0447632,0.34107125,-23.875229,-3.4348342,0.30495724,-0.0372734,0.0060545057,-3.6959107,3.3449824,3.33059,-0.023959748,-0.9854277,-2.2915413,-0.18793759,-8.351311
0.4569391,-2.6503263,0.57770944,8.864416,2.6044521,1.1389619,0.173805,6.1300917,-1.9069977,-0.8462462,0.11792959,-0.006887667,-0.42841718,1.4994758,-1.3011667,9.85014
2.130971,-2.3574243,0.24340749,1.7231187,2.1439266,-2.6277022,-1.2992264,-6.6583285,3.3083727,-3.454706,1.4164628,-0.007019043,-1.8832461,-3.4642825,-0.9506426,0.043475635
2.9554389,-1.0719995,-0.011640787,2.7281127e-05,-1.7964942,2.5577605,1.6057162,7.551823,0.8812848,-2.1740797,0.45572573,12.6592865,3.7246728,-0.3755262,-0.30410042,0.02982842
-2.9850097,2.3514075,0.26406574,3.099408e-05,-1.202238,0.5085134,0.13597712,1.3092619,2.7501063,3.587741,-3.7000628,-18.908749,1.7730459,1.3930587,0.0030583953,0.018946163
-1.0920707,-0.9636785,-3.4681466,-1.3067913e-05,1.1073565,-0.11097479,3.3974636,0.35337836,-1.0565679,1.1229918,2.835194,7.987919,-3.6479542,3.3784814,-1.1736624,0.027766172
-2.2138267,3.1856198,-5.523716,-75.01082,-3.0183837,1.329209,-0.2228471,0.009757042,-3.1999588,2.8057787,3.4417846,-0.033191226,-0.13429263,0.2376396,0.6125771,1.7238015
-3.4601588,2.270154,-6.942975,-71.173004,3.4780543,0.6185484,0.194461,-0.019390633,0.6185934,-1.034198,-0.06443432,-0.04248451,0.6342523,-0.061246853,-0.7010803,0.3434661
3.0757403,-1.9369875,4.49524,0.00061416626,-2.2414598,-1.6970594,1.4679327,-9.779701,2.3184378,3.5198565,-1.5361674,-10.575226,3.7064238,-3.2364953,2.2765396,0.0030862049
-1.0666947,0.76620555,-0.0682867,-4.58604e-06,-0.41757345,-2.0135508,-0.48113215,-6.2433624,2.159403,3.888366,-3.8702717,-16.692848,2.5748134,0.83614486,-0.060804993,-0.0027638823
-2.335308,-0.85627663,-0.042080164,-5.652546e-05,-0.47282857,1.3816296,-0.35393798,4.3384223,1.5844663,0.4453832,-0.6970166,-4.307621,-0.93943644,1.1494284,-0.054950558,-0.050790004
0.07491934,-1.549465,1.1087757,4.156947,-1.8464175,-1.2115041,3.423233,-0.017187677,-3.1005316,3.5863335,-0.27039206,-0.015075058,-2.3943233,3.2409868,-1.5813388,0.008599237
-1.1112896,0.59211755,-0.7983792,0.49262822,-0.6289172,1.2124766,0.0021553487,0.006668484,-3.4608107,0.49782082,-0.22991014,0.006220378,0.6415086,2.6382275,1.3679385,5.468707
3.31882,1.5716295,-2.042845,-0.6267682,0.75029373,0.12364589,-0.10074159,2.0601008,3.5164304,-3.2603796,-3.320854,0.038004875,2.949832,-3.3067667,3.3077812,-0.03341936
2.750422,0.6269647,-0.06569415,-2.5331628e-06,-1.0355983,-1.7945242,0.5946217,-7.905072,1.3030778,2.2787855,-0.45682412,-9.58407,3.3941069,-1.7227335,-0.03712195,-0.021867983
-1.4866753,3.0592382,0.0060278624,4.361487e-06,-0.04519397,-2.0270257,-1.0999745,-4.81802,2.1546373,2.2527604,-2.4002798,-25.608292,1.922296,1.0367527,-0.053096995,0.017752044
-3.0437527,-1.6007339,-3.5845542,-1.0789929e-05,0.6687782,-2.1938524,-1.095358,-9.757826,0.8328939,0.30459598,-1.8429396,0.60086536,-3.986606,2.6296177,0.003085211,0.015372757
-0.03421832,2.7750041,-0.2796923,-6.738851,-3.2712095,-0.7021595,0.37353218,-0.0010144338,-3.4230652,1.7226003,2.404056,-0.006478183,-0.18168533,-2.3474386,0.18880987,-5.091569
-1.4094386,3.6075993,-4.118596,-28.220478,0.49416116,-2.7791755,0.10038945,-0.019574046,-3.2528496,-0.537341,-0.03253664,-0.055814356,0.19468653,1.4368412,0.43104404,7.6390696
0.21801937,-1.5678142,0.38353586,3.9134402,2.8289452,-0.22474271,-2.6002715,-0.031409908,1.3905194,-3.375164,0.018468574,-0.035504196,0.038660713,-0.38051423,0.7244398,-2.3609273
2.9988656,-3.3997777,3.5612936,-0.05554837,0.11900248,2.5878756,1.0965351,9.564673,2.9387758,-1.5238824,-3.3735313,-0.02210766,3.592716,-3.3430073,0.9927929,-0.013477549
-1.676034,1.5765982,0.49595594,3.885695e-06,-1.8325604,0.21184495,0.5064341,-0.49544087,2.219256,3.3704584,-2.0187507,-9.387861,3.2680554,1.095914,0.0038906275,0.006670993
-3.382433,3.4759948,-0.002053151,2.2636855e-06,1.1433389,-2.4465218,-3.4762518,-13.184505,0.7800206,0.9317774,-1.5745767,-2.4870317,-2.762086,0.804942,-0.015044898,-0.051423773
1.0704265,-3.343071,1.4581289,0.23279123,-0.8482355,-2.2036924,1.9885142,-1.0888171,-2.1606226,2.8330083,5.191722,-0.022102356,-3.19194,2.9815457,-3.4535024,0.026026897
2.2230422,-2.3698823,2.142852,1.7857145,0.1585944,1.9080932,-0.4790724,-0.00821209,-3.4295142,0.44520792,-0.039874986,0.008349434,-2.8272939,-2.6226397,-2.972251,-6.800896
0.32267892,-2.0958688,0.22594213,8.868662,-0.3572141,0.36013263,0.15140516,2.0810194,3.128535,-3.4719665,3.8953419,2.631939,-0.98777735,-3.3515782,1.8177346,0.07874792
0.9813252,1.0818127,-0.010726612,-5.1040524e-07,-0.7402024,-2.2235641,-0.109131515,-7.0938377,1.3415923,2.5316694,-0.37527958,-8.444225,3.3862877,-3.2194095,0.0052108765,-0.0015301965
-3.3156989,2.5832057,-0.26298183,-1.1430167e-05,-1.2735758,2.4536219,0.9437742,11.532411,2.8812234,1.7843037,-2.284896,-21.919956,-1.3252313,1.4295828,-0.050625972,-0.02777428
-1.6583831,2.1144996,-2.1372137,-20.826305,0.5637058,-0.6943809,0.15230227,1.0561984,2.2364113,2.106848,0.6598128,0.900735,-3.4543524,3.312977,-0.028333083,0.011976942
1.4195447,0.47981614,1.1948309,-0.46067917,-1.8657429,0.22730267,-0.04465794,0.0056945,-3.4374278,3.4189792,3.3048937,0.006103829,-0.76303816,-2.4340904,0.007160932,-7.715204
0.24045765,-1.400237,0.15427852,5.2733355,3.3596544,-0.0505713,-2.6424935,-0.033952296,1.8358735,-2.8821821,0.067141294,-0.032384668,0.09065656,-0.7256495,-0.5744716,1.096745
3.3421466,-2.9748545,4.1015034,0.0006046295,-0.031461895,-2.257125,0.50646305,-7.971556,-1.1456766,-0.6845884,2.5153778,-1.0072677,3.9764454,-3.342435,2.0185711,-0.03877657
0.9722766,1.1001852,-0.00071602524,1.1528841e-06,-0.47179192,-1.9182842,-0.09535855,-8.190581,1.8600929,2.512258,-1.8115594,-8.729624,3.445301,1.8971779,-0.10890177,-0.0051012337
-3.6013532,1.1937033,0.01141727,1.629314e-05,-0.46271354,1.3206879,-0.88360876,6.5507994,0.85450673,0.1881423,-1.9307134,0.40063035,-3.8813658,1.4605969,0.038858622,-0.00391197
-1.0172331,-0.08223532,0.3767019,-1.279964,-3.5659971,-3.0854573,3.7819698,0.011533737,1.3118594,2.4943283,-4.4092607,0.002465384,-3.7673407,3.358787,-2.6297488,0.0125924125
0.4512437,1.5918559,1.1773982,-9.395725,-1.9315746,1.2650641,-0.0036405772,0.030409668,-2.2641652,2.1368213,0.0069847107,0.03546916,-0.58269745,2.053569,-0.8869506,8.396205
-1.9785914,3.4009087,-0.9909955,-2.8795938,-0.7813705,-1.7196089,-1.0280598,-1.9252629,3.3524017,-3.306458,-0.010312137,-0.014192974,0.92693967,0.019680109,2.562792,0.2904862
3.4523945,-1.6610516,1.2542429,-1.9395416e-06,-1.7134314,-2.1052134,1.0416498,-8.692918,0.27998745,-2.4003704,1.4654512,8.202072,3.5837674,-3.9800658,3.8215919,0.008895425
-0.28035676,2.6124165,-0.031088486,-1.2987102e-06,-1.0875069,-1.6481668,0.35430175,-7.5020137,1.9500368,3.3539512,-2.2444239,-11.106224,2.4653986,0.9340608,-0.055129156,0.0049795285
-3.3767982,1.7317772,-3.2629597,-3.5532548e-07,1.2601147,-1.0242063,-1.3520325,-0.23217914,-0.7571535,-0.8589841,0.22214414,4.1913266,-3.6392615,3.3072305,-0.03320594,0.023722304
