ancorasir/BennettWheelLegRL/experiment_data/2024-02-13_04-15-45/joint_torque_env0.csv
Joint_1,Joint_2,Joint_3,Joint_4,Joint_5,Joint_6,Joint_7,Joint_8,Joint_9,Joint_10,Joint_11,Joint_12,Joint_13,Joint_14,Joint_15,Joint_16
0.0,0.0,0.0,0.0,0.0,0.0,0.0,0.0,0.0,0.0,0.0,0.0,0.0,0.0,0.0,0.0
-0.028401315,0.7538463,-1.8829463,2.577066e-06,0.4241926,-0.5415168,-0.99203765,-0.003670544,-0.6297987,-0.7062609,1.9089236,-0.0060593076,-0.22048217,0.60840684,1.8914381,-0.008903239
1.0846498,-5.0,3.7444015,3.6425958,5.0,-2.6205082,-5.0,-1.448941,5.0,-2.2027209,-2.5795577,-3.1162748,5.0,5.0,2.7683802,0.66787785
1.3303943,-0.7215782,5.0,-10.0,5.0,-3.448289,-4.975068,-5.0,5.0,4.4738946,-5.0,-2.4854984,-1.5568236,5.0,5.0,-3.5868716
-0.34621036,-2.9010844,5.0,-0.94246465,5.0,-3.7455935,-1.9473085,-5.0,5.0,5.0,-1.3849866,5.781246,-0.3751154,5.0,5.0,-0.43140247
-5.0,4.014731,-5.0,0.3641019,5.0,-3.2226243,2.352852,-1.4548097,5.0,5.0,4.5310097,0.87704664,-3.5353365,5.0,4.615238,5.0
-5.0,3.7679768,-5.0,10.0,-1.2254876,3.4721417,5.0,-0.27656764,-4.1784782,-4.0563984,5.0,-0.43455765,-5.0,-5.0,-3.115164,-0.8610312
-2.3574378,5.0,-5.0,4.162836,5.0,-4.549237,-4.4199996,0.52020794,0.09908438,-4.250253,0.53197056,1.9344444,-3.6209257,-5.0,0.15443867,-4.984049
3.8953016,-5.0,1.0304646,-0.9275159,5.0,-5.0,-5.0,-5.0,3.8285258,5.0,-5.0,-3.7303987,5.0,-0.3032515,1.2043841,0.48288837
0.46504438,-3.0974393,4.729239,0.062438123,5.0,-5.0,-5.0,-5.0,2.45857,5.0,-5.0,9.97031,0.62745297,5.0,5.0,-0.91399264
-2.0643158,0.7557622,2.5263872,6.8278537,5.0,-5.0,-5.0,5.0,5.0,5.0,-2.6648135,9.04954,-2.4004078,5.0,5.0,-0.95250005
-5.0,5.0,-5.0,0.5590545,-5.0,3.0675926,3.0987673,-5.0,-5.0,1.705333,5.0,-7.3683443,-5.0,-2.7587152,-3.9394581,2.377742
-5.0,5.0,-5.0,9.348876,-0.47212794,2.6129932,2.7221575,0.6162505,-4.957586,-4.1464705,5.0,-0.5665524,-5.0,-5.0,-5.0,0.9557906
-5.0,5.0,-5.0,10.0,5.0,-3.9841766,-3.7713764,2.9653842,3.3640566,-5.0,1.3601333,0.6781746,-1.5838329,-5.0,0.9533577,-1.0005612
3.2670598,-1.485074,3.8454456,-1.7293525,5.0,-2.8972702,-3.6975102,5.0,0.76381135,5.0,-5.0,10.0,5.0,-3.5598593,2.5339913,1.7184622
0.9519238,-4.6069374,5.0,-0.4595664,5.0,-5.0,-4.5902967,-2.2429514,1.4832089,5.0,-5.0,0.44108677,0.7117405,5.0,5.0,-0.37663332
-4.5110693,0.7423376,-2.173473,-0.43900424,5.0,-5.0,-5.0,-4.7296615,5.0,5.0,-5.0,-3.4967759,-2.3401036,5.0,5.0,-1.1686478
-5.0,5.0,-5.0,-4.391992,-0.54458135,-1.154549,0.29760742,1.08894,-1.2911073,5.0,1.7385136,2.0318503,-3.8577518,1.3378497,-3.9187968,-0.16049263
-5.0,5.0,-5.0,10.0,2.6062589,-0.104745865,1.2118961,-0.14506319,-2.6810389,-5.0,5.0,-1.1653427,-3.6536238,-5.0,-4.8689427,-3.3832686
3.6825373,-2.2825599,0.044776678,0.47734943,5.0,-5.0,-5.0,-5.0,4.5374365,5.0,-5.0,-0.24860108,5.0,-5.0,1.1662827,-0.018994473
0.9715812,-2.2689748,5.0,0.2416148,5.0,-5.0,-5.0,-5.0,2.8842578,5.0,-5.0,-8.891134,1.2438593,5.0,5.0,-0.11398176
-1.7997072,0.17877021,2.0343666,0.3283228,5.0,-5.0,-5.0,-1.929081,5.0,5.0,-5.0,3.7681265,0.094198525,5.0,5.0,-0.3798282
-5.0,5.0,-5.0,-2.419935,3.131853,-5.0,-2.0323284,-5.0,3.5055277,5.0,-3.285977,-10.0,-3.2361195,5.0,1.2368338,-0.030171387
-5.0,5.0,-5.0,-0.71913576,-0.39114416,1.7340126,2.7771878,-2.5163314,-5.0,-2.1766849,5.0,-1.5572816,-5.0,-5.0,-5.0,5.0
-5.0,5.0,-5.0,9.0324335,4.314714,-0.1214619,1.591985,2.4867513,-0.4264498,-5.0,5.0,-0.87932134,-3.9883776,-5.0,-4.30334,-5.0
4.3818417,-2.6200323,1.8324848,-0.017199978,5.0,-5.0,-5.0,-5.0,5.0,5.0,-5.0,0.89061946,5.0,-5.0,0.7910298,-2.1917963
0.9482009,-2.4619372,5.0,0.3370791,5.0,-2.4262853,-2.8864193,5.0,3.7874413,5.0,-5.0,-0.98162186,5.0,4.8123465,5.0,0.3764361
-4.046589,-0.41766465,0.42832077,0.44048825,5.0,-5.0,-5.0,4.058232,5.0,5.0,-4.0710173,-6.5761805,-0.9568796,5.0,5.0,-0.5757085
-5.0,5.0,-5.0,2.9902077,-0.26178008,-2.0446658,0.14135075,-5.0,-0.51769537,5.0,0.50766206,0.41632596,-4.9142528,4.025115,-2.9825613,-0.077683315
-5.0,5.0,-5.0,-3.7511644,-1.3594633,-2.15664,2.0737305,-5.0,-1.6097268,-3.7982855,5.0,1.1734333,-5.0,-5.0,-5.0,3.0440018
0.03175223,5.0,-5.0,-7.3420067,5.0,-5.0,-5.0,-5.0,4.1713867,-1.469419,1.4238975,4.4112654,1.9847139,-5.0,1.0909475,0.20195651
1.7474371,-2.984993,4.4875135,1.3945527,5.0,-4.100648,-5.0,-5.0,4.7674093,5.0,-5.0,-8.867848,5.0,-0.08343136,2.9821916,-0.9625388
0.57343113,-5.0,4.9785967,-0.48921356,5.0,-4.352778,-5.0,5.0,4.954166,5.0,-5.0,-4.6063313,0.4144669,5.0,5.0,-0.25100037
-5.0,3.3701334,-5.0,0.36499178,5.0,-5.0,-5.0,-4.2959557,5.0,5.0,2.050406,1.3533024,-0.3992778,5.0,4.345923,0.08381916
-5.0,5.0,-5.0,-5.077856,-2.172568,-0.016772628,2.514335,1.2928967,-2.8720322,5.0,3.0081534,-0.30837503,-5.0,0.14320707,-3.4975934,-0.057247072
-5.0,5.0,-5.0,3.0831003,-1.8713394,1.0610088,2.906188,-0.5100069,-1.9630444,-4.0289106,5.0,-0.33586022,-4.4296055,-5.0,-5.0,-5.0
-5.0,5.0,-5.0,-6.684701,5.0,-0.995646,0.03201461,-0.39641437,2.4931357,-5.0,2.3389819,0.43056074,-1.4131577,-5.0,-1.232494,-3.5816932
4.0154734,-3.442596,4.7668266,5.610471,5.0,-2.2521741,-4.7086186,1.1936889,5.0,5.0,-5.0,6.456539,5.0,-5.0,3.4389524,-2.490888
0.050465733,-2.764612,2.6979775,0.52030873,5.0,-3.6923926,-4.425678,5.0,1.3787328,5.0,-5.0,1.3670905,3.772905,3.6505704,5.0,0.26106745
-3.9627464,-0.9362352,1.9366757,3.1093462,5.0,-5.0,-5.0,-5.0,5.0,5.0,-5.0,1.1421535,-2.0537252,5.0,5.0,-0.08573465
-5.0,5.0,-5.0,-5.806028,-2.6514692,0.61840427,1.8119619,5.0,-3.9718719,2.1451635,1.9217242,1.939493,-5.0,-3.7695603,-5.0,-5.0
-5.0,5.0,-5.0,10.0,0.67627907,0.09252033,1.0647568,2.7760136,-1.8400728,-5.0,5.0,-0.12382178,-5.0,-5.0,-5.0,-2.5772586
5.0,2.1089478,-0.4714036,-10.0,5.0,-3.0478816,-4.374914,5.0,5.0,5.0,-5.0,4.9723954,5.0,-5.0,4.425453,5.0
0.6452402,-4.5564146,4.3192034,-0.31320342,5.0,-1.9678347,-5.0,4.4954214,4.607888,5.0,-5.0,-2.410132,5.0,5.0,4.617362,0.8127836
-1.6026679,0.009704113,0.5291754,-0.18982375,5.0,-4.390073,-5.0,5.0,5.0,5.0,-0.63842964,1.5396724,1.3856045,5.0,4.41877,-0.16637397
-5.0,5.0,-5.0,-10.0,2.319777,-5.0,-1.0488017,4.155308,1.5007741,5.0,-2.6534595,-2.2887623,-4.067204,5.0,0.09277362,0.27147523
-5.0,5.0,-5.0,8.400722,-5.0,2.661915,3.686266,0.720594,-4.909823,-0.5526152,3.6857052,-1.0407461,-5.0,-5.0,-5.0,-1.634543
-5.0,5.0,-3.6765451,10.0,-0.6822875,1.533705,2.8354077,-0.41109997,-1.2112001,-5.0,5.0,-0.914074,-5.0,-5.0,-5.0,0.94118285
-5.0,2.478664,-5.0,-6.091483,5.0,-5.0,-5.0,0.42219415,3.4312289,-3.312049,-0.3315301,0.3830889,0.220186,-5.0,3.9037714,-5.0
2.650053,-3.193141,3.390476,-0.993491,5.0,-2.9117403,-5.0,5.0,5.0,5.0,-5.0,10.0,5.0,-4.3270235,1.4010434,0.5513911
1.0745833,-5.0,5.0,-1.4348081,5.0,-5.0,-5.0,-5.0,3.8852727,5.0,-3.3345294,10.0,3.2400799,5.0,5.0,-1.405589
-5.0,4.771714,-5.0,0.31026638,5.0,-5.0,-1.6215895,-5.0,3.9166744,5.0,1.7222726,10.0,-5.0,5.0,1.3041729,0.6140411
-5.0,5.0,-5.0,3.2942224,-5.0,1.9847286,2.8257978,0.45093533,-1.9800998,1.2860868,2.6251504,0.48041183,-5.0,-2.261126,-5.0,5.0
-5.0,5.0,-5.0,5.5953937,0.80216396,0.09218782,1.2550437,2.4982722,-0.40660876,-5.0,5.0,-0.31854582,-4.8173647,-5.0,-5.0,3.767948
-0.25507188,3.829246,-4.0295267,-2.004132,5.0,-5.0,-5.0,-3.491645,5.0,-2.1513598,0.012054682,-0.09024377,2.335171,-5.0,2.5848036,2.3592966
1.8829142,-5.0,4.5052123,-0.12822905,5.0,-3.9174335,-5.0,-5.0,3.3880367,5.0,-5.0,-3.013604,5.0,1.0037274,3.1971354,-0.29861325
0.81345415,-4.0919356,5.0,-0.3121639,5.0,-3.9895022,-4.827139,5.0,2.242368,5.0,-4.9880757,10.0,0.22323531,5.0,5.0,-1.3869258
-4.1292834,2.5850139,-3.8452427,0.8235465,5.0,-5.0,-5.0,-5.0,5.0,5.0,0.37694907,8.8740635,-1.4814507,5.0,4.117425,0.13170156
-5.0,4.322728,-5.0,5.9597435,-4.377694,1.7683275,4.793022,0.38946432,-2.8560905,5.0,2.404356,2.4690776,-5.0,2.8256073,-5.0,-4.6342945
-5.0,5.0,-5.0,10.0,-2.2880225,4.077035,3.0006182,0.31677985,-0.15231931,-4.3325267,5.0,-0.38867137,-4.5542235,-5.0,-5.0,-3.3988562
-3.0806842,5.0,-4.165333,4.9490767,5.0,-5.0,-5.0,1.4509807,3.701428,-3.1540074,0.3163817,-0.27528715,-1.425894,-5.0,-2.024964,-4.8824253
4.1705923,-2.6411061,1.4099553,0.6443901,5.0,-5.0,-5.0,-5.0,4.864051,5.0,-5.0,0.33647832,5.0,-5.0,1.4690424,0.62257504
0.22616592,-5.0,5.0,-1.6658714,5.0,-3.0005157,-3.5480523,5.0,3.9716237,5.0,-5.0,-0.41951346,3.2952912,5.0,5.0,-3.740182
-2.1790156,-0.641468,1.8552926,2.0323045,5.0,-5.0,-5.0,1.0618054,5.0,5.0,-5.0,-4.9298396,0.29376638,5.0,5.0,-0.4200714
-5.0,5.0,-5.0,-2.1384897,0.51707697,-3.6955705,2.1094437,2.1012125,1.3616647,5.0,-0.71628,-10.0,-4.6334853,4.6517105,-0.29324794,1.4525183
-5.0,5.0,-5.0,1.0077173,-3.9852371,3.7384734,3.2688754,-0.011682056,-2.2793689,-1.5098693,5.0,-0.0603737,-3.4766433,-5.0,-5.0,-5.0
-5.0,5.0,-5.0,2.017403,-1.2282948,1.9283621,4.151443,0.50297403,-0.27153337,-5.0,5.0,-0.48066258,-3.34456,-5.0,-5.0,-4.587525
-1.2488911,5.0,-5.0,-2.9968145,5.0,-4.784374,-5.0,5.0,3.7600646,-1.2903928,0.14669609,4.2113647,2.4243102,-5.0,3.9834156,-0.56805557
2.1822906,-3.0402737,3.431281,0.3821391,5.0,-5.0,-4.8561177,-4.0742207,1.5682727,5.0,-5.0,10.0,4.261996,0.24411952,5.0,-0.4157738
0.649543,-4.4057207,5.0,-0.094716735,5.0,-5.0,-5.0,1.4536363,1.8747699,5.0,-5.0,10.0,0.31523734,5.0,5.0,-0.3336733
-5.0,0.24691713,-2.0382957,-0.37902957,5.0,-5.0,-5.0,-4.7950425,4.538574,5.0,-5.0,3.285715,-2.9437895,5.0,4.3709707,-0.09010078
-5.0,5.0,-5.0,-6.1579313,-4.29926,0.8579614,3.3120434,-0.23771925,-2.0672343,5.0,2.0028224,0.1255815,-5.0,0.9812249,-5.0,-4.7679405
-5.0,5.0,-5.0,2.6517293,2.131291,0.7178102,2.1393044,-5.0,-3.3664818,-3.5598285,5.0,-4.138662,-4.0089073,-5.0,-5.0,5.0
-1.6347778,5.0,-5.0,1.9574864,5.0,-5.0,-5.0,1.4149903,4.8949876,-3.842939,0.6047363,-0.6151243,1.0218163,-5.0,3.0699284,2.5072932
2.4006197,-2.2253902,2.7604294,-0.53185064,5.0,-5.0,-5.0,-5.0,5.0,5.0,-5.0,10.0,5.0,-4.2820807,1.243226,0.07639225
-1.2463877,-3.737379,5.0,-0.91906065,5.0,-5.0,-5.0,-5.0,5.0,5.0,-5.0,10.0,2.7621057,5.0,5.0,-1.5304989
-1.2298908,-3.1204293,3.0404387,0.051235817,5.0,-5.0,-5.0,-2.1400528,5.0,5.0,-5.0,-9.453204,0.3017128,5.0,5.0,-1.4921974
-5.0,4.753306,-5.0,-3.1201453,-5.0,-0.15822458,0.9434576,0.4360288,-1.9892666,5.0,1.1761272,0.60053426,-5.0,0.34862238,-2.479,0.08127622
-5.0,5.0,-5.0,3.2735305,0.29642883,1.3377992,1.6933424,0.43225765,-3.093104,-4.848232,5.0,-0.42875105,-4.8365784,-5.0,-5.0,-3.2056174
-0.90934086,5.0,-5.0,0.6614437,5.0,-4.512131,-5.0,-2.6780965,4.9586916,-2.1467428,1.2193165,4.075074,1.9259205,-5.0,0.13010615,-3.5065145
3.6954846,-0.9709078,0.21223259,-0.35075969,5.0,-5.0,-5.0,-5.0,5.0,5.0,-5.0,-9.589857,5.0,-3.5504293,0.4425584,-0.5920196
-0.65859675,-3.540793,5.0,-0.1653749,5.0,-5.0,-5.0,-1.698085,5.0,5.0,-4.2014313,10.0,0.17051427,5.0,5.0,-1.2708344
-5.0,1.7305763,-2.9190302,-0.8333701,5.0,-5.0,-2.1362138,5.0,5.0,5.0,0.39319313,1.4891566,-3.1163688,5.0,2.0611842,0.35063702
-5.0,1.0624729,-5.0,10.0,-3.680599,-0.46799332,0.608176,0.27344027,-4.118352,5.0,1.7547755,-0.28004387,-5.0,0.24526227,-5.0,5.0
-5.0,4.225916,-5.0,6.277404,2.8130813,-0.16126329,-0.49967277,-2.6039937,-0.101131916,-5.0,3.4655905,0.12890792,-4.152424,-5.0,-4.251359,-5.0
3.6581888,-0.41552162,-1.0479424,-1.2064555,5.0,-5.0,-5.0,-4.3268404,5.0,1.8719907,-4.2386227,0.5798635,3.0604734,-5.0,0.51453185,0.49402928
3.3066947,-3.8213863,3.8747146,0.5294571,5.0,-5.0,-5.0,-5.0,2.9084816,5.0,-5.0,5.4357505,5.0,0.052114442,2.4167924,0.24751484
-1.8955619,-3.0076847,5.0,-1.1728107,5.0,-5.0,-5.0,1.3603535,5.0,5.0,-1.7733883,1.2142097,-0.34418458,5.0,5.0,-0.071109384
-5.0,4.0806646,-5.0,0.24408065,-1.2271253,-5.0,2.686234,-0.8924321,-0.36797857,5.0,-2.1704748,-10.0,-3.7689486,5.0,-0.776999,0.22237644
-5.0,5.0,-5.0,-0.98294914,0.1432223,1.0686486,2.027105,-0.30341884,-4.2234106,-4.017993,4.7921743,0.544058,-2.4974868,-5.0,-5.0,1.1243519
-5.0,4.2153263,-5.0,10.0,4.11206,-5.0,-3.2906036,0.18440384,-0.5338531,-5.0,1.6428363,0.5556978,-1.9897932,-5.0,-0.76000714,5.0
2.9113884,-4.334683,2.8605354,0.42351377,5.0,-5.0,-5.0,-4.5803237,3.0576346,5.0,-5.0,-2.86584,3.8459034,-5.0,3.263052,0.59898674
-0.5926868,-2.4551325,5.0,-4.4367666,5.0,-5.0,-5.0,1.9580393,2.4054966,5.0,-5.0,5.703433,-0.36107516,5.0,5.0,-1.3090726
-3.7284062,0.5624325,-0.2598356,0.28101948,5.0,-5.0,-5.0,-5.0,5.0,5.0,-3.0763505,-1.5083264,-0.17755628,5.0,4.936553,-1.2450218
-5.0,5.0,-5.0,-2.9308891,-1.1840289,-1.8687142,0.5680927,0.07274014,-1.1142765,5.0,0.9805194,0.25386795,-5.0,-0.15575004,-2.953968,-0.91061
-5.0,5.0,-5.0,-1.9230566,-1.1018627,1.1237825,3.039271,-1.9576479,-2.6543725,-3.2585292,5.0,-0.27456194,-4.166077,-5.0,-4.606626,5.0
-0.66610473,4.3103666,-0.65457535,10.0,5.0,-5.0,-5.0,-5.0,5.0,-4.7261667,-1.123703,-0.50237715,1.6916544,-5.0,0.43856466,-0.3429714
4.9081326,-3.4639888,3.3597772,0.47297463,5.0,-5.0,-5.0,-5.0,5.0,3.1860406,-5.0,6.1588173,5.0,-2.6945083,3.0252452,2.5038052
-0.77035487,-4.4983697,5.0,-0.48287907,5.0,-4.5744114,-5.0,5.0,4.491445,5.0,-5.0,-5.4764185,2.202998,5.0,5.0,0.29758605
-3.444713,-0.17208815,-0.2580315,-0.41185424,5.0,-5.0,-5.0,5.0,5.0,5.0,-0.22487912,-3.57458,-2.3454986,5.0,5.0,-0.24484126
-5.0,2.5092769,-5.0,4.62395,-2.6180563,-0.7336607,1.0279762,0.13872154,-1.8546221,-1.7509682,2.50218,0.025710195,-5.0,-1.6935077,-5.0,5.0
-5.0,4.8893633,-1.9699625,2.3736372,2.4258924,0.4438954,1.4875938,3.6174092,-0.9037341,-5.0,0.91579205,0.3142724,-3.3164985,-5.0,-5.0,0.6745295
5.0,-5.0,4.0480638,-0.08891511,4.485894,-3.0036669,-5.0,0.31134188,5.0,0.17885077,-2.0141506,-0.49865124,4.479968,-5.0,0.26770112,1.5523738
4.1201186,-5.0,1.4828686,0.5027122,5.0,-5.0,-5.0,-1.9166965,5.0,5.0,-5.0,9.140787,-2.6502943,2.72622,5.0,-0.04741842
0.73617584,-2.5977263,2.4854841,0.71671057,5.0,-5.0,-5.0,5.0,5.0,5.0,-3.1557503,-6.4804068,-4.502937,5.0,5.0,-1.2120296
-5.0,-1.9353174,-0.9507599,10.0,5.0,-4.6470795,-5.0,5.0,5.0,1.5822737,-0.0713681,5.8505654,-1.7550502,5.0,1.42765,0.59362435
-5.0,2.4824595,-0.7427298,-1.7837541,-0.66189945,3.8863637,3.8777933,-1.0152209,-5.0,-5.0,3.7189996,-0.39082792,2.6073034,-5.0,-5.0,5.0
-5.0,5.0,-5.0,3.7723346,-2.2804399,5.0,5.0,-5.0,-5.0,-4.7712646,0.38418016,0.15890498,1.0806434,-5.0,-5.0,-5.0
-5.0,2.540361,-2.2010477,1.4375297,1.9462194,5.0,5.0,0.8722248,-2.6710658,-0.58751446,1.4311497,6.3378286,0.33145726,-5.0,-5.0,-5.0
5.0,-4.9815264,0.017997839,0.64117295,5.0,-3.6128585,-5.0,-5.0,5.0,5.0,-0.8654593,-1.0164473,-5.0,-5.0,-1.1720464,-1.6785173
5.0,0.19776964,-0.76103294,0.10008351,5.0,-5.0,-5.0,2.074922,4.5005617,5.0,-2.5056407,-6.131195,-5.0,0.4818645,4.154882,0.7064244
3.3531244,0.45072877,1.7874603,3.804628,5.0,-5.0,-5.0,5.0,1.3319713,5.0,-0.2536181,9.82329,-3.9293323,3.8426867,5.0,0.4350884
-5.0,2.0155478,-0.8947587,10.0,-0.49414074,5.0,5.0,-0.042645864,-3.288087,0.38719475,1.7797757,-4.8201966,5.0,2.0187025,-5.0,5.0
-5.0,5.0,-5.0,-5.8751626,0.18590891,5.0,5.0,0.051781133,-5.0,-1.4023836,0.06847739,-2.4969728,3.8485394,-5.0,-5.0,-2.94771
-5.0,5.0,-3.8820357,-4.1017356,0.7555003,2.5169265,3.8345942,0.22562212,-2.0570793,0.92211086,-1.9502351,-2.5939283,0.9137683,-5.0,-5.0,-0.78099537
5.0,-3.4363704,0.5817553,0.48228303,4.941167,-5.0,-5.0,5.0,5.0,5.0,-3.2527287,2.0454078,-2.5769958,-5.0,2.831083,0.77460057
5.0,0.16460598,-0.08310157,0.46426398,5.0,-5.0,-5.0,5.0,5.0,5.0,-0.06436336,3.2672439,-3.7332084,4.081029,5.0,0.12895173
-5.0,1.2642493,-0.31434608,-0.067507066,5.0,-5.0,-3.8491144,5.0,3.7886763,5.0,-1.7317116,-6.1536098,-4.509138,5.0,-0.6032084,-0.29473284
-5.0,2.762826,-2.3206315,3.6920555,0.385049,5.0,3.4205089,1.1194221,-5.0,-3.8270187,0.35740554,0.090242304,5.0,-3.046225,-5.0,5.0
-5.0,4.7391057,-4.1902847,7.718528,0.9066117,4.0862145,5.0,-1.0317638,-5.0,-0.39864767,-0.31554914,-3.3464208,-0.059510946,-5.0,-5.0,1.7000613
-2.6326554,0.5853205,0.53858304,-2.3286152,-0.1048677,1.2867383,2.2175121,5.0,0.86323756,1.1704332,-1.0861353,-10.0,0.6326325,-5.0,-2.027389,5.0
5.0,-1.0214497,-0.31059134,0.33579147,2.4212253,-5.0,-5.0,5.0,5.0,5.0,-2.8950553,3.2901826,-2.943502,-5.0,1.7688853,-0.21797144
5.0,-0.35428786,1.0053568,0.58654106,5.0,-4.6207986,-5.0,5.0,5.0,5.0,-2.2726805,4.530657,-4.244388,2.6057985,5.0,-2.3900454
-0.036726058,2.237222,-1.4534256,-3.2246594,5.0,-5.0,-5.0,1.245945,3.985074,5.0,0.52353144,-1.435858,-0.7557391,5.0,5.0,-0.36482108
-5.0,-1.421267,1.9176493,3.8360956,5.0,-4.796177,0.901798,2.3498478,-1.3605843,5.0,1.0748317,-10.0,-0.573563,5.0,-4.3993206,-0.82569367
-5.0,3.684692,-2.264316,7.662429,-0.6664648,5.0,5.0,-0.68148243,-5.0,-2.8665106,0.5156077,0.75590146,4.4386215,-5.0,-5.0,5.0
-5.0,5.0,-2.130113,-2.5841873,-2.5243528,4.1355634,5.0,-0.09060319,-5.0,-1.2443035,0.8397574,-1.223597,-0.64304686,-5.0,-5.0,5.0
1.8143529,-3.8464632,2.3288639,-2.1431868,1.5925306,-1.0046344,-2.4912925,-0.7788995,2.225362,5.0,-1.4881808,0.12530322,-0.64981693,-5.0,-0.7429007,1.1310457
5.0,-1.4786582,0.18289155,0.0117848925,5.0,-4.449112,-5.0,5.0,5.0,5.0,-2.4311347,10.0,-3.915297,-5.0,1.1840695,1.3437215
5.0,0.79615754,-1.7694288,-0.36350635,5.0,-5.0,-5.0,-1.0228648,4.7985296,5.0,-0.205349,1.0329546,-2.8613904,0.5593021,3.5520623,0.7646677
1.7506756,3.1118453,1.7891022,2.7431326,5.0,-5.0,-5.0,5.0,3.0961733,5.0,-1.0352373,-1.4867616,-0.64729714,5.0,5.0,-0.030345693
-5.0,-0.15674987,1.1110628,-1.32069,5.0,-1.2508845,2.8836422,-0.6636155,-5.0,2.8782501,5.0,-7.7190766,0.43902725,4.3365164,-5.0,-0.4514229
-5.0,4.52159,-2.748227,0.99340826,-0.41027033,5.0,5.0,-1.390804,-5.0,-3.184062,1.7180871,0.77171546,4.2897325,-5.0,-5.0,4.499725
-5.0,5.0,-5.0,0.8417909,-2.0722775,5.0,5.0,-1.0781403,-5.0,-0.23424244,1.4016746,0.0831055,3.6422822,-5.0,-5.0,5.0
5.0,-4.456005,3.668468,-1.1990935,1.806615,-2.2664008,-5.0,5.0,5.0,4.2295237,-0.11229625,-0.047480464,0.20470712,-5.0,-0.007229686,0.09653649
5.0,0.18773961,-3.0653558,-4.1891932,4.051963,-4.2813206,-5.0,-0.77770436,5.0,5.0,-1.7610837,-0.38773704,-3.320197,-1.1788723,2.8577652,-1.1035666
5.0,1.0237237,0.79897296,0.9840369,4.214392,-3.189344,-5.0,5.0,5.0,5.0,-1.8568933,-2.5036125,-3.318381,3.758614,5.0,0.07739344
-2.525502,2.668321,-2.924599,-6.3766556,3.3411996,-5.0,-5.0,5.0,2.4488397,5.0,1.931405,10.0,-1.7146608,3.8309927,3.1279953,-0.46512872
-5.0,0.0513013,1.6995639,1.8874741,-1.3836223,3.0191355,5.0,0.22221076,-5.0,0.25615734,0.6952429,-10.0,0.22922266,1.9042579,-5.0,-0.24641114
-5.0,4.416754,-2.6832113,-7.8334436,-0.8657404,5.0,5.0,-0.1217213,-5.0,-4.854224,1.6758896,3.5578458,0.2362901,-5.0,-5.0,0.7067442
-5.0,5.0,-1.1081079,2.09003,0.07612395,4.860871,4.434592,-0.80479085,-2.8796709,0.51028526,-1.4193879,0.18103866,-0.5607586,-5.0,-5.0,-5.0
5.0,-4.4306927,0.21209598,-2.7615383,1.3030399,-5.0,-5.0,5.0,5.0,5.0,-3.019337,-4.494295,-3.851266,-5.0,0.92150664,-0.08439264
5.0,-0.4183737,0.8701403,-0.23753189,5.0,-5.0,-5.0,3.0294209,5.0,5.0,-3.4092937,-2.525605,-3.1330242,2.2867227,5.0,0.2948152
-5.0,3.842637,-4.032482,-10.0,3.2130349,-5.0,-5.0,5.0,3.6692848,5.0,0.18149102,-10.0,-3.5490475,5.0,3.996586,3.8618958
-5.0,3.0363123,-0.7372434,-5.3453765,1.3733196,2.2771327,5.0,-0.30516,-5.0,-0.86959755,3.8393123,-0.8271446,-0.41912794,2.4965994,-5.0,1.3754214
-5.0,5.0,-4.197873,-8.154847,-1.9967571,5.0,5.0,-1.3449923,-5.0,-1.5423181,1.005399,-0.30313557,1.1533309,-5.0,-5.0,5.0
-5.0,3.5707223,-1.6171476,5.9391403,-0.140993,4.4971056,5.0,-0.454721,-2.5298905,0.56424844,0.05890596,0.26008767,-0.925537,-5.0,-5.0,-5.0
5.0,-4.5791407,-0.12721032,0.54329616,1.5793889,-2.5164418,-5.0,5.0,5.0,5.0,-2.6103146,6.1706753,-2.857809,-5.0,0.4702412,1.563459
5.0,-1.0203924,1.2373182,-0.4353972,5.0,-5.0,-5.0,-3.935554,5.0,5.0,-4.101596,-0.30863786,-3.6121926,2.1744342,4.7935023,-0.6792949
3.0338073,1.0983248,0.043283463,0.24384898,5.0,-5.0,-5.0,-3.4917917,2.8278427,5.0,0.28017622,-2.443431,-2.2629495,4.054052,5.0,0.15635797
-5.0,-0.7128475,-0.0423342,-0.00798917,5.0,-5.0,-1.9006274,-4.4597588,-3.368898,5.0,5.0,7.5562067,-2.3226986,5.0,-4.1587553,0.5678122
-5.0,5.0,-2.5761113,-4.788301,0.049073696,5.0,5.0,-0.082796946,-5.0,-2.6682901,0.6061779,0.62846684,3.0230448,-5.0,-5.0,5.0
-5.0,5.0,-2.0012243,-3.729999,-0.5091095,3.8476336,5.0,-0.22306527,-5.0,-1.3541933,0.027289271,-3.886878,-0.13941205,-5.0,-5.0,-5.0
0.7181926,-2.5919642,2.1472342,0.20937006,2.1337657,-1.1941787,-2.236032,-0.4844624,2.1248784,3.820361,-2.2807362,0.33020076,-0.38742453,-5.0,-0.3497346,0.023572443
5.0,-1.2120034,-1.4321587,-4.091883,4.9025254,-3.390078,-5.0,0.799562,5.0,5.0,-1.9821477,6.3507357,-2.0455344,-2.6870599,1.1083148,-1.9037971
5.0,1.2298121,-0.7252213,-0.042599287,5.0,-5.0,-5.0,2.8225813,5.0,5.0,-3.4337335,0.3526733,-4.7085385,4.0882163,5.0,0.29123256
-2.6781683,2.8697355,0.6551888,0.54714835,5.0,-5.0,-5.0,5.0,2.1573505,5.0,1.4996817,-3.2944167,-2.2464628,5.0,2.8984401,-0.08995712
-5.0,2.2640567,2.9954195,2.8561509,0.4276731,5.0,5.0,0.058719367,-5.0,-3.8666756,4.0330153,-0.35729876,5.0,-4.048291,-5.0,-5.0
-5.0,5.0,-5.0,-3.3441732,-2.6065469,5.0,5.0,0.6426436,-5.0,-1.7490641,1.0352383,-0.058503784,3.975823,-5.0,-5.0,5.0
2.0715117,-2.1125903,2.815383,0.87197226,0.5041746,-0.028173089,0.62673664,5.0,0.79184204,2.7178068,-0.121361494,-0.08056664,-1.7733839,-5.0,0.7835704,4.4319286
5.0,-1.4432642,-0.6131171,0.062801376,5.0,-2.6797879,-5.0,1.2679658,5.0,5.0,-1.9997195,2.6769829,-2.3278098,-2.2941194,1.8769873,2.1577845
5.0,1.4494892,-2.4913101,-1.9296185,5.0,-5.0,-5.0,5.0,4.9924464,5.0,-3.3153977,-1.8562077,-4.4422097,2.991404,5.0,-0.3241762
-5.0,2.6988406,0.22795582,-0.030164145,5.0,-5.0,-5.0,4.6787744,3.304471,5.0,3.1407866,0.37524915,-0.9335003,5.0,2.1830435,-0.806435
-5.0,-0.34961116,2.4623942,-0.23343118,2.1754966,3.9341307,4.584842,0.15754215,-5.0,-0.30343747,5.0,-9.320728,2.7665956,2.8794804,-5.0,2.578796
-5.0,4.385874,-3.1831608,-0.37629604,-0.036391616,5.0,5.0,0.27532005,-5.0,-2.2821665,2.0023806,-0.16282207,0.62425876,-5.0,-5.0,-1.8331299
-5.0,4.969933,-0.95616716,-0.28988653,0.11650181,3.4253006,5.0,-5.0,-3.4583964,0.7798162,0.45053542,2.0013645,2.2570071,-5.0,-5.0,-2.9459095
5.0,-5.0,1.72897,-1.3895518,3.548541,-4.4772267,-5.0,2.6169324,5.0,5.0,-0.2136873,-0.6913142,-1.1470761,-5.0,2.136345,1.6131049
5.0,-1.7412714,1.3973857,1.9708532,4.425406,0.011064529,-5.0,5.0,5.0,5.0,-1.8292993,1.8289983,-2.8806586,-0.3478651,2.2037122,0.069824584
5.0,0.5033815,0.4784637,0.5163289,5.0,-5.0,-5.0,-1.7963119,5.0,5.0,-1.8303552,-1.4770399,-2.2801623,3.83572,5.0,-0.092871234
-5.0,0.65227747,2.4080527,2.2191532,5.0,-5.0,-5.0,-4.1553674,2.2343378,5.0,0.95927787,-2.9028134,-0.9947028,5.0,0.60836726,-0.21513343
-5.0,2.0503876,-0.5413518,10.0,-1.3908699,5.0,5.0,-0.69992244,-5.0,-1.8944148,2.3699112,0.37231278,1.849211,-1.5830293,-5.0,-1.955164
-5.0,5.0,-3.5901117,3.72127,-2.503661,5.0,5.0,0.25860342,-5.0,-4.0883193,1.3515956,0.31133872,0.8328062,-5.0,-5.0,-2.065258
-5.0,2.273616,0.40165251,-8.075772,-0.18210971,2.4500124,5.0,-5.0,-0.5537213,3.5357203,-1.5055141,3.4172034,2.1861806,-5.0,-5.0,0.0782786
5.0,-2.59022,0.7467643,-0.08710727,3.5326798,-2.0142515,-5.0,5.0,5.0,5.0,-1.6590655,5.3006597,-2.78273,-5.0,0.65955013,2.1481154
5.0,-0.14834666,0.084729195,0.55940646,5.0,-5.0,-5.0,3.4394932,5.0,5.0,-3.6200213,-1.2244382,-5.0,2.7844608,5.0,-1.27612
-2.7962265,2.662384,1.7123852,2.0977247,5.0,-5.0,-5.0,-5.0,4.3388915,5.0,0.98807746,-2.0372822,-1.5292101,5.0,4.3830366,-0.9674629
-5.0,1.3845146,-0.7836796,0.1989605,-0.6601293,3.7942865,2.961584,0.701069,-5.0,-1.823699,1.7237035,0.09257467,1.3940142,-3.1586647,-5.0,4.5875564
-5.0,4.056528,-3.91815,4.0886483,-1.4042156,5.0,5.0,-0.8780339,-5.0,-2.6091125,0.27901888,1.0445583,4.121637,-5.0,-5.0,3.8934174
1.4567667,-3.667036,3.0644755,-0.817227,2.170609,-1.0890982,-4.152154,-0.3300455,2.39185,4.406605,-0.69023716,-0.59312004,0.9745698,-5.0,-0.69331884,-5.0
5.0,-0.918905,-0.52635777,-2.2452846,4.7385373,-2.676899,-5.0,3.0784123,5.0,5.0,-0.83435285,-10.0,-2.5945253,-1.704033,2.2531953,3.2212112
4.546659,0.5721611,0.2527337,-0.46768862,5.0,-5.0,-5.0,0.68286514,4.6044154,5.0,-2.6397924,-2.3289344,-2.0593143,3.7496815,5.0,-0.32716343
-5.0,-1.3494792,2.9904504,3.6062481,2.7862623,-5.0,-2.3630621,-5.0,-1.5546597,5.0,2.552422,1.9937088,-1.3760513,5.0,-0.9187323,0.23513679
-5.0,5.0,-1.6858616,-1.0334251,-2.1163535,5.0,4.9920845,-0.22235487,-5.0,-1.9307818,1.3060999,0.19614688,4.945285,-5.0,-5.0,0.8539901
-5.0,4.5277014,-2.7922878,10.0,-1.6883645,4.6957307,5.0,-0.09414947,-5.0,-0.31402266,-0.19904654,-2.8181324,-0.35957134,-5.0,-5.0,1.5485802
1.6728398,-1.0191114,2.164392,-0.6148573,1.274212,-1.2398804,-3.6549351,-2.852024,0.72738636,2.8677163,0.50967336,-0.35292917,1.5069042,-5.0,0.20880568,2.8050747
5.0,-3.1882973,0.20919424,-0.011544986,5.0,-5.0,-5.0,-0.3588009,5.0,5.0,-3.1026337,8.339538,-5.0,-2.8255086,1.1441135,1.3830163
5.0,1.4725575,-0.119835615,0.4292647,5.0,-3.3252196,-5.0,2.600191,5.0,5.0,-2.3103375,-0.25203693,0.22296286,4.49674,4.4970164,0.19039285
-2.1894526,1.7230515,0.681412,1.6073256,4.4158025,-5.0,-5.0,5.0,2.5769334,5.0,0.9784677,-1.3930593,-3.2068498,5.0,2.200425,-0.35183218
-5.0,0.40193942,1.9498686,1.9773315,0.78267956,0.7353369,5.0,0.27197063,-5.0,2.879672,5.0,-10.0,1.3912768,1.9217144,-5.0,-0.52321666
-5.0,5.0,-2.109782,-5.0100145,-2.1732566,5.0,5.0,-0.10431345,-5.0,-4.2734194,1.8476769,0.4893894,1.4775099,-5.0,-5.0,5.0
-5.0,5.0,-4.6812434,-10.0,-1.0086029,5.0,5.0,-0.19368896,-5.0,-0.5204228,1.3697053,-0.116497,1.9463067,-5.0,-5.0,-5.0
2.7930865,-1.559367,2.0695112,-1.6658443,1.6574636,0.8268572,0.58325684,3.3913884,0.5085114,3.232593,0.31892043,-0.29672444,-0.3888762,-5.0,0.61284196,-5.0
5.0,-1.3036777,-0.12256634,4.8030896,4.970193,-4.7533097,-5.0,5.0,5.0,5.0,-3.3300586,1.985732,-5.0,-0.8314433,2.3385124,-5.0
5.0,2.7529523,-1.0499498,-1.0076922,4.4538383,-4.4665136,-5.0,5.0,5.0,5.0,-0.8761164,-1.1361527,-5.0,3.6672208,5.0,-0.029870007
-5.0,0.28105927,2.9597933,3.0282903,5.0,-5.0,-4.1129875,-3.4524026,1.2374871,5.0,0.29696274,-8.586895,-2.9573388,5.0,-0.5254047,-1.9769807
-5.0,3.222718,0.18027127,-5.9411907,-0.13839364,4.393396,4.073938,0.09428887,-5.0,-0.718766,0.69417536,0.29309425,1.1652565,1.0249817,-5.0,5.0
-5.0,5.0,-5.0,6.0494304,-0.39851582,5.0,5.0,-0.25496876,-5.0,-0.28163102,0.6874238,0.12825495,1.7629489,-5.0,-5.0,5.0
0.051329732,-1.5292135,2.3835447,-1.7561848,0.06128764,0.6608548,1.1658021,4.809013,2.3026485,4.389031,-1.1679242,0.5645308,-0.028158411,-5.0,-0.3518982,5.0
5.0,-1.1173096,1.3751019,4.899334,4.716919,-4.4293633,-5.0,-1.1776061,5.0,5.0,-1.9568479,3.2883048,-3.6449049,-1.5535583,3.4730058,-2.2331367
5.0,0.7682525,-2.4753609,-1.8664529,5.0,-5.0,-5.0,-4.73936,4.761072,5.0,-1.8810185,-3.1873732,-2.0611832,1.8979927,3.967227,0.3910253
-5.0,2.4097843,-4.6943636,-10.0,5.0,-5.0,-5.0,5.0,3.1650455,5.0,1.4268821,-8.411209,-2.4327688,5.0,1.5433953,3.2092667
-5.0,-0.36283743,0.90399015,3.6891665,0.3837211,5.0,5.0,0.09536041,-5.0,-3.6987567,2.7365165,0.14263329,1.6430138,1.8772242,-5.0,0.0033589825
-5.0,5.0,-3.61307,8.970487,-0.19889748,5.0,5.0,-4.7064276,-5.0,-3.8406234,0.76399475,2.9711316,4.2793303,-5.0,-5.0,5.0
-5.0,5.0,-2.0841558,-3.8194785,-0.39768124,3.04112,3.4382265,0.1977333,-1.3944863,1.7670391,-1.86667,-10.0,0.90948534,-5.0,-5.0,5.0
5.0,-2.8765433,0.7058601,0.4546553,1.5349458,-4.1968393,-5.0,5.0,5.0,5.0,-2.3408837,10.0,-2.1335292,-5.0,1.9160056,2.3700087
5.0,1.3768753,-2.661369,-1.4183986,3.5643394,-0.92813385,-5.0,1.3325148,5.0,5.0,-3.524757,2.590032,-2.863522,0.52894926,1.8735204,0.464178
5.0,-0.64569426,1.709763,1.5593418,5.0,-5.0,-5.0,-0.9064355,4.466528,5.0,-0.8558453,0.5964317,-0.18970174,3.841854,5.0,0.0040805154
-5.0,0.49902076,1.029031,1.3641847,4.730397,-5.0,-5.0,5.0,2.7975614,5.0,0.49343473,1.7771075,-1.6149651,5.0,1.340482,0.21668623
-5.0,2.5665023,-1.1410277,-0.3675459,-0.1379782,5.0,4.4689884,-0.7713305,-5.0,-4.2205586,2.9318242,-1.0164875,2.2925332,-1.6075076,-5.0,-3.2432766
-5.0,5.0,-4.037757,-1.1797869,-1.2718608,5.0,5.0,-0.118323654,-5.0,-1.7494926,1.3039902,0.18784952,1.3705053,-5.0,-5.0,-0.9054395
-3.2932746,2.0240917,-0.7717773,6.3549533,0.43167377,1.8892674,1.4667777,-0.2325152,-0.76552224,2.9278853,-1.7900378,-0.02242015,-0.023406506,-5.0,-5.0,-2.769473
5.0,-3.2417614,0.2802119,0.5065934,2.9294238,-5.0,-5.0,-4.313886,4.4340167,5.0,-1.3753656,-5.5922036,-2.5697207,-5.0,1.7159824,-0.54038537
5.0,-0.10863817,0.08896828,0.56307334,5.0,-5.0,-5.0,5.0,3.4205017,5.0,-1.8990483,0.13741136,-4.2575994,2.4746628,4.755984,-0.38160154
-2.5582998,1.326319,0.40759945,0.7064608,3.102472,-5.0,-5.0,5.0,2.5865364,5.0,1.2120484,1.059488,-4.41301,5.0,2.6048043,0.28523725
-5.0,1.8624408,3.359231,1.5478275,-0.76695836,5.0,3.3442783,-0.10022415,-5.0,-4.6554,2.0452826,0.07160473,5.0,-2.371921,-5.0,-5.0
-5.0,5.0,-4.0105076,10.0,-1.3955321,5.0,5.0,-0.34769768,-5.0,-1.4593929,0.6902226,-2.5747244,2.2807684,-5.0,-5.0,-5.0
-4.617195,0.6159271,0.49977157,3.006898,0.051329374,3.504649,4.4311895,0.23225686,-0.6111634,1.2410237,-0.72704685,0.45848548,-1.0727719,-5.0,-5.0,-5.0
5.0,-1.6909258,0.71416926,-4.2340226,4.1318707,-3.1339402,-5.0,5.0,5.0,5.0,-0.35881555,-4.0001173,-3.6845882,-2.3724432,2.4734082,1.3012644
5.0,0.8175353,-1.5857613,-0.0076007857,4.9703517,-3.667029,-5.0,5.0,4.657442,5.0,-2.005829,-7.6319995,-5.0,1.8332096,5.0,0.3063797
-5.0,1.5621824,-5.0,-7.2160277,4.3542223,-5.0,-5.0,-0.77354145,2.2437615,5.0,1.1900125,-9.845148,-3.4869833,5.0,-0.5485268,3.256762
-5.0,2.1689515,0.33068573,8.747469,-0.6205621,4.7893634,3.6320007,0.25465515,-5.0,-2.374855,5.0,-0.40833843,4.238967,1.1568608,-5.0,3.409388
-5.0,5.0,-3.1432047,5.4312677,-0.3216275,4.784161,5.0,-4.603923,-5.0,-3.4281192,0.3810671,4.8284287,0.382815,-5.0,-5.0,-0.90295935
-4.2522807,-0.52620775,-0.12709641,-7.066528,0.16392303,1.0557324,2.3717413,2.3851373,0.33185756,2.3527694,-1.4614089,-0.72382516,-0.5707983,-5.0,-0.89025694,-5.0
5.0,-1.5430868,-0.5622244,-1.3167509,4.2845306,-5.0,-5.0,-4.9458275,5.0,5.0,-2.9843345,10.0,-3.9358878,-5.0,0.3698182,-0.19790103
5.0,0.5357158,-1.9981937,-0.30723464,5.0,-5.0,-5.0,1.3383598,5.0,5.0,-2.598697,-2.5593345,-3.325267,0.3756328,3.6441019,-0.723418
5.0,-0.5625946,1.162065,0.16515276,3.503017,-2.0741115,-5.0,1.5296228,5.0,3.092177,-0.5127256,-8.098601,0.7851788,5.0,2.1652193,5.0
1.7438174,0.66805935,1.7550396,-0.13761574,2.1358316,-3.4529545,-5.0,5.0,5.0,5.0,1.946854,2.1142993,1.2284672,5.0,5.0,0.13310397
-5.0,-1.4370027,3.139779,4.50259,3.5597906,-5.0,-5.0,-5.0,0.31750154,4.3385873,0.9616308,-2.6240792,-1.5348885,5.0,0.48867023,1.1613456
-5.0,0.73200655,1.493001,2.6167784,-3.2909503,4.543955,4.2671194,-0.763782,-5.0,-5.0,5.0,-1.5653888,2.9447715,-4.1357946,-5.0,3.8293357
-5.0,5.0,-0.4724248,0.51002216,-1.5850036,5.0,5.0,-0.36357832,-5.0,-5.0,1.3908993,0.70345575,-0.51978034,-5.0,-5.0,-3.1662998
-5.0,5.0,-4.0355587,2.1059952,-1.4497325,5.0,4.8820434,-0.79143494,-5.0,-1.9690619,0.62538075,1.8741261,0.687717,-5.0,-5.0,5.0
-5.0,1.6495612,-1.2546483,-0.106628895,-1.5506351,3.0351892,-0.05408299,5.0,-2.5424147,0.093316495,-0.46458733,-0.066152826,-1.0565234,-5.0,-5.0,0.6081314
5.0,-1.3038483,-0.52042806,-2.9224637,-0.38395602,-4.0596933,-5.0,5.0,5.0,5.0,-1.0163656,-1.2373874,-1.1972264,-5.0,3.1656446,2.136482
5.0,0.32543135,-0.019132435,0.1438988,5.0,-1.262938,-5.0,4.269684,4.671191,5.0,-1.7434876,-6.8767486,-1.0934671,0.20071244,4.106731,0.676049
2.4898958,0.47686315,1.9920639,5.576898,5.0,-5.0,-5.0,-1.5451617,3.449027,5.0,0.15912789,0.5737951,-1.7498014,5.0,5.0,1.2434101
-5.0,-0.8442835,1.4057351,3.6072059,2.308167,1.9757324,3.2551079,0.16071677,-5.0,-5.0,4.081228,-1.6492858,-4.3378572,-0.9762374,-5.0,-0.0009487234
-5.0,5.0,-4.089081,0.055068493,-0.94098234,5.0,5.0,-3.7621086,-5.0,-5.0,-1.4859619,0.34137452,3.4829478,-5.0,-5.0,0.14177656
-5.0,4.4625087,-1.7943947,1.087167,0.19086444,5.0,5.0,0.011043459,-5.0,0.053946853,-2.2415,0.57803136,-1.0220549,-5.0,-5.0,-5.0
5.0,-5.0,0.97324,0.9103526,1.3314596,-3.715331,-5.0,4.0858145,3.7348585,5.0,1.3479387,-0.28923059,-1.9703186,-5.0,1.0165596,0.35363752
5.0,-0.17618209,-0.60876083,-1.9696586,5.0,-5.0,-5.0,0.5021062,5.0,5.0,-4.5270963,-4.2970824,-5.0,-0.72427475,4.102895,0.5162198
1.6628458,1.4220624,-1.9863759,-10.0,5.0,-5.0,-5.0,4.7501774,3.7320032,5.0,-0.50509125,3.744495,-4.8817244,4.6571,5.0,-0.298138
-5.0,0.24551415,0.34119534,-0.6387922,2.523199,0.5209029,2.7398007,5.0,-5.0,2.810836,3.2451732,6.4621186,-1.8879696,5.0,-5.0,0.093081854
-5.0,5.0,-3.643105,-1.1592247,-0.021922946,5.0,5.0,-0.12837401,-5.0,-3.5800424,1.3931404,-0.4337101,3.9054444,-5.0,-5.0,-1.3873563
-5.0,5.0,-1.8185649,-0.0046905875,-1.8704834,5.0,5.0,-0.096845455,-5.0,-0.14623559,-1.5256107,-3.3830714,-0.13836491,-5.0,-5.0,-5.0
5.0,-5.0,2.4361708,4.4115,1.9108069,-4.4620895,-5.0,-5.0,5.0,5.0,0.36737514,-4.2849293,-0.19914228,-5.0,1.4554697,-5.0
5.0,0.52848935,-1.7838732,-0.4212617,5.0,-0.14677846,-5.0,2.768405,5.0,5.0,-1.1599302,-3.8920362,-3.0202935,-1.085797,1.792412,1.4797592
5.0,1.1766433,0.09816766,1.0342401,5.0,-5.0,-5.0,1.5913458,4.744152,5.0,-2.6633935,-2.461545,-5.0,4.7403812,5.0,-0.34147578
-5.0,0.8674238,2.970346,2.7820148,5.0,-5.0,-5.0,-5.0,1.0778172,5.0,0.7525679,-3.49571,-0.999223,5.0,0.624328,-0.48844814
-5.0,4.264288,-0.8094516,0.56530344,-2.2525244,3.8142152,5.0,0.20237225,-5.0,-1.5517689,5.0,0.2542632,2.5357788,3.3671284,-5.0,5.0
-5.0,5.0,-2.2571335,-0.34996662,-0.032649636,5.0,5.0,-0.51356703,-5.0,-1.5579287,0.9856731,0.4850999,3.8942676,-5.0,-5.0,-5.0
-5.0,5.0,-5.0,-5.670062,-1.1173962,5.0,5.0,-0.47616398,-3.708735,5.0,-0.10419244,0.8556193,-2.728468,-5.0,-5.0,4.8076897
5.0,0.82123834,0.5189539,0.27646965,1.0950596,-1.9018296,-3.5813055,-5.0,-1.5650628,5.0,-5.0,-3.3673534,0.55161417,-5.0,4.625076,-0.47136292
5.0,-0.6098403,5.0,-2.6652944,5.0,-2.0318303,-5.0,4.5398054,0.028929234,5.0,-3.9034982,10.0,-1.7292957,5.0,5.0,5.0
5.0,-3.2190666,5.0,0.10186371,4.910871,-1.6457523,-2.8805609,0.16397238,-2.7287579,5.0,0.36832523,2.6173718,-2.640278,5.0,5.0,-1.5078212
1.8957899,-3.5545633,3.0300362,-0.44824255,2.9688997,-2.3474786,-4.387937,-4.619272,-0.46639627,5.0,-2.3976448,9.667011,-3.1197057,5.0,1.2295668,-2.623893
4.120706,-5.0,5.0,1.200631,1.589914,-1.8774371,-2.8185558,5.0,-0.19508183,5.0,-1.15029,5.0429235,-0.8785219,5.0,4.9982486,1.4560553
2.079991,-5.0,3.6390872,1.0086989,2.3828442,-4.1408815,-5.0,1.6662914,-0.8504912,5.0,-0.41130352,-6.1059246,0.21878645,5.0,3.8659005,0.5498231
2.3235521,-5.0,5.0,0.29169258,3.3326216,-3.4283154,-3.909534,-0.60022837,-0.38217103,5.0,-2.1264036,0.92782223,0.23299062,5.0,5.0,-5.0
0.756294,-5.0,5.0,-0.8900844,0.1274383,-1.469239,0.7813766,5.0,0.16011865,5.0,0.3195727,0.24624509,0.03963411,5.0,5.0,1.5531876
-0.3813886,-5.0,0.6350713,-0.4087132,-1.7768284,-2.2164552,-0.49117613,5.0,-0.07783353,5.0,0.19934583,0.41623762,0.48441008,5.0,1.9984113,-4.759733
-2.1157637,1.6286886,-1.6148393,-0.2622611,-2.8938084,-1.596159,-0.70167476,5.0,-1.9587284,5.0,5.0,2.8610008,-3.7421975,2.0516188,-0.22210526,5.0
-5.0,4.14147,-5.0,5.523676,-1.1568737,-1.7048557,0.7204262,3.619039,-0.090942085,1.8751721,4.008339,0.35518646,-3.1610117,-3.4708972,-5.0,5.0
2.4312768,2.0709229,0.27861106,3.0386095,4.7384276,-5.0,-5.0,-4.1658716,4.969537,3.3284068,-5.0,2.7955053,5.0,-5.0,1.5450692,0.91003424
-2.5814042,-3.9969988,2.7901123,-5.8789496,5.0,-4.8264155,-5.0,5.0,1.126683,5.0,-5.0,10.0,5.0,5.0,3.7365,-5.0
-1.3078727,0.022894502,4.075585,0.42958197,5.0,-5.0,-5.0,-4.6363497,3.1163054,5.0,-5.0,2.0356202,0.13211381,5.0,5.0,-0.42917967
-5.0,5.0,-5.0,-4.6527386,-0.57939625,-5.0,-2.171463,-0.7707832,1.2338401,5.0,-1.0422862,0.55361825,-2.0636113,5.0,1.2134696,2.5081542
-5.0,5.0,-5.0,-8.285399,-5.0,3.447826,1.6666254,-0.18395326,0.026490927,-0.76654696,5.0,0.20427817,-4.180594,-5.0,-5.0,3.7893043
-5.0,5.0,-5.0,-3.821384,1.6163987,0.75284266,1.6981518,-0.25239313,0.3739189,-5.0,5.0,0.82461745,-2.5898197,-5.0,-1.89969,-2.590546
2.4299476,5.0,-5.0,-4.471511,5.0,-0.8159131,-1.5591582,5.0,2.8412895,5.0,-5.0,0.84422326,5.0,-5.0,3.1045246,0.48207217
1.6390566,-2.3236465,2.172368,0.44396803,5.0,-5.0,-4.742905,-2.610917,-0.8413503,5.0,-5.0,-4.405927,5.0,1.7342818,4.4066124,0.12686555
-5.0,-0.849301,3.2636976,0.67423105,-0.423208,-1.7244861,0.91443646,-3.736539,3.063273,5.0,-5.0,-10.0,-5.0,5.0,-0.7314873,-0.0043193847
-5.0,5.0,-5.0,10.0,-5.0,5.0,0.4523145,0.1677482,0.4186433,2.6613622,5.0,-0.22059643,-5.0,-1.2185218,-5.0,2.8018718
-5.0,5.0,-4.688925,-1.0461166,-5.0,5.0,-0.38641095,-0.18678595,5.0,-3.2500591,5.0,0.015220758,-5.0,-5.0,-5.0,1.3833723
-0.8547673,5.0,-4.7207284,10.0,5.0,-0.7701265,0.5372543,2.5571294,2.755795,-1.1487082,-5.0,-0.34737077,5.0,-5.0,3.094484,5.0
1.4781479,-5.0,3.0710962,-0.69820476,5.0,-5.0,-2.2360091,1.1463832,-3.6290598,5.0,-5.0,9.656085,5.0,0.85783434,-0.32489073,-0.3826148
0.0041583776,-5.0,3.9679317,0.101781875,5.0,-5.0,0.13591099,-3.3257394,0.2681067,5.0,-5.0,1.1599272,4.4956417,3.427979,0.24213815,1.8183099
-5.0,3.0909188,-3.6549025,4.0887356,-5.0,5.0,0.49315864,5.0,5.0,-0.89314276,3.4082315,-6.9175806,-5.0,-3.1265054,-2.6282394,5.0
-5.0,5.0,-1.3883443,-0.11222839,-5.0,1.4828472,-0.028469324,0.25319168,5.0,-2.1329842,5.0,-0.16153695,-5.0,-5.0,-5.0,2.488954
-3.8248458,5.0,-4.5241637,-4.082047,-5.0,-1.0169902,-2.013081,-1.825127,5.0,-5.0,4.1704826,-0.20247683,-5.0,-5.0,-0.9221652,4.2889986
3.3764935,-3.8156743,4.6774883,0.017143685,5.0,-1.4046882,2.2993407,0.79151154,-4.653539,5.0,-5.0,3.4843326,5.0,-5.0,1.0857637,-1.7951567
-0.38134435,-5.0,0.46123922,-0.15444057,5.0,-5.0,-1.5275316,2.9620543,-4.4449763,5.0,-5.0,-0.13533103,5.0,4.366082,-0.16930875,0.0043839356
-5.0,-5.0,5.0,-0.040499423,-5.0,0.68597317,3.744349,-2.9387531,5.0,5.0,-4.673386,-5.0714226,-4.012996,-0.8848162,-0.9373808,0.34276435
-2.6385717,5.0,-3.5833466,10.0,-5.0,4.4808807,-0.62082124,5.0,5.0,-0.9043046,5.0,-2.1468754,-5.0,-5.0,-3.7970717,-3.3661444
-2.779392,5.0,-3.9440405,-1.326576,-4.358855,-0.9723357,-1.0069942,-1.9979649,5.0,-5.0,3.928651,-0.72758216,-3.7178288,-5.0,-0.17405951,-4.7453775
0.55434,5.0,-0.40540755,0.4896049,5.0,-0.1861391,1.4994137,0.4994138,-0.6907952,1.3138819,-4.124807,-0.05453387,5.0,-5.0,0.67161036,-4.7192874
-0.38533723,-5.0,1.9961716,-5.3603406,5.0,-5.0,-0.062554866,-5.0,-5.0,5.0,-5.0,1.5670614,5.0,4.8334613,0.5215443,-0.36914772
-5.0,-5.0,5.0,-0.0542099,-4.6632447,-5.0,0.051714778,3.853735,1.7352872,5.0,-5.0,10.0,-4.5445857,-0.793448,-1.3844297,-0.960153
-5.0,5.0,-4.6056223,10.0,-5.0,5.0,-0.27611157,3.0752225,5.0,-0.68382853,5.0,-4.7686195,-5.0,-4.742429,-3.749686,5.0
-0.9332671,5.0,-4.150936,-0.05651951,-5.0,-0.073819876,-2.7925584,-3.3227277,5.0,-4.6380982,5.0,1.2146194,-5.0,-5.0,-3.8201892,-4.725972
-2.1163392,5.0,-4.992467,-1.8490016,5.0,-2.1302671,2.0823822,1.2910638,-0.3503188,1.6151718,-3.430595,-0.007116288,5.0,-5.0,2.007903,0.6683945
0.1749515,-5.0,1.1554289,0.35577643,5.0,-5.0,-1.2671387,1.5850093,-5.0,5.0,-5.0,0.06040317,5.0,2.8580155,2.274487,0.64976734
-4.3062515,-5.0,5.0,-0.78210104,1.5156689,-3.2560763,1.7956694,4.81335,2.112729,5.0,-5.0,-1.1161871,0.09574807,2.8519034,-0.7041552,5.0
-5.0,5.0,-2.501165,-0.40443316,-5.0,5.0,-0.43061322,5.0,5.0,1.0734982,5.0,-8.462635,-5.0,-5.0,-2.193055,0.017424613
-2.8072963,5.0,-4.1609035,-5.9868746,-5.0,0.2765484,-2.3934684,-4.250134,5.0,-3.0238438,5.0,0.3113457,-5.0,-5.0,-0.1396023,2.3637304
-0.7616329,5.0,-2.4761553,1.7062405,3.5608153,0.10564363,0.48883128,-0.26871103,3.7650933,-5.0,-0.41567764,-0.103487276,-1.1046281,-5.0,-2.2790043,-5.0
3.9022627,-2.3534756,1.4254494,1.2065684,5.0,-4.1935053,-4.060147,4.6253805,-5.0,5.0,-5.0,2.2451568,5.0,-5.0,0.23986316,-0.27997085
0.08184536,-5.0,1.5915866,0.4515796,5.0,-5.0,-1.3887786,2.349846,-5.0,5.0,-5.0,-10.0,5.0,2.131425,0.3005302,-0.15317138
-5.0,0.0447011,3.8345358,0.70733804,-5.0,1.5207794,0.27918428,-1.9373059,5.0,2.8689322,0.66335654,-3.2523406,-5.0,-5.0,-0.56343806,2.7957735
-4.76093,5.0,-4.59552,10.0,-5.0,1.3367859,-0.76303184,-2.4697604,5.0,-2.6622841,5.0,-0.6459101,-5.0,-5.0,-4.1181526,-5.0
-2.3592849,5.0,-5.0,0.16158445,5.0,-0.93843806,-0.82963216,-0.53202254,4.1479087,-1.7205015,-1.4448378,-0.40905502,2.3142262,-5.0,-0.13100028,3.4426289
2.8474538,-3.6126938,0.71817315,-0.027011078,5.0,-4.8020225,-2.0654154,-1.4827676,-5.0,5.0,-5.0,-9.036609,5.0,-2.0825055,1.0812783,0.6552427
0.5159434,-5.0,3.7681718,-0.39970464,5.0,-4.838397,-1.6841013,5.0,-2.1452305,5.0,-5.0,-10.0,5.0,4.1237445,0.27166083,-0.23272808
-5.0,-2.6184173,5.0,-1.206764,-5.0,-0.69404674,-0.017374396,-2.4809701,5.0,5.0,-0.6303841,10.0,-5.0,-0.505124,0.19971776,-0.05930777
-5.0,5.0,-5.0,-0.7635479,-5.0,1.842821,-0.56754535,-2.2381065,5.0,-0.6452192,5.0,-0.53512394,-5.0,-5.0,-2.964441,3.5491838
-0.8343848,5.0,-3.0784926,2.2560532,-5.0,1.1913211,-0.46833467,1.811516,5.0,-3.1665835,5.0,-0.29376912,-5.0,-5.0,-4.0259185,-5.0
-1.2954893,5.0,-5.0,2.0679476,5.0,-0.5684004,2.342048,1.9936802,-0.48320413,-0.47242883,-5.0,1.5091269,5.0,-5.0,2.8569484,2.5012293
3.200361,-5.0,2.8581376,-0.0017050073,5.0,-5.0,-1.5984273,-5.0,-5.0,5.0,-5.0,10.0,5.0,0.046205044,1.0533383,1.9511003
-5.0,-5.0,5.0,-0.6626209,1.1779895,-5.0,2.5199828,2.8193302,1.3814304,5.0,-5.0,10.0,-2.5326977,1.1585032,-2.4942393,-0.7061454
-5.0,2.6080103,0.44396675,-0.8163043,-5.0,4.5790515,-1.8328336,5.0,5.0,1.7344136,5.0,0.42454755,-5.0,-5.0,0.100106835,1.7130208
-3.653538,5.0,-3.0243323,10.0,-5.0,1.5092062,-1.2485521,-2.4472191,5.0,-2.1526484,5.0,0.24282083,-5.0,-5.0,-2.5580192,-0.1643852
-3.348235,5.0,-4.8248405,-10.0,0.071688056,-2.2422595,-2.4386415,-5.0,5.0,-4.111318,3.6254478,0.31543744,-1.9894369,-5.0,0.041831017,3.9180439
2.4463496,-5.0,4.360276,2.6799994,5.0,-2.1899476,-0.43006206,0.5786137,-5.0,5.0,-5.0,-2.5422533,5.0,-5.0,0.13889694,-0.14752936
-1.2527802,-5.0,3.6539407,-3.8566082,5.0,-5.0,-1.3693883,-3.629005,-4.669726,5.0,-5.0,10.0,5.0,2.6589403,1.4473727,-0.50349224
-5.0,-4.7641125,5.0,-0.24764104,-1.8951745,-1.2173686,-0.014983594,0.75702333,4.9972553,5.0,-5.0,-10.0,-2.752769,1.3958141,-2.252211,-0.7358612
-5.0,5.0,-3.0110269,-0.45098925,-5.0,4.8229327,-0.11999738,0.79401654,5.0,1.8016803,5.0,0.51064867,-5.0,-5.0,-1.7795349,5.0
-1.2880832,5.0,-5.0,10.0,-0.045910835,-0.7268344,-3.926645,-4.838843,5.0,-5.0,4.0935125,0.14313658,-5.0,-5.0,-2.17251,-3.8863463
-1.7767549,5.0,-5.0,6.209324,5.0,-0.31215966,1.4343562,1.4524127,0.011987686,2.1891232,-5.0,0.05281125,5.0,-5.0,2.2056422,0.25203687
2.527706,-5.0,4.2578,0.28051823,5.0,-4.0468626,-1.2499473,-2.149807,-4.8909082,5.0,-5.0,-3.0849848,5.0,0.5401369,0.7846224,-0.23886926
0.5912589,-5.0,5.0,-1.2927845,5.0,-5.0,0.55377376,-3.9002302,-3.0139592,5.0,-5.0,1.3817074,4.6287603,3.4957027,0.04930389,-0.46301252
-5.0,1.4315864,0.7200514,-2.7282963,-5.0,1.9194438,-1.803743,-2.1091988,4.911876,4.6624365,5.0,1.5601277,-5.0,-5.0,-0.85205364,1.1428621
-3.30112,5.0,-4.301582,4.692673,-5.0,1.4839759,-1.0107486,-2.459557,5.0,-2.0761275,5.0,-0.7346134,-5.0,-5.0,-0.8941487,-4.0425444
-0.72065985,5.0,-5.0,-0.99068344,5.0,-0.94987416,-0.18278205,-0.00072081387,3.0585303,-2.9198666,-2.1892633,-0.019899085,5.0,-5.0,3.5357535,0.7099302
5.0,-5.0,5.0,0.62048835,5.0,-5.0,-3.141318,-2.6042469,-5.0,5.0,-5.0,-3.1538908,5.0,-2.8229136,-0.26644027,-0.38731146
0.5382432,-5.0,5.0,-0.31923223,5.0,-5.0,-0.72355634,-5.0,-2.2664385,5.0,-5.0,1.0575688,5.0,4.0409636,-0.12819275,0.32498446
-5.0,-2.2049966,5.0,-0.17121796,-5.0,3.0641131,3.3675077,1.1464025,5.0,5.0,2.0873904,1.6576058,-5.0,-3.8815455,0.060764432,-0.893136
-5.0,5.0,-2.8863838,2.6667843,-5.0,1.781934,-1.5475501,-2.3475063,5.0,-0.019250214,5.0,0.06665936,-5.0,-5.0,-2.2420583,5.0
-2.9238768,5.0,-5.0,-2.707808,0.4663462,-0.9512391,-4.106479,-3.9457166,5.0,-4.389123,2.8066888,-0.13996892,-3.1515493,-5.0,-0.17689764,5.0
3.7190642,-4.3881917,4.090448,0.019403841,5.0,-3.1938248,-1.6648813,-2.2544336,-5.0,5.0,-5.0,-6.6785374,5.0,-2.0651588,-0.47514153,0.3148021
-1.4303725,-4.6656713,5.0,-1.5805858,5.0,-5.0,0.69130576,-5.0,0.2331438,5.0,-5.0,0.8616133,3.552767,4.205835,-1.1164796,-4.6492467
-5.0,-1.9787306,4.623913,0.4254525,-5.0,1.5267226,-1.5372423,-1.6334817,5.0,3.19838,4.0951543,4.9529634,-5.0,-5.0,-3.4258761,-5.0
-5.0,5.0,-4.3844295,-1.8143673,-5.0,0.89085937,-1.0904175,-2.852053,5.0,-1.5746377,5.0,-0.6717372,-5.0,-5.0,-1.973187,0.122867584
-1.237211,5.0,-2.872106,10.0,1.3664371,-0.5681275,0.12035215,-5.0,5.0,-5.0,2.2381573,-0.2516104,-3.9526548,-5.0,-2.787526,5.0
2.3036723,0.06013298,2.1437218,6.1253424,5.0,-2.2233617,-1.6496223,5.0,-5.0,3.6212907,-5.0,10.0,5.0,-5.0,0.34776413,0.724165
1.3983637,-5.0,2.8920808,1.0484647,5.0,-5.0,-3.256497,-5.0,-5.0,5.0,-5.0,9.356977,5.0,2.902836,0.75462943,1.2878623
-5.0,-2.957812,5.0,0.038389776,-2.5056643,-0.60253954,1.9619174,1.4843744,5.0,5.0,-4.5245466,-10.0,-3.6693091,0.38508093,-1.3282781,-0.64590657
-4.923743,5.0,-2.5867293,0.81032944,-5.0,3.8523834,-1.3999932,-1.4468255,5.0,-2.9626803,5.0,2.8510582,-5.0,-5.0,-4.599288,1.916188
-2.87071,5.0,-3.707737,1.6571106,-5.0,-1.0074394,-2.4361055,-1.4122193,5.0,-5.0,4.673511,1.0621331,-5.0,-5.0,-3.7321408,1.9544177
-1.7707461,5.0,-3.1155741,3.8057098,5.0,0.2031461,2.2935224,0.31979546,-2.3458004,2.2322218,-5.0,-0.12143852,5.0,-5.0,2.4477067,5.0
2.9904656,-5.0,3.6494944,-0.65201837,5.0,-5.0,-3.0997756,0.78556764,-5.0,5.0,-5.0,1.6090221,5.0,0.42086858,1.4388944,1.1213789
-1.95427,-5.0,5.0,-0.02633983,5.0,-5.0,-1.4704883,-1.8367867,-1.2473402,5.0,-5.0,10.0,0.40887582,3.7278523,0.35511053,4.2749844
-5.0,-2.1573539,3.838992,-1.1046375,-5.0,5.0,1.8542379,0.6293403,5.0,4.651504,0.40487838,-5.395874,-5.0,-4.308716,-0.68238366,0.09909961
-2.9697368,5.0,-5.0,10.0,-5.0,2.8581188,-0.7730019,-0.43459323,5.0,-0.64780134,5.0,0.39253527,-5.0,-4.105757,-2.9916518,5.0
-0.863945,5.0,-5.0,0.10066718,-5.0,-0.7046046,-2.470128,-2.0362864,5.0,-4.6084514,4.301926,0.8360244,-5.0,-5.0,-0.68167496,-2.703152
0.7158685,5.0,-4.910033,-0.5315073,5.0,-1.8686767,1.0767658,-0.19836405,0.15565741,-0.5688584,-4.944078,-0.6746379,5.0,-5.0,2.8231986,-1.3031201
0.98685837,-5.0,3.5670497,0.21754062,5.0,-4.274444,-3.0490203,5.0,-4.1147523,5.0,-5.0,0.012555599,5.0,3.2915783,0.49140805,-0.3927246
-2.7995524,-5.0,5.0,-0.19152176,5.0,-5.0,-1.1983633,-5.0,0.112338185,5.0,-5.0,10.0,-1.1418302,2.109694,-1.0167229,3.293668
-5.0,-2.4974432,4.5102906,-1.1464787,-5.0,1.8836783,-0.09960365,-0.53229094,5.0,3.6226327,1.6836898,3.767131,-5.0,-5.0,-3.7110076,1.8952141
-3.62501,5.0,-5.0,8.17457,-5.0,0.69305694,-1.9746914,0.19433749,5.0,-1.2070057,5.0,-0.2980944,-5.0,-5.0,-1.5416873,5.0
-2.54175,5.0,-5.0,-1.4332293,0.69644785,-2.7234154,-2.7197788,-5.0,5.0,-5.0,3.5026114,-0.51595163,-4.5131016,-5.0,-0.59238297,-1.929442
3.110775,-4.7474313,4.1723595,-4.076237,5.0,-4.5446606,-2.9405494,-3.999972,-5.0,5.0,-5.0,7.0585947,5.0,-5.0,0.7120184,-0.31085414
0.8402191,-5.0,1.6078603,0.39554763,5.0,-5.0,-3.3106604,-5.0,-5.0,5.0,-5.0,-1.451465,5.0,2.5401304,1.416347,0.7287249
-5.0,-3.6724916,5.0,0.034948926,-5.0,-2.6599984,1.5938613,2.578712,3.2974582,5.0,-4.0933137,10.0,-5.0,-1.0561619,-2.0283842,1.2797867
-5.0,5.0,-5.0,-1.6644201,-5.0,1.9380566,-1.1776404,-2.5791678,5.0,1.0510824,5.0,3.408205,-5.0,-5.0,-2.438227,0.20042717
-1.0412285,5.0,-3.1671202,9.249906,-5.0,0.83539546,-0.8725067,-2.1695411,5.0,-2.6820776,5.0,0.28239322,-5.0,-5.0,-1.961146,-3.471873
-3.0169802,5.0,-5.0,-6.568907,5.0,-2.471961,-2.493954,-1.8994023,0.28185114,-1.7005923,-4.327673,-0.39789042,5.0,-5.0,3.5234647,2.2375727
2.97818,-3.6621125,1.6892818,-0.69094795,5.0,-5.0,-4.8388925,-5.0,-5.0,5.0,-5.0,-6.3098555,5.0,-2.3205132,1.4962102,4.085146
-5.0,-4.983515,5.0,-2.9154303,5.0,-5.0,0.4945594,-3.0268373,1.4476233,5.0,-5.0,10.0,-2.6492572,3.9074268,-4.6606283,-3.245705
-5.0,2.4010477,0.05387032,-0.040257156,-5.0,1.1995895,0.22229889,1.6102424,5.0,-1.019751,5.0,0.25754252,-5.0,-5.0,-2.8538775,3.9464958
-2.0693402,5.0,-4.1050625,-1.1190796,-5.0,1.0585909,-1.6830267,-2.2942173,5.0,-3.675395,5.0,1.0384419,-5.0,-5.0,-3.991909,2.1844416
-2.7139642,5.0,-5.0,-0.3241465,5.0,-2.5126278,0.122853994,-0.2149168,0.29469234,-0.73657274,-5.0,-0.7783936,4.435732,-5.0,1.6895854,0.01719752
2.2882633,-5.0,1.6907551,-0.84255135,5.0,-5.0,-4.914782,-4.8831744,-5.0,5.0,-5.0,10.0,5.0,-0.22362423,2.7028787,4.0643573
0.12918973,-5.0,5.0,-1.1323736,5.0,-4.246452,-0.6514783,-5.0,2.6930752,5.0,-5.0,10.0,1.4496719,5.0,0.12918568,4.55216
-5.0,3.7004592,-1.840611,0.6475106,-5.0,2.375833,-1.4286705,3.778297,5.0,0.16944182,5.0,-1.4764473,-5.0,-5.0,-2.657603,1.7887936
0.009733558,5.0,-1.3120918,5.158981,-5.0,2.122892,0.63177085,5.0,5.0,-3.0107114,5.0,-4.931674,-5.0,-5.0,-3.189849,0.4125967
-2.2094402,5.0,-5.0,-1.2114372,5.0,-0.9609066,0.029110312,0.061663397,3.7123127,-3.8599617,-1.2408775,-0.07527539,3.2634993,-5.0,1.8870142,4.5517135
2.2967894,-5.0,2.821966,-0.30573708,5.0,-4.7644067,-1.3415298,-0.7553305,-5.0,5.0,-5.0,4.2258406,5.0,0.7902813,3.4722583,-2.368525
0.42957807,-5.0,5.0,-0.45021948,5.0,-4.080113,-2.137164,-5.0,0.38972825,5.0,-5.0,-10.0,4.1077366,3.7889,-0.7717944,-1.854121
-5.0,-1.2327197,5.0,-0.23335768,-5.0,2.6765437,-0.20118994,0.2220928,5.0,5.0,2.5750375,5.7707767,-5.0,-2.7577431,0.15951067,0.32301795
-4.574404,5.0,-5.0,-6.135523,-5.0,3.3143969,-0.7319467,-1.0345567,5.0,-0.024331331,5.0,0.44022852,-5.0,-4.1036024,-3.2332666,5.0
-1.6493033,5.0,-5.0,-2.0232775,2.8413315,-1.5298467,-3.8702147,-1.5087488,5.0,-4.866377,3.092367,-0.61092615,-5.0,-5.0,1.3541386,-0.8808681
0.42912328,-0.81253296,0.6536418,1.8404691,5.0,-2.61701,0.560331,0.5047326,-5.0,5.0,-5.0,-2.0163116,5.0,-3.5096936,1.4851797,0.59549195
0.5396144,-5.0,5.0,-0.27534553,5.0,-5.0,-1.5158415,-5.0,-1.9316717,5.0,-5.0,10.0,4.0267563,4.7673407,-1.0423508,-1.5249745
-5.0,2.0553222,1.6851423,2.2349892,-5.0,4.2531657,2.174805,1.6749191,5.0,3.5253577,2.7073479,0.38053057,-5.0,-5.0,-4.120423,1.5014266
-2.2564192,5.0,-2.1792572,9.72798,-5.0,3.1105921,-0.7154641,5.0,5.0,-3.2595627,5.0,1.0057383,-5.0,-5.0,-2.8261905,4.132254
-1.8196232,5.0,-5.0,-0.8542941,5.0,-1.2287614,-0.28643835,0.61788315,2.437283,-3.1686532,-0.70635915,0.2872512,2.0323205,-5.0,3.4461234,-5.0
1.3519042,-5.0,1.3423028,-4.9004655,5.0,-4.4521356,-2.3792968,2.5321903,-5.0,5.0,-5.0,8.55983,5.0,1.7960511,2.1139026,-5.0
-0.13569641,-5.0,4.4200196,-0.048625976,5.0,-5.0,-0.649833,3.6718397,-1.4150716,5.0,-5.0,-2.6962237,3.4966328,4.402387,-0.27978262,-0.027303033
-5.0,-3.6639202,5.0,0.06119972,-5.0,1.6248971,-0.43694437,1.0728177,5.0,5.0,-1.5197964,1.681366,-5.0,-1.1726221,0.2684244,-0.29017764
-5.0,5.0,-5.0,6.9566197,-5.0,1.8995467,-0.7769059,-2.1804385,5.0,-0.3473035,5.0,0.06618734,-5.0,-5.0,-3.9753535,5.0
-0.40229768,5.0,-4.02629,10.0,-3.4431243,2.822042,-0.10145664,5.0,5.0,-4.4807835,5.0,0.7197249,-5.0,-5.0,-2.9109018,-5.0
-0.69435406,5.0,-3.453847,10.0,5.0,-0.32250333,2.5131924,1.920546,-0.9314792,0.98557156,-4.7928696,0.19429179,5.0,-5.0,0.5830109,-1.500499
1.5798371,-4.902798,1.8777224,0.18488096,5.0,-5.0,-2.7741902,1.3056331,-5.0,5.0,-5.0,-5.653943,5.0,0.1150403,1.8688059,2.4775987
-0.8508276,-5.0,5.0,-0.40312693,5.0,-5.0,-0.5616745,3.3826554,-2.1322198,5.0,-5.0,10.0,0.78664994,3.4317012,-0.038315058,1.8580339
-5.0,3.4177976,-0.951809,0.4610842,-5.0,3.2475,-1.2569833,-1.590424,5.0,3.0331566,4.67318,0.69573957,-5.0,-5.0,-1.7596374,5.0
0.76685977,5.0,-2.9723825,1.4687343,-5.0,0.56598496,-0.518962,1.5967622,5.0,-3.187758,5.0,-1.3466128,-5.0,-5.0,-2.907517,5.0
-1.4863656,5.0,-4.2007117,10.0,5.0,-1.4826231,-2.9135237,-1.779948,3.5907078,-5.0,-0.035562754,0.36956263,1.8986,-5.0,-1.2462544,4.1235976
1.8162495,-2.7253487,-0.7254009,-0.15827467,5.0,-3.5544195,-2.517262,1.8049705,-5.0,5.0,-5.0,3.2334807,5.0,-5.0,1.2628956,2.9530175
-0.007518828,-5.0,3.092311,-0.5700018,5.0,-5.0,-0.2133847,5.0,-3.114789,5.0,-5.0,1.2595576,5.0,2.3050547,1.3957233,0.34041938
-5.0,-1.051936,5.0,0.7765314,-5.0,5.0,-0.210827,-1.7455577,5.0,3.1660466,1.7261798,1.9371004,-5.0,-4.037814,-0.18474305,-0.03786166
-3.6200461,5.0,-5.0,6.3342,-5.0,3.7404385,0.45574057,0.5056762,5.0,-3.2034628,5.0,-1.0032336,-5.0,-4.000353,-3.3109808,5.0
-2.2145364,5.0,-5.0,10.0,-5.0,-1.7673007,-2.4666219,-2.191744,5.0,-5.0,3.8530998,0.37093985,-5.0,-5.0,-2.5917225,4.5836945
-0.13596117,5.0,-5.0,-2.292804,5.0,-0.34707773,1.4674988,0.5643877,-0.89408684,0.3211975,-5.0,-0.71423167,5.0,-5.0,0.7114513,-2.6257446
1.6379417,-5.0,3.2126236,-1.4100645,5.0,-5.0,-2.35986,5.0,-5.0,5.0,-5.0,1.0666937,5.0,3.2077785,1.4247136,-2.1676755
-2.2832913,-5.0,5.0,-0.4529309,4.848036,-5.0,0.4781067,-5.0,0.28133583,5.0,-5.0,3.4615731,-0.6559899,3.7319226,-2.2985733,1.8655331
-5.0,5.0,-5.0,-10.0,-5.0,2.6524577,-0.48308718,-1.3985406,5.0,-0.18285286,5.0,-3.2646456,-5.0,-3.9895084,-1.520535,-3.6140523
-1.9101485,5.0,-5.0,-0.41396555,-5.0,-0.58435225,-2.008216,-2.455689,5.0,-2.5069823,5.0,1.0302266,-5.0,-5.0,-1.9352758,-4.9140606
0.40893078,5.0,-5.0,10.0,5.0,-0.501004,1.3059263,2.717055,-1.0889673,-2.4496963,-5.0,-0.40005642,5.0,-5.0,2.155592,1.4172475
3.2688403,-5.0,5.0,10.0,5.0,-4.414261,-3.4980993,-5.0,-5.0,5.0,-5.0,-0.14567447,5.0,0.34500885,1.0160257,2.6101696
0.21526462,-5.0,4.847131,0.026166124,5.0,-5.0,0.6811814,2.0907404,-2.0744526,5.0,-5.0,-10.0,5.0,4.4203577,0.91617936,-0.69715977
-5.0,-4.991738,5.0,-0.14383212,-5.0,0.2396822,0.36799586,0.45739436,5.0,5.0,-2.338497,-2.7861621,-5.0,-0.92993057,0.43467999,-0.43430194
-5.0,5.0,-5.0,3.3755946,-5.0,2.6990628,-0.33216843,0.43985793,5.0,0.51361233,5.0,7.6899257,-5.0,-5.0,-0.94377685,5.0
-2.8708224,5.0,-5.0,-3.7615037,-3.8315196,-1.5915856,-1.8910353,-3.069858,5.0,-5.0,5.0,1.3672597,-5.0,-5.0,-1.7207814,-3.256947
-0.3713231,5.0,-2.8549948,4.621769,5.0,-1.1735301,0.8490499,-0.3316792,-0.58948517,0.97441286,-5.0,-0.17263336,5.0,-5.0,2.4154897,0.028121233
1.6294043,-5.0,2.0039315,-2.2466621,5.0,-4.177834,0.31271505,1.9069531,-5.0,5.0,-5.0,-8.529897,5.0,3.1423907,0.25816453,-5.0
-2.1141837,-4.833514,5.0,-1.2212248,5.0,-5.0,-2.5653305,-5.0,-1.2910123,5.0,-5.0,10.0,-0.16112113,2.314619,0.35682797,5.0
-5.0,5.0,-3.60159,1.3822473,-5.0,3.040033,-0.93148375,1.8275274,5.0,-1.328205,5.0,-0.4097453,-5.0,-4.178005,-1.0073066,5.0
-1.6696024,5.0,-3.822411,10.0,-5.0,-0.5885205,-1.0936025,0.11192221,5.0,-3.5072627,5.0,-0.7568189,-5.0,-5.0,-2.410775,-1.7468851
0.9551054,5.0,-5.0,-0.16514164,5.0,-5.0,-0.48088104,-5.0,-5.0,2.7384965,-5.0,1.3944529,5.0,-5.0,5.0,4.526253
0.72300184,-5.0,0.84252954,0.5073272,5.0,-5.0,-3.938595,-2.81034,-5.0,5.0,-5.0,-3.7007937,5.0,0.3258295,-0.11974847,3.036676
-5.0,-2.9015994,5.0,-0.07403776,-1.0105152,-5.0,0.5783494,5.0,3.606432,5.0,-5.0,-6.040625,-2.4839458,0.2532879,-2.8526335,0.21877077
-5.0,5.0,-2.197386,-4.3562756,-5.0,3.1428041,-1.027647,-0.74658966,3.924611,1.4651984,5.0,0.4336477,-5.0,-5.0,-2.0887973,-0.92176104
-0.73113424,5.0,-4.3996925,6.549247,-5.0,-2.345562,-0.1039238,5.0,5.0,-5.0,4.5455995,1.498666,-5.0,-5.0,-2.9981825,-0.7618809
0.04521227,5.0,-2.306765,10.0,5.0,-1.5633295,-1.8135397,-1.8895142,2.6882083,-4.1371074,-0.551759,-0.16360174,1.490868,-5.0,3.4744537,-4.4653325
2.736526,-5.0,0.41833782,0.51856995,5.0,-5.0,-3.4386768,-4.6829386,-5.0,5.0,-5.0,-2.0589728,5.0,-0.15622187,-1.5856737,-2.2190423
-0.6022024,-5.0,5.0,0.38069043,5.0,-5.0,-2.5696611,-2.622356,-1.32558,5.0,-5.0,-10.0,3.8782291,4.617946,-2.5155067,0.5947524
-5.0,0.48020685,4.109509,0.19318894,-5.0,5.0,3.119649,1.7401849,5.0,3.277492,2.6602454,2.9369314,-5.0,-5.0,-2.7741137,-5.0
-4.3372087,5.0,-5.0,2.2819078,-5.0,1.6798985,-1.3943172,-2.390921,5.0,-2.0809865,5.0,1.1660217,-5.0,-5.0,-3.5921724,5.0
-2.922996,5.0,-5.0,4.796132,2.2821465,-2.3532274,-3.4014516,-2.5805159,5.0,-5.0,3.5910797,-0.83232456,-3.8616402,-5.0,-1.9029067,-3.9628205
0.16141021,3.2284148,-1.4364333,-10.0,5.0,-4.683156,-4.6195955,-5.0,-3.688562,4.3724127,-5.0,-7.5894604,5.0,-5.0,0.9812981,2.2534976
-0.18544978,-3.339151,4.2866225,-4.2242875,5.0,-5.0,-1.6270334,-5.0,-4.748962,5.0,-5.0,3.622024,5.0,5.0,0.18695098,-1.0802064
-5.0,-3.01742,5.0,-0.14224716,-4.447186,-1.0468433,1.9601555,1.62259,4.866918,5.0,-3.4984157,-0.3375597,-4.696328,-0.036500454,-2.5935519,0.25889373
-5.0,5.0,-3.8850627,-0.0748992,-5.0,1.8103855,-0.845152,-2.1682484,5.0,-1.5587434,5.0,0.03723593,-5.0,-5.0,-1.5448174,-5.0
0.13726771,5.0,-2.1714716,10.0,-1.5706818,-0.66462755,0.28062856,0.26325667,5.0,-5.0,5.0,-0.4693225,-4.5852404,-5.0,-1.1816542,-5.0
0.19363552,5.0,-1.247652,0.61410004,5.0,-5.0,-1.9021935,-5.0,-1.6330309,2.6350105,-5.0,2.625969,5.0,-5.0,1.7784498,0.03730184
1.7236334,-5.0,2.1490688,-0.05009906,5.0,-5.0,-2.096286,2.278365,-5.0,5.0,-5.0,8.423563,5.0,0.19151366,0.43719178,2.3943398
-5.0,-2.6366649,5.0,-1.882609,-5.0,-1.5015262,2.8959608,-3.756446,5.0,5.0,-4.0593176,10.0,-5.0,-0.79127824,-3.0934403,-5.0
-5.0,5.0,-4.5382485,0.06806469,-5.0,0.8135625,1.2158787,0.41686755,5.0,-1.1358457,5.0,-2.8387747,-5.0,-5.0,-2.2016377,-3.8786352
-2.4158864,5.0,-1.7682276,10.0,-5.0,-0.0956049,-1.6538304,-2.368838,5.0,-3.3514106,5.0,-0.55840653,-5.0,-5.0,-2.2248008,-2.212082
-4.7114244,5.0,-5.0,0.2837987,4.00789,-0.82973135,-1.4462695,-0.09117587,5.0,-4.0645967,0.3371899,-0.30377638,-0.96040535,-5.0,0.10558891,-1.1085176
1.6509624,-5.0,3.612793,-1.8724058,5.0,-5.0,-3.5652697,-2.9057786,-5.0,5.0,-5.0,2.563961,5.0,-0.62334776,0.28385592,-5.0
-0.45944893,-5.0,4.363395,-1.1136872,5.0,-5.0,0.8519222,-0.58878183,-3.8128777,5.0,-5.0,-4.2442427,5.0,5.0,-0.53457785,1.5129734
-5.0,-3.4295053,5.0,-1.2844733,-5.0,1.8824556,0.1035521,-2.5042324,5.0,5.0,-0.51371723,1.6712167,-4.7401686,-4.320206,-3.617106,0.31248802
-5.0,5.0,-4.993169,-10.0,-5.0,2.6747994,-0.05788219,-0.378027,5.0,-0.1311847,5.0,-0.7388008,-5.0,-5.0,-2.304857,2.5997136
-2.7547426,5.0,-4.2519894,2.327703,-4.059289,0.22513807,0.3847415,0.024985958,5.0,-4.856237,5.0,-1.1478746,-5.0,-5.0,-0.8372112,-4.0118365
2.8915062,1.4368162,4.584498,-3.1968205,5.0,-5.0,-4.262076,-5.0,-4.5040536,5.0,-5.0,9.745175,5.0,-5.0,0.65499485,2.5070317
0.41574097,-5.0,5.0,-0.6672224,5.0,-5.0,-1.1184298,0.8092395,-2.9840803,5.0,-5.0,0.9231551,5.0,0.21375698,0.89576226,1.3247079
-5.0,-5.0,5.0,-0.21562621,0.67568755,-4.8876867,1.2459292,-5.0,0.052395582,5.0,-5.0,10.0,-2.518858,1.5560958,-2.2807922,-0.051322907
-5.0,5.0,-5.0,-1.3570881,-5.0,1.9795568,0.41657025,1.6855525,5.0,-1.1438584,5.0,0.32440466,-5.0,-4.8572125,-2.016402,-0.31584263
-2.1145947,5.0,-4.81965,7.971375,-5.0,-1.0522618,-2.4310284,-3.00463,5.0,-4.071141,5.0,0.25023282,-5.0,-5.0,-2.3523045,-2.8186574
-0.16057235,5.0,-2.5863328,-6.3676896,5.0,-1.7809571,-1.7714489,-1.7229227,-1.0889497,2.4668436,-5.0,0.29089415,5.0,-5.0,1.8537282,0.74730647
1.1825023,-5.0,2.7725399,-0.2221031,5.0,-5.0,-4.8157597,-0.11977136,-5.0,5.0,-5.0,10.0,5.0,-0.37380326,1.2553849,1.679091
0.48618603,-5.0,5.0,-0.20892166,5.0,-5.0,-3.1983297,-5.0,-2.7196207,5.0,-5.0,4.476986,5.0,4.808724,-0.7097384,1.876133
-5.0,-3.079945,5.0,-0.7553465,-5.0,2.9620767,3.9231553,0.24762213,5.0,5.0,-4.231946,-10.0,-5.0,-1.7028308,-0.076758504,-0.920514
-3.060257,5.0,-4.4133024,6.9189425,-5.0,2.3839307,-1.4452399,2.180032,5.0,-0.09167051,5.0,-3.387979,-5.0,-5.0,-3.1526377,3.5654898
-1.4122862,5.0,-4.524348,4.8254538,-1.1440642,-2.0328095,-4.223954,-4.990758,5.0,-4.5564985,5.0,-0.70503193,-4.707361,-5.0,-3.3977933,-1.9928367
2.6293461,-2.941084,5.0,-2.238232,5.0,-4.096535,0.7924112,-5.0,-5.0,5.0,-5.0,8.112376,5.0,-5.0,2.5575519,-3.880223
0.61907405,-5.0,5.0,-0.034106847,5.0,-5.0,-0.43324828,3.3394427,-5.0,5.0,-5.0,-0.30795026,5.0,3.403828,0.9361826,1.1774492
-1.4421538,-3.2959218,1.7155232,4.3515043,5.0,-1.6334248,0.8677287,3.570147,-1.3200774,5.0,-5.0,-3.2500174,2.9716792,1.9454287,2.908453,0.6346506
-5.0,3.573497,0.7349739,-2.291253,-5.0,5.0,3.6407611,-1.6755515,2.9309165,5.0,0.2064212,1.206563,-5.0,-0.48902476,-2.0229588,-0.6643012
-3.3160968,5.0,-5.0,-3.8356118,-5.0,5.0,-0.66327477,-0.120636955,5.0,3.0266814,5.0,-7.2079425,-5.0,-1.2961512,-0.88787615,5.0
-1.7322407,5.0,-5.0,-2.2445889,-5.0,2.0328574,-0.54008186,-0.73141605,5.0,-2.8687832,3.3769922,-0.7453915,-5.0,-3.6160674,-1.4812516,1.0083184
-5.0,5.0,-5.0,-10.0,2.8802118,-1.4133708,-1.4982593,-0.14904274,4.02628,-1.5760674,-2.6889496,-0.21269205,0.41036248,-5.0,-0.31932998,-5.0
0.64649224,-0.21617699,4.1851606,2.3078167,5.0,-0.23600686,2.7986293,0.16578516,-4.821637,5.0,-5.0,0.3468927,5.0,-2.7713032,1.067169,-0.21361041
0.25645965,-5.0,3.5299406,-0.4855117,5.0,-5.0,-1.327804,-5.0,-4.7894287,5.0,-5.0,-9.1881075,5.0,3.4174335,1.0737765,-0.4556906
-5.0,-5.0,5.0,0.8898376,-5.0,0.9641701,3.949128,-3.0452843,5.0,5.0,-1.8845844,3.6806934,-5.0,-0.77792704,-1.6411462,0.26249313
-5.0,5.0,-2.969645,-6.989468,-5.0,3.6965325,-0.037492394,-0.5002609,5.0,2.9571965,5.0,0.96419775,-5.0,-5.0,0.40292048,-3.3667598
-2.961955,5.0,-5.0,-10.0,-5.0,-0.038172126,-2.3923793,-2.180052,5.0,-2.8617704,5.0,-0.05236549,-5.0,-5.0,-1.5161545,1.161077
-0.35780585,5.0,-4.0871754,-4.656895,5.0,0.4266646,0.99209225,4.1440535,0.7706603,-0.24994886,-5.0,-0.2125387,5.0,-5.0,1.0990868,-5.0
1.0122888,-5.0,1.5174794,0.2180003,5.0,-4.6168833,-1.6519642,3.4815104,-5.0,5.0,-5.0,6.7506247,5.0,0.33784762,1.1535529,0.09725482
-5.0,-5.0,5.0,-0.6940589,0.044215918,-5.0,0.60521275,3.400229,0.8440182,5.0,-5.0,-10.0,-0.6063905,1.9647373,-1.7395613,1.5343095
-5.0,1.6143115,-0.88874173,-2.6310055,-5.0,3.7130425,0.11880046,-0.6019834,5.0,2.5298433,1.3072839,0.31650537,-5.0,-5.0,-3.3762548,5.0
-5.0,5.0,-5.0,-1.2145483,-5.0,2.2909393,0.33561826,-0.041018296,5.0,-2.3363354,5.0,0.47563422,-5.0,-3.9937582,-4.0176787,-5.0
-2.5375953,5.0,-5.0,-8.654608,-2.1901355,-0.6315695,-0.8074465,-1.8818369,5.0,-4.2021813,4.6855206,-0.24020967,-5.0,-5.0,-1.6555336,-5.0
2.8404212,-0.71384346,0.8838725,-0.098709844,5.0,-1.912003,-3.0171275,2.9291706,-3.0792208,3.6769266,-5.0,6.3254423,5.0,-1.5076984,2.8293328,3.0475564
1.3509374,-5.0,3.9739528,-0.028449042,5.0,-5.0,-1.6524324,5.0,-4.2834105,5.0,-5.0,10.0,5.0,2.0472755,1.1925993,-0.75674295
-5.0,-4.0460544,5.0,-1.2608776,-5.0,-2.0265636,0.3867296,0.3496437,5.0,5.0,-3.055974,10.0,-5.0,-0.09400338,-2.1329465,-0.3293117
-5.0,5.0,-3.8799555,1.3166213,-5.0,1.2082614,-0.03913477,-2.0662928,5.0,-1.5631031,5.0,4.8195906,-5.0,-5.0,-4.248374,-2.138474
-4.4424534,5.0,-1.6718659,8.810343,-5.0,-1.161879,-2.2813148,-1.9348083,5.0,-3.365871,5.0,1.1619674,-5.0,-5.0,-1.7888033,-5.0
-1.6888971,5.0,-4.595083,5.1600704,5.0,-5.0,-4.0960016,-0.28968763,2.4431078,-1.3819631,-3.47961,-0.6899456,5.0,-5.0,2.7466688,-3.406622
1.95568,-5.0,2.1039405,-0.081803285,5.0,-4.960305,-3.4267335,2.153638,-5.0,5.0,-5.0,2.6789234,5.0,0.1201428,-0.030818224,-0.07542732
-5.0,-5.0,5.0,-0.80274445,2.677354,-5.0,1.777989,-5.0,1.1150134,5.0,-5.0,-3.2652922,-3.5066454,3.6408174,-5.0,-2.6632876
-5.0,1.8942069,0.01835069,-3.255183,-5.0,3.162418,-2.1003487,5.0,5.0,-2.4178936,3.8074684,-2.0840244,-5.0,-5.0,0.86083645,-3.7145524
-1.9362404,5.0,-1.8539507,2.4608655,-5.0,3.0731285,-0.13302898,5.0,5.0,-1.7041286,5.0,-0.4353155,-5.0,-5.0,-2.385206,-2.0756989
-3.8308415,5.0,-5.0,-1.9092865,-4.254033,-0.22702605,1.5442082,1.8647794,5.0,-5.0,4.719007,3.654102,-5.0,-5.0,-2.9053855,4.9156075
-2.6004586,5.0,-2.849831,-1.1296188,5.0,-1.0847232,1.6165211,1.2326968,0.82929087,0.704279,-5.0,-3.5690446,5.0,-5.0,1.1295961,0.06644148
0.526815,-5.0,4.0926247,-3.1974676,5.0,-5.0,-1.5307833,-5.0,-5.0,5.0,-5.0,-0.53635556,5.0,2.1006632,0.9773881,-2.5705671
-5.0,-1.6300724,5.0,-2.8710427,-5.0,2.2994246,2.7774873,0.18367936,5.0,5.0,-0.2520243,10.0,-5.0,-5.0,-0.10272503,3.880396
-5.0,5.0,-2.501313,5.541148,-5.0,2.5871081,-0.29781222,-0.16794036,5.0,-2.422515,5.0,-0.992788,-5.0,-5.0,-2.2780137,-5.0
-2.1264071,5.0,-2.292002,8.461297,-5.0,0.9809772,-1.7590411,-2.1927242,5.0,-3.9672246,5.0,-0.5872245,-5.0,-5.0,-1.8748869,-1.2124946
-1.1934754,5.0,-3.8481736,4.301429,5.0,-1.205812,0.7110523,0.3487995,1.7276218,-1.6532698,-3.9900906,0.10020145,5.0,-5.0,0.9812614,5.0
1.6006491,-5.0,2.601945,-0.092648454,5.0,-5.0,-2.276936,2.327649,-5.0,5.0,-5.0,1.0469153,5.0,1.2469965,0.84138364,1.7842606
0.22051048,-5.0,5.0,-0.19073077,5.0,-5.0,-1.173155,5.0,-0.19291264,5.0,-5.0,10.0,3.565381,2.8678348,0.79594743,2.5772753
-5.0,0.3176014,0.19390905,-2.7561102,-5.0,2.3768559,0.5546213,1.2618538,5.0,3.058766,2.97373,1.166255,-5.0,-5.0,-1.3579773,-3.3692074
-0.30368465,5.0,-3.8981044,10.0,-5.0,1.2153361,1.0408592,1.9413797,5.0,-3.1166282,5.0,-0.53809416,-5.0,-5.0,-3.0934505,-5.0
-2.5203881,5.0,-5.0,-0.9937465,5.0,-1.8551263,-0.16020632,0.3141186,5.0,-2.7518559,0.8440548,1.4729921,1.7770325,-5.0,1.6955214,5.0
1.7695053,-5.0,0.3475703,-0.04206409,5.0,-1.4537296,1.5972716,0.05340526,-5.0,5.0,-5.0,-9.597876,5.0,-3.002412,0.85285497,0.23523411
0.31997216,-5.0,5.0,-0.8277066,5.0,-5.0,-0.3992911,4.2297716,-0.6405097,5.0,-5.0,1.617163,0.9966775,4.1082788,0.65103257,5.0
-5.0,-2.9456718,5.0,-1.2570386,-5.0,2.483564,-0.4187039,-0.102581784,5.0,5.0,0.5612105,0.68414754,-5.0,-5.0,-3.5786996,0.51801676
-0.28875905,5.0,-1.7242334,6.534914,-5.0,1.1607498,-2.1533685,-3.683708,5.0,-0.70735323,5.0,0.20416465,-5.0,-5.0,-1.8163431,-1.5731311
-4.338711,5.0,-5.0,-0.83531535,3.7389743,-1.0883336,-0.052203774,0.50186646,5.0,-3.621264,0.57564485,0.23855329,0.19088459,-5.0,1.8057756,5.0
0.9502393,-3.1889083,-0.49397528,-0.12063771,5.0,-3.7544913,-2.070445,4.747225,-4.989504,5.0,-5.0,-1.8980002,5.0,-4.389928,0.53490543,0.45683575
1.1869836,-5.0,5.0,-0.31113908,5.0,-4.9562635,-2.5306573,-5.0,-1.8116297,5.0,-5.0,-10.0,5.0,3.515208,0.83870816,0.7568859
-5.0,-5.0,5.0,-1.1009376,-4.9421234,-0.19369352,0.8498388,-0.5859528,5.0,5.0,-2.806738,-3.7381463,-4.210581,0.7398042,-0.23099768,0.24396975
-5.0,4.5535393,-4.166424,3.4009151,-5.0,2.0204468,-0.565247,-2.142467,5.0,-2.4084287,4.7701383,-1.1816297,-5.0,-5.0,-1.5161973,3.3547673
-1.7284697,5.0,-0.8361943,10.0,-5.0,-0.7564967,-2.3159041,-2.4188988,5.0,-3.0739903,5.0,-0.6474588,-5.0,-5.0,-1.5178903,-2.7760239
-2.1504264,5.0,-4.1950116,1.466866,5.0,-0.57266873,1.1091917,1.390198,0.09950203,2.0215335,-4.0608754,-0.5847699,5.0,-5.0,1.5167973,2.3150635
1.9098125,-5.0,1.3659147,0.05282641,5.0,-5.0,-3.991757,0.120171785,-5.0,5.0,-5.0,-4.7905474,5.0,-0.12634528,1.172838,2.5143566
-2.5808978,-5.0,5.0,-3.1802526,5.0,-5.0,-1.5490994,3.1350384,1.4250418,5.0,-5.0,-2.691131,-0.57562566,4.7035837,-3.023295,-0.8181416
-5.0,0.5674013,0.84057766,2.851521,-5.0,4.7279515,0.6084014,0.7841685,5.0,0.8933381,2.1837864,2.5775943,-5.0,-5.0,-0.2345593,-2.613031
-1.1305645,5.0,-2.9924567,10.0,-5.0,1.6580739,-0.45114088,-2.2657635,5.0,-3.2294536,5.0,-0.89712656,-5.0,-5.0,-3.9424262,-3.4264178
-3.6198351,5.0,-4.9151335,6.216748,-2.2753887,-0.6975689,-2.0669737,-0.059245434,5.0,-5.0,4.3395143,1.2046391,-4.4586678,-5.0,-2.5665932,5.0
-3.0765924,5.0,-4.067134,-10.0,5.0,-0.98444796,1.7368385,1.9734161,-0.52803767,1.5273015,-3.5093336,-0.81398183,5.0,-5.0,2.1430755,3.1308565
1.3616213,-5.0,2.033246,-0.10364816,5.0,-5.0,-5.0,3.4313414,-5.0,5.0,-5.0,-6.547355,5.0,-0.39518833,1.0767944,2.5283844
-1.5823808,-5.0,5.0,-0.17069228,5.0,-4.7698345,1.521054,4.6045446,0.8553421,5.0,-5.0,-0.13319361,0.8425702,3.1341941,-0.40884542,3.713875
-5.0,-1.1522734,3.7510042,0.5971561,-5.0,4.2909517,0.2607453,-0.77567565,5.0,5.0,2.1950722,-5.198387,-5.0,-5.0,-3.6140413,-5.0
-0.5377508,5.0,-3.9309886,3.6306133,-5.0,1.5539161,0.501461,2.6074533,5.0,-2.274324,5.0,0.13882409,-5.0,-5.0,-0.31885755,0.817307
-1.0869961,5.0,-5.0,-8.8294935,5.0,-1.1124716,-0.812866,-0.2476167,5.0,-4.5903687,-2.6204698,-0.13092889,-0.3829021,-5.0,-1.0021678,-3.2741666
1.9999595,-5.0,0.7974962,0.5395816,5.0,-4.0515428,-1.301738,2.0194156,-5.0,5.0,-5.0,7.0597963,5.0,-0.5563414,-0.35155702,-0.18140775
-3.4765973,-5.0,4.718797,-0.74108577,5.0,-5.0,1.2834351,-0.023956299,-2.3694308,5.0,-5.0,-10.0,-0.76637673,3.6838653,-2.1169975,-3.8466668
-5.0,0.3814094,2.0225272,-0.108400784,-5.0,2.6216254,-0.6450207,-2.4932408,5.0,2.9104645,2.4846764,-6.447396,-5.0,-5.0,-2.591909,3.409883
-5.0,5.0,-3.9491682,1.7007649,-5.0,0.28520715,-2.0132499,-2.9372382,5.0,-1.835302,5.0,-0.24099767,-5.0,-5.0,-4.1644907,5.0
-1.4378028,5.0,-3.3859227,4.059382,-5.0,-1.4467967,-3.0131629,-4.1704254,5.0,-3.994898,5.0,0.27839854,-5.0,-5.0,-3.441876,2.6413345
0.04289961,5.0,-2.654159,-4.224617,5.0,-3.8311987,-4.866746,3.3180976,0.5230957,0.31280613,-4.439499,-0.8877904,5.0,-5.0,1.5115023,-0.24246116
1.3379498,-5.0,2.0783393,0.2838514,5.0,-4.110357,-2.834732,-0.11290786,-5.0,5.0,-5.0,-9.857319,5.0,-0.5887152,0.9417052,0.2759716
-3.2350166,-4.133519,5.0,-1.029647,3.581262,-5.0,0.47128466,-0.8674762,1.5453752,5.0,-5.0,10.0,-0.65107435,2.7745721,-1.1831176,5.0
-5.0,5.0,0.4514004,0.087580204,-5.0,2.3511224,-0.4192809,1.590022,4.38016,2.2207842,5.0,0.435142,-5.0,-5.0,-1.7746902,0.7754364
-2.3751347,5.0,-1.683458,0.48910308,-5.0,-0.3046415,-2.6200552,-3.0767019,5.0,-5.0,5.0,-0.49741596,-5.0,-5.0,-5.0,-3.5371335
-3.7074542,5.0,-5.0,-6.7731524,5.0,-0.58705294,1.0094404,0.656051,1.1102389,-1.5293837,-4.0172834,-0.720412,5.0,-5.0,-0.17930079,-5.0
1.3182225,-5.0,3.9625916,-4.84832,5.0,-5.0,-0.86971843,2.2523193,-5.0,5.0,-5.0,-6.8551607,5.0,2.6827207,0.27934742,-5.0
-2.6346688,-5.0,5.0,-0.20324293,5.0,-5.0,1.5289015,5.0,1.4701208,5.0,-5.0,10.0,0.4212325,3.5955884,-0.9347472,5.0
-5.0,-0.6257365,3.2707474,0.68653256,-5.0,3.3613694,0.20796335,-0.45936725,4.8005223,2.7183182,0.45556307,-3.5597827,-5.0,-5.0,-3.2289934,-4.224687
-0.6728943,5.0,-3.931778,-3.582118,-5.0,1.9360179,-0.25689578,-2.1314297,5.0,-2.01619,5.0,0.33348745,-5.0,-5.0,-4.3942795,2.9434462
-3.5262327,5.0,0.68953615,1.2938838,-1.3919393,-5.0,2.5865183,-4.7096286,0.17509012,-2.287931,0.22901216,3.529924,3.9444125,-5.0,-5.0,5.0
-0.47233737,-5.0,3.463052,10.0,1.669199,-5.0,-3.153037,-4.542783,0.46394706,-0.9689398,-5.0,2.1840312,3.3031673,-5.0,1.9859784,1.2897637
-5.0,-1.9006093,1.7320681,0.03772557,-2.7301252,-5.0,4.7725782,1.3780985,0.89039326,-0.34072554,-2.8643587,10.0,0.8935685,-2.4294643,-4.235095,5.0
-5.0,5.0,-3.4972947,-0.18368745,-1.2076689,-4.777087,1.6331483,-3.2087173,0.19048238,-1.8175104,3.8830693,0.38093853,2.9913466,-5.0,-5.0,5.0
2.0227327,-0.79135466,2.3596702,4.1505632,5.0,-5.0,-5.0,-4.414397,0.46968573,3.7895398,-4.025931,-0.20856419,1.4397628,-5.0,2.634088,0.58094114
4.398699,-2.8481495,4.2959833,0.16409412,5.0,-5.0,-5.0,4.515239,-2.603791,5.0,-5.0,2.4624438,2.6845765,-5.0,5.0,0.47234654
-1.1179554,-0.36156714,5.0,0.15920441,5.0,-5.0,-5.0,2.2287514,4.641153,5.0,-5.0,-6.0094433,0.9102268,5.0,5.0,-0.22705923
-5.0,3.7150528,-3.8358264,-0.67308927,0.17106313,-5.0,-0.37780845,-0.33465177,-0.2882923,5.0,-2.97782,-2.9065523,-5.0,5.0,-0.09370902,0.9995968
-5.0,5.0,-5.0,3.5559661,-5.0,0.6679573,1.9666755,3.0048664,-5.0,5.0,5.0,0.09785542,-2.0878506,-5.0,-5.0,-5.0
-5.0,5.0,-5.0,-4.320595,-0.16942373,0.010290444,1.7783456,0.34167284,-1.5746003,-3.7070048,5.0,-0.42656875,-2.7873313,-5.0,-5.0,0.94503105
-0.21898192,5.0,-5.0,4.216139,5.0,-5.0,-5.0,-5.0,2.17106,0.2898546,-0.70694184,-0.44332996,-0.21932894,-5.0,-0.8054075,-4.9613123
3.456164,-1.3994111,1.4146489,0.5526904,5.0,-4.844871,-5.0,-5.0,-0.08873114,5.0,-5.0,-1.2841774,3.6630058,1.572503,4.3192873,-0.37117872
-1.056683,-3.1934118,5.0,0.2145418,5.0,-5.0,-5.0,-4.64616,4.8834114,5.0,-5.0,-0.90414536,0.227216,5.0,5.0,-1.465827
-5.0,-0.40752006,1.33776,2.2716374,4.456456,-5.0,-2.1420727,5.0,5.0,5.0,-2.64603,-4.4223804,-3.1316607,5.0,2.982576,-0.10349285
-5.0,4.7462354,-5.0,1.5527174,-5.0,1.5970048,3.3245378,0.7490274,-3.23349,0.94585145,3.5433583,0.15323284,-5.0,-5.0,-5.0,-5.0
-5.0,5.0,-5.0,-3.7571158,4.200055,-3.8938053,-3.9042046,-2.6136034,-0.32153678,-5.0,5.0,0.095312566,-2.8393128,-5.0,-5.0,-3.1410544
5.0,-2.1597195,3.7028308,4.483969,5.0,-4.3188343,-5.0,5.0,4.8967257,5.0,-5.0,9.824233,5.0,-5.0,2.499303,0.7437496
1.9326853,-2.6350882,2.9726212,-0.8326984,5.0,-4.041073,-4.4807744,-5.0,1.2516683,5.0,-5.0,-0.6178018,5.0,-1.3712065,4.067228,0.50938684
-1.1559064,-2.6202865,5.0,-2.2206373,5.0,-2.7155182,-3.9992628,5.0,4.9471126,5.0,-5.0,10.0,-0.58140457,5.0,5.0,-0.20613514
-3.9671516,4.2952714,-2.4555907,-0.098239556,5.0,-5.0,-2.5458932,0.3781072,5.0,5.0,-3.0724525,3.2232118,-3.6650803,5.0,3.521861,0.28958854
-5.0,5.0,-5.0,-0.85793877,-5.0,0.53724617,1.4380598,-0.84497434,-2.5639725,5.0,1.3541502,6.5289016,-4.730054,0.40460002,-2.9557776,-0.4268205
-5.0,5.0,-5.0,6.592649,1.0082629,-0.583938,-1.006854,-4.7566085,-3.3204036,-3.5131948,5.0,0.5366341,-3.9898434,-5.0,-5.0,-4.927903
-4.279222,5.0,-5.0,-4.1926446,5.0,-4.1276493,-4.1246257,1.1164112,3.4228687,-2.61589,2.0454366,-0.46977514,-0.6773347,-5.0,-0.5600382,-5.0
1.8648133,-2.559361,0.95235384,0.5373567,5.0,-0.9594543,-5.0,5.0,4.0981283,5.0,-5.0,-9.40032,5.0,-1.219509,0.77160215,-0.4470957
0.23512816,-3.314882,4.59722,-0.80413663,5.0,-5.0,-5.0,2.9080665,2.6026928,5.0,-5.0,5.896531,-1.2643923,5.0,5.0,-3.6563847
-2.7102263,1.8973064,-0.014748454,0.132016,5.0,-5.0,-3.509416,-2.2865415,3.8638587,5.0,0.28625035,3.006871,-2.422875,5.0,3.2011592,0.76690626
-5.0,5.0,-5.0,8.359804,-5.0,1.0630604,2.7766764,-0.67182094,-5.0,5.0,1.5269115,0.26697192,-5.0,-1.9194529,-5.0,0.16752636
-5.0,5.0,-5.0,-2.5989866,-3.1557891,0.7427759,1.0973666,5.0,0.3800212,-1.8007791,5.0,-0.15742575,-3.925153,-5.0,-5.0,1.7095988
-5.0,5.0,-5.0,-2.2478032,5.0,-3.8886738,-3.5170522,-0.21529126,3.6254497,-5.0,1.0380639,0.7885373,-0.31712902,-5.0,3.353006,-3.1553032
2.5495858,-1.5840018,0.2277273,1.2099013,5.0,-3.7030518,-4.878598,-5.0,3.1050942,5.0,-5.0,-2.3936338,5.0,-2.6698868,1.4025488,0.3138672
1.0098822,-5.0,5.0,-0.5157792,5.0,-3.4801233,-5.0,4.7199616,3.2744179,5.0,-5.0,-8.096879,5.0,5.0,5.0,-0.45298257
-0.6407789,-3.9694524,4.3839817,-1.0589439,5.0,-5.0,-5.0,0.42755067,5.0,5.0,-3.516425,0.37497306,0.7708199,5.0,5.0,-1.5337738
-5.0,4.7671742,-5.0,10.0,-1.063674,0.6463361,3.291847,2.2285757,-2.5103712,5.0,1.9552587,2.7478256,-5.0,5.0,-1.0282617,-0.6191726
-5.0,3.7632782,-5.0,10.0,-5.0,3.8523057,2.1950886,0.5974759,-0.79424953,0.1207006,4.2160482,-1.0274136,-5.0,-2.8497767,-4.4618783,-0.90268326
-5.0,5.0,-5.0,-3.500722,-0.8831166,3.2653952,1.9878582,5.0,1.8988135,-5.0,5.0,-1.3147155,-5.0,-5.0,-2.8618627,-0.81497
-4.8317,5.0,-5.0,3.6540766,5.0,-1.9672458,-0.63395965,0.5258049,4.1650567,-1.0520487,0.41975284,1.9386624,1.9445553,-5.0,3.5365384,-3.8724418
1.4497304,-5.0,-0.29074728,0.10819098,5.0,0.8199891,-3.3462925,5.0,0.46862894,5.0,-5.0,4.2137046,5.0,-0.32279968,1.2147865,-0.08190671
-0.13364965,-5.0,4.0042453,-0.29020795,5.0,-3.979338,-3.175436,5.0,0.3653984,5.0,-5.0,10.0,5.0,5.0,2.1151495,0.33675745
-5.0,-5.0,5.0,-0.070827484,-5.0,-1.3799741,-1.7540362,-2.4367232,3.396306,5.0,-3.7398686,7.669309,-5.0,2.609971,-1.4175363,-2.4698792
-4.3533735,5.0,-5.0,-0.014759541,-5.0,5.0,-0.32902598,0.5732687,5.0,-0.573911,5.0,0.16415045,-5.0,-2.6659727,-3.4949565,2.2978487
-3.947595,5.0,-5.0,10.0,-2.438325,2.6493926,-0.87126094,-2.642179,5.0,-5.0,5.0,1.3475156,-5.0,-3.084683,-1.0068128,5.0
1.0241609,0.36570477,1.4156156,10.0,5.0,-0.48445272,3.2640214,-0.44948626,-2.0542483,3.0864604,-5.0,0.07077831,5.0,-3.8432617,1.6840343,1.4180241
1.286865,-5.0,0.9818778,2.54756,5.0,-5.0,-1.1851525,-5.0,-5.0,5.0,-5.0,2.2172048,5.0,3.4489522,0.21697426,0.062027544
-4.474517,-5.0,4.715247,0.0036722792,0.5962864,-5.0,3.0518293,-5.0,-0.032527864,5.0,-5.0,10.0,0.44584912,2.0486841,-2.2147653,1.8817898
-5.0,5.0,-1.2322662,1.2239184,-5.0,4.176733,-0.5345125,-0.043173887,5.0,-0.64353263,5.0,0.92598677,-5.0,-5.0,-2.8790793,4.821238
-1.9576662,5.0,-1.5376577,10.0,-5.0,0.45561814,-1.5825361,-1.3617084,5.0,-4.511585,5.0,0.091192976,-5.0,-5.0,-0.9591702,-2.7725046
-1.8239615,-1.3482912,4.007779,10.0,5.0,-1.3778812,3.0309339,0.74340653,-2.940775,2.8400168,-5.0,-6.7552996,5.0,-5.0,-0.6715858,-0.22122085
0.70052594,-5.0,0.8678752,2.3894587,5.0,-5.0,0.34013718,-2.6407814,-5.0,5.0,-5.0,-1.3396571,5.0,2.4552717,-0.906706,-3.7347465
-5.0,0.024180293,5.0,-1.9495986,-5.0,3.8293285,3.6578627,5.0,5.0,5.0,-0.67549396,-10.0,-5.0,-4.9066873,-0.01741755,1.6003273
-5.0,5.0,-2.1975951,-2.5289705,-5.0,-1.0395288,-1.7371627,-0.35633045,5.0,-3.8620102,5.0,0.41384247,-5.0,-5.0,-1.1391448,-3.666748
-1.7408696,5.0,-1.5013635,10.0,-5.0,-0.47420466,-1.9405174,-1.9431678,5.0,-3.4228637,5.0,-0.015279267,-5.0,-5.0,-2.0787218,0.30456495
2.2951245,-0.9561384,2.8115525,10.0,5.0,-0.26472127,2.1433847,0.79842806,-2.3708034,4.1744823,-5.0,-5.50755,5.0,-5.0,-0.43103075,0.6486554
0.62931484,-5.0,0.8619559,0.692325,5.0,-4.853195,-3.0301838,2.1381736,-5.0,5.0,-5.0,5.673254,5.0,1.3369071,0.28279948,0.16535862
-5.0,-2.8693836,5.0,-0.58925414,-5.0,0.6242609,2.7230492,5.0,5.0,5.0,0.52984226,10.0,-5.0,-2.1606867,0.33201957,-0.82704186
-5.0,5.0,-2.634543,-7.062773,-5.0,1.0732077,-1.2363024,-3.9610202,5.0,-3.1901221,5.0,0.11763239,-5.0,-5.0,-0.05948049,3.7467666
-2.8513498,5.0,-2.2060878,7.395443,-5.0,-0.14632356,-1.6084781,-1.965823,5.0,-5.0,5.0,0.2948093,-5.0,-5.0,0.088874936,1.1689167
-1.6954575,5.0,-1.5380819,-0.4994401,5.0,0.08903611,2.5544848,0.97792554,0.16349202,-0.5892421,-2.7081804,0.20495835,5.0,-5.0,0.5360942,-0.11498223
0.63574046,-5.0,0.1650281,0.14603081,5.0,-5.0,-1.362592,-5.0,-5.0,5.0,-5.0,1.7602668,5.0,3.6405234,-0.3842902,0.061815903
-5.0,-0.62025905,5.0,-0.57044804,-5.0,1.3642268,-0.30740392,-2.5506756,5.0,3.545552,3.5838299,3.118158,-5.0,-5.0,-3.9048624,2.5527499
-3.2191339,5.0,-0.42392075,-1.9076672,-5.0,2.1289341,-0.7686895,1.7158206,5.0,-1.8221878,5.0,-0.847279,-5.0,-5.0,-3.229059,5.0
-2.8612356,5.0,-5.0,10.0,-1.0968944,0.5850519,0.61387837,1.9820759,5.0,-4.724687,3.1970985,-0.52950776,-2.5079124,-5.0,0.8380882,5.0
2.008992,-5.0,2.9974935,-0.71480674,5.0,-4.8842163,-0.01483655,2.4723225,-4.2562275,5.0,-5.0,2.1125972,5.0,-5.0,-0.897907,-1.5046641
-1.4058391,-5.0,3.051736,-2.5467155,5.0,-5.0,1.6146164,-5.0,-3.3655229,5.0,-5.0,3.164082,5.0,4.08562,-1.6929549,0.2396453
-5.0,-3.1567867,5.0,0.3942232,-5.0,1.3376169,1.7193333,1.1487035,5.0,2.7812119,1.7029299,6.723723,-5.0,-5.0,-1.9728914,5.0
-4.539237,5.0,-2.8953395,2.2790453,-5.0,1.3126299,-0.90836483,-2.2148473,5.0,-3.388339,5.0,-0.7526292,-5.0,-5.0,-4.3629336,5.0
-2.7683408,5.0,-4.2544713,6.8674536,-5.0,0.051258564,1.9160521,2.28225,5.0,-5.0,5.0,0.64053786,-5.0,-5.0,-0.8871131,-5.0
-2.448019,5.0,-1.997995,-5.092365,5.0,-0.5878378,0.7230959,0.12026743,-1.2685717,2.550051,-5.0,-0.19883966,5.0,-5.0,0.069036245,-1.8428279
0.73367965,-5.0,3.5755744,0.73836166,5.0,-5.0,-2.2177343,-5.0,-5.0,5.0,-5.0,-0.48345208,5.0,4.908461,-0.38201928,0.10392
-5.0,-5.0,5.0,-1.4386648,-5.0,1.2668656,3.342316,1.8644758,5.0,5.0,0.18712533,2.552792,-5.0,-4.304669,-4.7964783,5.0
-3.2573771,5.0,-3.313355,-5.4200435,-5.0,2.3670704,-0.2631544,-0.23020719,5.0,-2.4921126,5.0,-0.29018238,-5.0,-5.0,-1.3505158,-2.8033476
4.126998,5.0,-2.587195,10.0,5.0,0.83607745,0.9831742,-5.0,-0.7023121,-3.4434872,-5.0,4.5772567,5.0,-5.0,2.3984542,-5.0
2.5316987,-5.0,5.0,-0.88596976,5.0,-5.0,-2.545831,-5.0,-4.6183014,5.0,-5.0,-10.0,5.0,0.26305634,-0.61885536,2.5863922
-5.0,-5.0,5.0,-1.4987607,-5.0,-1.7290055,-0.50205207,-0.583741,5.0,5.0,-5.0,-10.0,-3.0526128,0.91787106,-0.5333898,-0.20543644
-5.0,5.0,-4.2946763,-8.550894,-5.0,2.088452,1.8288755,1.9333744,5.0,-3.2400146,5.0,0.335305,-5.0,-5.0,-0.1950795,-5.0
-3.1530013,5.0,-5.0,2.439466,5.0,-1.7956337,1.5631487,-0.18897688,5.0,-5.0,1.5549878,-0.61790675,-5.0,-5.0,3.2430816,-3.8570023
2.0629447,-5.0,5.0,5.110569,5.0,-3.2959964,-1.888908,-5.0,-5.0,5.0,-5.0,-3.7637925,5.0,-5.0,-0.77173185,-0.86417305
0.8723801,-5.0,1.4134597,0.3755987,5.0,-5.0,-2.1575696,2.329398,-5.0,5.0,-5.0,-4.220998,5.0,0.6092943,1.6916766,0.5093147
-3.3727129,-5.0,5.0,-0.06422921,3.3046463,-5.0,0.15964448,-5.0,3.2069812,5.0,-5.0,-7.904688,-0.9187945,3.7660215,-2.0211296,2.7840934
-5.0,2.9671218,0.9680624,-6.251372,-5.0,4.2220955,-0.569108,1.2197125,5.0,0.49458492,1.5465088,1.0483736,-5.0,-5.0,0.29924363,2.9677458
-3.4508731,5.0,-3.8749306,-5.884946,-5.0,0.013494968,-2.497114,-1.753629,5.0,-4.406174,5.0,1.4772573,-5.0,-5.0,-1.6627096,5.0
-2.7150733,5.0,-5.0,-2.1024559,1.5482364,-1.0081487,-2.4154763,0.29455373,5.0,-3.2989807,2.4580123,-0.1392608,-2.9173267,-5.0,0.32169044,1.8503557
3.6384726,-5.0,5.0,-0.73144585,5.0,-5.0,-4.9573355,2.2448444,4.5537925,3.075499,-5.0,2.4402928,5.0,-0.8837195,-2.0553396,-0.38657722
-5.0,-3.270591,3.6128154,-0.6057394,-1.9765682,-5.0,-1.2446554,-5.0,5.0,1.4890014,-3.6603074,-0.39801311,-1.4681895,-4.2414603,-5.0,-0.5889871
-5.0,0.86714244,3.2198188,0.1710689,-3.9755073,-5.0,4.314032,0.4889361,0.103280306,-3.7447424,5.0,0.2024539,2.0985477,-5.0,-5.0,-0.107634306
-1.793741,4.3639865,-0.37106514,0.4940092,5.0,-5.0,-3.1006644,0.574646,1.3408073,-1.4886396,3.027575,10.0,3.6720533,-5.0,-4.798356,5.0
5.0,-2.8922043,3.1457114,-0.22633435,5.0,-5.0,-5.0,-1.8012202,-2.362992,5.0,-5.0,2.2645051,1.9529594,-4.732438,1.8706708,0.19948147
-0.11768827,-0.78803384,5.0,0.45821235,3.4454665,-3.7422752,-3.4691615,-1.5568333,0.61511123,5.0,-4.0305414,5.531514,-2.2179508,2.6609313,-0.2822175,3.633288
-5.0,5.0,-2.2829695,-0.118546076,-2.411271,-2.6464024,2.3854768,2.377527,-2.751291,0.08224079,3.1662626,0.31961212,-2.138665,-5.0,-2.5569088,5.0
0.98215175,2.1673281,-1.8233371,-4.4848356,4.981202,-5.0,-5.0,2.6634047,0.51086724,-0.19710892,-1.0086817,0.048322238,1.0784189,-5.0,0.70162976,0.75801086
4.508143,-2.3656895,5.0,-4.346749,5.0,-5.0,-5.0,-3.0322804,-0.8836263,5.0,-5.0,10.0,3.7197363,3.9750547,4.0423803,-3.2382429
0.83573276,-4.645388,5.0,-0.10214263,5.0,-5.0,-5.0,-1.1603711,0.6450734,5.0,-5.0,10.0,0.16388476,5.0,5.0,-0.6203651
-4.4275684,2.819791,-2.6233811,-0.10950399,5.0,-5.0,-5.0,-5.0,3.8607783,5.0,-1.3870217,-0.43172795,-1.5928259,5.0,2.7974284,-0.41968837
-5.0,4.313793,-2.0703073,0.21209848,-3.2107224,-1.6434003,0.20552719,-0.2621556,-1.9667044,5.0,1.9494017,1.8734292,-2.694352,-0.55025333,-2.8798285,0.70791954
-5.0,5.0,-5.0,3.288948,-0.62033534,-0.90967304,0.41663992,-5.0,-0.18849981,-3.3341532,2.8543525,0.7451997,-2.571332,-5.0,-5.0,5.0
2.780077,1.382192,-2.8882864,-4.3358517,5.0,-5.0,-5.0,-4.597397,3.5194569,4.121406,-5.0,1.0546496,1.2441043,-5.0,1.2777829,2.0838046
2.4490652,-1.6067497,2.327736,0.85903746,5.0,-5.0,-5.0,-1.4079827,1.6999635,5.0,-5.0,-9.1937275,5.0,-1.350517,4.577674,-0.80867445
-0.017064929,-1.7740588,3.5824916,0.75170153,5.0,-5.0,-5.0,2.865623,3.275138,5.0,-5.0,4.837715,1.9761535,5.0,5.0,-0.5502115
-4.240262,1.9497186,-0.7321328,0.61936355,5.0,-5.0,-5.0,5.0,5.0,5.0,-1.8961704,10.0,-0.60529435,5.0,5.0,-1.3591534
-5.0,5.0,-5.0,10.0,-2.831572,2.1745806,2.3611658,-2.4265172,-5.0,1.7033479,5.0,-7.2097616,-5.0,-5.0,-5.0,2.0366576
-5.0,5.0,-5.0,-7.592509,0.80257094,0.04124981,1.868382,0.92586887,-3.027183,-5.0,4.762951,-1.2355053,-5.0,-5.0,-5.0,-5.0
5.0,-5.0,3.8648672,0.695414,5.0,-3.5026004,-5.0,5.0,5.0,0.56717074,-2.6112068,-0.047218636,3.2668023,-5.0,-0.019080043,-0.2602815
2.989396,-5.0,4.4602313,-0.82958674,5.0,-3.6943448,-5.0,4.772483,5.0,3.8843088,-5.0,10.0,0.11763108,5.0,5.0,0.019890673
-0.1643722,-2.0674233,1.7496475,1.3477542,5.0,-5.0,-5.0,-5.0,5.0,3.2472403,-4.0110116,-3.0808454,-4.9791117,5.0,5.0,-1.5562557
-5.0,-1.4383882,0.982872,2.7331967,5.0,-5.0,-5.0,-5.0,4.573039,0.5078158,4.4101086,-2.1712105,-4.213149,5.0,1.665321,-0.32465202
-5.0,3.5178456,-2.6508303,3.3505967,0.10380423,4.651446,5.0,0.85429406,-5.0,-5.0,3.8164873,-1.2494779,-0.14026895,-5.0,-5.0,-4.3075237
-5.0,4.313801,-2.8721395,-1.6773596,0.3534242,5.0,5.0,0.5983627,-5.0,-5.0,0.27046388,0.3702469,0.53925776,-5.0,-5.0,3.944892
-5.0,2.008135,-4.1984873,-0.22724271,-1.9427328,4.5055084,5.0,0.03171631,-3.8402586,-1.3004773,0.5830678,2.3955913,-3.4290211,-5.0,-5.0,4.292699
5.0,-5.0,0.17557332,0.7150115,2.125476,-3.7005115,-5.0,3.8953757,5.0,2.5578063,-0.2338996,-0.33594796,-0.95176023,-5.0,1.2252979,-3.9087257
5.0,-0.9913799,0.89646983,0.3261787,5.0,-1.2652099,-5.0,0.7474637,5.0,3.8200474,-1.0682807,5.5853043,-3.3278384,-0.75665414,2.2444568,0.33868456
5.0,1.7767825,0.2985553,0.41378936,5.0,-5.0,-5.0,-3.3165684,5.0,5.0,-3.4918692,-7.7649345,-3.5051394,4.861028,5.0,0.045983605
-0.6054107,1.59882,1.3006202,4.5625477,5.0,-5.0,-5.0,2.455133,5.0,5.0,-1.4465326,-0.86339605,-3.7194548,5.0,5.0,-1.2822931
-5.0,1.1512084,0.045118928,-1.3569249,-1.5549757,4.5563397,5.0,-0.84349555,-5.0,-5.0,2.1569834,-0.46224803,5.0,3.1954467,-5.0,5.0
-5.0,5.0,-2.7444937,2.6233802,1.0249771,5.0,5.0,-0.15484206,-5.0,-5.0,-0.15123767,-7.092142,5.0,-5.0,-5.0,-2.4150047
-5.0,3.2496672,-2.3848715,-0.15374792,-0.4253056,4.876815,5.0,-1.6124604,-4.5087614,-0.43290508,-1.1731182,0.72969514,1.8139645,-5.0,-5.0,-3.8486004
5.0,-4.746637,0.20014504,-0.5250201,2.0435922,-4.9100094,-5.0,-4.7441425,4.267783,5.0,1.6082861,-0.5234316,-1.0084279,-5.0,1.4007428,-3.0840988
5.0,0.4707023,-1.8036834,0.14828376,4.4517155,-3.279861,-5.0,-2.5763652,5.0,5.0,0.1391862,-0.2722155,-3.5283105,-0.8264432,3.8580654,0.6052422
1.2413523,1.9997855,-0.70179987,1.6076326,2.3982906,-5.0,-5.0,5.0,5.0,5.0,-0.101789415,-1.9565506,-5.0,5.0,5.0,0.6763238
-5.0,-0.23694634,0.018834233,-0.4653054,5.0,-1.2839632,-0.076826334,-0.22305107,-5.0,2.094434,5.0,-1.4546602,0.30551374,5.0,-5.0,-0.8454747
-5.0,5.0,0.79858136,2.8281186,-0.5340538,5.0,5.0,-0.6201911,-5.0,-5.0,-0.25917232,-0.12513947,5.0,-5.0,-5.0,5.0
-0.10791421,1.2142708,5.0,10.0,3.5520883,3.0557876,3.5033422,-5.0,-1.3319855,0.662235,-4.810915,7.9458995,-1.8843819,-5.0,-5.0,-2.0468502
5.0,0.10190797,-1.7349925,0.15076335,1.2522558,-1.5794929,-5.0,5.0,5.0,5.0,0.5081309,0.2922206,-3.212328,-3.346683,4.5479946,0.36664894
5.0,0.6846807,-0.9068134,0.64379644,2.7525024,-3.559871,-5.0,5.0,5.0,5.0,0.50510174,-1.305706,-5.0,3.5608325,5.0,-0.2620407
-5.0,-2.0130095,2.8753223,-0.18010056,5.0,4.7971964,4.294628,5.0,-5.0,0.62169766,3.249535,2.0892596,2.0879445,5.0,-5.0,-0.46949148
-5.0,5.0,-1.1749587,-2.9645565,-0.8265294,5.0,4.6371856,0.60194904,-5.0,-5.0,0.5560784,0.50050324,5.0,-5.0,-5.0,-4.1746893
-5.0,5.0,-1.5856463,-10.0,-0.8248008,4.6161137,5.0,-1.0190278,-5.0,-0.18583035,-1.6836816,-2.4113474,1.8729818,-5.0,-5.0,5.0
5.0,-1.8992412,-0.5788332,-0.027866293,2.1341896,-2.8360186,-2.4609308,-2.4925592,0.85454595,5.0,-0.41500866,0.3219071,-0.18408379,-5.0,1.4882667,-2.9273982
5.0,0.29877424,-0.3630811,0.6358651,5.0,-2.0550838,-5.0,-1.2950234,5.0,5.0,0.38333344,-2.6556325,-3.3187542,-0.1210022,4.3738456,-0.032368973
2.245423,1.0507232,-1.0331435,-0.3791083,5.0,-5.0,-5.0,0.4461279,5.0,5.0,0.19464058,-0.96079373,-5.0,5.0,5.0,0.015792042
-5.0,0.35169518,1.89886,0.40320516,5.0,0.95678943,-0.6612859,-5.0,-5.0,2.346655,5.0,-0.4164623,1.3306048,5.0,-5.0,-0.35204583
-5.0,3.133582,-2.9797008,3.3640554,1.1664692,5.0,5.0,0.9482312,-5.0,-5.0,-0.38987386,-1.1394783,5.0,-5.0,-5.0,5.0
-5.0,4.7528543,-2.537828,5.234473,-1.2561793,4.0772753,5.0,-0.3033745,-5.0,0.2597108,-2.4747186,-0.9503833,2.9379883,-5.0,-5.0,5.0
5.0,-0.89696294,-0.1530155,-2.9031754,2.1264856,1.0447637,-5.0,4.4847813,5.0,5.0,5.0,1.1298362,-3.84773,-2.2028494,3.1805568,0.8287092
5.0,-0.26464412,-1.4090755,-1.6132298,4.037442,-4.6833963,-5.0,0.5886502,5.0,5.0,-0.1018852,0.378958,-5.0,3.5781484,5.0,-0.93727577
-5.0,0.48721164,0.40476334,0.2776545,4.318278,0.79933083,2.1299365,-5.0,-1.475441,5.0,5.0,6.585554,-2.58466,5.0,-5.0,-0.76967657
-5.0,5.0,-1.7841549,1.5812868,1.169401,5.0,3.7838213,-1.18551,-5.0,-5.0,0.8516738,0.32211143,5.0,-3.5667362,-5.0,-4.843531
-5.0,5.0,-0.6556299,1.9816039,-0.39994967,3.8950489,5.0,-1.1782094,-5.0,-0.99587774,-1.6658138,0.07552303,1.9801548,-5.0,-5.0,5.0
5.0,-2.33688,-0.15193504,0.036777373,1.7379295,-2.8840234,-5.0,5.0,5.0,5.0,0.78182006,0.27835163,-0.9773929,-5.0,2.716809,-0.034971308
5.0,0.082693696,-0.06481898,0.57632446,5.0,-5.0,-5.0,1.911385,5.0,5.0,-0.17093158,-2.3404589,-5.0,3.040296,5.0,1.1863074
0.7829646,0.978232,0.11323738,2.0893846,5.0,-5.0,-5.0,-2.511042,3.5857408,5.0,0.30152273,-4.443655,-3.4566698,5.0,5.0,0.31639695
-5.0,2.0883887,0.60424185,-0.7466539,2.6868649,5.0,5.0,0.63282734,-5.0,-1.5639253,0.7330575,0.107440725,5.0,1.7547139,-5.0,0.60906136
-5.0,1.4280673,-0.072772145,10.0,0.19561398,5.0,5.0,-0.9830689,-5.0,-4.344517,0.22865129,-0.53828996,2.8703797,-5.0,-5.0,1.0771452
3.6000566,-2.6021395,-0.8810241,-0.48856023,3.550835,-0.94548357,-4.4450035,-0.46282762,0.91021085,4.9468327,-0.77685606,-0.372035,0.07826424,-5.0,0.9102018,-4.542091
5.0,-0.39981067,-0.1732775,-0.42066383,4.14078,-4.2853384,-5.0,-5.0,5.0,5.0,0.15567523,-2.6999323,-4.6286135,-0.18866694,5.0,0.2509355
0.63556314,0.77671087,-0.834852,0.28808752,3.7315733,-5.0,-5.0,-3.0814266,5.0,5.0,1.5893312,-3.4251423,-5.0,5.0,5.0,-0.24999496
-5.0,-0.5155853,3.2261024,4.2302794,1.4939857,5.0,3.232719,-0.10032498,-5.0,-1.8141804,2.2096193,1.5361276,4.3952045,5.0,-5.0,-1.0883424
-5.0,5.0,-1.9431998,-1.360874,-2.2750046,5.0,5.0,-0.21422757,-5.0,-3.3114812,0.010084063,0.54818094,3.416856,-5.0,-5.0,-4.362639
5.0,-2.9435072,3.3162174,2.0414696,3.2286215,-1.0534205,-2.3045988,-0.64874274,1.3515007,5.0,0.19968677,-0.44995645,0.1621021,-5.0,0.24022198,-4.248597
5.0,1.3466022,-3.3331723,-3.6348655,5.0,-1.6438048,-5.0,3.6955037,5.0,5.0,-2.1315608,-0.4639877,-5.0,2.501579,5.0,-0.1999966
0.46312785,0.36135972,0.040765762,3.6443973,3.6657076,-5.0,-5.0,5.0,5.0,5.0,0.75128996,0.75397265,-5.0,5.0,4.268484,-1.0156274
-5.0,-5.0,1.4517229,-2.072083,5.0,5.0,1.2066123,1.7073693,-5.0,-5.0,1.9117491,0.14645971,5.0,-0.10799134,-5.0,-0.33034277
-5.0,-1.0144233,2.3341677,1.8847619,4.6019797,4.8315487,4.045189,0.87038183,-4.309791,-4.666788,-0.23325932,0.5314338,3.607894,-5.0,-5.0,-4.7361975
5.0,-4.6648316,1.4334154,10.0,2.819857,-3.405355,-3.1664524,5.0,0.9040364,4.334047,-0.39542615,-0.9147049,-0.15444505,-5.0,0.60891557,0.2361589
5.0,1.0274546,-0.774824,-0.7116698,5.0,-2.1503124,-5.0,-5.0,5.0,5.0,0.5424564,-1.248714,-4.332811,-0.44493604,4.00502,-0.7053129
2.7632132,2.886188,-0.08780801,0.24752156,5.0,-5.0,-5.0,5.0,0.77760136,5.0,3.7581935,-4.8093596,-4.5657654,5.0,5.0,-0.8887603
-5.0,-1.0908883,2.7454104,0.17214023,2.3023176,4.0170903,3.3091536,0.844617,-5.0,3.3700504,5.0,-10.0,5.0,5.0,-5.0,-2.735056
-5.0,4.151348,1.7067181,-0.31706464,0.8722228,5.0,5.0,-0.263465,-5.0,-4.657809,0.739897,0.5063848,5.0,-5.0,-5.0,3.4051514
-5.0,4.3040304,-1.023068,-1.0326911,0.5218977,5.0,5.0,-0.18647863,-5.0,-0.14554441,0.11337924,-0.27556217,1.6683697,-5.0,-5.0,1.1194992
-4.2253194,0.95575345,-0.6754012,-4.616788,0.62532014,2.8367746,-0.18409106,0.16784804,-1.7266128,1.429491,-1.3695629,-2.3184946,0.0022753477,-5.0,-5.0,3.316979
5.0,-0.24715531,-0.5401654,0.47860998,0.5701822,-0.11653453,-5.0,-0.1750207,5.0,5.0,-0.8180177,5.8025494,-0.64451814,-0.7064237,2.5984197,0.42509007
5.0,1.1914134,-1.4429693,0.26805928,4.135662,-5.0,-5.0,2.046482,5.0,5.0,-2.6500895,-1.0209839,-4.6600466,4.9302993,5.0,-0.26598307
-5.0,-0.12792611,-4.303341,1.7735558,1.1289288,-5.0,-4.9222608,5.0,2.487144,5.0,0.84531915,-0.3752115,-3.5218031,5.0,-2.1061647,-1.4950782
-5.0,2.6389706,-1.1889254,-4.8620205,-0.49469042,5.0,3.8260846,0.30262795,-5.0,-5.0,0.2225377,0.3695252,5.0,-0.022916287,-5.0,5.0
-5.0,4.073185,0.046618223,2.0947127,-0.028557897,5.0,5.0,-1.283432,-5.0,-5.0,-0.3624426,0.09326414,4.329572,-5.0,-5.0,-2.9340425
-5.0,1.9064088,-0.14969152,-1.1164696,1.6075293,0.7014743,-1.3858619,-5.0,-0.19124174,1.8750176,-2.8276296,-0.56298673,1.3962584,-5.0,-5.0,5.0
5.0,-1.9607205,-0.28034484,0.19883835,1.4354832,-5.0,-5.0,-2.824063,5.0,5.0,0.86670506,0.17989802,-2.447021,-5.0,1.6164597,1.6554085
5.0,2.7726521,-0.67049897,-0.5037572,4.2765493,-2.8826935,-5.0,5.0,5.0,5.0,-1.9483125,3.1611052,-5.0,5.0,5.0,1.0535259
-5.0,0.95420855,-0.85243475,-0.27032387,4.534735,-5.0,-5.0,-5.0,-2.0073652,5.0,5.0,-1.8641837,-4.612502,5.0,-1.6656241,-0.5555868
-5.0,4.938613,3.493926,2.3809125,-0.051460624,5.0,5.0,-1.1341243,-5.0,-4.633543,-1.8989732,-2.6199882,5.0,-5.0,-5.0,5.0
-5.0,4.113751,-2.2050068,-0.10823679,0.82142586,5.0,5.0,1.6594071,-5.0,-2.0521407,-1.207504,-2.1468272,3.0719905,-5.0,-5.0,5.0
5.0,-2.5811205,-0.107254505,0.10940199,1.3896312,-2.7025442,-5.0,-5.0,3.4188645,5.0,0.006985545,0.012351945,-0.6811723,-5.0,0.23175979,-2.741753
5.0,0.26761246,-0.7838264,0.43818462,5.0,-4.0024624,-5.0,1.5227524,5.0,5.0,-0.072237104,-0.63791907,-5.0,0.48915356,4.3092227,0.15308847
0.6945438,1.6107699,-1.5695846,0.237185,4.655117,-5.0,-5.0,2.2943735,5.0,5.0,-1.0906113,2.0157266,-5.0,5.0,5.0,-1.3333235
-5.0,0.46644062,0.8300283,7.6906333,-1.2483705,5.0,5.0,1.436151,-5.0,-5.0,2.7372544,-0.48233816,5.0,5.0,-5.0,0.2724929
-5.0,3.8414254,-1.207898,-0.066447735,0.45970142,5.0,5.0,0.076608665,-5.0,-5.0,-0.1486901,0.2674377,1.7326453,-5.0,-5.0,2.8873744
-5.0,2.923921,-1.9220966,2.5118074,0.9126124,4.2486205,4.604249,-4.644236,-3.928999,0.3083514,-0.8342469,-0.15891951,2.0665007,-5.0,-5.0,4.256092
5.0,-0.54008627,-3.255117,-0.90105236,1.5410483,0.09212124,-5.0,4.519825,5.0,5.0,1.928441,0.33138025,-3.8710809,-2.9310732,2.2324955,-0.02654118
5.0,-0.01093936,-0.7093154,-0.10027108,5.0,-2.4524565,-5.0,-3.6548853,5.0,5.0,2.0436077,-2.7185917,-5.0,5.0,5.0,-0.038218953
-5.0,1.7027471,-0.09432125,4.9560037,1.8215514,5.0,3.1351044,-4.4704556,-5.0,2.0820708,5.0,8.942612,3.7408614,5.0,-5.0,-0.6901491
-5.0,2.8760905,0.99399126,-2.793099,-1.3800223,5.0,2.7960255,-0.023879468,-5.0,-5.0,0.6033851,0.63393027,5.0,-5.0,-5.0,3.99656
-5.0,5.0,-3.9457765,-7.8278255,-0.720175,5.0,5.0,-0.29673114,-5.0,-3.0969963,-0.15866935,0.71222407,0.83392227,-5.0,-5.0,-0.9506441
5.0,-2.128442,1.8180202,1.6029624,2.084897,-1.2831402,-3.9681962,-2.1736193,1.3073546,5.0,0.05875182,-0.47394204,1.0111003,-5.0,2.872642,-4.2496004
5.0,-3.3055851,-0.632005,4.2046437,2.933169,-3.8494973,-5.0,5.0,5.0,5.0,-1.3402804,6.056655,-5.0,-1.2618927,4.956637,0.094745554
0.3423943,1.1768045,0.22230339,3.952189,3.2151055,-5.0,-5.0,5.0,5.0,5.0,1.530302,-10.0,-5.0,5.0,5.0,0.5687615
-5.0,1.2587702,1.2548106,5.644247,0.34018922,4.7588615,4.002161,0.010175467,-5.0,-3.335004,0.8557956,5.9469867,5.0,2.4229918,-5.0,-3.9657993
-5.0,4.493277,-2.0680833,-2.2931533,-0.28958094,3.7179444,5.0,-4.6360407,-5.0,-5.0,-1.0582844,6.2934117,-0.49492645,-5.0,-5.0,-4.4606705
-0.036019325,0.95972145,-1.5776179,-7.6037807,1.6399177,0.21242934,1.1693522,3.333161,1.0146213,3.7263985,-1.0759894,-0.45833984,1.3150064,-5.0,0.37816277,0.2611752
5.0,2.5160847,-3.9543984,-3.3407292,5.0,1.433003,-5.0,-5.0,5.0,5.0,0.3265226,2.2693954,-4.097724,-0.36424768,1.6314248,2.2822428
-1.9562763,0.5742731,-3.2391763,-4.3074126,0.5570949,-4.3621325,-5.0,5.0,5.0,5.0,-0.4280606,-8.834067,-5.0,5.0,5.0,0.5912668
-5.0,-1.3807604,2.0746727,10.0,5.0,1.9469517,-0.8082181,-5.0,-5.0,0.7965044,3.9321046,-0.37223864,0.57077265,5.0,-5.0,-0.58211195
-5.0,5.0,-1.1499639,0.9280108,-0.40170956,5.0,5.0,0.94177806,-5.0,-5.0,0.029877812,0.80641717,5.0,-5.0,-5.0,-2.821857
-5.0,5.0,-1.262351,0.25374293,-0.8662387,5.0,5.0,0.09051992,-5.0,-0.6149564,-1.4994341,-1.9572203,2.2377377,-5.0,-5.0,2.0855637
5.0,-0.97808063,-2.583818,-2.719803,-1.1354837,-2.9176486,-5.0,2.2827353,5.0,5.0,4.842365,1.179992,-2.6263576,-5.0,2.7316446,0.078429595
5.0,1.2595578,-0.27200568,-0.6849782,5.0,-1.8658262,-5.0,5.0,5.0,5.0,-0.6809809,-2.2218964,-2.8654952,3.3649673,5.0,-0.08383287
-0.08090639,-0.10063459,-0.09741104,0.3382153,3.4301982,-5.0,-5.0,5.0,5.0,5.0,3.153427,3.0293868,-5.0,5.0,5.0,-0.47623506
-5.0,0.8356668,-0.64011,-2.041479,1.3460588,5.0,5.0,0.005057728,-5.0,-3.4598489,1.3931863,-0.35319442,5.0,3.6022885,-5.0,0.7770449
-5.0,4.1578074,-1.6454476,0.5602137,1.2554567,5.0,5.0,-1.2538385,-5.0,-3.5158613,0.11111498,0.3614919,5.0,-5.0,-5.0,0.74044895
-5.0,3.0169284,-0.7120162,10.0,1.4721607,2.6746883,2.5702412,-0.76264113,-1.146656,0.06744373,-2.021967,-0.25557485,0.70849395,-5.0,-5.0,2.4121509
5.0,-0.17219967,-1.042074,-1.938633,3.232167,-3.0941782,-5.0,2.1690302,5.0,5.0,-0.1194855,2.3514829,-3.4561567,-3.8527963,4.706259,-0.0677907
5.0,-0.27270454,-0.8897468,0.57211965,3.2799735,-4.185814,-5.0,5.0,5.0,5.0,-0.19532353,-0.5552547,-5.0,3.8803916,5.0,-1.0841974
-5.0,-0.17823684,2.0315106,-4.4333076,5.0,3.0066073,1.8770986,-0.64225674,-5.0,1.0399693,0.67196107,-8.347298,3.4128153,5.0,-5.0,-0.23008865
-5.0,2.407095,0.72460526,-2.0716534,1.0114062,5.0,5.0,-0.78217524,-5.0,-5.0,-0.26551938,0.3819371,1.5451434,-5.0,-5.0,-1.3306813
-3.733605,5.0,-0.7993135,-6.8755226,1.520331,2.7889965,5.0,-4.681969,-4.3747883,1.1460643,-1.4442242,2.3920805,2.9272385,-5.0,-5.0,-5.0
5.0,0.9967909,-2.975974,-1.9245824,3.361115,-1.8390048,-5.0,-0.1450324,5.0,5.0,0.61488414,-4.4939747,-1.2316675,-2.1051264,3.367456,0.17711289
5.0,-0.30510795,-0.055674195,-0.4984416,5.0,-3.430988,-5.0,-5.0,5.0,5.0,1.3496264,-4.618684,-5.0,4.2857695,5.0,0.9060006
-5.0,-0.2100048,1.1518091,-0.53467333,2.4058132,3.6695995,3.4148395,3.1144273,-4.039638,5.0,4.449724,-7.3037944,1.186584,5.0,-5.0,-0.5159287
-5.0,5.0,-0.81954116,6.195787,2.5977213,4.3877897,2.2379718,-0.834791,-5.0,-2.8247406,0.23825845,-0.243082,2.63014,-5.0,-5.0,0.26952314
5.0,-4.8752904,-2.0526114,-3.9465642,2.319437,-3.6992247,-5.0,-5.0,5.0,5.0,-3.2906244,1.9255784,1.6915365,-5.0,5.0,-3.5315309
5.0,-1.3606126,-1.7451389,2.8864985,3.7985077,-3.274877,-5.0,5.0,5.0,5.0,-1.4292529,2.4159787,-5.0,1.4375403,3.442514,4.4137735
-0.16233134,0.545594,1.3123797,4.4375405,3.5695524,-4.108254,-5.0,5.0,5.0,5.0,1.7129297,0.42853713,-3.694171,5.0,2.39299,-0.91357017
-5.0,0.5731673,0.44856477,-1.1844993,-1.6231657,5.0,5.0,0.28159365,-5.0,-5.0,1.125673,-0.4717796,2.578744,-0.06699857,-5.0,5.0
-5.0,5.0,-3.6068065,1.769906,1.1817605,4.5607133,5.0,1.1132336,-5.0,-2.7948017,-0.70339894,-3.3453603,3.051147,-5.0,-5.0,4.2252283
5.0,-1.0539508,-0.9012685,-0.29595423,4.2452493,0.49768806,-3.6946068,4.870235,3.7016053,5.0,-2.014175,-0.8453642,0.22974038,-5.0,1.1280587,1.189941
5.0,0.48868847,-2.9190395,-3.3295212,5.0,-3.8371317,-5.0,0.10063434,5.0,5.0,0.435203,-0.32129633,-5.0,-1.3596672,4.745304,0.6588275
0.83040833,1.2892214,-1.3133712,-0.28550586,4.7273207,-4.294145,-5.0,5.0,4.636615,5.0,-1.3928859,-7.8182807,-5.0,5.0,5.0,-1.4610236
-5.0,-2.5810504,2.4869885,-0.18244392,3.7261274,-0.3427168,-0.49428284,-3.7049003,-4.131535,5.0,5.0,4.889594,-0.011259427,5.0,-4.999938,-0.7069633
-5.0,3.9063313,-0.25360942,-2.2270832,0.72784376,5.0,3.5250669,0.7375476,-5.0,-3.986603,0.577063,-0.22728418,5.0,-3.9012117,-5.0,-3.0403805
-5.0,3.9329739,-2.2850423,2.5098424,0.7013774,5.0,5.0,-0.04354096,-5.0,-1.1344649,-1.4689817,-2.1920085,0.19024396,-5.0,-5.0,4.32071
4.2473745,-2.5042305,-0.17920601,0.26289147,3.954401,-1.6093191,-5.0,5.0,2.9493976,5.0,-1.0543827,-0.08229303,0.48855087,-5.0,1.535682,2.4561698
5.0,-0.10445869,-0.6335201,-0.27364078,4.358325,-3.2129126,-5.0,0.40557337,5.0,5.0,-0.32596782,-3.8768973,-4.1688766,1.2091372,5.0,0.32658038
-1.048013,1.7063816,0.86619806,2.142992,3.505881,-5.0,-5.0,5.0,5.0,5.0,2.8083277,1.5513824,-5.0,5.0,2.918995,0.29478282
-5.0,-1.6095169,2.9959383,10.0,-0.014388442,5.0,5.0,0.06775837,-5.0,-4.290277,0.9886364,-0.3575006,4.2562113,2.5050642,-5.0,-2.2660933
-5.0,4.9212503,-1.8062782,-4.6683817,0.90635204,4.8244443,5.0,-0.15007539,-5.0,-3.2223082,0.45154452,0.63605016,4.385828,-5.0,-5.0,5.0
-3.8944964,1.8655483,-0.86119056,5.0418177,0.77255464,1.4650724,1.8219055,-0.15132897,-1.4561768,1.7071402,-0.6326312,2.0344162,1.3114481,-5.0,-5.0,5.0
5.0,-0.87565887,0.5272889,-0.08827408,2.472314,-5.0,-5.0,-3.4302197,5.0,5.0,0.37738478,0.61098886,-2.2502658,-5.0,3.6660168,0.28252256
5.0,1.872693,-0.9392588,-0.80616564,4.742242,-5.0,-5.0,-4.729195,5.0,5.0,-2.5388706,-8.364585,-5.0,5.0,5.0,-0.73949325
-5.0,0.427868,2.5217137,-0.23835331,4.065989,-4.0050387,-4.818144,5.0,2.1895094,5.0,5.0,-10.0,-0.64459944,5.0,-0.53436697,-2.2305412
-5.0,0.40441352,1.1241256,0.7379432,1.1970168,4.9564505,5.0,-0.2362771,-5.0,-4.0685163,1.479553,0.38735783,4.04427,2.0671997,-5.0,5.0
-5.0,5.0,-2.2962081,-3.760539,-1.5399778,4.5143194,5.0,-0.8409905,-5.0,-1.3491921,-0.17590177,1.4581566,2.6535997,-5.0,-5.0,5.0
5.0,-0.64632416,4.247983,-4.9803147,2.182617,0.7603134,2.3706129,3.9051688,0.34785235,5.0,-1.033181,-0.13036206,0.385988,-5.0,-1.3128926,-4.595337
5.0,-0.4012676,-0.41248107,0.29751384,5.0,-1.445745,-5.0,-2.2286234,5.0,5.0,-0.109244466,0.89502096,-4.6339707,-0.97354746,4.022247,-0.2055539
5.0,0.2885033,-0.59268117,0.5508411,4.42817,-4.868247,-5.0,-5.0,5.0,5.0,-1.8921498,-5.2781897,-5.0,5.0,5.0,0.9748047
-5.0,1.7200729,1.7736125,-0.5440741,5.0,3.1204047,1.8211462,-5.0,-5.0,5.0,5.0,-8.545275,3.494403,5.0,-5.0,-0.40102082
-5.0,5.0,-2.0895016,5.099329,1.1019502,5.0,4.9484587,-1.0966165,-5.0,-3.6783743,-0.049882233,0.4105355,5.0,-5.0,-5.0,0.9907278
