ancorasir/BennettWheelLegRL/experiment_data/2024-02-13_04-15-45/joint_vel_env0.csv
Joint_1,Joint_2,Joint_3,Joint_4,Joint_5,Joint_6,Joint_7,Joint_8,Joint_9,Joint_10,Joint_11,Joint_12,Joint_13,Joint_14,Joint_15,Joint_16
0.0,0.0,0.0,0.0,0.0,0.0,0.0,0.0,0.0,0.0,0.0,0.0,0.0,0.0,0.0,0.0
0.8566265,1.587873,-3.2959437,-2.8968002e-06,0.8891888,-1.7591327,-3.2849436,-0.001411967,-0.07445216,-1.1209993,3.315343,-0.0011193992,-0.85338885,1.3162491,3.299406,-0.0051070284
0.8750077,-0.47589976,3.9843826,4.737609e-05,-3.695512,1.9700283,4.1164594,1.0404927,0.77984864,0.6102209,-0.42458618,-4.25854,2.8097374,2.1414204,3.3265414,0.06535563
-0.87163943,-1.2373182,-0.030155778,-3.6616577e-05,-0.33132792,-2.5881262,-0.6291633,-1.2937102,0.36581892,1.0208118,0.610422,-5.1804276,-2.651124,-0.4884242,-0.052031633,-0.010784887
-2.2346184,3.7240963,0.014935374,2.4594583e-05,0.95202786,-3.2059965,-0.44099164,-3.8085532,-1.2143357,-0.043724954,1.7498432,0.73417217,-2.610996,-0.38093308,0.023911007,0.011883212
-0.117875434,1.8767074,-2.4139836,0.74629164,2.600517,-3.2318408,1.5561622,-0.94965845,0.38070405,2.51686,-1.8333982,-3.8570693,-2.407689,-0.5202396,-1.1578926,-7.6954956
1.005667,-2.0938833,-0.5116558,12.018017,0.5545923,-1.7506263,-0.015121225,-0.050416175,-1.0800164,0.49961615,3.4830568,-0.059306704,-1.5657562,-1.8684902,-2.9392161,1.8995756
0.9283874,-2.1370196,0.009430647,8.291399,2.5470762,2.9713478,-3.2990358,-0.023222715,1.7014545,-3.1094782,0.34679067,-0.03316566,-2.6325624,-3.0629804,-2.8386726,-18.834011
3.2907128,-3.2764904,3.1677513,4.2246807e-06,-0.6322216,-2.0547416,0.7719225,-7.1296525,0.047294855,1.2494862,1.068434,-5.6468673,3.477623,-1.396659,3.2033815,0.0015168078
-2.4042025,3.2433252,-0.0076376125,1.412277e-07,0.15194549,-2.895156,-2.184504,-14.477833,-0.078121245,-0.76288503,0.41780472,2.8191557,1.4446737,0.9021428,0.025534146,-0.051861376
-3.1810184,-0.23897374,5.103108,0.0018463135,-0.64182985,1.8908308,0.03337705,4.789507,0.9137212,-0.7576913,-1.2281992,4.8109245,-3.3419733,1.4487218,0.13065162,-0.006027907
0.3326359,1.0566342,0.6364115,-1.2413954,-2.4987493,-1.0236474,-0.018011242,0.0085256165,-2.7244856,3.4912264,1.9949636,0.008444963,1.8972061,2.6110358,3.2327836,8.712023
-0.067779504,-1.1014755,-0.23736471,0.20902252,0.23529464,1.5764643,-0.22481033,0.0022031143,-2.6821964,0.5519064,-0.010735685,0.0008647591,0.07934633,-0.08710128,-0.012627274,-0.082357824
1.475072,-2.7767713,0.28483152,9.074137,0.96862787,2.0356174,-0.30873698,7.16963,3.4956653,-3.4040084,0.0014004447,-0.04603482,-3.064204,-3.5302901,-1.3004196,-0.4253732
3.4525955,-0.11415055,0.018866818,-1.0937005e-05,-1.6534628,2.176124,1.138442,8.445222,0.32284164,-2.8694656,1.1494961,2.1749313,2.789258,-5.1874065,0.51205707,-0.04276474
-1.6178212,2.530598,0.01951848,4.7994763e-07,-1.377066,-0.78252345,0.29435968,-2.796847,1.7946919,0.5986309,-1.1688964,0.011387669,3.1750612,0.75795645,-0.07144754,0.0014974289
-3.2436237,0.86369133,-3.3482082,-6.9342095e-06,0.6401414,-1.9247583,-1.5548735,-7.0311794,0.5128825,-0.5408651,-3.845128,0.005291857,-3.9283252,1.3080152,0.3199432,0.00900206
-0.7220961,3.4572878,0.9928876,-1.605731,-2.1950626,-2.7213044,1.7903612,23.394444,-3.156806,3.8170826,4.4703875,-0.017560959,-2.95639,3.7524302,-3.7135928,0.030088844
0.079582095,-2.65684,0.402344,9.530863,3.3654854,1.5184224,-0.02177111,-0.028317448,-0.78687453,-1.424211,0.031715527,-0.047402352,0.013184905,-1.3107722,-1.4960166,-3.6420326
2.8738704,-3.3171756,3.266497,-3.2482221e-06,-0.6133607,2.6519158,1.5419828,7.7916484,-1.6872773,-1.2690399,3.456174,1.5614018,4.1531134,-3.288241,0.5779915,-0.057444796
-2.164155,2.2899764,0.00015256181,-7.384151e-07,-2.4111862,2.768139,1.2947478,8.07339,1.2813267,-1.3815039,0.0612005,4.550763,3.3507986,0.5617953,-0.113458455,0.016969837
-3.2883303,0.63297963,-0.049542993,-3.2899243e-06,0.21092398,-0.5549412,-0.7724027,-0.45360458,-0.1646829,-1.1338444,-1.5704195,6.53493,-3.0851,0.9619927,-0.031134265,0.033500075
-0.19669788,0.90004903,-0.81358886,-2.270617,2.9941032,-2.475038,-4.0727434,0.0038610455,2.396734,1.29588,-4.9837,0.03142014,-3.3340247,3.4427524,1.0139295,0.0068563595
0.18864742,0.53565323,0.27899706,-1.8457808,-1.7130817,0.47000593,-0.012057334,0.009377922,-2.9270754,2.602515,3.362908,0.007230118,-0.09172227,2.3409672,0.23946548,-0.18765613
0.5012492,-1.8331879,0.48057985,12.432426,3.2673397,2.0427074,3.6493216,0.028840542,0.28579977,-1.1185402,-0.029608903,0.039099917,-1.172554,-1.3869917,-1.5960977,-8.359471
3.361644,-1.5710442,3.3214939,4.584261e-06,2.3385906,-3.2429252,-3.0010324,-16.938093,2.5177271,-1.6050978,-3.6795325,0.07877851,3.740652,-3.4354186,2.9614325,-0.057848208
-0.1813789,3.232637,-0.049928747,-1.5646391e-06,-2.2150826,3.0083952,1.9188955,1.700533,2.3328915,0.5393525,-1.9216436,0.46556008,3.4310627,0.65181106,-0.19038239,-0.0123848375
-3.2868824,-0.042175047,-0.009331439,1.0265189e-06,0.4677164,1.5394853,-0.3817953,6.8396254,1.8089379,0.34199905,-4.6809144,0.007731572,-3.53109,1.6241833,0.6402154,0.037888654
-0.9525488,0.06015134,-1.075814,7.7556667,-0.5961658,-3.5128486,-1.7997146,-0.018673897,-2.413271,3.2431347,2.8559003,-0.0403097,-3.3854783,4.1594434,-3.8513153,0.059280727
-0.67081416,2.7456517,0.121019006,-9.913622,-1.075056,-1.0416174,-0.0525136,0.01330971,-2.551458,1.412844,-0.4326766,0.0057411045,-0.24215937,0.938004,-0.88363266,6.301548
0.8335483,0.10609236,-0.313483,6.2917147,2.4417915,-3.4089854,-2.2671812,-5.815422,3.2738845,-3.551989,3.0541773,-0.015827179,2.1816437,-3.2530906,1.6751666,0.05485271
1.363632,0.6740171,-0.017131865,-3.0522817e-05,-1.7725364,2.629635,2.1075706,8.454343,-0.4653126,-2.5259442,2.135129,11.721497,3.1773934,-3.2182984,3.2851813,0.011774946
-2.4133086,2.388622,-0.011883929,4.1719286e-06,-1.3171061,2.762569,0.8489181,-0.08440447,0.47103834,1.938949,1.7891995,0.0020780563,0.26789406,1.3928878,-0.10916294,0.02466046
0.48127276,-0.45802146,0.3800375,0.44801426,0.7800809,-2.391368,0.47908068,-0.6247959,0.79813576,0.21752918,-0.09578395,12.820143,-2.733487,1.8880532,0.16493332,-0.0213737
-2.2279708,2.6965778,-0.035406515,0.9108944,-2.6463737,-1.5219867,-0.70274323,-0.022570971,-3.4004579,4.032829,3.8733375,-0.028835572,-3.0948071,2.400744,-3.5966132,0.012378149
1.8750348,-1.9406676,1.6086266,4.8069305,0.58388644,0.11827406,0.08760265,-0.0095361695,-3.304918,-0.50587595,-0.060262278,-0.013459952,-2.2081525,-1.4409579,-1.5661228,-4.40298
-1.5274615,2.6261015,0.6996524,1.6803646,3.5226831,-2.0595605,-2.8680336,-0.02975683,3.7969067,-3.3976214,-0.08748779,-0.011000231,-2.7023337,-3.408288,-2.986479,-0.010425881
3.352366,1.5179533,-4.81463,-1.0071316,0.4844988,0.010573685,0.46619487,3.025065,-2.9763725,-0.5486597,4.518489,-2.387179,3.756302,-3.3760238,3.3979123,-0.07089137
0.46226725,-0.7938217,-0.075984016,-3.8244793e-06,-1.5585963,3.0137768,1.1535461,0.40859383,1.4338374,0.08378041,-0.9730853,1.1749768,3.4124448,0.6093892,-0.15734497,-0.004221713
-3.4596164,-2.9495592,4.337114,0.0009689331,0.71745074,-2.045603,-2.4218616,-15.489231,0.97583944,0.3776126,-2.6177216,1.678488,-3.5275755,1.4051785,0.06447248,-0.026883379
0.2834546,2.8120856,-0.5449444,-6.813921,-2.8293903,0.45639297,-0.4763751,-0.008718491,-3.3161197,3.4583688,3.8525078,0.01292038,-0.60001117,-2.5556755,-0.3977366,-7.5191336
0.4947213,-1.8105162,0.97885275,2.4233708,1.9521457,2.877469,3.5917387,19.22642,-1.0681189,-1.4539541,-0.046754953,-0.004913807,-0.54628253,-0.787438,-1.890613,-0.15966499
3.4619718,2.058683,-4.342848,-6.408035e-05,1.1564149,2.4534297,0.3307199,4.0362935,2.138817,-2.2550132,-1.8516394,-0.011412591,2.6889744,-3.8068078,4.8507175,0.0042362213
-1.3443668,1.2320045,-0.008273426,1.9204035e-06,-2.151601,2.7752197,1.558171,8.287834,2.004137,1.4145005,-1.3134148,-2.5846229,3.4985492,1.4914324,-0.28609562,-0.01900041
-3.3105452,-0.665853,0.021618038,4.0687723e-06,0.0211294,1.3850622,0.0039231777,8.270544,0.38500458,-0.23421118,-0.95671374,3.201485,-0.31068707,1.7992586,0.009388842,-0.011807626
-2.9820971,2.4360566,-6.802492,-62.436546,0.23167048,0.19638938,-1.0056882,1.1677971,1.2045056,1.2768246,0.55492556,8.224474,-3.6348276,3.5309548,-0.09392688,0.08849383
3.245008,-3.2578049,3.1014454,0.36627793,-2.5084004,0.6659023,-0.169485,0.006941255,-3.306416,1.3085431,3.2541614,-0.01213515,-1.7442878,-0.12172178,-0.4528827,0.1476365
2.6048594,-3.6690345,1.0731496,1.5037328,2.4601943,0.17351495,-0.033202577,0.038101666,-3.2395692,-0.67824244,-0.08140895,-0.017515909,-2.5287907,-0.34741086,-1.5808284,3.887637
-2.2504308,2.2907147,-3.5582976,-46.64148,2.332239,2.5190308,-3.4105291,-0.02764583,3.622459,-3.386529,-2.5806503,-0.06725915,-0.70566416,-3.463354,0.6086587,0.08247971
2.829467,0.036257252,0.051502764,-3.135376e-06,-1.9824991,2.2575402,1.4926506,10.539988,0.23411211,-2.8346062,0.7924149,10.594659,3.1453247,-4.3199816,-0.052863,0.002863668
-2.1345565,2.5242846,0.04303968,-5.0372173e-06,-0.30328226,-2.8121252,-3.5287066,-15.336288,1.27616,-3.136332,-0.5133049,6.509714,3.1274889,0.07478937,-0.011901956,-0.0547892
1.15783,-0.9189074,1.1948504,1.2721913,2.4430676,-3.1928132,-3.2123532,-25.304401,-1.4346349,0.022077799,4.33235,0.38733637,-3.6339092,2.7528114,0.04612878,-0.05970247
1.8833737,-1.601729,1.9811964,3.5314865,-3.1946747,0.8262575,-0.05349374,-0.009171007,-2.9961617,3.6953158,3.563044,-0.013958101,-0.50160813,2.940371,0.057356477,5.566239
1.6097324,-1.5657319,0.85703266,4.237049,3.0497184,2.6890852,2.3749013,23.005806,-1.4997139,-1.2106072,0.018518604,0.0099073015,-1.1624418,0.8503316,-1.6991568,5.865241
1.2321621,1.7468138,-3.529936,-2.7072005e-05,0.07995927,-2.1019394,-0.19548416,-4.9819336,3.3675666,-3.3862581,-0.8635,-0.00848902,2.9011269,-2.9732263,4.251301,0.016540527
0.47593257,0.9979931,-0.00082842354,6.749292e-07,-0.92911565,-1.3098212,0.41007602,-6.654971,1.1188483,1.7099426,0.08066091,-6.5072613,3.462399,0.16197497,-0.039488092,-0.013206165
-2.2632048,3.0196917,-0.00056543027,-9.2571963e-07,-1.8946879,2.8753953,0.90908736,0.5472472,1.8964584,-2.739542,-1.5171715,11.613925,0.850646,1.2130322,-0.014187567,0.028790496
-2.9734027,-2.0306857,-3.403934,-1.0894682e-05,-0.23927027,2.1258223,0.4650905,9.057947,0.69179153,1.7151296,-1.2331272,-8.717931,-3.3022883,2.6266468,0.0026648939,-0.029830072
0.6199657,-0.882197,0.1956482,5.316945,-1.8962245,-2.0703704,-0.11331956,-0.02277917,-3.4760354,3.251115,4.4662046,-0.02397728,0.56154436,-3.0492377,0.91811144,-7.620348
0.4065372,3.0182714,0.2585144,4.666441,0.6378688,0.2692342,0.015546471,-0.009629561,-3.4240253,0.110949494,0.005800128,-0.011331227,-1.3605077,3.018033,-0.4918245,4.504665
1.6220613,-1.6015674,0.22302687,3.5690355,2.9695592,2.624097,-3.3876324,-0.013166076,3.5376399,-3.4410076,-0.0061537325,-0.016255392,-2.708784,-2.6307309,-4.202889,0.027178459
3.277343,-2.1782966,3.3554413,2.261244e-06,-2.0317974,-2.1345725,1.8498236,-8.19083,-0.8880838,-0.8242596,3.0643787,-1.2386225,3.5521214,-3.6811242,3.5665355,-0.009786395
-1.9196565,1.9077741,0.10461903,-5.301463e-07,-2.282468,2.6275713,1.4385735,0.89670634,1.6966871,0.30831322,-0.13788168,0.10659257,3.5489101,0.33532444,-0.0054775625,-0.002540538
-3.4964185,-0.8948697,-0.003803851,0.0012359619,-0.85591084,0.48419285,0.064631626,-1.3140621,1.7878789,1.0388657,-2.179798,-9.643545,-1.9260433,1.4089833,-0.020376861,0.028339252
-1.4369935,1.7531217,-2.120117,-2.6402287,1.6208408,-3.354933,4.0290194,18.064753,2.8250766,2.802564,-4.13291,0.022800673,-3.8298876,3.382829,-2.0202048,-0.006475888
2.011951,-1.2228618,2.0209708,-2.2121472,-0.98923135,1.7434447,-0.0023549893,0.0128656,-3.4272451,1.2749832,-0.21638775,0.0138477255,-2.8836923,-2.6190925,-3.1992173,-7.139801
1.6915206,-1.3996159,1.4135638,-0.32810932,2.4846144,-1.8540301,-0.07415229,0.00060206174,-2.8297024,-1.6614927,-0.06921248,-0.0010891757,-2.1366315,-1.5681521,-2.0943744,0.23226833
0.14748198,0.5017407,0.22354007,-1.2310839,0.07794584,2.3058906,0.06399149,9.069687,3.3336115,-3.4348974,0.6858995,0.0097408295,1.574068,-3.7093382,3.5282288,0.008842409
1.9550356,0.6903568,-0.053673476,-3.3344177e-06,-0.9552629,-2.3190112,-0.05672258,-6.092656,0.44262013,-3.5901194,1.7829652,0.3304975,3.4531453,-3.1702094,-0.06310506,0.017792752
-1.9546711,2.7615411,-9.968167e-05,6.4934625e-08,-1.4818778,0.49130586,0.7704766,0.011333674,0.79471743,-1.5282999,0.20355225,3.2729678,1.2883859,1.360444,-0.022056267,0.036272347
-3.2959647,-0.47350305,-3.3584433,-7.2016137e-06,0.3424695,-1.6232665,1.5690608,2.2935047,0.5162939,-1.4432847,-1.9674497,7.758294,-3.7539358,2.3776953,0.034456626,-0.016979141
0.24666631,1.0037582,4.561346,13.013554,-1.8978493,-1.215893,0.22829221,-0.05092209,-3.4514587,3.5481968,3.5221517,-0.053536348,-1.5170014,-2.5175903,-0.9368877,-6.047305
1.4412732,-1.8094237,0.99822795,5.290485,1.5309075,0.45663613,-0.013927221,-0.014884176,-3.4440608,0.70779634,-0.043059077,-0.040942553,-0.46108615,1.2752712,-0.42978573,4.9427457
0.9913728,-1.0510204,0.3574425,2.9615664,-0.42247403,0.88921094,0.9290897,3.4457293,3.4951632,-3.3761742,-0.66662776,-0.01307265,0.81528884,-2.44517,4.506352,2.9170876
3.1483204,-0.3245955,0.28409755,-2.3765133e-06,-0.5514933,-2.410411,0.7280163,-7.1298075,-1.3107231,-2.896828,2.4242072,0.23486662,3.389655,-3.6017442,3.4674757,0.0026725307
-2.4091473,2.785481,-0.0019581914,-2.6872622e-06,0.29688942,-1.8159769,-0.4353292,-1.0511146,0.36595476,-2.673241,-0.4059668,11.750587,1.3214582,0.3929607,0.011531696,0.030983806
-3.2969248,-0.5287869,-0.015757388,-1.3009667e-06,-0.0056711733,-0.4598425,-0.464292,-1.9422143,2.703041,2.7835102,-6.8817453,-50.38241,-1.890355,0.7587141,0.018078782,-0.0024413094
-2.1531343,3.2300534,-2.317687,-3.0570037,-3.3596592,-3.0193865,-0.006830478,0.012744427,-3.306735,3.8455386,3.693568,-0.010862555,-3.2669177,1.3545973,-3.3418746,0.0017456813
1.2197747,-1.7992809,1.1575158,4.231577,1.5582317,2.3848772,-0.0557563,-0.018140916,-3.3786762,-0.7345429,-0.022501417,-0.02401839,-1.7020743,-1.2667112,-1.8440439,-1.1687816
0.576117,-0.09842008,-0.43901002,1.623928,0.9502123,-1.9664416,-1.0463773,-4.3076677,3.3555014,-3.4434934,1.6177423,-0.0021362305,0.09502523,-3.126142,-1.1454537,0.23279047
2.9579356,-1.8664178,0.02878642,6.109603e-05,-2.155374,-1.749887,1.3002758,-10.216127,2.020649,3.469644,-1.163425,-6.87894,3.793122,-3.250803,2.8995697,0.018575005
-3.2420993,3.047752,0.056884743,-2.9123942e-07,-0.26646206,-0.5936166,-0.78432757,0.30808803,0.36762202,-1.5184216,-0.43672514,3.5358453,-0.2096553,0.64192206,-0.011479072,0.033425573
-3.0794325,-0.7404799,-3.4673736,-9.5474425e-06,1.1184037,0.54320514,0.6626121,0.9391221,0.47438565,-0.6957985,-1.0962358,3.7863498,-3.5076392,3.383781,-0.024254419,-0.0029725279
1.3235844,-2.1046972,1.4189665,10.143053,-3.4177547,-1.7703655,-0.018063717,-0.04196278,-3.6650362,3.6758296,3.6775317,-0.088146135,1.5946357,3.6677783,2.394656,-0.24879432
-2.0167804,2.9227653,-1.8840885,0.28631783,3.7034695,0.4413042,-1.1033573,0.007355448,0.6132724,-1.3036778,0.085007936,0.06202722,0.13711917,1.1904207,-1.2488065,7.0894012
3.2806478,-1.0804926,-1.18157,-0.00081539154,2.2811646,-3.068466,-1.328058,-5.566272,3.214292,-2.70017,-3.5920744,0.056954097,3.710521,-3.3060849,1.19517,-0.04508122
3.0649564,0.21143882,-0.076092884,-4.3494783e-06,-0.07626411,-2.2829785,0.15527621,-9.055399,0.048297018,-2.6164114,0.35141003,8.551454,3.496784,0.006356582,-0.14962643,0.012664946
-3.3059816,2.5996504,0.21758975,-4.6602654e-06,0.21576363,2.0257106,-0.59763896,8.9355345,1.3088286,-0.103244334,-3.7434523,0.0022126958,-1.896211,0.83269715,-0.0020967424,0.00476107
-1.6405991,-1.6793207,-3.4707744,-1.18843445e-05,-0.8700109,-3.2870495,2.7961814,-0.012814809,-0.74287486,2.0727692,-4.7169266,-0.003155252,-3.722826,3.3731284,-1.4778696,0.029990867
0.7121171,0.5475372,1.2144194,-4.538736,-0.3243912,1.4936749,0.27621582,0.00819752,-2.2366765,1.1733128,-0.034055352,0.010256921,-0.10619648,0.13415293,0.027004488,0.33607543
-0.70382285,-2.4731793,-1.0337584,11.86887,2.3956137,1.3601475,-3.2857943,-0.0363654,1.8607665,-3.5059936,0.02363502,-0.06715618,0.54846215,0.6321363,-0.30921078,0.22666055
2.7252648,-1.6156447,-0.06187077,-3.2449807e-06,-1.5089897,-1.8145355,0.9809222,-10.524311,1.4369205,1.054809,-0.27052534,-5.531399,3.4029124,-3.590608,-0.23430562,-0.001900088
-0.7637919,2.601965,-0.0013630092,2.3949606e-06,-1.2524483,0.88767374,0.5424819,2.8593078,1.2419515,0.9438518,1.3740796,-0.21601105,3.0386825,0.4917607,-0.11241022,-0.009864643
-3.3621645,2.1772108,-2.7283099,-2.430598e-06,1.380384,-1.9636312,-1.2656443,-10.689962,-0.20504302,0.4670357,-0.21068883,-3.511924,-3.43693,1.4194854,0.06656337,-0.029862724
-2.2284617,2.6350648,-0.5058634,3.986888,-3.2855482,-3.4369898,3.359678,-0.0017737839,-3.2734778,3.606418,3.5601544,-0.015187569,-3.2477732,2.5961306,-3.5416079,0.020231545
1.5400763,-2.357999,1.239883,5.36104,1.7935793,-0.2590535,-0.69511175,-0.014346674,-3.4768624,-0.1821504,-0.04398656,0.0014278293,-2.3512595,-1.543815,-2.026172,-4.71669
2.9210885,-2.1257124,4.180744,-0.001572486,2.2581296,-3.4602199,-2.1118264,-3.7573738,3.6797059,-3.565557,-3.6477182,0.05198375,1.0005976,-3.2855623,0.5139103,-0.027601395
3.3922894,-0.27772743,-0.07103494,-7.252229e-06,-1.0970303,-2.65942,0.4465528,-6.330907,-0.43836477,-3.0404963,2.8557825,5.432209,3.3374248,-3.7149994,3.769816,-0.007738441
-3.3758323,2.059199,-0.012875836,2.5582322e-06,-1.1676158,3.0226693,1.0687877,3.711595,0.6367888,0.9203307,1.9211515,3.688161,1.4963951,1.5086696,-0.17623663,0.03420812
-3.3726509,1.1335466,-3.1794627,-1.1608464e-06,-0.8652452,1.8077037,0.2589631,5.146469,1.1789346,3.0439,-2.8325858,-4.215227,-3.7146401,2.1326234,0.02466777,-0.02350282
1.3786314,-1.9844208,1.573491,3.6779966,-1.3025339,-1.8588239,1.6917379,-0.023828119,-2.7221353,-0.84257907,3.4953399,-0.019794004,0.05168321,2.1999874,0.1983351,7.522775
-0.3697312,-1.1324036,-0.04928957,0.48907077,4.0464478,1.5188011,0.9250598,6.681944,-1.0950856,-3.5978167,0.067124754,0.05602004,0.4128757,-0.029906794,-1.270594,-0.24948049
3.4041722,-0.12979746,-0.0046730377,1.3338167e-06,1.9030972,-1.6095686,-1.3789335,0.6247466,3.4229887,-0.33661586,-3.4495797,0.04835882,3.5607657,-3.3644087,1.550274,-0.03033179
2.3047884,-2.5773833,-0.07531066,-5.0060826e-06,-0.5057723,-1.5488901,-1.4051504,-2.927586,1.6417916,-2.0227127,-1.2807441,11.8429165,-3.2492242,-0.7990525,-0.14773196,0.04228764
-1.4677799,0.20180649,-0.090528175,-8.945048e-06,-1.2320416,1.5393405,-0.06523776,9.082374,0.5066366,1.0623944,1.671535,0.48289776,-3.6569502,1.7071377,0.030396461,-0.0015529208
-0.115628734,-3.2406063,3.355258,0.15404892,-1.6571841,1.4507244,-0.75879884,9.023204,1.1404712,0.015361041,1.5090785,1.6953831,-3.2409377,3.5080895,0.045302726,-0.018946704
-2.3336394,2.018106,0.2825898,-4.97558,2.898516,-0.9759686,3.329415,0.003473157,-1.8428179,0.8881688,3.5772166,0.004455073,3.5584586,1.8667839,2.7316506,-0.6417568
-1.1323934,-1.1622363,0.049693584,4.1744113,1.7983006,-0.5311619,0.042505033,-0.014846671,-3.2954242,-3.334353,-0.2712283,-0.015736649,1.4797355,-1.438333,-1.5394933,-15.8859005
-2.7491162,0.31460303,-0.93031096,2.8352284,3.3783252,-0.4324618,-0.08262774,-0.0023130972,-3.4557712,-2.328831,4.9844947,0.0103645325,2.3638718,-2.271516,-2.2632592,-11.173275
3.203585,-3.339706,0.15528925,6.0327966e-07,-1.989573,-1.5992934,-0.8346845,-4.0848436,3.0430229,-0.2134341,0.8091847,-0.90044177,-0.71297795,-3.3281271,-0.33004254,-0.0051960982
3.415651,-1.0327249,0.95517445,9.383588e-06,-2.672487,2.2263422,0.018779725,0.88115627,3.2869053,-0.96094,-1.0170565,7.4702682,-3.4181304,-0.51886976,-0.3690508,-0.0074335895
3.7526236,-0.46518382,4.0117884,12.82741,-3.471323,2.0812473,-0.6993705,10.084576,-0.017374218,-0.103120744,4.3747025,0.028491424,-2.9224887,0.93910325,-0.45774227,0.051911104
-2.0053124,2.1876626,1.4555633,-9.995293,3.4522233,-1.3651824,3.4542165,0.022232465,-3.114395,3.5683715,3.4686458,0.034341604,1.8550146,-1.9629333,-0.31082773,-16.318645
-0.67577595,-2.9532204,3.8031485,0.5849191,3.208601,0.39979792,-0.10755783,0.01549463,-3.3737915,-3.233615,-0.6684804,0.030546904,4.008959,1.908004,0.6866596,6.8401318
-2.9793215,0.9912239,-3.9500656,-3.912463e-05,3.3922455,0.17732272,-0.027024522,-0.032635666,-3.4346015,1.0329572,-4.565272,-0.035074234,2.7168727,-0.8572821,-1.0187113,-1.4403437
3.4854167,-3.295834,-0.085282356,3.3837478e-07,-2.1801577,-0.121206105,-0.3956536,0.27943683,2.4818773,-1.2344754,0.024116784,4.4382553,-1.9809889,-3.8405643,-0.38827628,-0.030532815
3.557067,3.3396993,-1.9187328,1.2482904e-05,-3.3713338,2.8699596,-0.61791265,1.5861939,4.205985,0.47070974,-1.7872155,3.442516,-3.5701878,0.37727678,-0.26198202,-0.024225589
-3.0842066,1.4158945,-3.1354094,-1.6921435e-06,-1.6646525,1.3313812,-2.8933468,8.300822,2.928846,2.1577356,-4.487276,0.013750434,-3.8306873,3.2933817,-1.7141718,-0.03714078
-2.6941862,-2.4166238,1.6278818,6.1901946,3.9524484,-0.31260633,0.037043333,-0.012178445,-3.5659382,-3.2612944,2.8198524,0.0038193278,3.6095712,1.1420245,1.686314,5.4605637
-1.0436139,-1.9353042,1.8282461,0.7590639,3.3783014,-0.768142,-0.028127477,-9.134039e-05,-3.492515,-3.0476823,-0.5410919,0.019374777,2.2063534,-0.19885533,-0.8812663,-0.7288711
-3.4883356,0.42314166,1.0849191,-11.587635,-0.14211768,1.7950056,3.3974156,0.009313583,2.7546535,1.4347016,-4.5735855,-0.022188155,2.9940813,-0.30230993,0.0064289197,0.8695399
3.5450625,-3.2648404,-0.59663856,1.01626065e-05,-4.2189174,0.843771,1.6278427,3.4716935,1.6616194,-2.3251925,2.0850048,3.3283906,-3.7006617,-4.5923862,1.3650525,-0.04425979
3.4362493,-0.16103987,1.5049609,1.0059412e-05,-3.136763,1.8227472,0.10841158,7.8058205,3.6456473,-1.2940586,-1.1147685,7.5203886,-3.2185543,-1.0486039,0.075630836,-0.03795996
1.5341295,1.6532568,-0.9588408,0.00046539307,-3.0718243,2.7669744,-1.2603759,6.3500233,3.730604,0.8839193,-1.374478,-1.2300148,-3.453143,1.5585079,-0.06842628,0.03259908
-3.5158167,-2.3203955,3.988439,5.6270976e-05,2.8622172,-2.8622046,0.60384977,-0.24007618,-0.4160735,2.4462738,1.6182312,-1.6774074,1.426765,4.6685696,-4.140806,-0.015852727
-3.2349315,-1.810917,1.0777633,0.7974847,3.4147816,-0.8506975,-0.028893583,-0.0010659359,-3.4324481,-1.5481448,-0.22496907,0.028946772,4.3226414,1.5053769,1.7153761,4.16986
-2.8061182,1.1622698,1.0288761,3.2252584,1.9024305,-0.82180625,0.08456704,-0.0108886985,-3.7853477,-2.999834,0.040865287,-0.027952202,2.9078715,0.8705527,-0.44340837,6.1753407
0.940776,-1.0555655,-0.0013607107,8.927629e-06,0.17468913,-0.3163934,-3.4444566,-0.00045486912,3.297979,2.8783681,-3.3199174,0.0056519024,2.0601737,-3.259872,2.8999577,0.001485154
3.5999112,-2.7819693,-0.008170335,1.4999235e-05,-3.8425207,1.215858,1.4830728,4.730812,3.605029,-2.4247518,0.40056765,1.0977015,-1.6845547,-3.4029574,2.4539883,-0.02254533
3.4179854,2.587599,-3.344271,2.7789192e-06,-1.9776956,-1.0995187,-1.8671902,-2.451922,3.4911609,0.21254313,-0.71413946,1.901747,-3.078194,-0.04151024,-0.37054962,-0.014197348
3.7046156,2.3126936,1.5379417,28.387142,-1.8174207,2.6527338,-0.31670368,1.1635162,2.9025807,-0.2428931,-0.47437882,-0.9009304,-2.6749504,1.7882639,-0.114818275,0.013657451
-3.6880593,-0.679486,3.000987,-2.6889844e-05,3.519733,-1.6683675,3.371178,-1.4590334,2.042173,2.9820042,-0.8395963,-13.294216,3.1481745,4.57091,-4.3074627,0.08651657
-2.795868,1.0824263,-3.2950754,1.9982226e-06,3.2813518,-0.55956626,0.0008555807,-0.0018449794,-3.7476883,-2.4893003,-0.5708325,0.00888768,3.6625102,1.085268,1.7543645,3.1994088
-2.4933116,-0.37866557,0.26990122,-0.5309174,1.7727739,0.037069514,-0.006740406,-0.0032108529,-3.7872934,-1.5459989,-0.29934227,-0.008169208,3.1409605,2.3990972,-0.0536153,5.6351476
3.301645,-2.039866,3.3509812,5.934937e-06,-3.5179677,1.8163474,2.0521169,2.2588573,3.3036375,3.2839098,-0.5958395,-0.014094862,1.4068725,-3.3878648,1.6699095,0.036183886
3.0828154,0.5483968,-4.051461,-4.7678128e-05,-3.6545787,-0.54653037,0.79416966,-2.4606614,2.5579276,-1.2031738,1.4853945,-0.06313938,-2.548069,-2.9291217,0.14547572,0.04110629
3.4389482,3.295556,-0.97271204,9.499427e-06,-3.0017116,1.5766778,0.18664229,2.1516805,0.7040691,-1.0713198,2.1085577,-1.214437,-3.1383138,0.35226324,-0.322888,-0.032756492
-1.2765813,-0.90756357,4.816753,1.3008862,-0.59857637,-2.9032278,-4.113078,-1.266562,3.9256084,1.2257755,-0.122327566,-6.005451,-2.962664,3.1384525,-0.032143984,0.10697155
-2.1483154,-1.8166134,3.4986532,0.5289571,3.4083414,-1.6289952,3.4279075,0.0062165176,-2.359106,2.4863455,-4.2722282,0.014803138,3.3453968,0.31505892,3.2023702,-0.19732282
-3.2939072,3.029463,-0.28989768,-19.094692,0.5906298,-0.6976163,0.12492204,-0.03017585,-3.4935517,-1.1004865,-2.5021434,-0.066565886,3.998421,-1.3113009,0.033884846,-3.3292613
-3.2655208,0.34328556,-0.19160774,0.059180856,3.3462615,0.6094088,-0.0148177445,0.0027153513,-3.5032706,1.4732143,-2.611092,-0.009861095,1.3705317,-1.6347619,-1.4782845,-13.155842
3.39967,-3.999855,-0.01203379,-5.8867736e-06,-4.0243664,1.5063362,1.7050704,4.5341306,1.6342113,-0.4300483,1.9964064,-6.121722,-1.4693444,-3.4912548,3.2923553,-0.00903625
3.4499114,0.7093733,1.00978,1.7777407e-05,-3.2943785,1.9692045,-0.19027126,6.7895737,3.2174156,0.94522166,-1.3454082,-1.6007872,-3.5673404,-0.7205144,-0.37253875,0.011116911
-3.3964353,1.3270937,-4.7458324,-0.00035858154,-2.7678924,1.8969747,-1.0887132,5.1040106,2.811259,1.0750818,-1.3394808,-0.07115698,-4.307725,1.9162717,-1.2602154,0.15341239
-3.8004212,2.9922104,-4.1571765,-0.00067710876,4.191135,-2.4049428,3.4897807,-0.0002881661,-3.2639542,2.7367127,3.518076,0.017781585,3.144699,1.0782868,2.7711859,-0.28941256
-2.1548858,2.949901,1.7218704,-9.506828,0.8371619,-1.2494102,0.0072442107,0.0059853382,-3.5756352,-2.4297454,-0.123746246,0.0029560942,4.0571303,1.3656561,1.5571854,1.2057457
-3.6199934,-1.8945936,0.15893191,0.6455879,3.235495,-0.1255993,-0.050374065,0.024623971,-3.3452873,1.472287,-1.8979731,0.024542235,1.3095901,-2.8227627,-2.5847595,-9.2153635
3.1306994,-3.3516862,0.10846795,2.552957e-06,-2.0377264,-2.9269598,-1.0470105,-12.105859,2.820074,-0.5669325,1.6863807,-3.9141269,0.50246936,-3.257731,2.4612083,0.023168925
3.3097503,-1.6657962,1.7021358,7.177441e-06,-1.1291348,-2.6167898,-2.2996643,-8.87746,2.9373434,-0.7563892,-0.23422116,2.2182035,-3.219503,-1.6090719,-0.23294362,0.00091978535
2.7729447,3.3209972,-1.58249,1.0629748e-06,-2.0811653,-1.9501858,-2.5158591,-5.9114437,3.3203654,-0.434752,0.32872248,-1.4931828,-2.6258104,1.1869658,-0.24659634,0.047280096
-3.7754986,-0.99425733,3.6656113,1.8084356e-06,-1.4316609,-1.7744789,-3.786304,-4.614487,0.86358774,2.9724684,2.833344,-1.499811,0.7779397,4.2054687,-3.867322,0.093792416
-2.5304837,0.8080776,1.9487917,-6.693139,3.4116056,-1.0032469,3.402807,0.011534851,-3.4309459,-2.4935997,3.2710383,0.034614436,4.3385067,1.2818906,2.4973621,-1.4628088
0.44855183,1.240424,3.2546678,-1.2182646,2.6872673,-1.0897154,-0.012238234,-0.013911768,-3.7529678,-3.0654962,0.015586138,-0.034493327,1.818989,-1.8075513,-1.8051684,-16.094627
1.8708783,-1.4039463,-0.03414534,-2.4038936e-06,1.6100401,-0.14386672,-3.3983722,-0.0015583384,3.2089815,1.8944415,-3.3957758,0.002248329,1.7944617,-3.2595403,-1.164729,0.003369959
4.192292,-3.5003994,1.4057678,0.0008945465,-3.0957854,1.2892914,0.4535144,7.181606,4.1142025,-2.2291374,-1.1856867,1.9451907,-3.1623206,-4.14501,-0.5492934,-0.075830445
3.3673546,3.3373916,-1.9375472,3.6583133e-06,-3.2423787,1.9047842,-0.70744634,7.6840115,3.564166,-0.15463692,-0.46670896,0.23431732,-3.2820482,0.26860517,-0.33581275,-0.033208806
-3.1537435,3.1704767,-2.1916504,-1.2209954e-06,-3.0235498,1.7568316,-1.9550376,2.655359,2.4074643,1.1764942,0.28785622,-5.2956724,-3.176699,3.4615068,-0.013573492,0.004972216
-2.5803196,-0.72122097,2.111999,-0.53934526,3.4646125,-1.1709422,3.5000503,0.004950882,-1.868645,1.4762043,3.453297,0.010365559,2.4412475,-2.1381595,0.4144194,-2.1237705
-3.2731957,1.1686494,-0.9495232,-4.599577,1.2308158,-0.1008625,0.037543893,-0.00960003,-3.7589455,-3.0243409,-0.28669107,-0.041116297,3.5874732,0.2762252,-0.36293912,8.348631
0.82187873,-1.7810762,3.427817,1.08516615e-05,0.79125404,0.51196367,3.767263,0.009117126,1.9390138,3.2904205,-3.3536444,0.039332252,1.4661045,-2.2042928,3.8736835,0.1544137
3.4780624,-2.991414,-0.020254672,8.809857e-06,-2.93692,-0.5334215,0.2527352,-3.1937885,3.3201213,-1.6356354,0.51426095,4.7967815,-1.3046514,-3.3394861,0.9760835,22.439587
3.4849007,2.3240247,-3.606215,-1.4965306e-05,-3.6430526,2.6059043,0.31854767,2.8525062,1.6287334,-1.6571621,2.889922,-5.392909,-3.5998197,-0.13320859,-0.20900398,0.02115663
-3.293657,3.0911887,-3.0413237,-6.202453e-06,-1.4047385,1.4086046,-2.4991336,8.85008,4.2875357,1.7174271,0.23592365,1.4049929,-3.1780264,3.1736405,0.022577703,0.036864225
-0.6749151,-2.39489,1.9174997,1.5325946,3.5762086,-0.6593244,3.5199785,-0.0049116625,-0.88069886,2.7659798,0.698699,0.58312166,3.5575242,1.7828696,1.1936793,3.937684
-2.9382744,0.31693524,0.5734163,-1.4597023,2.8887417,-0.56447566,-0.04986863,0.002381497,-3.5154278,-1.641529,-0.19558984,0.0065208287,2.8619208,-1.1060601,0.099050865,-4.0941
-3.710943,0.7348639,-0.6435137,-0.76573277,1.6767051,-1.3402795,-0.014222264,0.009765341,-3.9196372,0.021078996,0.86448175,9.014595,2.3049297,-2.2822495,-1.2050664,-4.281554
3.502414,-2.873587,0.006158067,1.2076758e-05,-3.4466438,0.51475126,2.0789576,1.6127174,3.4469252,3.275333,-2.7066932,0.03281617,0.3158052,-3.9623249,3.994516,-0.014688969
3.6072583,-3.1022983,3.456935,4.603737e-05,-4.1435356,2.677986,2.9918177,1.7946439,3.0947917,-1.4162815,0.16814668,5.601514,-2.2983484,-1.4460764,-0.26319513,-0.048858702
3.3547375,3.2565212,-0.753001,5.350339e-06,-2.115805,-1.1285179,-2.11766,-3.1326222,2.442204,-0.017253637,-0.059758842,0.7061335,-3.173589,0.05090692,-0.33595178,-0.011663765
-3.0164855,-0.22455376,3.7863307,3.5781064e-05,-0.25038493,-2.1116576,-5.084815,-6.4302826,3.7187307,3.5881493,-0.034626678,-1.9001378,-3.2865992,3.7084734,0.008267894,0.012002159
-2.4810722,-3.4060605,1.6474302,-0.004913926,3.5864863,-0.20034772,3.5941803,0.022827655,-3.1413057,-0.6749649,3.3286555,0.0030061863,2.160951,-0.97943825,1.3252616,-6.0812244
-1.2510804,-0.64421743,-0.6976377,-9.110522e-06,2.4315958,0.13466322,-0.12043506,1.9606196e-06,-3.7241836,-3.106953,-0.4728037,0.0044200947,1.5520033,-1.5355883,-0.92923933,-5.650154
-2.530754,0.10002504,0.09794459,0.070387,3.4845095,-0.029604375,-0.041893065,0.00097196177,-3.399688,1.2343969,-4.0390234,0.024526164,3.541721,0.2178178,0.34442234,0.19323248
3.3606055,-2.8475256,0.0029533394,4.616996e-06,-3.9749732,-1.2397083,0.8345181,-5.818833,2.814759,-0.78018796,2.4895256,-5.5807133,1.092828,-3.3560266,1.5275937,0.0073648803
3.3300285,2.4337661,-2.1457157,3.2042408e-06,-2.894628,1.2096053,-0.41303974,4.889781,3.338323,-0.47710574,-0.38548368,1.2796061,-3.2908037,-0.5946396,-0.112580165,-0.023668088
-1.9566247,2.5203261,1.9145647,0.0007266998,-0.43292874,-2.8998132,-4.580795,-2.8729148,3.8924348,2.4992778,-0.3337151,-2.6207612,-3.4668345,2.1469245,0.062058598,0.05749443
-1.6853368,-1.5512242,2.902437,-1.8799186,2.3140337,1.1626563,3.3833687,0.0029609576,-3.44827,-1.4066225,3.396932,0.009310454,3.6176007,1.7235198,1.8870635,6.5278277
-3.0262234,-0.7166004,-0.9988185,3.7525887,1.8896722,-0.50164896,-0.03952456,-0.0016702842,-3.828459,-3.0727828,-0.68567634,-0.022533383,2.7766104,1.9963938,-0.2317734,4.190735
0.81936604,-0.29725832,0.018537646,-3.3491324e-06,1.2220362,1.267677,-3.2821333,9.81288e-06,3.280877,2.7561288,-3.3253167,0.0011541441,3.2138605,-3.2336164,1.187169,0.00651983
3.345945,-2.6603432,-2.4708931,4.4109765e-06,-4.4362965,1.3461713,1.9874011,1.39704,2.2713194,0.0038738847,1.4601022,-8.499035,-0.9880725,-1.9726202,3.6135476,27.121319
3.3567429,3.3049552,-0.73669887,3.283356e-06,-2.3025315,-0.54821384,-1.4198794,-1.292394,1.1243039,-0.91320664,1.6647217,-1.1835375,-3.251466,0.09370295,-0.2676349,-0.011374608
-3.8943768,2.885726,-3.1400244,-0.0007095337,-0.105035186,0.22584948,-2.2745652,4.5046573,0.58803105,1.7551856,1.0423505,-3.5641208,-3.007878,3.9879792,-3.8933904,0.09556408
-2.6948533,-0.036610544,1.8302543,-2.2465572,2.7738912,-1.3263806,0.063681185,0.004345049,-3.3921864,-0.660389,-0.3339256,0.012219839,3.7575743,-0.11099558,1.6264019,-2.5950902
-1.8159566,0.7614756,-0.63215554,0.29953605,3.0305724,0.01992935,-0.043511048,0.0016758163,-3.6983666,-2.20199,-0.06853622,-0.00038440898,2.6160486,-0.050279893,-0.08254135,-0.48614872
3.012459,-0.070067495,0.24127506,-4.130528e-06,2.0728855,-0.6562792,-3.9064724,-1.8305145e-05,3.1923583,3.290273,-1.1176913,0.023576362,3.496122,-3.123651,1.1095408,-0.027837135
3.3538337,-3.272618,0.6125814,7.1140184e-06,-1.7305436,-1.151954,-0.5918954,-3.7080116,3.5942998,-2.3393705,-0.36544457,0.5432804,-2.5895236,-3.3088677,2.820418,-0.005349255
3.4722936,3.3147862,-0.11133477,1.1028651e-05,-2.8473577,1.3947152,-0.6748839,3.9870212,2.7701824,0.03843485,-1.1240163,2.7550032,-1.9627805,0.97282195,-0.29412115,-0.05264543
-2.3105998,1.4588655,-0.12032831,0.00075912476,-2.2624068,1.505085,-1.7904389,9.20347,3.4325988,1.0116689,-1.105025,-2.1505075,-3.2626543,3.5147629,-0.055521496,0.03512062
-3.4708333,-0.2026132,3.847673,4.2078318e-05,3.7824383,-2.622422,3.6834712,0.018667553,-0.23135933,2.4381354,1.473897,-4.991057,3.5116603,1.092805,1.9480536,-2.0968785
-2.4883814,1.8552066,1.3077964,-7.500841,1.6881875,-1.2232802,0.04204336,-0.0112501,-3.6392114,-2.5031874,-0.288445,-0.020480536,4.145049,1.136308,1.9245315,7.3438497
-4.185687,1.9279337,0.09092219,-6.2470655,1.0919981,-0.52431995,0.5866102,0.023735344,-3.9318519,-1.5157093,2.0823746,-0.033457875,3.0654244,-2.2332501,-1.9664724,-13.375517
0.27107447,-0.82823586,0.59118533,-1.9111165,2.259977,2.8049448,1.389199,7.1872063,1.3138094,3.3410678,-1.7052163,0.015509769,2.3388872,-2.9717956,-2.252508,-7.1056767
3.080912,-1.7654393,-1.2095509,5.4380507e-06,-3.449816,-1.0895422,0.2652536,-4.4390798,3.3367615,-0.65790343,1.0001214,-0.39822185,0.21704967,-2.8956585,2.810477,21.97397
3.3661199,-0.014969736,0.07900633,8.995756e-06,-1.3865919,-2.3068848,-2.7507067,-5.742654,3.5015101,-0.4764845,-0.82394147,-1.0894942,-3.5072243,-0.59262484,-0.15603979,-0.007118251
-0.99460584,-3.797128,3.0216203,-8.089369,-0.9095978,-2.389898,-4.655559,-0.21241426,1.0839778,2.070001,-0.08648365,-1.9258156,-3.022614,3.5799093,-3.2589743,-0.053731866
-3.2829661,2.1295848,1.8363326,-12.112656,2.3525589,-1.1182208,3.3285875,0.027053192,-3.4149344,-1.7039801,3.287985,0.017966684,4.349227,0.85498124,3.0827165,0.5767281
-3.2888083,-3.1481574,1.7954543,3.0265093,3.3871458,0.6403101,-0.04099141,0.014414281,-4.01041,-0.47521013,-0.41580367,-0.05391563,3.302388,2.2201557,-0.09827805,6.0579176
-0.6714476,-0.0033660233,-0.00617674,-8.120929e-06,-0.66875523,2.574117,4.4861045,-0.0037975311,3.2421758,2.9474134,-3.3544643,0.01766361,3.1887612,-0.4438578,1.8549924,0.71986145
4.32396,-3.4918954,4.1907187,0.0013523102,-2.7662091,-0.2334258,-0.02373207,-0.23526055,3.0436075,-1.5019957,0.33835012,5.4605904,-2.0741725,-3.3888056,0.46296462,-0.028049385
3.3782978,1.827076,-3.6210537,-3.0017836e-05,-1.8377252,-1.1893463,-1.7575502,-19.118359,3.2693803,0.06657511,-0.14524199,-0.92528975,-3.0046227,0.059070736,-0.39826697,-0.005115725
1.9224792,0.3384931,2.2281547,30.244286,-1.3540282,-1.1252109,-3.310477,0.048851028,3.1627088,0.6782304,-1.626882,1.0895462,-3.3699095,1.3324285,0.16066596,0.038428225
-3.8822823,-0.7918594,2.2875922,-2.1537604,3.586928,-0.91501594,3.490495,0.004212724,-2.836953,0.5080559,3.5625818,0.021382004,3.7590768,4.086697,-3.8976295,-0.0025006756
-1.9373944,-2.9953134,2.2799435,1.6034167,2.8078413,-0.16887832,0.0748635,-0.00040602684,-3.4172976,-1.7400438,-2.8792515,-0.0040187463,3.7008705,2.3341482,0.8845951,5.9359384
-3.3758864,0.46478033,-0.33883238,0.3361891,3.229106,1.1489043,-0.04868616,0.0104490435,-3.9723976,0.19078311,0.054903746,6.072201,1.4359484,-1.835448,-2.4309027,-10.934996
3.6109786,-2.9544032,-0.07716425,1.0903468e-05,-4.14698,1.0416466,2.0593076,1.2080867,3.270146,-0.28809363,0.053402424,-1.6361195,-2.0787852,-3.9004874,4.057176,0.010828972
3.5168765,1.590299,-3.5422432,-1.3652028e-05,-1.5501482,-0.16393153,-0.23109081,0.03609538,2.3515935,-0.7862618,-0.9993417,4.6314907,-3.1989038,1.5083814,-0.22823012,-0.00982131
3.4077294,-0.660195,3.5371947,3.5303063e-05,-2.0169446,-1.0045455,-2.0778122,-1.3803799,3.2247987,0.0025552511,-0.37217522,0.7717426,-1.5080032,-0.22666457,-0.31163365,-0.057745565
-3.1937103,0.10089284,0.6078448,-1.2729433e-06,-2.631756,1.299054,-2.5227776,10.479795,2.4055843,1.9620857,-0.95437735,0.1421501,-3.3232694,3.5696745,-0.014723041,-0.0068485066
-1.9647447,-0.8428815,2.3057947,-0.41145462,3.707173,0.011407077,3.6247957,0.0025855005,-2.7843637,-0.1479025,3.296672,0.053402755,2.9510756,1.2162137,1.5502999,6.8961973
-3.6512473,0.3085455,-0.13620739,0.13606441,2.4439192,-0.16588725,0.009509783,0.013428084,-3.8487625,-2.7339876,-0.31915486,-0.04981885,3.1899235,-0.61877763,-0.27571785,-1.4266113
-2.055583,0.42842922,-1.0811523,0.3619122,3.2084203,2.4149816,-0.020330504,0.0134317875,-2.9709098,0.96219397,-3.3758688,0.030202247,2.227982,-1.1449211,-1.6234882,-4.5864234
3.38899,-3.313101,-0.085872084,-3.6547017e-06,-3.359918,-2.1312718,0.163504,-10.057299,1.143717,0.4176248,3.59066,-15.075579,-1.3201234,-3.5914612,-0.19388738,-0.011072662
3.40677,2.8164291,-2.6186473,1.0207572e-05,-3.6516838,1.7669342,0.24867332,5.959429,3.745271,0.6234619,-1.2577524,0.8395206,-3.2853518,0.024301652,-0.27968538,-0.028381858
-3.1632774,1.80795,-2.285103,-3.2846874e-06,-2.6136136,1.5910695,-1.5489078,8.730349,3.3156688,2.549898,-0.21345407,0.5023011,-3.4532983,3.174547,-0.018338703,0.00022206735
-3.2917037,2.9299674,-3.5609498,-4.2642234e-05,3.4351583,0.8031028,3.3544369,-0.01068579,-3.3657062,-1.1018417,3.5901551,-0.035737038,2.8146715,0.38010722,1.6725183,7.256447
-2.0902445,0.45001093,-0.5650975,0.98206925,3.14139,0.48228738,-0.03176309,0.0011370461,-3.6571195,-3.6544943,0.00032949448,-0.0044324426,1.880048,-3.021605,-0.87154293,-9.87995
-2.7117815,0.86274445,3.2150614,1.3298588e-05,3.3236344,-1.0594697,-0.06298077,-1.1551194e-05,-3.3254917,1.1157116,-2.258071,0.009259798,0.9833626,-1.5288152,-1.0726416,-12.395355
3.4463632,-2.3481631,-0.024140716,-2.3240107e-05,-3.5698614,1.3616688,1.2058927,3.964086,1.6122367,-0.13711894,2.2549353,-7.5508933,-2.0129786,-3.7595632,-0.7620152,-0.015098397
3.4191523,3.1232073,-3.3265746,2.8409122e-06,-3.82773,2.62779,1.2519705,2.4561808,1.7208064,0.78552985,1.5565255,-10.393106,-3.309588,-0.6446111,-0.3850646,0.016862422
-3.1587644,0.24217832,-5.0584574,-0.00078582764,-1.2784736,-1.2408929,-3.8037333,-1.1055529,1.2507119,0.6956141,0.13985837,0.44374084,-3.9045515,3.4082403,-1.2911803,0.04253102
-1.4363034,-3.103692,3.6574008,-0.034861032,3.5275652,1.1308769,3.5242643,0.010431312,-2.8090243,1.1064826,3.4183853,0.032538213,3.4885445,1.3471208,2.3227532,4.068253
-2.497093,-1.7802682,0.42663896,6.6855035,2.6183271,-0.22893111,0.12163699,-0.009024739,-3.712414,-2.2725184,-2.573618,-0.040995598,2.1229758,-0.72946405,-1.4919764,-1.9129921
-3.2373097,-1.0497189,-0.36790502,-0.00048732758,-0.13603425,2.1716616,4.322317,-0.009376526,0.271874,1.3076291,-3.2782457,-0.098547384,2.9527845,-3.2171254,-0.06285477,-8.744735
3.306045,-2.876786,-0.03019365,1.2970668e-07,-1.1828153,-3.3424683,-0.969637,-8.580425,3.1367855,-3.2822876,1.754549,0.34224448,-2.1255121,-3.216216,2.274349,0.02518399
3.4227245,1.537268,-3.3463817,2.8089016e-06,-1.9023793,0.054704174,1.0202254,-2.6358366,2.1181207,0.951002,-0.8916912,-6.984403,-3.025494,-0.09731883,-0.21520583,-0.009819519
3.6084108,-2.4445522,2.6709836,1.8639996e-05,-2.9472857,0.78842545,1.4956206,-1.4021488,2.0751684,1.2749791,-1.8891572,-7.3792305,2.5107138,0.39899388,-1.312348,-20.740725
2.6148503,1.2444695,3.178851,3.0737283e-08,-2.544035,3.3974462,1.5053864,-3.7401395,2.786787,0.920837,1.6674347,1.1237972,-0.6796234,0.33915976,-0.05075994,-0.005652846
-3.1345472,-1.5818944,4.147478,4.8232032e-05,2.1688695,-1.238232,-6.4021597,-45.18847,0.76422626,1.3130395,0.014573276,-3.5241356,-2.8507898,3.4809353,0.4858616,0.0078001246
-2.8404496,1.952123,3.5448081,2.8053997e-05,2.909923,-0.70828426,3.435426,0.011487462,-0.18779509,2.5754077,3.6152449,-0.0121901,2.4188514,1.8714628,0.49792537,2.8363466
-2.3314133,1.142416,-0.7072624,0.8204763,1.8148397,-0.42038652,0.00030268356,-0.00040102936,-3.5266166,-2.4794466,-0.36637527,-0.004318892,1.7752525,0.6766722,-0.12467152,3.9398036
-1.7410665,-1.365202,0.44296545,5.3363924,2.5615058,0.4221642,0.15696514,-0.009634406,-3.675642,-3.3769667,-0.85385495,-0.022360831,1.374467,1.2658123,-0.27220666,4.049226
-1.7668372,-0.89677495,0.7387138,-0.69791204,-1.6958423,1.7491488,-0.8709638,-0.00044107437,-3.7338388,1.2618669,-3.1599932,-0.05502539,0.9756776,-0.75864935,-2.2313156,0.3966025
3.688513,-3.3053417,0.06458211,0.0002052784,-0.9227928,-3.1989608,-0.22664618,-18.887365,3.5333138,2.93844,-0.09674822,0.12804225,-2.110914,-3.3722396,2.4955885,-0.053261504
3.428454,3.2864394,-0.4235413,1.0460642e-05,-4.0328846,1.1070123,0.23625311,3.205397,2.1430438,1.2518133,0.7773703,-7.227028,-2.4793622,-0.81468415,-0.37661788,-0.0067681745
3.6005,-2.0183315,5.093568,8.568981,-1.2188362,-0.97089505,-2.6944928,-1.766063,3.0753105,0.78579664,-1.8584325,0.17796254,-3.2408142,1.4939034,-0.24452835,0.0587527
-2.7963212,-3.000152,3.346774,2.1942732,3.7268095,0.04138334,3.667286,-0.002194386,1.3436035,1.3311392,3.2800133,0.05072863,2.1903493,3.6908836,-3.4854076,-0.0556743
-3.2594452,0.68909365,-0.45213267,0.50689095,1.7133331,-0.7079028,-4.7661364e-05,1.5202677e-05,-3.38885,-3.313937,-1.4626346,-0.011127405,3.4516745,0.012145817,0.6377678,-0.21928644
-3.8223767,0.7901145,-0.6313842,-2.2775261,2.748244,-0.169131,-0.06453206,0.02435439,-3.828347,-0.91075456,-3.3894835,-0.04720046,2.0157473,-1.1498367,-0.765847,-11.570974
3.4461455,-3.078098,-0.17018497,-7.584821e-06,-3.490453,1.3719432,2.043375,5.6947684,-1.657637,-2.6568766,5.110503,0.34011936,0.8526083,-3.7077577,3.4473715,-0.000426244
2.7070317,1.1252706,-3.4859138,-6.444461e-06,-2.625317,-0.33986998,-0.70209193,0.10427801,1.557016,-0.08172971,1.5672284,0.7655195,-3.3411865,-3.0665483,-0.39145863,-0.00020997546
-1.6528878,1.7826022,-4.68695,-0.00013981666,-3.3538003,1.0381945,-0.69145405,5.1759043,2.5960853,1.2972068,0.9243206,0.1351397,-3.624311,0.5787096,-0.17558196,0.012263015
-3.51985,-0.9353243,1.3528093,-9.290221e-06,1.5689528,1.2172186,3.2724037,21.712976,-3.2576773,2.0257015,6.073819,8.8287735,-0.5379531,4.452793,-4.207451,0.14468917
-3.458639,-0.31228358,0.74762166,-0.53871936,3.2898817,-0.46176812,0.011683356,0.0022089495,-3.5559163,-3.0078635,-0.2216397,-0.004324778,3.534781,-0.316955,0.6478454,-2.941828
-3.6233728,0.23588441,-0.49053636,-0.67803085,1.7584716,-0.15925224,-0.008899577,0.008261051,-3.5456662,-1.1304944,-3.8901353,-0.0144142825,1.3498156,-4.0854836,-1.4416915,-3.1822567
2.4957092,0.4220202,-0.48339367,0.00019298634,-1.4121387,-2.9113932,-1.1530638,-9.3998995,4.2271643,3.2745337,-4.151379,0.3029298,1.1963385,-3.4288106,-0.7615194,-1.0758296
3.6176693,1.6087277,-3.3186376,1.365349e-05,-4.0957313,1.4259588,1.8198531,3.459906,1.9231969,-0.0869897,1.2873305,-3.9073484,-1.9539232,-3.160041,-0.17926165,0.032896042
3.4498768,3.0603707,-2.9856112,1.0348522e-05,-1.6139814,-0.4307132,-1.6500616,0.35846186,-0.9364352,-2.1183383,4.1931577,1.312192,-3.3159077,0.34747988,-0.2911648,-0.046655066
-3.5541368,1.019408,3.980671,5.152065e-05,-0.053041175,-2.415718,-4.6654544,-7.064427,-0.432988,0.69449985,1.5802639,-7.45311,-2.8547528,3.7850308,0.056551233,-0.0035708025
-1.6224923,-1.2780849,2.1649806,-0.58885986,2.3850718,-1.2216897,3.4477391,0.0023748297,-3.2010381,0.27900034,3.5228193,-0.0067961887,3.5623155,2.189677,2.1526766,2.2472353
-3.6143398,0.7172725,-0.16849263,-0.47662297,3.126614,-0.21294406,-0.009955861,0.007486284,-3.8111396,-2.6991386,-0.34027916,-0.04565753,1.7346772,-3.5932105,-1.2169601,-4.321213
-2.3945487,2.595255,-0.6647778,-3.1200933,1.8188353,-0.46195674,-0.026687354,0.003095746,-3.526059,3.3312435,-0.6214272,0.0011664629,2.1341429,0.95199805,-0.18685167,1.7930076
3.3464284,0.8341068,2.9971068,1.7441989e-06,-0.36878714,-0.87775725,-4.3125033,-0.014034271,2.191408,-0.25048366,2.0801184,-3.998145,2.1920104,-3.95543,-0.09943932,-0.029818673
1.5701858,3.2451477,0.37135774,6.743103e-07,-3.1308749,1.7502468,2.7981672,-2.3096325,2.4104018,1.9123003,-1.3076972,-10.55691,1.8762747,0.7636826,-0.22362751,0.03258666
1.0453737,2.9100447,-0.013351474,-1.9474624e-06,-1.098396,-0.08469504,-0.10857129,-3.5633054,1.878537,0.071881056,-1.489814,3.0491712,0.93021476,-0.5911598,-0.13049543,-0.011248294
1.0545905,-0.094063446,0.3027519,8.298857e-07,2.4829636,-2.8286476,-9.207119,-52.35128,0.2822237,-2.2292356,-1.6619176,3.514936,-1.1622694,-3.5920606,-0.1455406,8.003168
1.0190171,1.3376197,-0.16781715,-1.1645094e-05,-0.8267083,1.9597173,0.24909788,2.378258,0.84268737,-0.535997,-0.9354778,0.91695666,-0.022055984,-0.17989367,0.045139194,-1.6219847
1.2304174,-0.32229573,-0.14214742,-1.3590048e-05,-0.5190148,0.31388676,0.38708273,-0.01976192,-3.813591,0.75193536,6.668842,10.714754,0.6184286,1.4373482,0.41036618,4.9881477
-0.3962978,1.8529016,-0.04157968,-3.7760683e-06,1.1021873,-0.2663092,-0.8652164,0.041576162,-0.8810502,0.28676248,-0.29936594,-1.3009857,-1.4457107,-1.5618237,-0.26235402,-1.5714365
-0.8484751,1.1517174,0.59300745,-2.2235313e-06,-0.22227077,0.63246274,1.2755301,6.9854913,-0.9826175,0.7401753,0.34564394,-2.7530737,-0.03788808,-0.85271394,-0.4048857,-0.03119767
-0.7846728,-3.2684875,0.015634222,-2.453471e-07,-1.5037804,0.398185,1.1495987,2.588614,-0.74179447,0.218395,0.5077927,-4.870108,-0.6204404,-0.88209754,-1.1623468,-5.978615
-2.1382916,0.51847064,-3.3046856,-1.5033784e-06,-3.017657,-0.31415576,3.9130974,-0.0029661655,-1.8560244,4.4211884,4.515983,-0.01978612,-3.180667,3.0382853,2.3043354,1.1385376
1.2168055,-2.8289196,0.896854,7.617111,-2.3772254,1.7792509,3.4281497,5.841793,-0.6042886,3.593448,-0.15300815,-0.011762217,-0.9988588,1.567759,-1.6841233,7.865629
3.5572107,2.658837,-4.0138993,-0.00016784668,1.417111,-0.0823182,-1.2696267,2.8580718,2.7283301,-3.4687295,1.2914104,0.0019374043,2.9387598,-3.4531229,3.4159012,-0.0061691366
1.811615,-1.1733398,-0.011447549,3.342693e-05,-1.761362,1.9207526,2.4656897,0.37006786,1.8840508,1.4507749,-1.1649492,-5.352207,3.5283155,0.6927142,-0.58471775,0.011745576
-3.2833805,3.3644938,-0.064420536,-4.398532e-06,1.506007,-2.888911,-1.5676225,-8.327832,-0.03576675,-0.5986395,-1.3141452,5.5824146,-2.6304338,0.9166098,-0.049013738,0.03268491
-1.406391,2.1791227,-1.0463282,-6.9725533,-1.3813741,-2.623046,-3.309146,-0.02457462,-0.039523385,3.2427871,-0.5489278,-0.027994372,-3.4337986,3.4354856,0.5294083,0.02513469
1.8630216,-3.0227802,1.6393762,6.587968,-0.8834431,2.158473,0.029708812,-0.014439605,-2.8599386,2.3042839,0.007886484,-0.016360812,-1.824054,0.7363953,0.30399364,4.5376897
-0.2648738,1.8709898,-0.93341684,-9.737351,3.3555517,2.515613,3.2793436,0.01580787,3.2204688,-1.4068735,-0.12853402,0.03682725,-1.2167678,-1.6887774,-0.82175386,-14.75211
3.3256469,0.29798114,-3.9772677,-5.2651158e-05,0.7966724,2.771929,0.79407537,7.668788,-1.4665053,-0.6844177,1.9730612,0.34420568,2.7781396,-4.000016,3.665421,0.0004960131
2.7594469,-0.99712735,3.39624,9.91231e-06,-0.13678533,-0.42400742,2.2539673,-6.782541,-0.40196198,2.2811468,-2.1261039,-11.919359,3.5008116,-0.9573717,-0.23230213,0.010117452
-3.415238,1.2578342,-0.0009210929,2.3741522e-06,0.25685152,-3.091001,-1.620091,0.020108264,-2.482962,-1.7676554,4.102063,0.45467058,-3.7377474,3.3300135,-1.5741014,-0.009646878
3.7540593,-3.4801922,2.2634249,1.1657612,-2.66747,3.7735872,-0.12189588,0.017677873,-0.83793354,3.7577293,-0.20792055,0.021102564,-2.7898262,1.8180976,-0.9672578,5.7298145
1.7943608,-0.8018922,-0.41554695,0.16784686,-2.8189788,3.5125885,-3.3995318,-0.0019074064,3.0849714,-0.12503853,-0.32501107,0.006469742,-1.8146244,-0.011301756,-1.2965846,2.2569852
0.55961066,-2.1794877,-2.1551685,15.169458,1.8662472,0.38539147,3.4475389,-0.026114225,0.5341786,-3.5772521,-3.579596,-0.023682663,2.3647993,-3.4992328,5.383402,0.0132369995
-0.45310068,-0.58540416,3.3889575,7.324984e-06,1.5525712,1.0627257,2.4459984,-0.14406088,-3.7484634,-3.3582644,3.0544338,-1.0853823,3.8910546,3.0033646,2.6836665,-0.01783613
-2.932874,-0.30008006,-0.016965963,-3.920261e-06,2.7719607,-2.9163125,-0.60269874,3.9058895,-3.3447795,1.5528446,-0.38400227,0.32227543,3.8456473,3.4731135,-1.0374548,-0.07838371
2.137426,-0.73040617,-0.6968985,7.875613,-3.1564546,3.3713331,3.5595698,-0.038113534,2.7132092,1.0632004,-1.313696,-0.09512821,-1.6659431,2.3467555,2.6701589,3.77803
1.9519461,1.954401,-2.2953389,-0.8732149,-3.3249228,3.240412,-1.5150322,0.00041499548,3.231909,1.5975734,-0.28023407,-0.014959397,-3.1779606,0.9726057,-0.5376582,7.4900055
1.8500284,2.3758607,-3.2753515,-12.154221,-3.47475,-2.1676948,-3.5810025,0.0033316314,3.297942,-1.5037637,-0.33942902,-0.040713556,-3.3207,-1.2259908,-0.5633682,0.43267056
-0.849271,0.8702176,3.4940846,1.0155851e-05,3.6251597,-1.9181017,3.4237316,0.02254187,-2.4509454,-1.8039991,0.77077943,6.636566,3.865007,-3.537641,3.4375327,-0.055423222
-1.7706163,-3.336679,2.8215137,3.741759e-07,3.4019268,-0.77234435,-0.29720232,0.25471637,-3.3105574,0.88918,-1.0835947,0.69290996,3.8641324,3.79476,-0.31350172,-0.041280426
-3.7498112,0.7290293,-0.00051015196,-2.1758522e-06,1.143259,-2.7902758,0.76487386,-7.565461,-2.728147,3.036696,-1.7368793,-2.5513058,-4.240101,-2.1857538,-3.2362797,0.12239598
1.1914626,-2.6230116,-2.1181087,10.57157,-3.4343474,3.5075529,0.54008275,0.007501388,2.516557,0.96200395,0.47102225,-0.14431003,-0.9467982,0.18163568,2.1304946,-4.7891445
1.7498343,0.80392814,-2.26786,-0.6118811,-2.9601185,-3.197665,-3.4318228,0.0008607799,3.4465864,-1.6949618,-0.20717818,0.00825382,-1.4597166,-1.3424203,2.926999,5.634512
3.1151943,2.2446883,-2.6307123,-1.1824836,3.4310846,-0.059545413,3.35115,0.0036778366,-2.429525,-2.038176,-3.5519626,0.032790605,2.8711526,-3.43698,0.7762623,-0.039785232
-2.0815175,0.26142883,-3.2977133,9.651994e-06,2.5086713,-1.3124483,0.7424227,-7.663045,-2.1400564,0.8016125,-1.3890024,1.1114228,3.7192364,2.7748802,-0.29667717,0.05973369
-3.7192144,0.7889387,0.0045884196,-5.4245215e-06,-2.9890134,-3.211674,2.9865837,0.46878675,-3.3276432,-3.5119479,1.1174543,0.61398673,-4.083098,-0.6842264,-3.606669,0.13599643
1.8830309,1.8751111,-0.50180125,-23.58876,-3.4767377,3.4317603,-0.93351084,-0.04435677,3.4843142,1.9675188,-0.38745612,0.05569777,-1.5072566,-0.8260975,0.6991819,-6.005412
3.6884158,-0.59859353,-0.8705049,1.0110121,-2.7623835,0.7870634,-4.003868,-0.01746671,3.3349383,-0.82257485,-0.6498244,0.027006485,-3.7887993,-1.9256473,-2.0410879,-7.0652843
2.0633051,-1.386237,-3.5857897,-2.8228409e-05,3.1706672,-1.8506539,2.7027707,-0.031119883,-2.2080765,-2.4903169,-3.4417028,-0.0001388397,2.9936163,-4.043321,3.7859561,-0.008967318
0.44680256,-3.0535138,3.3270016,5.4097563e-06,3.363892,-0.82419956,-0.12497601,0.67577153,-3.6163921,1.0792634,-0.008260831,-1.0078273,3.9203327,2.3267841,-0.40797502,-0.043814506
-3.708174,0.58779204,0.031913042,2.4832629e-05,1.9822472,-2.988497,4.377895,0.17562675,-2.2526684,1.7686893,-1.7900412,0.9977861,-0.32990208,3.4263241,-0.33923632,0.013591237
-2.4121106,3.173823,-3.2973108,-8.4411624e-07,-3.031772,3.5310047,1.0951307,-0.0034770202,1.7581172,1.423983,0.061710477,-0.010623157,-2.2891507,1.5857352,2.751583,-0.99858606
2.1900682,3.4092906,-1.9137404,-2.2229433,-2.591831,-0.42488468,-4.081549,-0.013219312,3.4305904,0.8149287,-0.40678838,0.0367954,-3.1851118,0.18184885,-2.0649397,3.979659
3.2397695,0.2775622,-1.6175131,2.3946898,3.417784,-0.8734699,-0.8659643,-0.01001355,3.6003687,-3.387947,-1.9607238,0.039171193,-1.9604656,-2.2543802,1.1598606,12.023634
3.1034143,-2.1645093,3.5215755,1.071853e-05,3.1037173,2.5450292,2.6618676,4.471573,-3.63176,-1.3699999,1.7563932,5.531048,4.137698,-3.1909082,2.1166084,-0.0962568
-1.013634,-3.1029785,3.367981,2.9511048e-06,3.3546712,0.0024026334,-0.52049017,-0.14764,-0.74081516,2.8275433,-2.980092,-39.560722,3.786922,3.8596642,-0.2605404,-0.010018309
-3.4078288,3.138548,-0.108331144,-1.0290574e-05,-1.6413338,1.623917,-2.0425289,0.028437212,-0.81258965,3.210402,2.082187,-0.8335767,-3.9595644,3.0151415,1.2879082,3.6557388
2.4069571,-2.1959195,-1.1824877,6.5615134,-2.2125278,2.6284704,-2.6571083,-0.028618947,2.7601364,0.6258689,-0.2669642,-0.021988377,-2.950259,-1.4983975,-1.2812545,-5.3797827
0.49499705,0.5331813,-2.3432572,4.1445813,3.443606,-1.395552,-2.9844222,-0.012337247,3.3977265,-3.72664,-3.6799593,0.0386336,1.3003565,-2.4921553,1.9591763,1.0724832
3.2190795,-3.0871994,3.3336985,5.1109964e-06,2.5511584,-0.44657114,1.9635047,-3.0717857,-4.225663,2.74368,2.6334367,-9.907286,3.7367778,-3.1090477,3.1295352,-0.02413157
-2.4469595,0.15648478,-0.017896196,2.0511197e-06,2.6602569,-0.44308835,-0.20377839,0.90138054,-2.647949,3.062329,-1.1230109,-4.892041,3.6308503,3.8540444,-0.34583077,0.023895338
-3.6637864,3.217867,0.6791128,-1.6298403e-05,-1.9996713,-3.314199,-1.5599014,0.07462841,-2.2765658,-0.9496785,-0.12180485,1.2206526,-4.1998777,-2.4424784,-1.8964452,0.115480274
2.1715398,0.72459847,-1.5718496,-0.36132693,-2.6561852,3.1348205,-2.8548205,0.012652397,3.248361,1.7330412,-0.29194668,0.008976258,-3.330444,1.2448637,-1.3599999,7.7898874
2.6947527,-1.2432336,-1.9778537,5.035994,-3.6161613,1.3717287,-0.91579586,-0.0031344278,3.0283103,-0.0036905669,-0.08180486,-0.094454356,-2.3753471,-1.5676112,-0.49900222,-5.185774
2.5272894,-0.6999459,-1.0805749,4.221602,3.2127855,-0.29646346,3.7193456,-0.012413603,-2.741464,-2.4020803,1.5765188,1.4006386,2.547771,-4.230256,4.026375,0.29052365
0.2925426,-1.3780677,3.3531477,2.1431333e-08,2.6366925,-1.4347417,-0.048475027,3.9639263,-3.6563609,-2.3107307,0.051653028,7.942393,3.9078627,-1.3332628,-0.85052884,0.09115887
-3.486598,0.8393786,0.22589642,-3.9563456e-06,3.7330694,-3.5253763,0.11446219,-3.9544673,-3.129514,3.2631714,-2.1487522,-4.6495714,-2.3782067,3.7733295,-3.784874,0.0175334
0.47405565,1.4020925,1.0551125,-7.214337,-3.2900958,3.531609,0.042429507,-0.010095169,2.5787723,3.834595,3.9009793,-0.045320712,-2.8886845,1.6015325,2.0621197,1.8601023
1.9810218,-1.5842402,-2.859954,2.557331,-2.5716984,2.7090256,-3.1456761,-0.002687782,3.135564,0.92851627,-0.3960269,-0.0068406314,-3.8610406,-0.88278306,-2.5734782,0.3848787
-0.50392866,3.4993925,-5.3242617,-47.52112,0.024384215,-2.6329803,-4.375542,-0.049292564,3.711564,-1.5719134,-0.22261578,-0.041305438,-2.8624635,-0.849332,-1.1844981,0.29737204
0.013966069,-1.6388072,3.697579,3.291359e-05,3.1737394,-1.6020873,-3.0457945,0.036274023,-2.6752892,1.3975728,2.1525967,-7.563666,3.8043113,-2.9883032,2.5607643,0.5594342
-3.2574668,0.16021249,0.7893367,-8.56622e-06,0.5980984,-2.037792,4.3785787,-3.219822,-3.1314054,-2.8615878,0.19518402,1.4985013,3.8168106,2.6208818,-0.455114,-0.03883657
-3.6913128,0.7407176,-0.008816842,-3.0493638e-06,-0.8553859,-1.6624806,1.6728662,0.013029814,-0.119258165,1.2977269,-2.3626614,-8.2954235,-3.8608937,1.8635123,-3.5985398,0.112110145
2.4993815,1.1661552,-1.0240448,-0.43974137,-3.1758716,3.3663108,-1.8083074,0.009882375,3.0926335,3.6354303,-0.47664487,0.009403031,-3.328247,1.3556086,-1.2813289,0.80280805
3.8068428,-3.317113,-1.1078132,10.621516,1.3138378,-0.22719371,-4.995324,0.05570984,3.5244029,-1.9430462,-0.08201355,-0.093208484,-5.046548,-1.6861607,-2.1860743,-8.577796
3.9823906,-1.8780996,-1.9199568,12.87633,3.0054984,0.7113338,2.849319,-0.04019758,-3.0678043,-3.8335407,-3.8147283,0.01278713,1.337316,-3.8504949,3.8389306,-0.045128264
0.7728933,0.8853962,3.4661036,1.2688535e-05,2.5547545,-0.72369134,1.8349718,-2.7398124,-4.206804,0.43022054,3.2229397,-5.178741,3.890308,-0.4845825,3.016957,-0.016190656
-2.1169782,1.6063534,0.022102544,-4.1308813e-06,3.6722991,-3.581793,-0.8392921,-4.6778193,-3.6090746,1.5835204,-0.52981645,-0.28680015,3.8691669,3.9108841,-0.025297672,-0.019257486
-3.1641724,2.5045588,-0.024524689,-4.4454006e-05,-2.1195426,2.1281161,-2.3946464,-0.011844449,-2.434488,3.5044703,-0.8837532,-12.621406,-3.1637256,1.0237669,1.862463,1.1878184
3.7231727,-2.9866338,-0.19008046,10.0266905,-2.009974,2.7828462,-2.288105,0.012445442,3.3640108,0.7759156,-0.35010028,0.0030364394,-2.7013924,-1.5067867,-0.20760548,-7.9223433
2.890242,0.91169566,-2.287361,1.0621696,3.378819,-2.2202153,-1.8971312,-0.0011141151,3.228094,-3.680076,-3.6377296,0.031650737,-2.4151132,-3.3012862,0.33783767,-0.04820059
0.57030094,-0.6538471,3.4478345,1.135536e-05,3.5735002,-0.8745246,1.3999376,-0.5295248,-4.128688,1.870312,2.7000551,-8.434726,3.983982,-3.15838,-0.07098347,-0.018027999
-1.9622581,1.4059349,-0.0007244479,-1.7340744e-06,3.8746276,-3.2519186,-0.81360227,-8.927671,-4.120306,1.1655321,-0.06849186,-0.68542314,3.902499,3.9391234,-0.1649411,-0.007647982
-3.7348626,3.2896633,-0.00225362,-4.716542e-06,-0.8592479,-2.0318508,-1.6169419,0.08712761,-1.1539453,3.091699,-2.9257596,-0.74082315,-4.0823307,-2.548355,-3.5020463,0.11411299
3.180307,-0.52889246,-1.1226327,5.47544,-3.105059,2.9908605,-1.871136,-0.006141897,3.3600879,2.3848212,-0.35371917,-0.019708537,-4.4207554,0.73613924,-1.499937,6.9689274
3.2472308,0.8967804,-1.6392843,-4.5573177,0.787758,-0.98913205,-4.782067,0.006181717,3.4875803,-2.57158,-0.08485419,-0.016888335,-3.1993082,-0.19050919,-0.9687543,0.016683795
1.4109111,-0.16052204,3.475613,1.2559063e-05,3.1247706,-0.28417158,1.0757139,-0.9033723,-3.7802792,2.4957151,2.1029677,-11.662323,3.7944703,-3.1078465,-0.295946,-0.048069783
-3.1087134,1.657282,0.105111495,-7.0935766e-06,2.2984664,-2.6700177,0.19324622,-2.539032,-3.4541707,1.0062268,-0.71224415,0.18632752,3.54595,3.855809,-1.7798547,-0.032157898
-3.4126756,2.4417503,-0.061974585,-1.0183578e-05,-1.4112189,1.5736109,-2.5026016,0.030001529,0.8662889,3.2934213,5.0629735,-0.042560577,-3.0502303,0.120836616,2.0691442,-6.1437936
2.6377444,0.7841774,-1.2894156,-1.6183207,-2.1991398,1.4687304,-2.894266,0.01644421,3.234632,1.3905038,-0.2750271,0.0107237995,-2.986593,-0.20263991,-1.0794008,2.1809783
1.4826201,-1.8996334,-2.9750443,15.439768,3.588294,-2.7729142,-4.3041472,-0.029291153,3.331706,-2.279955,-0.2767349,0.046012796,-2.240211,0.4359018,0.7621174,1.8318261
3.3356118,-2.2961223,5.700833,0.6093025,1.5514629,1.0438201,3.0583684,-0.9750447,-3.694786,-2.1513515,2.5212505,2.021504,3.7962618,-3.2898293,2.0700629,0.016090922
-0.9119594,-1.3979203,0.52892387,7.1304385e-08,2.458609,0.44571137,0.6821454,0.31768227,-2.2842388,2.160584,-1.1955912,-9.732262,3.5642118,3.9783301,0.049140334,0.004181564
-3.6910264,1.8426808,-0.00823028,-7.80977e-06,-2.321724,-0.8033854,4.0194974,0.07890606,0.5810292,2.5540445,-5.424847,-42.822197,-4.079047,1.0766857,-3.5140371,0.11231744
2.1550887,0.3284322,-1.6718197,0.5715542,-3.42092,3.5014167,-0.4411162,0.13621765,1.2504973,2.285904,-0.23779729,-3.4350836,-2.6882832,0.71593,0.5520255,3.7237236
3.4883385,-1.5612398,-0.8452235,4.8313437,-3.6053514,-0.8973857,-3.5392542,-0.015142805,3.2168283,-0.98527145,-0.50001967,-0.035563864,-4.173623,-0.5064043,-2.5507298,0.45311767
1.646862,-0.63048524,-2.0892425,3.8956704,3.504084,-0.1153184,3.4384122,-0.0030156919,-3.5411174,-1.9450899,3.4283056,-1.2104349,3.681436,-3.8813827,5.2271376,0.0037879944
0.30252245,-0.47175872,3.3825068,1.1659475e-05,2.3338015,1.2676003,1.2535956,0.8765167,-1.7322962,0.553602,-1.3171277,1.2781267,3.9533567,1.1757654,-1.1261296,0.052326567
-3.272301,1.4322389,-0.0022921264,-6.5320637e-07,3.4089131,-2.44422,-0.33804232,-5.771076,-2.871293,2.2493,-2.5473847,-18.942654,2.2661748,3.4948742,-3.8701577,-0.075689316
-3.6080117,2.1809423,0.47034723,-8.244536e-06,-1.6358609,1.3169422,0.3727077,0.075782664,-0.9473342,3.125775,4.1610847,0.85924286,-3.9915009,-3.3130834,-1.1447809,0.09681006
1.6499724,-2.4808004,-1.449807,10.694835,-3.3498604,3.287918,-1.8952608,-0.013404377,3.175497,1.9777858,-0.39851,-0.07926984,-3.977139,0.4823102,-2.1138043,7.9628
3.6354034,-0.41906685,-0.74350923,1.4887968,-3.4449248,-0.70993567,-3.6775048,-0.02461161,3.366987,-1.5765038,-0.37537777,0.037147775,-3.5890992,-1.2105515,-1.8992754,-3.7820406
3.3940887,0.3267078,-1.4184973,1.7988,3.3425841,-2.7866454,-1.3541167,-0.005527728,-1.4577613,-3.8988554,-3.8319242,0.018076535,3.1393476,-3.8959415,3.8231606,-0.046889782
0.46683258,-1.3507514,-0.035892814,-3.3024646e-06,2.9730394,1.1597515,0.91129154,5.351918,-2.7883134,-0.49226785,0.5257269,3.1694136,3.7714748,3.3532887,0.6574664,-0.062479213
-3.5658896,0.8832097,0.008639708,1.2552528e-06,3.7915044,-3.5405152,-2.4133358,0.057658445,-2.5046375,-1.6562636,-0.826024,7.306119,0.7733531,3.5671997,-0.8567493,-0.092909604
-3.5348997,1.5107111,0.7156316,-3.5821668e-06,-2.1532204,1.0276271,1.2861714,0.058229774,1.3391633,5.0930595,-0.9632089,0.5532886,-3.5976279,0.81831384,1.3834696,2.4924726
2.3529851,-0.56548905,-1.3315381,0.055550814,-3.5076108,1.9258295,-2.3623886,-0.00087323785,3.2169728,1.4014212,-0.18653,-0.062364474,-4.470911,-0.0422217,-2.0956376,5.157374
3.8633246,-0.1347555,-1.0446026,2.0029054,3.3900301,-2.4762256,-4.5448213,-0.020947456,3.707173,-2.2181773,-0.17555586,0.06162258,-3.1887321,-1.493423,-0.8553381,-5.931054
-1.1627849,1.3913004,-0.83786386,1.6049185e-05,2.4842563,-0.7745869,3.0450692,-8.099199,-3.5558352,-0.98928225,3.603756,-1.2680303,3.734483,-3.7960353,3.6901407,0.016051002
1.9973519,-2.6192627,3.3410523,5.374282e-06,3.4544756,-2.0319567,0.17157921,-7.2417936,-3.839181,0.116715625,-0.6207448,2.1998808,3.9450655,2.9945107,-0.31220102,-0.020013062
-3.5881863,2.261882,0.14018442,-1.5298501e-06,1.0631584,-3.3529484,0.74588454,-3.1340604,-1.8397222,1.824742,-1.1740024,-0.4231949,-3.4732428,1.0812314,-4.4478626,0.13112256
2.4664564,-0.53373706,-0.66001195,1.5671144,-2.962686,3.1382442,-2.8006501,0.00030283444,1.8692077,2.1808977,-1.5123662,0.006029494,-2.001207,0.6985425,-0.015070546,1.9485853
2.0811543,-2.4312267,-2.343629,11.88511,-2.6852665,2.3828812,-3.465026,0.010336325,3.2918186,0.79132235,-0.39141408,-0.03439504,-1.7811389,-0.96007586,0.34320927,-6.3922577
2.967804,-0.06909764,-2.3239584,6.5806904,2.1578784,0.13876241,3.4397905,-0.015268078,0.74620754,-4.1333475,-3.885108,-0.014829427,-0.45485017,-3.7550342,2.048145,-1.1202397
1.5212644,-2.499367,3.3678935,-8.059401e-07,-0.054965258,-0.21781611,4.254712,-12.689237,-2.4779077,0.8581313,-0.52939963,-0.991156,2.8095422,-1.8552372,-0.11153746,0.69577026
-3.3806732,1.4216263,0.031255916,-6.0826424e-06,3.7878602,-3.9097018,-1.7212468,-3.1399286,-3.6825218,-1.8183074,0.1748631,1.5321221,-1.5566176,4.208898,-4.913121,-0.0059108734
-3.407615,3.3054168,-2.9977229,-2.746401e-06,-3.3283224,3.355476,1.3233619,0.020616662,1.053322,1.1995045,0.55583006,-5.779253,-4.8085017,0.8830394,-1.0617859,5.466623
1.7865767,0.052215546,-1.2050654,1.56052,-2.8902013,2.4147687,-3.7592056,-0.00021048053,3.270449,0.17563522,-0.6041442,-0.0017951652,-3.2313776,0.15185389,-2.1587887,5.5771456
1.7778126,-1.4622805,-3.4675188,-1.4114008e-05,3.3872647,-2.686399,-2.9786215,-0.019206718,-0.83200765,-4.0736,-3.9200222,0.034924332,2.652082,-3.8097217,3.797241,-0.06870676
-0.08631879,-3.2693753,3.2646806,1.3898425e-06,0.099439085,0.2748084,4.1295753,-7.7864246,-2.118658,-2.085421,-0.7491887,-6.6249943,3.7520213,0.1497109,4.09231,0.09859848
-2.824934,2.0344234,0.3318414,-1.1325554e-05,3.1172366,-3.9156134,-1.0806196,-5.2385025,-2.3510618,-1.5694418,-0.42108893,10.0012245,3.328171,3.5683844,1.368864,0.026895285
-3.2321508,2.4284425,-3.3340588,-3.891646e-06,-3.5074973,3.56168,-0.3436644,-0.0032391464,2.6526008,2.5219274,3.8163085,-0.12853882,-4.1329646,1.782291,0.69455785,5.199953
3.192844,-2.1070988,-0.31867093,2.6848137,-3.887146,3.5341494,2.2291963,-0.0022125244,2.4237072,1.0668759,0.2607717,-0.06501236,-3.528118,0.017860293,-0.9014445,3.437264
1.6119854,0.9536267,-2.5714746,1.7483159,3.4486327,-2.4794583,-2.8597736,-0.007210948,3.4835892,-3.7655935,-3.6882322,0.04762025,2.2978737,-3.1811705,3.7351828,1.0986252
-0.05973409,-0.4916365,3.4459538,9.361278e-06,3.3892474,-0.6941464,1.2666276,0.31179446,-4.059963,0.8743994,2.5885434,-3.3784206,3.8165166,-2.0631814,-1.8988605,-0.056666404
-2.3538432,0.9996893,0.2788137,-5.917759e-07,3.323317,-1.0656238,1.7237308,-8.251209,-2.5322304,3.4866025,-1.9830837,-7.5905647,3.288172,3.3104253,-3.058689,-0.0076253954
-3.3203204,3.0060744,-0.0036029518,-1.4971843e-06,-1.4141697,3.0007484,1.0119729,0.012753632,-1.8578978,3.1725788,3.5199027,1.790586,-1.3889358,1.6973871,3.7297356,-2.4019365
2.505167,3.3010361,-0.23260579,-2.476489,-3.173524,3.303836,-0.79670745,-0.0051769316,3.1300976,2.5572615,-0.40021133,-0.010604046,-3.3692744,1.669616,-1.3898404,9.168891
4.2630033,0.16541684,-0.38240945,-1.4722064,2.8729615,-0.73149025,-3.5596504,-0.031120194,3.730122,-2.9673157,0.58786815,0.06908479,-4.0107555,-0.26492453,-1.1893849,-0.7157533
1.9620327,-3.1211815,4.0433736,23.378822,3.3326967,-3.0399609,1.3498907,-0.0001413459,-3.9703813,-0.121528864,2.4341855,-4.9335537,3.820856,-3.519667,3.528387,-0.029366165
-1.9180362,0.9205557,0.13962865,-2.4912206e-06,2.8789098,-3.4597807,-0.29225582,-0.42777854,-3.1844375,-2.8175037,-0.7060136,6.894838,3.536402,3.5617642,-3.4775047,0.00030973554
-3.367529,3.052436,1.6010326,0.00025177002,-2.4767752,3.01301,3.3571305,0.06718886,1.4114869,4.1729145,3.8173563,0.0202991,-0.5507505,2.085549,3.6526496,1.5283028
2.384173,-1.3465853,-1.5402694,0.6380993,-2.331256,2.9840121,-2.9373026,-0.0007051546,3.1069975,1.6843106,-0.4082616,-0.002720885,-3.6513739,0.042616755,-1.3500079,3.2920933
2.3788986,0.21497108,-1.9188067,1.2889023,3.4500084,-1.9399185,-1.6855949,-0.009666754,3.4242377,-3.7519922,-3.674893,0.048538975,-1.9305353,-2.2112455,0.37940317,-9.669503
1.2748412,-0.37644646,3.4012408,5.1441866e-06,3.3647027,-1.4597427,1.5155402,-4.796809,-4.3549476,1.730643,3.1758645,-8.619215,4.095215,-3.1583664,1.6647727,-0.093568325
-2.9111686,0.17289047,-0.00089974515,1.5111086e-06,2.4083195,-3.041879,0.71627426,-0.00022136327,-3.1069791,1.8704932,-0.50541127,-2.8045957,3.6397288,3.7968538,-0.2557943,0.0035559442
-3.7249882,2.050371,-0.0064999852,-4.3545724e-06,-2.8661427,1.6530778,3.1610694,0.08909619,-1.1707522,1.4060938,-1.47052,1.8657107,-4.2574754,-3.1739256,-2.7034838,0.1232855
2.0556917,-1.7510017,-0.6559341,6.7089844,-2.9940944,3.002395,-2.009164,-0.02901847,3.0802503,1.558151,-0.33000803,-0.03349477,-3.6243155,1.4955937,-1.3436294,7.5141225
2.368509,3.5199118,-1.815917,-7.4876766,-3.6366737,-1.8378363,-3.7037997,-0.05364585,3.2948608,-0.39549634,-0.09377557,-0.019085407,-3.6146028,-0.07787296,-2.2470555,3.884639
3.4692206,-3.173684,0.1363154,0.5247297,2.9119227,0.08068973,3.783128,0.0031063333,-2.2855332,-3.8666635,-3.8465161,0.022327296,2.553466,-3.3224466,2.586237,-0.06826535
1.3266603,-3.0102398,3.360847,3.8916687e-06,2.6196644,1.3562292,1.2494255,0.51455265,-2.0545976,3.2332797,-1.129777,-11.406143,3.7616284,-0.9157297,-1.0487235,0.035479546
-3.2575393,1.3968889,0.064695105,-4.59724e-06,1.9250718,-2.8900316,0.8700339,-0.0031847022,-3.291231,-3.098861,0.31072468,3.211132,3.1498566,2.84278,-0.5939261,-0.0047392845
0.096137896,1.64052,-0.20185682,-1.2686744,-2.4497807,3.1343453,-2.0913963,0.0006018868,3.0153372,3.8067198,-0.42883497,0.0065464824,-2.095115,4.2046547,2.0143025,-2.4190135
2.7057676,-3.582006,-0.8656018,5.743519,-3.1028419,3.5662136,-3.498213,0.06006319,3.1874552,1.5304801,-0.38449413,-0.03864804,-3.389367,-1.1293871,-1.6931841,-4.7699766
2.74881,-3.3446374,-0.31617713,1.1544275,3.2498512,0.06328124,-3.5428166,0.029487528,3.0308468,-3.237736,-0.25047255,0.016845198,-1.7397529,-0.15099174,-0.94720274,1.462256
2.4358306,-3.323455,1.9245429,-2.3351208e-06,2.948999,0.6318238,1.6598663,0.8707484,-4.186458,-1.4942839,3.0758731,3.6738234,4.0858874,-2.7199764,3.563084,0.40618274
-2.2652261,-0.12637722,-0.041178323,1.4171237e-06,2.8687255,-1.0253042,1.1779053,-0.077200964,-3.601868,1.1567516,-0.5812277,0.093088806,3.8270113,2.5744288,-0.39586008,-0.009700048
-3.2078073,3.0594585,-0.117382824,-1.2100731e-05,0.33813256,1.0953372,-1.5913199,-0.004698813,-0.011430242,3.7446804,3.7744699,-0.0021302402,-0.7284081,2.153114,5.0413084,-1.3270053
4.053825,1.7698566,1.6150447,-3.0491734,-3.2905414,3.5217988,-3.3259068,-0.02470962,3.340697,0.12510434,-0.23410162,0.018777646,-1.5766273,-1.1311345,0.48485053,-5.3222456
2.5053875,-1.2057198,-1.0895431,1.1398007,-3.4073741,-1.4487426,-3.6011167,-0.0068002343,3.2606473,-1.5863116,-0.29468602,1.2665987e-07,-3.687765,0.24218456,-1.2790325,1.8126848
2.6002135,2.2592373,-2.1553473,-2.9220257,3.336539,-0.07222518,2.662662,0.002629527,-2.312439,-3.6245465,-3.6790438,0.019673169,2.8132045,-3.061775,3.952589,-1.6655371
-0.5845318,-1.2984135,3.3055365,-3.5212279e-06,1.8975661,2.4125295,1.967272,-0.3437075,-2.0182528,0.4279641,-0.97489715,0.1251543,3.8027554,2.1112852,-0.084322006,0.037700437
-3.4586291,1.293185,0.4397456,-9.618501e-06,4.133598,-3.8275316,-0.41243273,-7.732829,-3.7148132,-0.017574847,-0.6089704,8.94492,-0.21426484,3.704681,-3.346087,-0.02196501
1.0633928,3.2287376,0.318906,-0.13244057,-2.8199136,3.1541786,-1.7064375,-0.015591461,2.7305152,1.8808575,0.028986067,-0.052059267,-1.748999,-0.52370524,1.2407438,-2.8048937
3.8115497,-1.2335857,-0.028215677,2.663476,-2.841196,-0.50169027,-3.7756639,-0.021576941,3.2789693,0.17644802,-0.52444214,0.02393835,-2.7465296,-1.5438021,-0.8397709,-7.693059
1.2248793,2.9811552,-5.7894464,-16.919977,4.162034,-3.162578,-4.0463734,0.03059864,0.2704144,-3.5322137,-3.772378,0.09142478,1.4777141,-3.2258904,3.5131426,-0.036973245
0.40095258,2.9084868,-2.0662777,17.358292,2.7533233,-0.22925246,2.6070585,-1.1881173,-3.5331192,-1.0244112,3.7566626,-1.0325048,3.7835653,-2.0416496,3.233999,0.013331275
-2.0311558,0.23413797,-0.007006699,2.8527193e-06,3.288104,-1.5608355,0.8085388,-0.5308585,-3.1649969,2.857009,-1.0890089,-9.942905,3.4742231,3.8214252,-0.048466556,-0.00055351853
-3.7874897,1.104701,0.0006371811,-5.308916e-06,-2.7455826,-0.28254676,2.4457846,0.09863631,-2.2713566,2.8565528,-0.1537714,-3.8644767,-4.2650237,-3.097899,-2.4480882,0.12564279
1.9351896,-0.64445937,-1.0532968,5.0746317,-3.277326,3.4251769,-0.21647687,-0.011313866,0.24385688,2.027534,-1.206399,0.6296444,-3.3399117,1.2841969,-0.73275125,7.8509636
3.7456877,1.4456451,-0.6811564,-5.931801,-2.45201,-2.4739974,-3.9332676,-0.010127209,3.511679,-0.9315322,-0.5090356,0.059042525,-3.4885502,-1.726914,-1.4362683,-5.965318
1.8862371,-0.01975739,-2.5397935,10.590294,3.3544276,-1.8560816,-0.51539737,-0.028695485,-1.7946326,-3.1664393,-3.67377,0.008862924,2.6265028,-3.9315104,3.8234336,-0.0139283165
-0.50062174,-2.6674306,1.8612195,4.1974e-06,2.4298851,2.5595264,1.814495,5.347172,-1.6501106,1.9992981,-0.7567388,-7.4648,3.4889958,1.9703503,-3.6562335,0.030852899
-3.3316636,1.2653147,0.38741046,-3.373505e-06,3.037727,-2.5505662,-4.063033,0.012966705,-1.8579887,-1.519575,-0.35227242,6.2364483,2.5945313,3.6048124,3.7792645,-0.0606184
-1.8152087,0.9434277,-3.392758,-8.840776e-06,-3.3210564,3.4370244,-0.42993474,-0.0106156375,3.2754447,-0.21032535,3.694819,-0.053758148,-4.0761375,0.62590754,-0.31968182,-0.2215907
1.8849316,-2.6012986,-2.0071957,12.228998,-3.2365916,-0.21139243,-2.6112359,0.041011848,3.3529549,0.24634501,-0.16101822,-0.04428845,-2.647931,-0.7000127,-0.35328496,-2.5764742
3.2434742,-1.1261363,-3.403664,-1.4985868e-05,3.5591981,-2.6339917,-4.1085773,-0.014205933,-2.7464015,-2.7727003,-3.8984907,0.15858687,2.570085,-4.3598413,5.4595213,1.0219574
2.2246091,-3.3296454,3.246491,-6.3080233e-07,3.4588299,-0.08398223,-0.29219866,-0.22618961,-3.2840748,1.552261,-1.375757,-3.3561068,3.7312126,3.338719,1.1028606,-0.011445999
-3.5892525,2.387196,0.0032624677,-6.830957e-06,0.22947219,-2.441277,3.3012474,0.053724878,-1.6327368,2.2776847,-2.903233,-5.1227894,-3.2171707,2.0654333,-3.62582,0.09370459
1.5264779,1.6866208,-0.35297132,-3.0432186,-3.1905274,3.337707,-1.9665886,-0.010421373,2.981404,3.4102147,-0.3050748,-0.027168026,-2.2560122,0.19955765,0.6754491,0.2971974
4.488303,-3.0072613,-0.016670346,8.825917,-4.0785103,3.274449,3.0022776,-0.033480644,2.8346338,-0.7068235,-0.347951,-0.1654201,-4.3810287,-0.19966018,-1.4914253,0.6465528
2.0653143,-2.8446581,-1.7454623,6.1168194,3.332829,-0.95538527,-3.582584,-0.0037674122,2.0482383,-3.1849303,-1.4981092,0.06456488,-1.9881784,-2.5223622,-0.2970767,-7.455665
3.087004,-3.3226109,3.2714806,4.150018e-06,3.266991,-3.1167562,-2.6248522,-16.37886,-3.9756835,0.88749146,2.5913517,-4.9174247,3.5945964,-1.5409386,-3.8198,-0.086512566
-3.0332575,0.4126336,-0.059529424,-6.5040426e-06,3.1723623,-2.6336467,-3.572773,-6.5928325e-06,-0.9515625,3.326542,-3.4014556,-24.749111,3.679944,3.7912228,-3.5567362,-0.023509324
-3.600741,3.0561664,-0.040646885,-3.7548343e-06,-1.5659359,2.6536224,3.2729518,0.06641813,-0.8092402,3.6863544,4.159926,0.32755566,-2.4022496,-0.16694081,3.227203,-8.678513
2.5920203,-1.2070161,-0.52464163,4.2445655,-3.0168183,3.0763419,-1.5673348,-0.007831415,3.2090142,0.541785,-0.7013924,-0.017940924,-4.377211,0.11396021,-2.843336,5.772643
3.6462972,0.9808635,-1.2221278,-2.1513336,-1.0140489,0.37302318,3.4082115,-0.015964847,3.5605757,-1.9026389,0.430523,0.03528828,-2.6437716,-2.277068,0.1852588,0.47677135
-1.5768094,2.161675,-4.547591,-7.027527e-05,1.4674468,0.78867066,4.2171373,-9.273065,-2.771379,1.444443,1.0282152,-12.1315,3.1779513,-3.373276,3.0168595,0.4359516
1.4830233,-3.2549417,3.3050013,3.7473183e-07,3.778512,1.4784627,0.519042,1.8675725,-2.9015014,-1.1419743,-0.68649864,1.3514619,3.912898,2.4775605,-0.7135662,-0.17011404
-3.7089355,2.4657419,0.00083557144,-5.9621148e-06,-2.6861734,-2.5804248,3.6012216,0.08020361,-1.5036275,1.7107239,-2.7367861,-0.16908798,-4.11298,0.93471056,-3.5312114,0.13828778
3.237179,-0.37004888,-0.4463365,-0.74280626,-2.183414,2.8757148,-1.4286023,-0.01833843,3.301897,1.3339157,-0.38409233,0.045484185,-2.3155708,-1.3765737,-0.20538044,-8.408248
3.8451693,-3.0475388,1.4640105,1.1470191,-3.6255956,-1.5016383,-1.8798392,-0.030909345,3.8177388,-1.2721108,-0.016042441,0.06530105,-2.5953045,-1.5496969,-1.0344335,-5.338809
1.824781,3.2635345,-3.873331,0.054461997,2.6782193,-0.28772187,3.1643882,-8.43869,-4.257448,-1.8429585,3.566685,4.8144693,3.3716652,-3.7104435,3.5763164,0.047611915
0.4275496,-2.4199648,3.3548684,1.8577048e-06,2.3690689,-0.05407817,0.44044095,0.5357547,-2.0841155,-3.6278284,-0.067145616,-4.0217285,3.9337745,0.43903217,-0.7533025,0.044836998
-3.749124,0.87382597,0.096806884,4.1562063e-05,4.056452,-3.800093,-1.3842057,-5.156516,-2.2091897,4.0131006,-2.7309074,-19.28389,1.7975376,3.6141093,-1.3919349,0.004130088
2.9368613,-0.27592105,-0.8050876,1.1293243,-3.2665095,3.25918,2.7566967,0.00074999686,2.118141,-0.023845946,0.039657347,-0.007580228,-1.2686701,-0.8029074,0.6722093,-6.6631846
3.3074934,-1.6654613,-0.49047822,0.81840056,-3.07155,-0.22971687,-3.7426727,-0.0013137031,3.3499978,0.22817111,-0.16184524,-0.0017960444,-3.693027,-1.2711895,-1.7061037,-2.8590157
2.7646954,-0.04133977,-1.7039143,1.1738001,3.471956,-0.7138912,-3.1252384,-0.0020662942,3.5546775,-3.652044,-0.11209242,0.054497555,-2.8167176,-1.7148095,-0.7886834,-10.2619705
1.9057685,0.7389105,3.4631774,1.0521444e-05,1.2031255,2.5593016,3.7818384,2.017679,-3.0719302,-0.5810175,2.9354274,-0.8975884,3.2730188,-0.6201154,3.7770305,1.0170767
-2.606724,-0.770331,-0.0011126082,-4.227428e-06,3.3952441,-1.2267735,0.069456935,-4.5036006,-2.690882,-2.4255943,-1.5769362,5.336895,3.2756708,3.2236702,-2.4617448,0.042478297
-3.6118155,2.2201252,0.5379899,2.970823e-05,-0.38790256,-2.2573855,-2.264367,0.06828445,-3.0819585,0.72979695,-0.7835517,0.3261479,-1.3284806,1.9621906,3.5134165,2.3459492
1.4329234,3.610277,-1.7994632,-4.1218863,-3.36184,3.3161724,-2.1005387,-0.051548913,3.1663525,2.5910234,-0.13094288,-0.017657362,-3.0833821,0.82683104,-1.1448996,6.700898
4.0161242,-1.950201,-0.12645349,5.6373796,-3.4621644,-1.6723863,0.44361684,-0.039051913,3.5057557,-1.1495878,-0.13025492,0.041004494,-0.46055776,0.36891663,3.2190702,-5.4537606
0.36015767,2.0040226,-0.76369405,-1.492659e-06,2.569555,-0.32492828,2.9828207,-10.471768,-3.7694793,-1.7284461,2.491266,0.20147538,3.7508993,-3.4335613,4.179253,0.015553795
-1.644818,1.8592932,0.2055764,-2.5217264e-06,3.4020782,-1.8703134,-1.136581,0.44930634,-3.4693587,0.6085561,-0.07719168,0.7177787,3.7527285,0.6198026,-1.1363479,-0.07812926
-3.5000696,0.7814189,-0.00058685616,-5.722134e-06,2.3933177,-3.5686893,-1.0587283,-0.2759205,-3.2582405,-3.2596457,-0.024160534,2.8788314,-3.3969324,1.8267231,-3.4841774,0.060133398
3.1995683,-1.8982549,0.5131674,4.113784,-2.7200255,3.2102475,-1.3795208,-0.013710198,3.1489284,1.807503,-0.4071905,-0.020239785,-3.7843797,1.3653389,-1.5028386,8.011023
2.9907322,-2.6887066,-1.2541153,10.676906,-2.8979104,-0.70689636,-3.8106039,-0.012741879,3.2733696,-0.7819941,-0.34633982,-0.031242535,-3.933203,-1.4483505,-2.222712,-2.9318514
2.27034,-0.2821374,-1.9269909,7.3562584,2.6613462,-1.3026068,2.1301217,-0.016531594,-1.6667743,-1.9460931,-3.578803,-0.0059845485,3.0617425,-4.125442,3.8937495,-0.0052286647
-0.92293656,-2.028923,3.375568,2.2372333e-06,1.5732393,1.9456398,2.0738895,-0.050158024,-0.09492253,-2.4156835,-2.8310149,-0.3995911,3.9181976,0.31308204,-0.96936774,0.05327463
-1.755754,1.2273567,-0.036141783,9.40988e-06,4.3965044,-3.2544732,-1.2802196,-4.73761,-3.6161315,-1.7285221,0.7178195,3.85175,4.0204644,3.4997318,-0.69708186,-0.12684281
-3.8556514,3.2054179,-0.02084636,-4.1011735e-06,-1.2831161,-2.7332544,-4.0289226,0.11730135,-3.528053,-1.9157825,3.7728868,0.80266345,-3.917357,-2.4018564,-3.4502215,0.092090786
3.0648751,-0.42261907,-0.17854303,1.3104026,-3.4015894,3.1282852,0.2201404,0.0006367164,3.1639671,3.0065222,-0.27013677,-0.044690236,-4.078566,0.73016924,-1.9439063,7.203807
4.0372934,-2.5439332,-1.0949235,10.052571,0.17387259,0.05012119,-4.414673,-0.030238688,3.6122005,-1.0317038,-0.16937429,-0.024096087,-4.30599,-1.5021113,-2.7599313,-3.593359
2.659615,2.7615213,-3.8797,-3.5672914e-05,2.4195955,-2.8272617,-3.3596454,-0.08144787,-4.1262155,-0.9859899,3.6875992,-2.554878,3.6744983,-3.5304692,3.4658785,-0.030839544
-1.8760618,0.67760617,-0.04041727,6.2870677e-06,2.7755842,-1.8198718,0.48191345,0.19425814,-3.1210299,0.80860084,-1.1813643,2.3277867,3.7248178,2.2679806,-0.68998003,0.0029045194
-0.14975375,-1.8379571,-1.6720788,-7.3543186,2.0394158,-0.72529095,2.5319877,0.9875525,-0.055403456,2.118063,-1.8844893,-5.506379,3.396223,0.11588815,-0.4899146,-0.019984182
-3.423837,3.2477438,-0.015734076,-1.570466e-05,-0.58850855,1.21506,3.2913144,0.022967573,-1.149234,2.3164444,2.365363,0.13120236,-4.089779,-0.77889323,-3.5047219,0.0897866
1.3563006,2.4493499,-0.984259,-3.060884,-2.639936,3.310618,-2.5869925,0.011172151,2.8323064,3.0779953,0.0024551153,0.0010570288,-1.9983741,0.75096023,-1.0286999,6.531336
3.2328293,0.57084906,-0.36101028,-5.17134,-3.4327514,3.0789099,-3.2785401,0.009245854,3.2454329,-1.4221077,-0.15103751,-0.01702437,-3.6847396,-0.5110721,-2.4879224,1.2079561
-2.3558164,3.7852204,-10.077837,-79.916046,3.0931828,-2.4022963,-3.2235394,0.1332416,2.8217034,-1.7615825,-3.4438078,-0.07306349,-0.74338776,-3.4576988,-3.440002,0.14930284
0.93778574,1.558435,3.9545565,4.513224e-05,3.8185449,-0.3470338,3.4698446,0.07575035,-2.452532,-0.38780385,1.7052248,1.205538,3.7971644,-3.412517,3.5201507,-0.07272919
-0.3102318,-1.3848041,0.5527866,-1.9210984e-07,1.5790408,-0.09943223,2.3532503,-10.269734,-2.618016,3.856221,-1.5744607,-11.721448,3.418532,3.7547944,-0.20221344,0.05625511
-4.0214496,1.7495828,-0.6697665,-0.054237287,0.7642949,-3.4078772,2.019003,0.060577035,-2.5921447,-0.90571356,0.8664812,7.1605835,-4.0355973,-0.90803754,-3.2423735,0.08103883
1.3781104,3.463305,-1.0258882,-2.690549,-3.1598399,3.4224238,1.0558362,-0.025362574,2.8889284,3.7323184,-0.4339171,-0.016658748,0.5052372,-1.0974828,3.098489,-8.816476
-0.054994345,3.560875,-4.2145066,-27.704853,-3.665296,-0.27534148,-3.7433405,0.03244108,3.2991154,0.38026303,-0.031807512,-0.08162573,-2.4020097,0.4093384,-1.1766776,2.6289973
0.8814009,2.8604872,-3.4160914,-9.356987,0.68752474,1.557515,3.9390144,0.008767068,1.7157441,-3.601715,-3.5296998,-0.023945302,2.7061293,-3.5489743,1.2538362,0.023373052
1.0621219,-3.0863411,3.3472059,3.5176072e-07,3.1817281,0.06714831,0.39243776,0.3698967,-2.5686593,-2.6088893,0.20404142,3.3552647,3.8186805,2.2248464,2.5181384,0.03532301
-4.1236806,-0.16739738,0.5097432,7.4717434e-05,0.86826026,-3.0608425,1.1905625,0.6345045,-0.6692381,2.6003587,-3.806713,-37.401802,-0.8164187,3.3506358,-2.7623594,0.100076385
-3.3904853,3.1222749,-3.5805159,-0.00019192696,-1.9491614,3.2938013,1.1660986,0.022386938,0.45310667,4.2409396,0.8007009,-0.1232339,-2.2701962,2.7998652,2.4810665,8.294701
3.0240257,-0.18527916,-0.422332,-0.29173815,-3.1981418,3.287426,-2.4108555,-0.00019920571,3.2062101,0.9373611,-0.45362806,0.020682868,-1.6728202,-2.3077402,0.13952065,-4.889661
0.067588806,3.3655283,-5.5223866,-33.089573,-3.3403947,-2.622481,-3.8672647,0.0011820793,3.8644023,-0.9409409,-0.020257428,0.022227138,-2.2318158,-1.6332452,-0.41088694,-8.176279
3.293598,-1.7158446,3.3135006,4.1697867e-06,2.1911907,0.11165908,0.3749953,0.89758086,-3.6458077,-1.5688864,2.3514528,1.8521037,3.870192,-1.1907611,4.527358,-0.0484066
-0.7487643,-0.009339137,0.0037471093,6.5486756e-07,1.5928636,-0.26747552,1.865266,0.10800497,-3.3256166,-2.1503677,0.060644627,12.414652,3.866779,2.773725,-0.27185768,0.026413213
-3.66068,1.8492283,0.9587766,-1.7954992e-05,-2.8447342,-3.6256685,2.8207674,1.680623,-2.2049963,-1.7223331,-1.7538092,6.041834,-4.1094065,0.10395546,-3.5631897,0.11695063
2.8164594,0.3004422,-1.065994,-0.8030696,-2.961154,3.2542872,0.00860871,0.006406865,2.389312,1.3534223,-1.6454675,0.67153037,-2.256364,0.12189907,-0.2833947,-4.256311
2.9046571,-1.9988384,0.18322326,1.0054109,-2.8306687,-1.6090696,-3.6266913,-0.0012563206,3.02593,-0.3307669,-0.53038824,-0.0024151728,-2.922503,-1.4995095,-1.0240846,-7.014569
3.3464203,-2.6647587,-0.4541033,8.622946,1.5526139,2.693429,3.3803818,-1.2037232,1.4344621,-3.6447763,-3.5552611,-0.01539805,-0.875413,-3.753995,0.84381974,0.28281307
1.1510442,-2.3154278,3.37885,6.5328095e-06,3.426999,-0.5321225,-0.32205558,1.5176151,-3.9211307,-1.483519,1.1216526,5.4070044,3.9534392,-0.31522048,-0.21059158,-0.05510457
-3.490155,-0.67191964,0.47214037,-7.510146e-06,3.4595108,-3.3395555,-0.40361965,-2.9295053,-3.8819776,2.4367867,-0.5432619,-6.491555,-2.4640908,4.099262,-4.2030945,0.032531872
-3.7000656,2.599161,0.393637,1.35531445e-05,-2.168486,2.4140098,2.919076,0.084625155,0.10543847,4.3543873,1.7605326,-3.0187626,-3.8253279,2.8074095,0.94371927,5.921883
2.889803,-1.7148254,-0.9753189,4.8756,-3.6645346,3.533128,1.73533,-0.0071406364,2.7983363,1.1738843,-0.05181829,-0.08646095,-3.069991,-0.8794739,-1.258513,-3.3842943
2.4299512,0.4820105,-1.5174044,-0.18047029,-3.8630316,1.2742469,2.8391442,-0.0019440651,3.3062632,0.30485326,-2.1366532,-0.09653815,-4.377021,0.0630969,-3.3801425,5.0623064
0.69228244,1.327925,-3.1764092,0.32996485,3.2731872,-0.6713191,1.5021284,-0.00028665835,-2.2803645,0.5547097,1.5368323,-10.267555,3.473205,-3.4492288,3.335117,-0.015394941
-1.6596249,-0.19782081,1.3985955,6.8526624e-06,-2.3135853,-1.3016977,5.236942,-6.4553967,-2.3519955,0.8069709,-1.0972185,-0.4397266,3.762118,1.6698637,0.011106014,-0.030893493
-3.8257573,1.1197563,0.025450349,3.0100986e-05,1.1763626,-3.6390295,-1.6469709,0.10611366,-1.364325,3.057983,-1.8816631,-13.738823,-3.4179547,3.3162928,-3.7616003,0.1135197
2.6731539,-0.24881595,-0.24170935,2.7150593,-2.980428,3.3503244,-1.833504,0.010505557,3.1625702,0.99336296,-0.17124048,0.003875263,-2.4574854,-1.5640888,0.022534013,-8.082815
3.524046,-1.9112009,1.0297482,0.84108967,-2.9553957,1.8846025,-3.5885918,-0.013033797,3.415902,-0.29213196,-0.26697147,0.02861118,-3.78519,-0.452033,-2.5880191,-0.014993548
2.6938908,-1.9076917,-0.8883967,10.135219,3.439426,-1.3189316,-0.8156328,-0.02924382,0.3720196,-3.7809057,-3.7576013,0.029197676,2.2721145,-2.4615498,3.5739074,1.6319361
0.9539066,-2.078838,3.4028952,3.871919e-06,2.3984234,1.5743529,0.74276197,4.3056517,-2.0749469,0.41372418,-1.7188065,1.060665,3.628578,2.1639156,-1.1778646,0.01959765
-2.2592895,1.6164567,-0.004642304,1.618253e-06,1.9413719,-2.3937612,1.6658727,-0.014524792,-3.2826524,-2.990937,-0.36597994,5.453233,3.5575523,3.3854415,0.050631195,0.00212574
-3.2108543,0.9680262,-0.22286534,-0.00032567978,-2.7993674,3.367774,0.56014585,-0.009352446,0.21013752,3.9576716,3.9237752,-0.12531334,-3.0647666,0.68535775,2.945333,-5.0806937
1.9838736,-2.80366,-2.1167846,11.478619,-3.4930634,3.270335,1.1160367,0.047742493,3.1468716,0.5191618,-0.119517975,-0.108325616,-1.4322965,-1.2368629,0.28731966,-4.6812534
2.2362885,1.4595717,-2.98545,2.0034695,3.4163206,-2.8407435,-2.5822742,-0.006217146,3.6029718,-3.3803444,1.3503551,0.036059663,0.66512144,-2.789483,4.7321277,0.011154175
2.7777004,-3.2652197,3.1747732,2.4133558e-06,1.7702609,2.6705863,5.2407837,-4.589985,-4.5801964,3.649132,2.389038,-0.10260677,3.6866004,-3.3902733,3.4120855,0.00053703086
-2.9891112,1.3936869,-0.000275522,-1.6480103e-06,3.7621062,-2.7310991,0.32982624,-8.249037,-3.6590068,1.2521617,-0.8163909,-0.2288537,1.6147468,3.7577713,-4.5266585,-7.5283203
-3.7664964,2.711593,0.045030117,5.1242998e-05,-1.6034821,1.563247,0.97849965,0.094272956,0.001102075,3.3549526,2.3995073,0.08997239,-3.0041542,1.645001,2.5081882,0.61413735
1.304364,-2.9521818,-1.8749737,5.1317596,-3.8712454,3.399378,2.598132,0.04229355,2.9508288,2.0480072,0.34453493,-0.12159553,-4.003334,0.45190975,-2.3357596,6.5643477
2.0824764,0.6485734,-2.215892,1.8873831,3.3938794,-2.6407466,-1.9996722,-0.005721281,3.5167143,-3.439778,-0.0703267,0.030594446,-1.0092481,-2.8248389,4.5445867,-0.014917374
1.270786,-3.3312032,1.9237665,1.0550818e-06,1.4794289,1.2870338,3.2068546,-0.028161526,-4.05513,0.22386214,2.8653302,-4.0250764,3.8224359,-3.2832584,2.6402066,-0.0031705797
-1.1909841,0.20280154,0.02298218,2.2591248e-05,3.3568215,-2.5608006,-4.0768366,0.042226817,-2.3904328,1.9034243,-0.76199436,-6.9561443,4.171299,4.035458,-0.085863054,-0.16467324
-3.6691308,1.003944,0.62968194,-7.8549465e-06,-2.5261745,-2.1863093,1.1571373,0.068169646,-1.8400824,0.91296,-1.3163499,4.154601,-4.1204495,-1.0050505,-3.5760849,0.11050473
2.4042716,-1.5360801,-1.1476966,7.496896,-2.6024246,3.2946908,-1.9381605,-0.0061597936,3.1684968,0.41012692,-0.17756613,-0.12905207,-3.728572,1.0531706,-1.1361263,6.020326
3.7535348,-2.9562838,1.6084833,1.5989187,-3.3748477,-0.844268,-3.7132144,-0.024470698,3.6206133,0.5552371,-0.18812877,0.057184443,-1.8917851,-0.44367373,0.26889455,-4.555426
2.8631723,-1.3459907,-3.3607202,-4.0808973e-06,2.8013554,0.5212918,1.5151346,-0.008834864,-3.0282247,-2.6110232,2.3813367,-7.7161856,2.793443,-3.6831245,4.173229,-0.15997529
2.3062556,-2.792656,3.4337926,8.477099e-06,3.1005168,0.8477948,1.180762,-0.6017256,-3.3589487,1.1036226,0.2866397,-3.7669091,3.3260407,-2.2496843,-0.45062792,-0.023376465
-3.2970176,0.71272016,-0.00028324872,3.0154042e-06,3.0466278,-1.1492884,-0.28582716,0.20043278,-2.647323,1.6969213,-1.0690433,-2.593844,2.3982573,4.0384555,-3.8428566,0.036275074
-3.149335,2.0972557,0.9767821,0.0002052784,-1.9586692,3.3501801,0.27715352,0.06201181,0.5064862,2.3930924,4.094647,0.21084166,-3.6823864,-1.4591768,1.8114531,-9.23337
1.7875473,-2.8275847,-1.5475066,11.109008,-2.5253837,3.0559125,-3.2751896,-0.024377614,3.3447645,0.6752971,-0.1597031,-0.039798345,-2.4312713,-0.36534628,-0.13642377,-3.04559
2.7023547,-2.5156045,-1.5356926,10.037749,-3.3139415,-0.4904961,-3.2634497,-0.020763665,3.29045,-1.4680583,-0.4843521,-0.029619105,-3.8727221,0.54153246,-1.1196574,1.029273
-1.7867079,3.0874803,-8.765198,-73.53618,2.7075047,-1.5162805,2.345475,0.038556874,-0.99853694,-2.5654054,-3.7226603,-0.01785031,2.187637,-3.4358797,4.7759495,-4.110276
-0.47615016,-2.818173,3.3814008,4.302504e-06,1.1109275,2.9255543,3.310569,-2.9856205,-2.1628137,2.659006,-0.47353113,-12.231941,3.759516,-1.0548797,-0.13239998,0.06898689
-3.436402,1.1223897,-0.0042577274,-1.4291836e-06,2.1374505,-3.127901,3.3915715,0.20574725,-2.5438786,2.0327122,-0.31240356,-0.04023409,2.6467059,3.4654732,0.102696806,0.04906559
-3.4145813,0.7431268,-0.09094021,-6.5865484e-06,-1.2805464,3.0045502,1.2901927,0.03398432,-0.4637471,3.196322,1.8508395,-1.2599647,-2.26438,0.08781654,2.9496071,-5.091195
2.847038,-2.521267,-0.7307471,10.504184,-3.6808882,3.4212174,1.3726915,-0.0021400452,2.9816155,0.9492373,-0.18614832,-0.073406756,-3.632791,-0.30997702,-1.3074964,1.2640314
0.2519803,3.465447,-9.793174,-62.56141,3.2552958,-1.501562,-3.1566482,0.12386942,3.6970048,-3.5598907,-3.7241635,-0.053254783,-0.28235164,-2.4908597,1.2056962,-6.954311
1.9075106,-3.3196716,3.1484034,-5.032778e-06,2.7770598,0.5548266,1.5936242,-0.18669903,-2.8385522,-2.0571594,-0.2704236,12.603605,3.9701626,-2.4039917,-0.4626053,0.054042526
-2.2142315,1.5024155,0.02592603,-2.593656e-06,3.4535036,-3.346896,-0.8602474,-14.046185,-1.9418397,-2.2542725,-0.46178252,7.6370335,3.479334,1.9262463,-0.23585194,-0.03364849
-3.4366152,1.2801399,-0.004196439,-2.3664961e-07,-1.8267472,2.5651867,-3.3262372,0.035843745,2.5423653,3.4250746,0.8307071,-0.035960525,-2.4962196,2.165345,2.178019,3.1442947
2.5202968,-0.33046272,-1.0667195,1.7928697,-3.1008403,0.6764327,-3.7291656,-0.00059403526,3.4647834,0.9271716,-0.34318796,-0.001283884,-4.3544016,0.07882151,-2.944347,5.378215
2.347338,-2.907118,-1.6384999,4.520447,-3.208228,-0.79985404,-4.0660095,-0.0012340769,3.4976666,-0.37925154,-0.41470146,0.00089462847,-4.6779203,-0.7625116,-4.0598736,1.9454944
2.5465088,2.9854624,-3.0911973,-1.567811,2.3312259,3.1886094,2.9103036,2.434738,0.53942084,-3.3967607,-3.60437,0.005966395,2.897708,-3.6088655,4.0705166,-0.93402153
1.8519022,-2.4621894,3.410976,1.077495e-05,3.3831697,0.20003022,0.8327104,-0.016570687,-3.5713017,2.8600037,1.2440335,-11.002175,3.8234255,-2.289059,-0.17622513,-0.020944394
-3.5033507,1.4692419,0.5348556,-7.5272073e-06,4.028589,-4.0387273,-1.2519635,1.2070293,-3.7168655,-3.0089624,0.63883615,2.1009946,-0.71722645,3.5467165,-0.2597044,-0.045315437
0.48999402,2.6466935,-1.2857829,-1.0957221,-3.3757408,3.3275685,-1.3722938,0.0018717868,3.0277224,3.671265,-0.19257715,-0.038049273,-2.22022,1.1812549,1.2502642,2.6370184
3.7428544,-0.61560446,-0.42444232,-0.26567742,-3.4940615,0.59215534,-3.9226384,-0.028812066,3.6878817,-0.2631978,-0.33243278,0.062170528,-3.7016482,-1.3476315,-1.674124,-2.8341322
1.4049556,2.246351,-3.8925018,-40.09349,3.2537346,-0.28921562,0.04075989,-0.060265586,1.2060945,-3.624058,-3.5976236,-0.037319154,2.1394103,-3.4950027,-1.2781773,0.08856198
-2.9525263,0.9968463,0.5117168,-1.4071594e-05,2.4103012,1.484597,0.23621272,1.8629799,-0.774344,2.4616013,-1.3679311,-6.34112,3.9486864,1.3917377,-0.13874197,0.0346639
-3.472237,1.102984,-0.0036646947,1.3362383e-06,1.6861193,-2.588717,3.3985555,0.14071247,-2.3071828,-0.6323784,0.20926775,2.2921991,2.4850984,3.4498491,0.9198855,0.055669583
-3.37073,0.7753764,-0.104423285,-6.551982e-06,-1.9958583,3.117674,1.8245441,0.023788475,1.7668756,3.3147316,1.1422474,-0.037639715,-2.717545,-0.060314655,1.8682384,-4.7637205
1.3953942,2.9268863,-2.205903,-3.774458,-2.6067646,2.7282033,-3.2347727,0.00022897555,3.2773504,1.7562686,-0.3996837,0.002609836,-3.2529526,0.4949469,-1.7212738,8.008774
-0.1371457,2.193911,-2.5781717,0.7110605,3.0054407,-3.457322,-1.5786755,-0.0025615618,0.44513223,-2.723713,0.9005103,0.008533478,2.7450888,0.42620203,0.9176287,1.4126382
0.99451447,-2.006453,4.511211,8.067489e-05,3.2265306,-0.6571866,1.7118233,-8.038074,-1.1490645,-3.1278882,-3.602853,0.12625937,3.6048484,-3.9570398,4.240456,-0.053699493
-3.4871178,-2.1870906,-0.0022832733,-7.992699e-06,-1.335359,-4.546771,4.028104,0.03119263,-3.2517512,-3.5585399,3.2487984,0.06411946,-2.1798205,1.2930745,-0.15265578,2.0250623
0.30741292,0.49243748,0.72439027,-0.24368477,-0.38963425,-2.9088075,-0.021651149,-0.0006035622,0.04484451,-0.08081517,-0.13089234,0.013374664,0.4379744,1.7092743,1.3028126,5.292215
3.4363768,-1.9964944,4.76012,5.473387,1.3580337,-2.9271865,-0.23014846,-8.095792,-0.5371396,-0.4172579,0.50381416,3.7840772,2.8407419,-2.8629537,3.364501,0.021620296
3.2563214,1.5821813,-0.024173737,-3.883997e-06,0.93162566,2.0015857,-0.51120234,9.106302,0.17732722,-0.68274623,-0.65471137,5.437452,3.5333583,-3.741005,-0.5566685,-0.027703991
-3.2588906,3.5202477,-0.02592988,4.757424e-06,1.0470369,-0.6420213,-1.6007707,2.5350986,1.9366691,-0.9684199,-4.6920447,0.041807156,-1.1682572,0.5046047,-0.057866253,-0.0036739074
-3.0426652,-0.7208987,-3.5590055,-1.1328853e-05,1.1387062,-3.265021,1.1334363,-0.020469306,-1.3053873,0.4611786,0.9581158,-3.0677462,-3.741862,3.4554827,-1.2891885,0.0048744306
2.6623309,-2.262483,3.6377556,3.6213255,-2.954816,-0.59452283,-0.6474111,-0.013379097,-3.5291293,4.240194,3.9706979,-0.004393451,-1.0941347,-2.2434373,0.47094062,-9.8615265
-1.4698396,3.3122036,0.36423838,-1.3856001,-0.14640968,-0.88898337,-0.040846802,-0.010145377,-2.8846636,0.42157876,-0.033559315,-0.015759021,0.5634805,0.3880332,-0.5249263,3.6470513
2.0020845,-0.9785529,-0.080249906,7.6728806,2.3401408,-3.2149067,-1.6651531,0.5091753,3.1718836,-0.07170799,-3.3171604,-0.032981195,-1.7332234,-3.1612034,-3.7350268,0.033397317
3.1795304,0.03014998,-0.050486535,-2.1923806e-06,0.26534542,-2.5865805,0.14493015,-9.812711,-0.5142772,-0.30302995,0.5474062,1.1572461,3.4723835,-0.9135366,-0.16352695,0.024495708
-3.284109,3.1853948,-0.031868853,-1.9717527e-06,0.8350236,-2.7414374,-1.057481,-8.303881,0.018509418,-0.19313514,-1.1876049,3.2470088,-0.27093115,0.39083308,-0.027118683,0.034139246
-3.3597267,-1.5543276,2.8416193,0.00012052059,-0.35436988,2.2573152,0.371297,0.62337035,1.512916,2.4541008,-2.8067422,-0.33295107,-3.737771,3.2976854,0.035460666,0.018212087
3.2063498,-1.5435748,2.9617298,-0.20785731,-2.814246,0.38357273,-0.14509812,0.0011505091,-3.2072222,3.320444,3.3112955,0.0034212233,-2.6730587,-2.016169,-0.9461718,-6.0088506
-1.5720837,2.6447861,-0.6246406,-10.937085,2.9230804,-1.212086,-3.588052,0.012639202,3.283419,-0.8434468,-0.041013993,0.011882953,0.5567539,-0.48700833,-1.140548,-12.086799
2.973408,-1.0012217,3.9681473,0.010271186,1.2281767,1.7269592,-0.23835689,11.509434,-3.3525972,-3.9295125,4.3140335,8.810087,4.0302353,-3.4891224,3.565958,-0.04925005
2.4058948,-0.008407927,0.006428824,-4.0912892e-07,-0.29602587,-2.4421468,-0.20286614,-9.341464,0.7159048,0.1855593,0.019532688,0.8349749,3.4547036,-3.2301383,-0.19561249,0.018833391
-2.4373436,2.4853203,-0.00034110993,-1.5610167e-06,-0.62992084,2.377101,0.31021637,9.499386,0.55096215,-2.1075773,0.049962237,3.680573,0.8555957,0.5940838,-0.040139556,-0.028705865
-3.2416687,1.5010023,-3.428626,-7.384495e-06,-0.1520984,-0.10954256,-0.93362665,0.73752797,1.0494689,-0.84672403,-2.3231845,7.677699,-3.9169457,2.2360044,-0.011265248,0.015577944
0.47998115,0.7302257,0.9498372,-1.7403564,-3.3204238,-0.6750857,3.3074987,0.008145239,-3.2020984,3.5195565,4.6732745,-0.014104843,1.3596768,2.2681754,2.468901,6.2390947
0.021002695,2.2421677,2.1913762,-3.5929165,-1.3026567,2.7998548,2.0090494,-0.01448822,-2.7823524,0.6907042,-0.04232949,0.022773366,0.15898241,2.8910031,-0.13110209,7.146996
0.06325865,0.7891391,1.8688326,0.7631874,-0.4493887,1.2267498,0.64517224,4.4953594,3.4904811,-3.347529,0.72750854,-0.015387019,-1.1643511,-2.6477222,-1.3299379,-17.310795
3.3090134,-2.7215257,3.3754146,7.768246e-06,-2.7115812,3.4136589,2.9919384,6.227545,1.6593723,3.2822886,-1.1273237,-9.395687,3.159245,-3.3707538,1.4915173,-0.039679043
-2.8044214,0.087158695,-0.031872906,-1.5445314e-06,-0.25213253,1.2418009,0.99705863,0.67644906,-0.1091447,0.2916797,1.268735,-2.2428317,2.9344919,0.76603794,-0.029184178,-0.014335211
-3.3966675,3.1564415,-3.189013,3.6432823e-07,0.58986384,-1.6091286,-0.6237374,-4.5458975,0.2506907,-1.0316648,-0.79788446,6.90337,-3.3326228,2.8404534,-0.10582757,0.026671477
1.3367056,-1.9727784,1.9072008,1.1410961,-3.2926524,0.7324818,-0.03992249,-0.017115884,-3.690125,3.3764212,3.3527768,-0.032689832,0.5921738,0.9382833,1.4430912,2.127983
-0.20286013,1.4418638,-0.10125816,-8.838,-2.7678893,2.0131235,-0.10393715,0.019166946,-0.929023,1.0926808,0.041735902,0.10870883,-1.178783,-0.33052045,-1.7736232,0.60511863
-0.43998483,1.3276405,-1.201076,-6.1417313,-0.08039776,0.38986346,0.14936885,1.8239532,3.4876065,-3.4589043,-0.021523792,0.0011770446,-1.6903011,-3.6033173,-0.79068637,-3.810348
3.4451447,-3.396897,3.19213,0.00066280365,-0.50586647,-2.2488732,1.3260841,-7.665156,-1.3872502,0.46257064,2.2348514,-4.7748437,3.564323,-3.481053,3.4440851,-0.009494867
-1.0666198,1.5314051,-0.0117161125,7.133349e-06,-1.7665068,2.551838,2.268134,12.724766,2.3074923,3.258736,-2.7460482,-11.320854,3.317392,1.1033324,-0.17332487,-0.028504603
-3.3740323,1.851475,0.573934,7.496429e-06,-0.6436504,-0.37081835,-0.049729526,-0.59194314,1.0799301,0.21707554,-1.7419199,3.07378,1.4913025,0.6804784,0.0415039,0.017455377
-2.013759,2.7099733,-3.8662672,-41.88143,-1.5444069,-1.7207291,0.06410265,-0.06376377,-2.7019114,3.3594053,0.050740242,0.015440103,-3.5926983,3.8101435,-3.5527487,0.023583319
2.4026904,-3.0856788,1.8082265,8.725129,-3.3102145,2.5298226,-0.09584668,0.019649893,-1.8206742,2.041276,3.4224725,-0.060265467,-1.5521418,-0.12412202,-1.0103438,0.4298206
0.33913207,2.4579446,-1.8504173,-8.024179,0.3385705,3.4927917,3.72651,0.009045601,3.247057,-1.315029,-0.01742629,0.04370969,-2.06723,-0.22790907,-1.8439968,2.2853425
1.9660203,-2.013208,-0.23318377,7.3757443,3.372742,-0.70321816,-2.0352097,-0.01596435,3.3870575,-3.3506782,-1.8622017,0.013118744,-1.858962,-2.4651644,0.24374971,-10.899425
2.828699,-3.316179,2.4170272,-8.304312e-08,2.1226866,2.3164341,1.3199286,0.588304,-2.9176528,-2.1246924,2.5843055,6.608369,3.3932586,-1.9313812,3.247862,0.013936745
-1.3533967,0.055845328,0.16062051,-1.8668061e-06,2.8455198,1.1623957,-0.18493804,7.702166,-2.3781419,-3.0317118,0.41463977,1.5258284,3.7840362,2.7766628,-0.23573351,-0.07073845
-3.7251446,1.0096554,-0.00080400985,2.9155278e-06,-1.7628908,-0.67448235,1.7771103,-1.7406272,-1.6986951,-3.295894,1.0902086,2.0157995,-4.3371124,3.0725787,-2.1691878,0.111533165
2.2035112,-0.7947266,-0.17878756,0.8261266,-3.2718165,3.5253024,-3.3848457,-0.0075949966,3.1056938,2.1883206,-0.32778376,-0.00635311,-3.0783226,1.4796307,-1.0603273,5.9864197
2.8233066,-3.0275369,-0.43112564,10.681019,-1.4698573,3.18701,-3.7280436,0.0048833936,3.2235823,-0.5653728,-0.83581746,-0.058421195,-2.9824562,-0.44729108,-0.46406487,-0.03414163
-0.49267268,2.7822323,-4.920889,-38.346832,4.6591406,-3.4715238,-3.0311918,0.0058345795,-2.3431077,-2.2815385,-3.8812063,0.12622756,3.893698,-3.280363,3.0992374,-0.037487462
0.23089293,-3.51541,1.7583778,-9.75444e-07,3.8686504,-3.1322198,-3.5210905,0.06742245,-2.9199545,0.3868984,0.7347883,0.48748362,4.448102,3.5435271,-1.2584901,-0.12459362
-3.7178438,0.092991166,0.006530285,-8.575133e-06,3.782586,-3.637161,0.27991325,-0.026915073,-3.9754965,-2.9395401,0.8062296,2.3305583,-0.7094573,3.5058248,-3.1666799,-0.023851842
2.1613286,0.6840663,-0.59949327,2.2339425,-2.7284486,4.1243463,-3.7257676,0.0007735267,2.6932101,2.1427581,-0.51561284,-0.0064003617,-3.2884393,-0.061294496,1.4696064,-2.6841702
3.838914,-2.730889,0.87253225,2.1688929,-3.7257285,0.7499477,-3.4123704,-0.036024317,3.5171843,-0.9651803,-0.21726298,0.05807727,-4.0804825,-1.3567529,-1.9459672,-6.359295
2.9485693,-2.5460258,3.0121655,5.0766826,3.8833385,-1.1065538,3.5898466,0.015709862,-3.292887,1.3628321,0.29900342,-16.2429,3.770484,-3.300147,0.5406073,-0.03601902
1.8587642,-3.3969545,1.5137167,1.5426078e-05,4.7499876,-1.0237998,1.0476652,-5.377755,-3.887235,0.6189791,-0.62322134,1.8583305,4.194409,3.620492,0.029449701,-0.051365495
-3.557849,2.5883067,0.060419656,-8.404368e-06,-1.9627848,-0.20663178,4.2899213,0.046667747,-1.795322,3.5114405,-1.3853736,3.5143375,-4.1758156,-2.2042818,-2.11156,0.15449418
