ancorasir/BennettWheelLegRL/experiment_data/2024-02-13_04-15-45/joint_position_env0.csv
Joint_1,Joint_2,Joint_3,Joint_4,Joint_5,Joint_6,Joint_7,Joint_8,Joint_9,Joint_10,Joint_11,Joint_12,Joint_13,Joint_14,Joint_15,Joint_16
0.13675211,-0.0,-0.0,0.0,-0.17687087,0.0,0.0,0.0,-0.25818306,-0.0,-0.0,0.0,0.27254656,0.0,0.0,0.0
0.15987258,0.004654758,-0.007271056,8.659574e-08,-0.18282211,-0.0045176605,-0.010528736,-0.0001262347,-0.23628005,-0.0034918499,0.0072488612,0.00013634522,0.24860933,0.006425878,0.0068294615,-0.00029036886
0.17029431,-0.16243693,0.21854621,0.19170366,-0.33369157,0.14898598,0.14657801,-0.13068068,-0.041458435,-0.11339633,-0.0020086404,0.49370697,0.36686382,0.12565205,0.2811675,-0.19335803
0.0056984182,-0.06844577,0.3813337,0.13304862,-0.45711786,0.12154767,0.19887088,-0.18150792,0.00042888487,-0.124642745,0.024605434,0.52539593,0.43664774,0.16433991,0.3934681,-0.18585537
-0.112421796,0.1329614,0.4000234,0.032296874,-0.49423966,0.056171093,0.17675954,-0.28890005,0.026546968,-0.080059625,-0.020976126,0.45656735,0.3892168,0.122263,0.39934263,-0.1090173
-0.22742961,0.17310257,0.38932762,0.016290594,-0.44232002,0.026036292,0.2012614,-0.25795498,0.04472125,0.08578569,-0.052418154,0.15587138,0.26483783,0.0887816,0.40162352,0.12249975
-0.13906178,0.10245885,0.3529771,0.2932919,-0.31559026,-0.042536482,0.40009442,-0.28977272,-0.017735647,0.19538563,0.24057867,0.029927865,0.07514125,0.07480809,0.28414044,0.17367384
-0.12651618,0.038039885,0.26608256,0.40537617,-0.07043905,0.038528845,0.3204016,-0.22214884,-0.059151225,0.050556283,0.40002373,-0.27260265,-0.005324663,-0.01584447,0.16498931,0.12892145
0.06600244,0.0077685406,0.26647198,0.26948735,-0.042672135,0.03907302,0.31643438,-0.08107416,0.12349683,-0.04231505,0.21945474,0.17679898,0.21858284,-0.23156142,0.31849155,0.07720652
0.075342484,-0.0077977465,0.4000042,0.023377629,-0.14668791,0.09249984,0.36729103,0.18415047,0.19685835,-0.085593924,0.21869354,0.4216825,0.49678734,-0.20135227,0.3984655,-0.15063486
-0.16228083,0.13464212,0.38571817,0.01657163,-0.17717706,0.14844032,0.35915032,0.36299932,0.26714963,-0.10349944,0.08089584,0.525231,0.29649836,-0.11930742,0.39746222,-0.27708107
-0.14319202,0.11133021,0.28496087,0.13401294,-0.15737481,0.0061064814,0.3868249,-0.15838283,0.10917667,0.06806029,0.1567367,0.030028865,-0.04698476,0.13172166,0.2532251,0.021334387
-0.070767,0.08544827,0.35286927,0.16316217,-0.20054196,0.048910543,0.40009892,-0.34485167,-0.1311133,0.16251469,0.39979172,-0.09431299,-0.09297942,0.1732417,0.25933343,0.3199672
-0.027544502,-0.011484636,0.3769793,0.31060085,-0.023719039,-0.0076678037,0.28931507,-0.3631141,-0.081034526,0.03953068,0.39951697,-0.32820848,-0.17490473,0.09896056,0.17949837,0.113491975
0.11731118,-0.056431673,0.3952041,0.17174137,-0.015351873,-0.011437278,0.2661843,-0.2500419,0.081476405,-0.07938742,0.23497929,-0.031898327,0.08820253,-0.14453478,0.40020952,0.22114336
0.12807755,0.0695679,0.39889342,-0.03734683,-0.14640808,0.030774524,0.32912707,-0.14359045,0.18639557,-0.105049476,0.22075196,0.24196348,0.4160387,-0.24917415,0.40003794,-0.08893469
-0.1408011,0.22116986,0.36776367,-0.059218295,-0.22968692,0.12823741,0.32634336,0.26588655,0.2856819,-0.118477196,0.07815484,0.34993717,0.2686093,-0.16096185,0.40005034,-0.2482452
-0.16787618,0.19466373,0.24561621,0.115334444,-0.17617068,-0.007861338,0.3751972,0.11180647,0.16127898,0.036963403,0.17389987,0.09511677,-0.076999776,0.08168778,0.24347967,-0.22209935
-0.07450565,0.099712625,0.3184876,0.2886158,-0.11870571,0.054195985,0.40008065,-0.28145245,-0.14991671,0.12205118,0.39867863,-0.19147328,-0.13757508,0.13277107,0.21013255,0.1100886
0.065013655,-0.06985194,0.28767192,0.26273173,-0.03528277,0.060536813,0.323071,-0.18177924,0.1023994,-0.05079948,0.18489008,0.054988485,0.093722016,-0.117437944,0.37477073,-0.009772827
0.16069236,-0.115875944,0.3938467,0.012833307,-0.147639,0.11207518,0.3999134,-0.099445865,0.14347784,-0.1155825,0.21622396,0.38657263,0.40106794,-0.25497854,0.4000284,-0.07839733
-0.059717413,0.007826582,0.40002164,-0.10327347,-0.20611657,0.13821219,0.36788332,0.21161097,0.22041234,-0.14889774,0.14145432,0.47330418,0.3612233,-0.16546224,0.39974278,-0.17085026
-0.1764402,0.06931435,0.3185671,0.05285668,-0.15433154,0.11670845,0.32743177,0.11671153,0.24419785,-0.077774495,0.061177626,0.23793644,0.0804117,-0.019791124,0.39917555,-0.30278656
-0.14735095,0.055622533,0.34442404,0.13364898,-0.27253982,0.029718202,0.39319602,-0.14525749,-0.032483105,0.12062938,0.3787663,-0.013653105,-0.07783131,0.111354545,0.25062707,0.005310531
-0.10831874,-0.020283114,0.38610548,0.23859736,-0.1098228,0.038187373,0.37042007,-0.29748413,-0.1756288,0.12505977,0.39788747,-0.27519926,-0.14326413,0.12074925,0.15731697,0.27216524
0.034288473,-0.07765384,0.3479617,0.21309482,-0.014134646,0.015256364,0.27246025,-0.21636644,0.110732235,-0.07413877,0.12936002,0.05763126,-0.011727473,-0.1343026,0.25725272,0.025409529
0.185888,-0.05262452,0.40002397,0.08347346,-0.13644521,0.065567985,0.3605193,0.029116994,0.16586207,-0.13339445,0.18194923,0.29026243,0.31344172,-0.24956885,0.40007925,0.035712827
-0.14225258,0.12610297,0.35716796,-0.11076329,-0.19991574,0.14633031,0.36630285,0.37006092,0.25273824,-0.13091935,0.02603617,0.28668785,0.29491192,-0.17227373,0.40005025,-0.31219444
-0.16126853,0.099135235,0.31366754,0.17485534,-0.12848786,-0.008049546,0.3673256,-0.068183206,0.14503656,-0.09753357,0.12704429,0.17056556,-0.025112215,0.051789086,0.29708275,-0.30263698
-0.1152956,0.09174926,0.33602476,0.17490534,-0.21260394,-0.015208889,0.38619488,-0.5233582,-0.13528913,0.11397328,0.40006715,-0.16234943,-0.10201518,0.14987506,0.23943336,0.20788084
-0.070835724,-0.0046747252,0.28719312,0.15746802,-0.05003559,-0.050326977,0.3180506,-0.37891722,-0.054873396,0.003957268,0.37521246,-0.37084523,-0.12705898,0.05078657,0.14718875,0.21765122
0.12502597,-0.060075194,0.38900998,0.08518709,-0.03397831,-0.04369547,0.34285855,-0.25461453,0.08725539,-0.081527404,0.23067015,0.016557638,0.2024963,-0.18262905,0.38021317,0.09054808
0.058095396,0.04414999,0.40000856,-0.13265257,-0.14443943,0.053059354,0.4001417,0.1275519,0.18674071,-0.1115592,0.1856473,0.3462892,0.43947014,-0.1888436,0.40003002,-0.1526626
-0.12051398,0.0681837,0.35831898,-0.12272816,-0.1379744,0.061282516,0.35391924,0.20613451,0.23537815,-0.09509739,0.09188698,0.1985336,0.2526963,-0.0990599,0.39859462,-0.21137245
-0.12673628,0.07979598,0.32175365,0.0862743,-0.1670337,-0.04475831,0.4004716,0.060547147,0.10863235,0.07604038,0.1340581,0.08570804,-0.06940236,0.10416891,0.21431878,-0.15935752
-0.046993416,-0.003136776,0.37967896,0.16803207,-0.22359352,0.008795968,0.39894116,-0.37239859,-0.23116101,0.21119536,0.40003106,-0.14391425,-0.14140944,0.16199629,0.1635367,0.2913982
-0.026959065,-0.043227088,0.37532106,0.16358258,-0.02011755,-0.063495666,0.33592692,-0.34018356,-0.14927307,0.0977159,0.39950278,-0.38461345,-0.21791698,0.08762595,0.067024834,0.32005763
0.07138276,-0.0523052,0.34358734,0.05059494,0.03272272,-0.04259,0.27075955,-0.16728704,0.064943165,-0.077521704,0.19685793,-0.12000087,-0.047885735,-0.14207096,0.21087004,0.25197694
0.20847364,-0.10096905,0.40003473,0.00391974,-0.11004852,0.036698785,0.37320545,0.08518742,0.13123307,-0.13394494,0.2606956,0.17936744,0.31775263,-0.25581333,0.40005696,0.10545684
-0.04679827,0.06722964,0.3893539,-0.1160734,-0.1428394,0.048974443,0.3237024,0.20052668,0.21649243,-0.15909387,0.1372538,0.18832226,0.23114623,-0.15278696,0.39994738,-0.19604954
-0.05368351,0.061730582,0.2922514,-0.05729634,-0.13224413,-0.0972734,0.4020632,0.07254866,0.0017998876,0.055792123,0.31189564,0.018176049,-0.09404585,0.04310858,0.23181581,-0.21941529
0.037980396,0.0028707634,0.3578367,0.22471263,-0.0500779,-0.035878707,0.39823702,-0.13847822,-0.23412688,0.091485165,0.39926472,-0.1784677,-0.16026662,0.09842054,0.16999331,0.21330391
0.08501209,-0.011934083,0.29392618,-0.02417756,0.05630622,-0.03030024,0.2775323,-0.07672116,-0.04802823,-0.10631755,0.27527952,-0.17699407,-0.12074601,-0.083286844,0.14423935,0.30451563
0.24191737,-0.049718212,0.40000805,0.016299086,-0.029354684,-0.013913321,0.33795476,0.05102808,0.047694307,-0.16155005,0.20944038,0.057696737,0.20929953,-0.16476668,0.4001528,0.11012127
0.0002153631,0.030301224,0.40000162,-0.12212926,-0.12206864,0.00072099495,0.3457582,0.13644679,0.1662886,-0.15475564,0.08418936,0.16547444,0.3960334,-0.08799201,0.40004513,0.023465982
-0.12018582,0.0667771,0.26878506,-0.20022997,-0.084890105,0.01775446,0.26757404,0.21347174,0.19699764,-0.12155823,0.00076150027,0.21422783,0.11682699,0.10067023,0.39960977,-0.17135249
-0.06439828,0.032901097,0.2899246,0.19284037,-0.19856255,-0.020731399,0.4000792,0.058816772,-0.05714666,0.0440171,0.2477864,0.093999945,-0.07433838,0.20366466,0.2661445,-0.11369665
0.0058676503,-0.00040471426,0.3158294,0.10669674,-0.21137363,-0.04039701,0.39998546,-0.24260318,-0.3018163,0.039960843,0.40009564,-0.062713675,-0.15006231,0.27391112,0.22455163,0.4133035
0.028573887,-0.009093227,0.29444104,0.16734411,-0.0076875966,-0.05219914,0.19635656,-0.17930694,-0.11098557,-0.10848645,0.356213,-0.23101462,-0.18722802,0.15021147,0.1857118,0.108313195
0.16348478,-0.02823026,0.397386,0.123513214,-0.09294507,-0.023995504,0.25403613,0.005346794,0.037062794,-0.16777061,0.22534196,0.14641386,0.09215156,-0.08873247,0.40005258,0.052821986
0.10891574,0.12354009,0.39626673,0.034708787,-0.22242144,0.043621283,0.3084832,0.15034513,0.14967996,-0.16380878,0.15029314,0.16240457,0.34099227,-0.1473082,0.39834496,0.061393827
-0.11431741,0.16100581,0.27210104,-0.022920592,-0.22741438,0.059559785,0.28287056,0.30826202,0.18795013,-0.10659766,0.074274495,0.20994066,0.24164827,-0.075923316,0.39165032,-0.28512555
-0.040542863,0.11518459,0.29965746,0.14176859,-0.2591307,-0.056914803,0.40004247,-0.153898,-0.090888694,0.09930191,0.33221185,-0.022255696,-0.042806696,0.10640835,0.24658252,-0.024483748
0.019994875,0.0893983,0.32404724,0.22503191,-0.18691407,-0.020162262,0.40070805,-0.12964623,-0.30730364,0.11126726,0.39961767,-0.1402773,-0.11182417,0.15944822,0.18764687,0.4419933
0.044355664,0.04204901,0.29444256,0.39345455,-0.03676711,-0.034473605,0.23271486,-0.12247245,-0.09558088,-0.07584469,0.33617717,-0.22220804,-0.103160374,0.010623791,0.13904585,0.29878542
0.21979089,-0.01742177,0.40000427,0.1787075,-0.12936398,-0.0314916,0.29764983,-0.061001226,0.049272433,-0.13459602,0.24495687,-0.05212912,0.26903492,-0.19561224,0.40005836,0.17264476
0.100299,0.12284753,0.39917582,-0.027039567,-0.24214914,0.037192103,0.3278983,0.23154306,0.16364966,-0.16651155,0.18595313,0.15420242,0.4619385,-0.15220417,0.39796644,-0.05867748
-0.13607594,0.16830273,0.37577963,-0.02706036,-0.30177474,0.07176905,0.3133977,0.2976643,0.24507621,-0.15770273,0.07804261,0.24779709,0.32327566,-0.074710175,0.39244235,-0.2880214
-0.13650155,0.13183483,0.28247216,0.16002223,-0.21341367,-0.08409925,0.40009704,-5.562773e-05,0.07602815,-0.01432136,0.16202886,0.16224222,-0.015680062,0.14471297,0.3018378,-0.33668378
-0.058662828,0.14278767,0.27582753,0.14440769,-0.25621173,-0.14570315,0.39239606,-0.39435375,-0.23520531,0.12226918,0.3926782,-0.15244037,-0.107622646,0.22135377,0.25585753,0.21270132
0.014414282,0.044682585,0.2501996,0.32262084,-0.017800096,-0.07886881,0.25035292,-0.33877984,-0.08682825,-0.01645031,0.39630347,-0.39683023,-0.24126843,0.09564716,0.097666815,0.12448567
0.12241435,0.04358299,0.32732165,0.14717807,-0.087071724,-0.021984372,0.22933616,-0.14435573,0.088714436,-0.092521794,0.23457275,-0.04901502,0.04842447,-0.12602994,0.32446176,0.15400364
0.15549976,0.07585326,0.3956408,0.04788602,-0.21975943,0.035649125,0.31959948,0.09027639,0.13868386,-0.14381024,0.30311483,0.10367814,0.3280025,-0.17407808,0.3934822,0.002514208
-0.062274877,0.11904738,0.40144345,0.019718196,-0.3328562,0.10229339,0.35461783,0.2681031,0.25966755,-0.13805409,0.21716803,0.24598147,0.4211295,-0.104456834,0.39991882,-0.21555915
-0.13780127,0.10811798,0.33056095,-0.063248806,-0.23477949,0.028478717,0.34406334,0.25038764,0.3236938,-0.025171079,0.1434791,-0.0913318,0.08553468,0.0771131,0.33914685,-0.35911775
-0.079411864,0.06383948,0.3749099,0.061591018,-0.25617656,0.030872818,0.39998585,-0.24981485,0.06790766,0.13810673,0.4000902,-0.07381187,-0.065831885,0.120565236,0.18869156,-0.12667318
-0.036566835,0.00782266,0.39603823,0.094886795,-0.15286951,0.0070549473,0.40003318,-0.4430542,-0.17151803,0.104364194,0.40002304,-0.18912697,-0.1387329,0.17410314,0.10987827,0.3771419
-0.04392835,-0.05073716,0.37396246,0.18630423,0.02149282,-0.006446108,0.2971995,-0.2709638,-0.03396453,-0.056330506,0.34975058,-0.30107108,-0.13614558,-0.0253839,0.08107411,0.2541311
0.18001023,-0.020272192,0.4000231,0.10577551,-0.050560087,0.0035851314,0.3347214,-0.18699723,0.09322391,-0.14994258,0.29399392,0.105074674,0.23012361,-0.31299165,0.4000179,0.17888202
0.16204014,0.0995571,0.3997612,-0.083577625,-0.15545735,0.064962395,0.39035153,0.18606623,0.16597143,-0.16629116,0.31187934,0.3621267,0.4483403,-0.300687,0.39997932,-0.059172165
-0.14802858,0.17780365,0.29354095,-0.18984938,-0.16226356,0.10033278,0.34739628,0.2818854,0.21897085,-0.20011975,0.20517087,0.23197412,0.16468671,-0.17712027,0.3999517,-0.33991617
-0.099915616,0.12534025,0.27454448,0.05207802,-0.15325193,-0.034086224,0.3993128,-0.106991045,0.032318614,-0.04978684,0.2811413,0.036335703,-0.10392657,0.026142448,0.2846017,-0.20017414
0.003519275,0.0807494,0.36013973,0.21478109,-0.21076076,0.008605854,0.38696873,-0.41987756,-0.25621063,0.1418177,0.3925177,-0.19592664,-0.18709952,0.10907862,0.23596942,0.36322471
0.025072591,-0.0027408074,0.34641278,0.24590245,0.026727147,-0.031512424,0.25130183,-0.27658755,-0.17217901,-0.0042010387,0.37633073,-0.3307574,-0.2516218,0.023377657,0.16391316,0.29458833
0.19123212,0.0013595077,0.3991893,0.15294449,-0.0125369625,-0.016773676,0.32566214,-0.203133,-0.02445749,-0.06612691,0.24625115,-0.033984754,0.044493042,-0.20198305,0.32425377,0.14245668
0.1685655,0.053052824,0.39753672,-0.08506948,-0.12595011,0.051741924,0.38883454,-0.04505499,0.061701722,-0.08891352,0.20278913,0.064614445,0.29220188,-0.13730693,0.39711085,0.09333071
-0.04123184,0.14223866,0.40000716,-0.14421631,-0.18012856,0.09217672,0.38062954,0.13593075,0.15704371,-0.08061181,0.08564881,0.10230654,0.32035306,-0.087257005,0.397751,0.023401788
-0.13997827,0.11273352,0.31537607,-0.13983516,-0.16023971,-0.027656427,0.39995387,0.016814377,0.036111336,0.05297103,0.18137111,0.10731875,-0.026095869,0.09951741,0.24370784,-0.1883283
-0.03202816,0.035892837,0.38907188,0.16465716,-0.20581739,0.021641655,0.40005368,-0.18944512,-0.23834328,0.15193431,0.40001863,0.016692026,-0.106540315,0.14689575,0.21392687,0.17558073
-0.04006366,-0.001651206,0.3492539,0.28419948,-0.021014428,0.021352492,0.29914266,-0.23142625,-0.113757886,0.008558526,0.36826703,-0.2523497,-0.097250566,0.03375213,0.16582015,0.17046346
0.13689308,-0.054384373,0.40005988,0.1415091,-0.043970052,0.026691264,0.32353798,-0.1969478,0.011230824,-0.06449258,0.24665692,-0.08973109,0.19284707,-0.18941018,0.3921769,0.18809104
0.052053522,0.1816501,0.39971724,-0.12862408,-0.1885027,0.09233819,0.37275812,0.048309635,0.15237235,-0.11209352,0.17436132,0.4510911,0.39136446,-0.18245119,0.39769983,-0.05837943
-0.16500211,0.24113539,0.26587513,-0.078550495,-0.1606733,0.090288475,0.32686943,0.27473915,0.1860215,-0.11864794,0.07313238,0.19459398,0.11538065,-0.05403071,0.39950278,-0.20439486
-0.12409658,0.21043584,0.2638712,0.21139583,-0.19299854,-0.06589294,0.40008566,-0.056358274,-0.032772355,0.03232365,0.21558455,0.061958406,-0.078479856,0.15045911,0.34634376,0.06643776
-0.07463388,0.18845783,0.25998414,0.2932157,-0.1421842,-0.009974132,0.4006628,-0.34048873,-0.26982358,0.19495592,0.39241433,-0.35868928,-0.122471906,0.18951628,0.32592404,0.45553046
0.026490811,0.07748348,0.25903577,0.29053935,0.0070979847,0.043266594,0.30811092,-0.23668255,0.003135875,-0.04944785,0.20699395,-0.07523063,-0.09979178,-0.0025362144,0.27663577,0.18633309
0.20245993,-0.034349732,0.4000347,0.22847083,-0.041888397,0.05137518,0.3620059,-0.23180835,0.08044476,-0.11232554,0.15897949,0.26843315,0.22722179,-0.13642643,0.40005705,0.05409031
0.05847836,0.1318961,0.3966632,-0.11983483,-0.102842085,0.07979399,0.37090173,-0.16056462,0.17656481,-0.08237271,0.03473461,0.38523105,0.31433943,-0.09244092,0.39510956,-0.17204073
-0.2101425,0.2128383,0.24665838,-0.11034297,-0.08890277,0.06978217,0.33676016,0.053209357,0.18411197,0.026050821,-0.04405412,0.057923514,0.004709517,0.11152281,0.38948047,-0.17116895
-0.063700385,0.13984644,0.3496423,0.044006504,-0.25102094,0.03116583,0.39910352,-0.26376954,-0.11653533,0.19877476,0.38488537,-0.12893812,-0.14649083,0.20705904,0.26903632,0.31206012
-0.031712715,0.048711043,0.38359177,0.2635321,-0.022701902,0.008416225,0.3012174,-0.26892212,-0.18860286,0.08103628,0.39952245,-0.27344432,-0.18216284,0.17698735,0.21657912,0.35271406
0.17660673,-0.11741639,0.4000271,0.19703224,-0.030551676,-0.0072929687,0.30392924,-0.27807742,0.043977406,-0.064071044,0.27146766,0.17102697,0.13700381,-0.1286344,0.40013212,0.09911975
0.18563578,-0.017057272,0.4000064,0.07524387,-0.14821169,0.058439445,0.3620614,0.016908783,0.12669492,-0.0638537,0.26336065,0.29441485,0.38988817,-0.264503,0.40006605,-0.09018993
-0.081162475,0.15952839,0.3542146,-0.1079459,-0.20911583,0.13573422,0.36729628,0.30040306,0.22679107,-0.05137298,0.15140864,0.24788494,0.25282145,-0.16519411,0.39765388,-0.17754991
-0.12290983,0.14130545,0.28335318,0.08859453,-0.18948898,-0.005415987,0.38897207,0.024058929,0.15440825,0.08336822,0.19759576,0.018712435,-0.0579209,0.02967417,0.24909824,-0.30084068
-0.06656323,0.064488694,0.33597428,0.22286682,-0.2252457,0.013688383,0.40044162,-0.38275823,-0.16933592,0.24437377,0.40011165,-0.17353436,-0.12289367,0.08286704,0.18391983,0.20968254
-0.058428526,-0.009373184,0.2922057,0.29827327,-0.05620234,-0.028299686,0.29747373,-0.32704598,-0.059897088,0.073089205,0.31486395,-0.31490648,-0.1559812,-0.050524205,0.1337962,0.093086414
0.102814764,-0.08689357,0.4000287,0.24283959,-0.069101505,-0.042891577,0.31047082,-0.20715174,0.11152795,-0.06173673,0.17595716,0.2427934,0.16563146,-0.2551299,0.33042073,0.100698836
0.04483901,0.037779547,0.40000963,0.06363966,-0.23039916,0.055464596,0.37861538,0.17176408,0.24612617,-0.038425885,0.10503499,0.32928854,0.47577995,-0.20708513,0.40002534,-0.058802377
-0.19641277,0.09685053,0.329642,0.067869864,-0.22798522,0.062330563,0.33246067,0.2367063,0.278797,-0.02462574,0.016866103,0.35164943,0.30115947,-0.12565067,0.39997873,-0.33983997
-0.22953051,0.04240474,0.27119273,0.2604632,-0.248647,-0.04007163,0.4000699,-0.13840486,0.17584747,0.108720414,0.22250703,0.19970976,-0.013556279,0.108300686,0.27423304,-0.375907
-0.16200645,-0.088598385,0.33834594,0.64044917,-0.067141265,-0.09022038,0.4011464,-0.17939842,0.029765533,-0.04734365,0.39979956,-0.17435013,-0.07128927,0.08338877,0.16516411,-0.28329787
-0.15331204,-0.13390964,0.40000427,0.6069259,-0.005948627,-0.15350552,0.32052103,-0.08362933,0.30113116,-0.19105609,0.13509065,0.087257296,0.096063875,-0.0792516,0.24502899,-0.5372214
0.009859254,-0.17996222,0.40002093,0.4966187,-0.1726587,-0.07526048,0.40309447,0.15454726,0.3893761,-0.32838222,0.1889959,0.7268678,0.3045277,-0.20789075,0.4000918,-0.8997782
0.049929168,-0.25756606,0.4000374,0.21014015,-0.26586586,-0.040156987,0.3271078,0.150637,0.52427524,-0.39189643,0.06976562,0.8497682,0.003900683,-0.14422342,0.4000247,-1.0141652
-0.12617221,-0.32447007,0.39681393,0.22946584,-0.31036037,-0.036491334,0.23337318,0.35853475,0.6235416,-0.44794604,0.016991993,0.9053595,-0.28798017,-0.013885006,0.3985768,-1.3022759
-0.3446089,-0.30631095,0.38235697,0.29409394,-0.1744707,-0.112279795,0.38356557,0.33678386,0.77792186,-0.29340434,0.16340767,-0.1931628,-0.2827804,0.13710839,0.3330219,-1.1977023
-0.4309356,-0.3821298,0.38274917,0.67140716,-0.0481764,-0.16755871,0.3889794,0.46822613,0.50483376,-0.46189567,0.38062432,-0.5743936,-0.1608269,0.117171034,0.36835915,-1.1491045
-0.57687557,-0.39095435,0.35408258,0.76442367,0.1879522,-0.20270577,0.40006158,0.16850205,0.07467917,-0.67665017,0.35742947,-0.5727454,-0.035503484,0.061524965,0.2901959,-1.1150845
-0.5083327,-0.4552042,0.3920164,0.7601667,0.18044335,-0.30192414,0.3070624,-0.1310433,0.24778304,-0.5699608,0.19871436,-0.7085812,-0.020093307,-0.207101,0.39962038,-1.6686906
-0.2078433,-0.6303767,0.39936593,0.96591604,0.0033619523,-0.30912054,0.2303237,0.0046171877,0.49744272,-0.62716365,0.15496732,-0.3494115,-0.23344037,-0.43904608,0.40017536,-1.6792877
0.073387064,-0.50653285,0.34476092,0.8036366,-0.22336037,-0.24328592,0.13447484,0.24815542,0.7160966,-0.61407566,0.14205666,0.05914462,-0.5065439,-0.38451436,0.40011263,-1.7220535
-0.11190896,-0.37777832,0.27688146,0.3632134,-0.1760263,-0.23729162,0.17233941,0.49886927,0.69994974,-0.44941267,0.3102684,-0.8473966,-0.6286361,-0.112277515,0.31545982,-1.5405834
-0.22255327,-0.4433052,0.33953747,0.76012737,0.05589305,-0.22075728,0.40002152,0.4157968,0.38560075,-0.5931239,0.3971222,-0.88278395,-0.42709082,-0.044688396,0.3998701,-1.1925853
-0.3485329,-0.4719419,0.3101176,0.6564119,0.35063085,-0.22524121,0.40008265,0.12493583,0.05166825,-0.67521036,0.33709434,-0.9270112,-0.2732693,-0.08515738,0.37965378,-1.2581027
-0.23035312,-0.6558701,0.4000432,0.44405067,0.21395709,-0.25471187,0.40334395,-0.06716415,0.23633096,-0.6626244,0.21694954,-0.3756988,-0.19382095,-0.35457653,0.40024048,-1.53365
0.11499254,-0.672726,0.30093578,0.51686525,-0.01626516,-0.12477193,0.3335282,0.5627878,0.52140915,-0.68063706,0.09555707,0.09661642,-0.47836754,-0.5038913,0.400041,-1.7910528
0.16334066,-0.54713935,0.11539073,0.32458818,-0.1559131,-0.09685874,0.1912179,0.8823664,0.7330185,-0.6066424,0.009650374,-0.15620485,-0.7543048,-0.35258937,0.38197953,-1.572531
0.0073376647,-0.5519606,0.27965215,0.4123953,0.04644228,-0.16362576,0.40007165,0.65380377,0.57849056,-0.52412146,0.36359167,-0.79593104,-0.58674854,-0.06854275,0.23994492,-1.226942
-0.10721272,-0.5986168,0.34486356,0.36404735,0.22419207,-0.19449873,0.400018,0.586221,0.2623807,-0.7310056,0.39521688,-0.6743712,-0.41984114,-0.076179735,0.2701695,-1.2630087
-0.3021839,-0.5868232,0.3754311,0.28769234,0.44588146,-0.27305323,0.40132034,0.21361476,-0.05399152,-0.7356062,0.25845268,-0.80739254,-0.25562623,-0.15753974,0.16357169,-1.2682991
-0.12091986,-0.7344759,0.39865014,0.39898077,0.29817528,-0.3201885,0.37058845,-0.047044422,0.14402793,-0.66349804,0.2279447,-0.7278096,-0.3027897,-0.41108975,0.40010577,-1.5955237
0.16655119,-0.7444603,0.36694485,0.67609674,0.08787695,-0.26104152,0.39109477,0.16456962,0.35927546,-0.76534736,0.21811602,-0.27195,-0.50310093,-0.49888882,0.39848065,-1.8042958
0.40667105,-0.6231806,0.27766076,0.5416295,-0.10875801,-0.13060954,0.3345593,0.7499299,0.6304574,-0.7562698,0.101348706,0.042691726,-0.73461473,-0.45510978,0.39949334,-1.7401779
0.18483254,-0.5760997,0.22480716,0.45191976,-0.14801237,-0.19540861,0.15224014,0.885331,0.7715749,-0.5908993,0.15523066,-0.52408826,-0.8466576,-0.16603965,0.25015056,-1.4919343
0.032438416,-0.61581624,0.38081592,0.36050835,0.07374496,-0.23441607,0.40002027,0.67860067,0.60692924,-0.57601124,0.4000147,-0.7940098,-0.5909492,-0.021224024,0.31747288,-1.1103705
-0.12526031,-0.5849082,0.3863824,0.26980725,0.25972533,-0.2812529,0.39987987,0.5060112,0.27896783,-0.7931017,0.39957598,-0.7185291,-0.43611345,-0.05206754,0.30228168,-1.1410195
-0.26470587,-0.6020774,0.39375228,0.4202404,0.49435833,-0.32589903,0.29379484,0.05491022,0.018120954,-0.7563355,0.26764134,-0.6191798,-0.26819807,-0.15088128,0.25168705,-1.2975504
-0.04464621,-0.77646476,0.40002427,0.5687688,0.29204884,-0.33626086,0.3861863,0.0073382217,0.23987202,-0.68860954,0.24623854,-0.57050467,-0.25442633,-0.3868134,0.38803336,-1.7170441
0.21972686,-0.8424052,0.36844087,0.75797564,0.13712908,-0.31699204,0.3674521,0.0914101,0.41106015,-0.73773426,0.24124806,-0.2600167,-0.44583228,-0.51997817,0.40020066,-1.7859796
0.42772007,-0.73676527,0.24517494,0.8122165,-0.0020844925,-0.19838586,0.31190223,0.6704273,0.6328204,-0.7572458,0.12675884,-8.375959e-05,-0.6968009,-0.4828512,0.4000659,-1.6699784
0.18664476,-0.64945656,0.23647599,0.46950677,-0.081780225,-0.20118536,0.20102134,0.7927866,0.68181276,-0.5903791,0.22921748,-0.65500045,-0.83381385,-0.19150187,0.24473393,-1.4544185
0.004622862,-0.6059553,0.3213171,0.43028694,0.19303988,-0.27869463,0.3969865,0.645115,0.44221443,-0.64493275,0.4002337,-0.79791546,-0.584971,-0.06291286,0.32741025,-1.2143306
-0.17431544,-0.63884664,0.35758856,0.41684765,0.43633807,-0.3014973,0.40001896,0.44497994,-0.01824751,-0.8216228,0.40018135,-0.7358556,-0.36992866,-0.053256553,0.35851684,-1.1107599
-0.27080086,-0.6302692,0.39890036,0.35610965,0.48775056,-0.316144,0.33109552,0.2666127,-0.0010660583,-0.7153704,0.2555686,-0.50725085,-0.24571747,-0.18627958,0.31979913,-1.4758339
0.012493533,-0.84074736,0.35076517,0.54160154,0.28569478,-0.3498333,0.37049052,0.38580698,0.24343231,-0.73838747,0.23609637,-0.19870031,-0.31168202,-0.45960793,0.39963782,-1.9008846
0.2518424,-0.75027007,0.31660518,0.63177323,0.14381564,-0.30972597,0.37650755,0.59534496,0.41150492,-0.7972826,0.22970158,0.18088606,-0.4789622,-0.4739167,0.400233,-2.0170317
0.37081093,-0.65625364,0.20801991,0.4854008,-0.009640481,-0.25025263,0.29425275,0.86371696,0.65148795,-0.7565634,0.10019079,-0.09784382,-0.73836887,-0.40800145,0.39985904,-1.8631457
0.16369578,-0.6537895,0.29838386,0.32461196,0.050720166,-0.33246815,0.24560969,0.72462213,0.7148746,-0.516206,0.23457745,-0.812306,-0.70121396,-0.11573723,0.23421197,-1.4454935
-0.029054163,-0.6332042,0.33945033,0.33116618,0.21008615,-0.34417468,0.39895788,0.7320849,0.42677182,-0.6565468,0.40139782,-0.6936029,-0.4669158,-0.10990387,0.34234056,-1.3262028
-0.19484702,-0.6384045,0.33877262,0.43836275,0.47189242,-0.3543602,0.40000686,0.41234177,0.016377773,-0.8072203,0.38898486,-0.6905205,-0.30546868,-0.16215028,0.28448403,-1.3295325
-0.067431465,-0.78190464,0.39189708,0.5379262,0.38238505,-0.32266945,0.37368006,0.049946897,0.18527348,-0.75664717,0.31532714,-0.538358,-0.22543557,-0.39298007,0.39731005,-1.4968628
0.24766046,-0.8013298,0.34553856,0.5507976,0.1644568,-0.21457836,0.39886597,0.4712149,0.44261178,-0.79925674,0.23729832,-0.0035586455,-0.47233462,-0.52421755,0.40000853,-1.9263008
0.38279474,-0.61579335,0.19702487,0.25567847,0.028532295,-0.1617701,0.30120224,0.83584106,0.68726486,-0.7671164,0.100973725,0.008663535,-0.7840302,-0.46988517,0.4000441,-1.7033293
0.1431865,-0.56076384,0.27017948,0.23376836,0.059414376,-0.25567415,0.31438828,0.6470955,0.73909867,-0.5676998,0.2384926,-0.8265696,-0.7474086,-0.16624239,0.22472191,-1.29149
-0.014058191,-0.6246549,0.38857877,0.50066864,0.30894583,-0.30841103,0.4000221,0.6149948,0.36489204,-0.75209254,0.40043586,-0.79350513,-0.48552385,-0.10641715,0.3634188,-1.0727916
-0.19180001,-0.6235368,0.4004739,0.6784888,0.49168813,-0.34342355,0.39996722,0.2747956,-0.0077358186,-0.8127286,0.36082023,-0.6870337,-0.32195634,-0.14467044,0.33362216,-1.1130084
-0.14587128,-0.68916357,0.3934419,0.62851393,0.4049105,-0.3515115,0.33413297,0.035331085,0.16198851,-0.70250165,0.22414605,-0.40074024,-0.20477417,-0.31952626,0.3638669,-1.564366
0.15653022,-0.84662986,0.36242008,0.6646786,0.16825931,-0.29030806,0.35832122,0.14658903,0.3945495,-0.7414433,0.17719488,0.08730481,-0.40474838,-0.524941,0.40016124,-1.7206776
0.4203034,-0.72135043,0.3136271,0.5930912,0.018215606,-0.2124302,0.30167502,0.4327317,0.61155266,-0.7271733,0.085638285,-0.13702603,-0.63122314,-0.47156394,0.400035,-1.797998
0.2703784,-0.58166015,0.21254347,0.41311705,-0.12840535,-0.17114222,0.12132087,0.8203929,0.7375851,-0.62000436,0.079049915,-0.37224755,-0.85292673,-0.2523764,0.33625615,-1.4979777
0.007934259,-0.57183933,0.33602983,0.21123654,0.08408193,-0.28842095,0.35389522,0.50340104,0.5657013,-0.54517156,0.3923025,-0.9481717,-0.6243432,-0.022441024,0.2811243,-1.2289743
-0.12432187,-0.62535137,0.39333457,0.4671295,0.2749934,-0.31993043,0.39094052,0.44884944,0.19582558,-0.7501484,0.40173212,-0.52614534,-0.4349868,-0.014248508,0.3416047,-1.2506509
-0.260883,-0.59515035,0.400014,0.27356467,0.48195276,-0.37805915,0.29371014,0.1180348,-0.018278519,-0.71019554,0.26677415,-0.6690923,-0.24876842,-0.13983828,0.29273593,-1.4281659
-0.02197512,-0.781883,0.39068323,0.78466445,0.27405113,-0.3936129,0.2927886,-0.102581464,0.22907946,-0.70706964,0.24448022,-0.4728604,-0.2703395,-0.39707372,0.4006135,-1.5926266
0.25503087,-0.74799466,0.33189207,0.72347087,0.059582338,-0.271416,0.29396984,0.36257508,0.4551264,-0.7409485,0.19545072,0.017590147,-0.46859783,-0.48234388,0.4001384,-1.8203627
0.3121851,-0.56764066,0.14065713,0.49197993,-0.13836753,-0.15638718,0.17791985,0.9541611,0.71511304,-0.69282746,0.09170994,-0.26979914,-0.77903724,-0.35666764,0.39988667,-1.7017298
0.028640961,-0.598595,0.28434458,0.30141357,0.016347224,-0.28207025,0.2417645,0.72274244,0.6497456,-0.53033805,0.30386043,-0.89554834,-0.70874316,-0.084569626,0.23390701,-1.382198
-0.1141094,-0.6331718,0.35642973,0.33898428,0.2532469,-0.3012396,0.40008402,0.59564096,0.2773178,-0.7654637,0.40012378,-0.82968485,-0.48326477,-0.05563586,0.32615942,-1.1493042
-0.2796608,-0.60659534,0.39431462,0.17176372,0.47964317,-0.37312472,0.3413712,0.23505023,0.010276408,-0.7254645,0.21870358,-0.6509775,-0.28984892,-0.19263445,0.2624493,-1.2271262
-0.055294648,-0.77439225,0.4000227,0.5126564,0.29135573,-0.3969215,0.3397499,-0.036497463,0.23164375,-0.7320048,0.21376188,-0.36293086,-0.2584544,-0.41839123,0.40064397,-1.5167043
0.21314174,-0.7676593,0.35922253,0.5509547,0.06748628,-0.26562488,0.37701452,0.40785262,0.42693362,-0.76628274,0.1833172,0.020225927,-0.48733157,-0.5075137,0.39992297,-1.7388984
0.35043946,-0.57348406,0.13582546,0.4280974,-0.11799,-0.1696126,0.25740233,0.93077546,0.70386076,-0.7292211,0.093843795,-0.12073979,-0.8483296,-0.38471636,0.39993837,-1.6824415
0.09813377,-0.59998196,0.24716298,0.4373464,-0.0028900264,-0.2606758,0.277038,0.7518379,0.67092526,-0.59733903,0.26940033,-0.9609289,-0.74256533,-0.108607635,0.2354435,-1.3154768
-0.024485458,-0.62179196,0.35704803,0.41233778,0.23000719,-0.2931148,0.40001395,0.6323501,0.37763515,-0.73125356,0.40007424,-0.7588062,-0.50029725,-0.020788526,0.34547353,-1.038922
-0.180934,-0.65191996,0.36649492,0.41128695,0.41058975,-0.3464247,0.38749087,0.20155436,-0.014385787,-0.8418112,0.39593098,-0.5505063,-0.3772797,-0.08449513,0.27036312,-1.1753439
-0.23056492,-0.67295855,0.3959912,0.31095532,0.42803797,-0.37212884,0.3338237,0.14405419,0.069595285,-0.6867003,0.16911593,-0.58703774,-0.24229352,-0.23091432,0.32171077,-1.4672787
0.03592959,-0.85626936,0.37158257,0.6386861,0.24628924,-0.38137782,0.38432285,0.308294,0.26646215,-0.75850046,0.21201473,-0.33134994,-0.30223247,-0.44446534,0.40031374,-1.8585161
0.34122652,-0.79822123,0.264244,0.66113734,0.07414314,-0.3187559,0.37926134,0.6341939,0.4430096,-0.80914474,0.19756556,0.15520847,-0.56441945,-0.47824052,0.4002181,-1.8445972
0.29956207,-0.6271806,0.1415907,0.502014,-0.0845988,-0.28462517,0.18233584,0.89274895,0.73591584,-0.6871178,0.07911389,-0.27539125,-0.828224,-0.31938514,0.3994599,-1.6788145
0.11997088,-0.63471705,0.29850394,0.46979335,0.093789,-0.32548097,0.2863042,0.70484316,0.64554954,-0.52316475,0.33255574,-0.9587311,-0.69210064,-0.09284933,0.2304533,-1.3139571
0.00061738666,-0.6639727,0.36181042,0.5235551,0.28816116,-0.35242352,0.4000578,0.6184683,0.33330885,-0.6966861,0.4001921,-0.69968635,-0.4993201,-0.06614048,0.33147353,-1.2043844
-0.14578025,-0.6410353,0.38874716,0.4486666,0.4712074,-0.37471083,0.4000354,0.4359595,-0.013524892,-0.8394481,0.37473646,-0.6813232,-0.34869495,-0.12431013,0.30740687,-1.3012908
-0.04840336,-0.7380082,0.39970124,0.3777031,0.37412614,-0.4346149,0.3359889,0.07859841,0.1467368,-0.72518927,0.23927438,-0.4952048,-0.18331337,-0.33111608,0.39495444,-1.7423161
0.2540281,-0.7751144,0.32345948,0.44989857,0.15064625,-0.34191224,0.39897427,0.5756307,0.36137408,-0.8116515,0.26357383,0.06799762,-0.38954827,-0.469609,0.4000744,-1.9218634
0.3889562,-0.60343367,0.15568955,0.4242119,-0.0117933685,-0.277185,0.27784812,0.88149154,0.64244,-0.7523652,0.14243218,-0.11338966,-0.75279915,-0.39199078,0.39772734,-1.8277882
0.15093957,-0.61308235,0.35861403,0.26404586,0.14359616,-0.30958012,0.36672175,0.685199,0.5668425,-0.57374275,0.39598185,-0.8513789,-0.6477985,-0.09076429,0.2634572,-1.2160786
-0.019744657,-0.64708954,0.3684799,0.25064662,0.37904975,-0.32533404,0.40003434,0.5292512,0.20230295,-0.7795368,0.40037733,-0.62538165,-0.46547666,-0.08097414,0.26813465,-1.1102204
-0.15553273,-0.6363534,0.3967801,0.208476,0.51328164,-0.3480656,0.33962128,0.21043326,0.0006856724,-0.84552217,0.2850493,-0.3968697,-0.32677516,-0.17133102,0.2133823,-1.2696798
0.08156673,-0.8042223,0.37491995,0.44064716,0.312969,-0.35120392,0.3689643,0.20592313,0.2900037,-0.7272303,0.21270417,-0.34293333,-0.26068076,-0.43425068,0.39410746,-1.611124
0.44292554,-0.7600219,0.27151513,0.60518634,0.09372508,-0.2586402,0.39240655,0.6544696,0.53964597,-0.7950191,0.15047681,0.29534683,-0.5776543,-0.46572658,0.40015963,-1.8808517
0.2983249,-0.57758284,0.17602585,0.31036124,-0.023663102,-0.2547032,0.21124353,0.85091937,0.7323908,-0.65326804,0.12510914,-0.47651765,-0.80498195,-0.262575,0.35352084,-1.5747085
0.07793482,-0.67493045,0.3566763,0.52252567,0.15628488,-0.29593667,0.39996913,0.70101225,0.5639085,-0.5585158,0.40021566,-0.9016696,-0.62307346,-0.06020112,0.27962363,-1.2309631
-0.118711166,-0.69691133,0.3879918,0.54138833,0.37130234,-0.32469144,0.40001586,0.5073138,0.10920165,-0.7934318,0.39763683,-0.7901707,-0.4136641,-0.081818245,0.29704782,-1.3271343
-0.20735918,-0.62942857,0.398644,0.19367851,0.5239442,-0.3642436,0.32303715,0.13825627,0.03490782,-0.6746409,0.23496915,-0.7602141,-0.23996238,-0.20670621,0.2517417,-1.4451957
0.02483579,-0.8204602,0.39715707,0.48306668,0.33334333,-0.3823052,0.3721586,-0.07396853,0.23793332,-0.7369752,0.27147302,-0.43295163,-0.27779964,-0.4371221,0.3922484,-1.698653
0.36491662,-0.8015076,0.32236078,0.64854014,0.10899888,-0.23940286,0.36836094,0.5843775,0.4940398,-0.78592396,0.19599815,0.149503,-0.5422481,-0.5047051,0.4002221,-1.8803896
0.41494626,-0.617464,0.14307694,0.44075513,-0.029945156,-0.17280783,0.26151985,0.9861418,0.72859836,-0.73746526,0.0650677,-0.06619551,-0.83766925,-0.36874077,0.399653,-1.775656
0.1542948,-0.6502809,0.26682058,0.39145207,-0.0036954456,-0.28167638,0.18549357,0.77902853,0.7818347,-0.5763525,0.1756821,-0.5545975,-0.7995382,-0.0987873,0.21643682,-1.4733009
0.008233307,-0.6583255,0.35085982,0.25544062,0.18244974,-0.331209,0.39920452,0.62935317,0.53058445,-0.65369874,0.40011755,-0.799552,-0.5378529,-0.0069764,0.36108062,-1.106732
-0.12914866,-0.6424429,0.39239025,0.3922907,0.3403158,-0.36976126,0.39999196,0.48958844,0.120009474,-0.89604914,0.3728843,-0.57526284,-0.38991293,-0.08184773,0.30842078,-1.2110445
-0.27045184,-0.60372734,0.3868669,0.22070594,0.50874317,-0.37462497,0.3473961,0.26168177,-0.02763821,-0.7565548,0.23884802,-0.6988406,-0.21867217,-0.19638367,0.211185,-1.3969467
-0.066391505,-0.73099965,0.3924829,0.43505484,0.31241426,-0.36365148,0.34505168,0.28071842,0.2236404,-0.7579804,0.2599726,-0.61664504,-0.16265202,-0.4278687,0.3628744,-1.4894931
0.20411642,-0.7546914,0.30330488,0.527843,0.14550413,-0.31575269,0.33616036,0.5989585,0.42201367,-0.8035307,0.2335938,-0.26637533,-0.39870682,-0.52114284,0.4001169,-1.7729487
0.23983747,-0.6077185,0.17383718,0.32230598,-0.03825448,-0.28002682,0.16741249,0.7729685,0.6763914,-0.6914125,0.1871378,-0.45112067,-0.7438386,-0.32959998,0.37339967,-1.7558587
0.099433616,-0.6291544,0.34594288,0.39934695,0.13351882,-0.35243365,0.35788015,0.71258694,0.5492288,-0.6022445,0.38007814,-0.73864865,-0.6642272,-0.14085537,0.24583109,-1.3622915
-0.12394464,-0.6748545,0.39007136,0.70927477,0.41064605,-0.3451735,0.3999839,0.557447,0.10393042,-0.78752935,0.40030006,-0.7766774,-0.41332796,-0.11534024,0.3384177,-1.1843481
-0.25627705,-0.6490763,0.39484394,0.46756268,0.51934415,-0.32819554,0.35499468,0.35691956,-0.038181536,-0.76890355,0.3113496,-0.73411554,-0.27989584,-0.18262976,0.2733922,-1.2164507
-0.10224263,-0.7586858,0.3644148,0.38447297,0.3224488,-0.3392304,0.3688643,0.29904708,0.19288859,-0.74846935,0.29822057,-0.6042509,-0.2880288,-0.4355223,0.40001005,-1.7057862
0.15678738,-0.81671536,0.3107252,0.5777155,0.17368299,-0.34072092,0.33466092,0.45321617,0.38988724,-0.79621875,0.27166778,-0.17049062,-0.503509,-0.54359525,0.4001097,-1.7592511
0.352265,-0.68494356,0.2322331,0.6104504,-0.024058813,-0.25657487,0.30440792,0.8468239,0.6443231,-0.7568191,0.14650369,0.061753877,-0.7360506,-0.49919838,0.39916146,-1.8144122
0.13922766,-0.68971616,0.29086298,0.40291896,0.01745171,-0.2906416,0.25074625,0.83165747,0.7061239,-0.52733403,0.2727382,-0.7957904,-0.77384126,-0.16767874,0.18700226,-1.2864897
-0.07605923,-0.7602127,0.3844121,0.46249104,0.28141022,-0.32097137,0.39042804,0.7171053,0.34227693,-0.71911967,0.40159133,-0.6029855,-0.5075154,-0.10830564,0.3361488,-1.1721394
-0.30096757,-0.7489319,0.36221543,0.489267,0.51378566,-0.34100378,0.4000101,0.41194728,-0.042800207,-0.8358778,0.37568158,-0.46034777,-0.34135556,-0.17645073,0.28611448,-1.3334124
-0.16895342,-0.80912787,0.4000529,0.4648722,0.45595288,-0.40261957,0.33275247,0.21234007,0.11098223,-0.719624,0.25730273,-0.630803,-0.29673746,-0.3606825,0.3855944,-1.6274713
0.104440704,-0.8898689,0.34021923,0.6964155,0.3092232,-0.39313132,0.34529734,0.3702455,0.3123304,-0.80061966,0.23116668,-0.15890244,-0.4100339,-0.44182223,0.4001451,-1.7821146
0.37547955,-0.7571769,0.32922345,0.6710778,0.1427259,-0.34636718,0.33308727,0.6339913,0.53992945,-0.81358963,0.15319441,0.20835379,-0.59976923,-0.43259937,0.40036368,-1.8197159
0.3185977,-0.66306007,0.19970945,0.47047067,0.0026013888,-0.3157005,0.19520314,0.9583375,0.71755,-0.7168503,0.11565051,-0.0076465164,-0.7575898,-0.3261225,0.39947134,-1.8307358
0.118408024,-0.6584902,0.3240636,0.46317172,0.10253794,-0.3297009,0.24321307,0.92047554,0.7135874,-0.52477443,0.29170042,-0.75067073,-0.6990661,-0.06796163,0.27403688,-1.3883266
-0.10922784,-0.6852335,0.389178,0.5492414,0.35027498,-0.3347182,0.39997718,0.6850273,0.33557615,-0.7327895,0.40026686,-0.78056955,-0.44179973,-0.045263596,0.372668,-1.2565113
-0.28494042,-0.6427083,0.4010085,0.53539103,0.5384089,-0.31860793,0.39987975,0.24565259,0.01939757,-0.7672889,0.33143714,-0.66489494,-0.27830684,-0.10196578,0.31954178,-1.3276688
-0.1053711,-0.76356256,0.400039,0.5064061,0.37903935,-0.36359596,0.37246794,0.1336483,0.23996554,-0.72341514,0.27285895,-0.67740345,-0.21868555,-0.3411168,0.40007806,-1.7025334
0.25425074,-0.763655,0.3152774,0.55197066,0.15668382,-0.31120875,0.39275396,0.58565235,0.52371794,-0.77462083,0.20639212,-0.24435128,-0.49889314,-0.47501427,0.40015066,-1.8125486
0.25863403,-0.6516039,0.13925682,0.3694962,0.0026464795,-0.2552131,0.30977345,0.83307445,0.72996926,-0.6878285,0.113014214,-0.3112946,-0.80795026,-0.37669653,0.39997354,-1.7000605
0.04693298,-0.67075205,0.27733153,0.35214752,0.06817405,-0.29784456,0.3379283,0.8246968,0.70220613,-0.49846157,0.3154213,-0.94264674,-0.6948048,-0.10018663,0.25882226,-1.3788832
-0.12705469,-0.68592376,0.367851,0.5557329,0.29890874,-0.29216525,0.40001252,0.60082525,0.31503168,-0.76278204,0.39826787,-0.908105,-0.46885714,-0.0977927,0.3410509,-1.3044722
-0.3272526,-0.59364176,0.37279788,0.33094326,0.4510539,-0.36129183,0.400036,0.21266358,-0.004533229,-0.7889477,0.31541637,-0.6413408,-0.28071222,-0.16928008,0.32413387,-1.3721832
-0.117737986,-0.7277946,0.40184906,0.62579393,0.33265018,-0.3919749,0.35486555,0.04708142,0.23577407,-0.7289419,0.2441531,-0.5394253,-0.18684702,-0.40733135,0.39436582,-1.6908503
0.11780078,-0.7223131,0.34951824,0.5910631,0.17216748,-0.33424908,0.35224223,0.42690268,0.3965014,-0.7612064,0.25415522,-0.36174148,-0.37936208,-0.52546936,0.40004644,-1.8250422
0.30254996,-0.60156316,0.17745997,0.5072317,-0.035268396,-0.21686272,0.28884277,0.9118463,0.6791336,-0.7420672,0.11479658,-0.16140291,-0.7599774,-0.41992477,0.39733377,-1.7602242
0.052653186,-0.6389861,0.28935805,0.5706669,0.04614772,-0.27032238,0.31465945,0.8017481,0.705661,-0.5065921,0.26818335,-0.8865158,-0.71613747,-0.07169073,0.22274978,-1.2734112
-0.12112284,-0.6699255,0.33855706,0.57449913,0.26937574,-0.28976813,0.38951448,0.5815872,0.35416922,-0.7183471,0.40234223,-0.5335854,-0.5097351,-0.049389876,0.2685189,-1.1586434
-0.3194329,-0.6292557,0.37889332,0.24160625,0.4838325,-0.32884833,0.38676974,0.18650605,0.013235524,-0.751719,0.2482455,-0.6111823,-0.31903493,-0.14758323,0.2193622,-1.3507719
-0.101281784,-0.7841331,0.3968061,0.5791837,0.35166907,-0.4109449,0.32454428,-0.16705222,0.24207343,-0.655421,0.20547858,-0.45983583,-0.27117524,-0.37924194,0.3716306,-1.6619309
0.16581897,-0.86498773,0.3373983,0.82001895,0.1755581,-0.35612828,0.38915628,-0.06748729,0.40207064,-0.6855455,0.170629,-0.108296655,-0.44448882,-0.42426008,0.40014705,-1.5411212
0.54259175,-0.974606,0.31158975,0.7206178,0.13503355,-0.33185753,0.3784663,-0.069842465,0.5970966,-0.7994047,-0.0011791402,0.7275242,-0.5584877,-0.2607267,0.41226733,-1.5352371
0.6218736,-0.84568006,0.3231203,0.32192844,0.06098041,-0.185434,0.38617226,0.6060064,0.7400618,-0.7570173,-0.041698474,1.3083394,-0.5571893,-0.2185281,0.40004,-1.6504198
0.35024253,-0.6837985,0.30611825,0.07604747,-0.031153835,-0.20541815,0.23273781,0.79403794,0.96126205,-0.62039024,-0.13553742,0.7206013,-0.68847716,-0.049107134,0.39107543,-1.7547479
0.08693586,-0.63505423,0.36435056,0.011101107,0.07577522,-0.24692763,0.33469057,0.76775587,1.1370826,-0.4286911,-0.015994012,-0.2314948,-0.5816592,0.12563255,0.37881747,-1.3490334
-0.07683027,-0.6284313,0.39611092,0.40647155,0.24940987,-0.31118324,0.40001032,0.53626376,0.8638865,-0.5235563,0.40016544,-0.22357364,-0.4101027,0.22515051,0.38773674,-0.9193296
-0.17838496,-0.6594091,0.38372654,0.7737312,0.3755727,-0.311707,0.40002847,0.5308834,0.5597413,-0.77285844,0.39050314,-0.2949491,-0.3557076,0.170529,0.3246151,-0.9761372
-0.3341251,-0.66548365,0.39911315,0.958216,0.41717514,-0.22281711,0.4009789,0.38481465,0.15535574,-0.81097853,0.28461024,-0.39235625,-0.24578142,0.10858165,0.2600011,-1.0931995
-0.26162738,-0.78819394,0.4002298,0.65052444,0.3219453,-0.3093558,0.3552741,0.34152955,0.36350834,-0.6257748,0.053990487,0.008063061,-0.19789465,-0.12604119,0.33463258,-1.8309691
0.07113436,-0.76206434,0.36106932,0.6692354,0.12080093,-0.31363383,0.39365095,0.4898412,0.5188817,-0.696249,0.13870832,0.3232501,-0.34063995,-0.3560982,0.4001008,-2.0090153
0.23250578,-0.6780899,0.27248374,0.5051815,-0.030096881,-0.28208157,0.34092963,0.67775375,0.71520144,-0.65531474,0.010287825,0.6632696,-0.60688275,-0.31993842,0.4001106,-1.8296509
-0.027251968,-0.66346765,0.39784604,0.33111855,-0.014647261,-0.327718,0.23597059,0.67123884,0.9180984,-0.42061052,0.08274382,-0.21053556,-0.6381485,0.013781361,0.1616798,-1.3128127
-0.22035871,-0.6302731,0.37879357,0.40204856,0.14652662,-0.34544575,0.3913128,0.63428104,0.6766877,-0.5348214,0.3835773,-0.5626091,-0.4413889,0.028083893,0.24966583,-1.1485802
-0.43280402,-0.6123662,0.37152708,0.40421855,0.36253005,-0.36015576,0.3999587,0.2529166,0.21963039,-0.80722547,0.3296269,-0.5609295,-0.24209163,-0.0019534328,0.2150347,-1.1858705
-0.3727899,-0.69318324,0.4000816,0.42656577,0.35925186,-0.41509065,0.31902725,0.054671805,0.35651466,-0.64939624,0.062003057,-0.5770175,-0.17143323,-0.19899142,0.3316128,-1.6364717
-0.07494121,-0.7911011,0.33785212,0.6163576,0.12679692,-0.3912104,0.35223544,0.30375496,0.51432455,-0.70764863,0.17406373,-0.32351804,-0.33183938,-0.48328996,0.40015346,-1.8863469
0.16669774,-0.6253528,0.21094848,0.3796798,-0.055759564,-0.32692942,0.31826144,0.65381163,0.7027841,-0.6799796,0.1182843,-0.018566074,-0.59548414,-0.50708354,0.39982003,-1.7681966
0.062357478,-0.62729627,0.26647884,0.37919617,-0.1070364,-0.31532702,0.2077524,0.8387964,0.78557557,-0.4984429,0.20366864,-0.431424,-0.729048,-0.2238815,0.26745605,-1.5194693
-0.09942818,-0.6889854,0.37041894,0.39355445,0.11740754,-0.29813176,0.40000108,0.7585024,0.5838385,-0.58881325,0.400109,-0.818455,-0.52523535,-0.12189886,0.32399523,-1.3455054
-0.2690161,-0.7237556,0.37913895,0.505369,0.3414144,-0.31946656,0.3999866,0.5156177,0.2535322,-0.782873,0.37357107,-0.66905767,-0.39310673,-0.14181606,0.3058642,-1.3565066
-0.38373008,-0.6958117,0.40052095,0.46908742,0.45125428,-0.39938903,0.34571308,0.08790608,0.09730764,-0.68816084,0.16818583,-0.7737831,-0.18520154,-0.21218055,0.29564285,-1.5196329
-0.09109963,-0.8627564,0.37715483,0.63448256,0.24557804,-0.43967175,0.37277117,0.20381133,0.33904344,-0.7539017,0.20340493,-0.40146327,-0.26294667,-0.50430435,0.4007613,-1.7487776
0.21093047,-0.83942294,0.24308859,0.59498066,0.071111314,-0.37681955,0.35783032,0.5926351,0.55706465,-0.79038215,0.12914343,0.2271029,-0.5410991,-0.5673693,0.3999617,-1.875852
0.25227886,-0.6442859,0.13558054,0.46811363,-0.081031084,-0.3389115,0.2126475,0.79794365,0.76756406,-0.7109057,0.093189634,-0.15044346,-0.8369393,-0.40685353,0.3992653,-1.7503587
0.030503254,-0.6631682,0.2729983,0.31159654,0.021722103,-0.32521483,0.3106833,0.70156825,0.69192445,-0.5646916,0.30447403,-0.83284074,-0.70043564,-0.14643371,0.2705742,-1.3548812
-0.16517264,-0.6441057,0.29815987,0.3459306,0.21737358,-0.36253038,0.39998356,0.60685,0.38488343,-0.71788436,0.40028313,-0.8259423,-0.5098106,-0.18034719,0.32799026,-1.4073762
-0.3052854,-0.6160423,0.28741947,0.111219145,0.42425254,-0.39092886,0.40001297,0.18534845,0.0331077,-0.7476336,0.3782318,-0.746859,-0.34686616,-0.1720964,0.31674802,-1.196404
-0.1604215,-0.5257106,0.3846471,0.03855178,0.5581539,-0.37509313,0.2509309,-0.030689344,-0.1326994,-0.6745569,0.37160054,-1.1225337,-0.112178,-0.36233723,0.40021747,-0.7398736
-0.042058114,-0.35005796,0.3996323,0.15692712,0.43546167,-0.2355395,0.36492246,-0.01764745,0.003211188,-0.64970344,0.34447563,-1.1673913,-0.016103446,-0.3943095,0.40002468,-0.3608021
0.13472226,-0.07920319,0.4000053,0.19591902,0.36950642,-0.18877362,0.35432664,-0.06593836,0.07317402,-0.58655876,0.24276659,-1.1949174,0.00022212163,-0.38979235,0.40004018,-0.18487394
0.21589056,0.048216943,0.39931488,0.19591658,0.37506184,-0.20804623,0.31661513,-0.10609251,0.08068415,-0.5882116,0.24156338,-1.2606419,-0.09966404,-0.3116578,0.40327802,-0.05063349
0.27699518,0.10737702,0.4000769,0.19591549,0.3626913,-0.16149423,0.3252455,0.007830474,0.10567615,-0.5583412,0.15604973,-1.3900746,-0.08623528,-0.22248486,0.40300858,0.0026127808
0.29922357,0.18582344,0.40006575,0.17167468,0.3482142,-0.12704846,0.30969986,0.13431318,0.11743473,-0.5578578,0.120804705,-1.3885169,-0.09459527,-0.19925776,0.40102455,-0.07912569
0.34290132,0.22596383,0.40001923,0.116455205,0.38763455,-0.10939956,0.2860301,0.23636445,0.08069795,-0.5898663,0.090003476,-1.1200399,0.030567758,-0.16307805,0.39704514,-0.02549712
0.2762055,0.33108413,0.39981005,0.0898899,0.41812807,-0.13655993,0.24377844,0.3224941,0.049943272,-0.53825396,0.060496364,-1.204056,-0.030212004,-0.19256333,0.4002035,-0.03203413
0.18760648,0.19064394,0.39927718,0.007096213,0.3978546,-0.15879911,0.20321333,0.28041673,-0.05567848,-0.44252843,0.10251902,-1.1650624,-0.06636717,-0.1953263,0.3986685,-0.07591801
0.039301924,-0.0073171407,0.2409241,-0.04258031,0.31507862,-0.22571537,0.21342926,-0.061143063,-0.1873826,-0.22759543,0.25548312,-1.1069916,-0.18445282,-0.035073433,0.37172908,-0.055406988
0.13203403,-0.1225334,0.3186946,0.079879366,0.26799497,-0.23953389,0.17350063,-0.077671856,-0.30596283,0.080863364,0.3999772,-0.7947391,-0.3048671,0.010823304,0.27842927,0.4038704
0.1540985,-0.13741936,0.24030933,-0.04780023,0.28073078,-0.22471286,0.09912003,-0.045639805,-0.14386053,0.040983237,0.35512182,-0.43304622,-0.30058503,0.0010036781,0.1484433,0.36886802
0.34086803,-0.18972969,0.40004864,-0.17488359,0.19512782,-0.18591116,0.19080913,0.12431298,-0.009692021,-0.048827197,0.28260547,0.08077718,0.0710138,-0.2022162,0.40039027,0.23493475
0.07928473,-0.16389504,0.40003163,-0.4156563,0.09147524,-0.088519536,0.2722118,0.36689344,0.08542077,-0.116115026,0.19147998,0.28894714,0.23092933,-0.07616274,0.39965189,-0.07982608
-0.016082443,-0.07697479,0.3445042,-0.2921019,0.08657437,-0.0668359,0.2328002,0.37050873,0.09973017,-0.05891375,0.11835437,0.061970025,-0.008340925,0.11788106,0.3615737,-0.16238767
0.0025187773,-0.109850645,0.3602499,-0.071528636,-0.0018478659,-0.055972073,0.39747882,-0.20629847,-0.20626384,0.17098874,0.39637804,-0.17597638,-0.18946993,0.20690909,0.18434706,0.0022788583
0.020365927,-0.110552326,0.35068062,-0.20609097,-0.011151803,0.12321745,0.39555958,-0.1594706,-0.113125995,0.132627,0.3999814,-0.17559981,-0.28942418,0.27877447,0.07844534,0.59479326
0.09387862,-0.16198973,0.32376555,-0.07892523,0.2429948,0.13901648,0.1970588,-0.09908278,0.03131294,-0.041554958,0.31156862,-0.12273328,-0.23439382,0.08010191,0.2148322,0.38513803
0.28632978,-0.12683658,0.3400244,-0.34724218,0.24482363,0.15496759,0.31008062,-0.23928796,-0.050800487,-0.06299198,0.3861578,0.06663822,0.09408401,-0.16248924,0.4001182,-0.054608706
0.060479544,-0.020136688,0.39461043,-0.742678,0.26148203,0.124369815,0.3059435,-0.32202014,-0.042162742,-0.076550916,0.33760023,0.37248722,0.10033812,0.011738684,0.39245567,-0.074648105
0.04425298,-0.024631303,0.3971757,-0.52265924,0.1080662,0.25548312,0.4000958,-0.3085007,-0.1324849,0.16538247,0.4000154,-0.096117795,-0.17583409,0.19049194,0.31292295,0.4978859
0.14944391,-0.08557822,0.36854818,-0.30981594,-0.088709176,0.5286713,0.2722472,-0.23587659,0.04016015,0.22203025,0.400171,-0.32112664,-0.3528102,0.3545381,0.20510061,1.3920184
0.2358831,-0.09301433,0.26308352,-0.23389922,0.054856755,0.71928823,0.13033709,-0.26651666,0.29610142,0.01163888,0.3253396,-0.24054787,-0.50091934,0.29031187,0.12387165,1.0800322
0.31174627,-0.115679994,0.24697113,-0.5759187,0.31621343,0.6454951,0.13543254,-0.63856316,0.15766697,-0.08885069,0.34779504,-0.004217809,-0.30022675,0.1147293,0.36046466,0.43428048
0.1982929,-0.1863212,0.40000546,-0.8334511,0.465151,0.617766,0.19865693,-0.68635607,-0.038336094,-0.053889833,0.39796203,0.0888207,0.016459642,0.3728071,0.37766322,0.13530448
-0.093905486,-0.16219003,0.39971444,-0.72514725,0.43665844,0.48655054,0.30707866,-0.6582787,-0.08618536,0.05765304,0.33936885,-0.03029453,-0.12596689,0.4885007,0.21049005,0.026374431
0.0033294463,-0.16110857,0.32059798,-0.57792675,0.23158261,0.7284429,0.30434975,-0.18787187,0.10111563,0.0825666,0.40019372,-0.19762737,-0.29582518,0.5704823,0.21840969,0.41507787
0.15816917,-0.19839652,0.26613736,-0.2920585,-0.036347743,0.8604706,0.19577512,0.07352423,0.3386348,0.058506988,0.40005806,-0.25873992,-0.5042518,0.5745073,0.125221,0.7281956
0.2721924,-0.1257837,0.1363176,-0.35300034,0.26098806,0.70134264,0.09297384,-0.34673923,0.37126732,-0.189037,0.3312864,0.0023489916,-0.41873232,0.32393232,0.25918928,0.23441687
0.20543878,-0.20083226,0.39459863,-0.6967202,0.45155498,0.6438399,0.15620397,-0.4611161,0.14915879,-0.1827635,0.39431173,0.17576382,-0.038166203,0.3828635,0.4002846,0.027181296
-0.09672814,-0.16933487,0.3999985,-0.84048444,0.53959405,0.42034352,0.18288448,-0.9126869,-0.018368809,-0.07231165,0.34497154,0.09893981,-0.099259496,0.50541097,0.14614427,-0.09086158
-0.101860955,-0.16437288,0.37660512,-0.6570924,0.3549769,0.62371355,0.31658193,-0.37268677,0.13453023,0.048894227,0.4001313,-0.14313792,-0.26328048,0.5804877,0.210923,0.31978068
0.09667365,-0.2426736,0.2852366,-0.194369,-0.000244383,0.77281904,0.212079,0.14273737,0.45657825,0.028309332,0.40000725,-0.10069081,-0.53839135,0.56277764,0.088691734,0.24231552
0.22934332,-0.19917805,0.11538784,-0.07775251,0.15984002,0.68239576,0.13756822,-0.22796263,0.5293704,-0.17145802,0.21668097,-0.20389876,-0.4904004,0.36864224,0.21293703,0.1214224
0.28041545,-0.23375362,0.31384566,-0.5579484,0.30901274,0.65959805,0.21336009,-0.5181814,0.29804936,-0.22683805,0.40814868,-0.075402826,-0.123790056,0.27091548,0.39991903,0.049364638
0.005475104,-0.2696518,0.399995,-0.8145785,0.42104718,0.43959495,0.2693395,-0.44975433,0.053852446,-0.25796834,0.36978966,0.33757374,-0.0011600523,0.48097262,0.25306633,-0.1350954
-0.16306747,-0.13997033,0.3609424,-0.85002625,0.26370165,0.5809506,0.35004985,-0.31474784,0.08416008,-0.10423497,0.40011075,-0.06759379,-0.18165433,0.5066785,0.28474638,0.11315054
0.015158577,-0.22852765,0.32298684,-0.48614275,0.010648157,0.8381416,0.29820365,0.09900254,0.31621373,-0.058106497,0.4006123,-0.2566287,-0.43656176,0.5405943,0.13979937,0.5258769
0.21623771,-0.32567924,0.12195045,-0.29085338,0.15520406,0.7300642,0.13293642,-0.16579515,0.4885589,-0.2613034,0.20880073,-0.20718291,-0.52624756,0.32686165,0.17220083,0.37729684
0.28846437,-0.36172438,0.34413067,-0.54880285,0.36574748,0.6158862,0.16465412,-0.45030534,0.2213456,-0.28035507,0.39754862,-0.1344535,-0.10304712,0.28356442,0.40031937,0.022458792
0.107494764,-0.37692362,0.40002295,-0.6976678,0.5370431,0.4242462,0.21237925,-0.6408884,0.0168117,-0.24392872,0.37459624,0.06604841,0.087212116,0.5420738,0.3193394,-0.10396875
-0.21165039,-0.21309218,0.3784269,-0.6803934,0.41040307,0.42567253,0.33915126,-0.5656064,0.05128247,-0.013845449,0.38004774,-0.21085164,-0.11242801,0.57685095,0.27537763,0.11703329
-0.09980554,-0.23509675,0.340871,-0.49782914,0.18481068,0.6444125,0.3360841,-0.2253638,0.2137068,0.03850107,0.3999975,-0.24767177,-0.3514667,0.628872,0.22203416,0.43301305
0.072272465,-0.31801972,0.23349708,-0.19563143,0.020362725,0.6542498,0.20864087,0.012846763,0.48024163,-0.07366652,0.39294916,-0.20874488,-0.55239177,0.5217546,0.14899087,0.1183766
0.21524547,-0.29241946,0.19076978,-0.2552659,0.20508474,0.68985873,0.30855882,-0.06804773,0.3659024,-0.22877736,0.33638573,0.1550999,-0.31135374,0.28415397,0.3693332,-0.065331735
0.20606986,-0.4196991,0.3778092,-0.67287785,0.3817113,0.61610115,0.3082632,-0.30826837,0.17144044,-0.18493764,0.3662132,0.14278169,0.027363418,0.2881141,0.40012348,-0.17654552
-0.13939087,-0.3012658,0.40003976,-0.9043852,0.33123067,0.48868522,0.34844962,-0.45106325,0.0045005996,-0.13285321,0.3902695,0.07345671,-0.07679123,0.4926279,0.31404355,-0.07606429
-0.068504505,-0.32556766,0.3608153,-0.51398027,0.0906032,0.7445937,0.3567289,-0.22615707,0.13430707,-0.030037384,0.40016362,-0.15888181,-0.32855052,0.55979174,0.25456065,0.43034145
0.13317865,-0.40684986,0.22555754,-0.27814168,0.038638555,0.7250844,0.1888572,0.10027723,0.45282793,-0.18515283,0.3120592,-0.04686444,-0.5315527,0.405816,0.13878886,0.24108505
0.2360787,-0.37033507,0.23042463,-0.32244554,0.20197532,0.6601339,0.24144319,-0.30349877,0.2755664,-0.28092426,0.37075996,0.019276155,-0.2614279,0.17950536,0.38350564,0.05805777
0.20352186,-0.47317573,0.40001434,-0.63367987,0.3397938,0.62807494,0.27245277,-0.24101418,0.087727696,-0.25956106,0.389572,0.01143793,0.0660983,0.31698203,0.4001869,-0.13103265
-0.09818563,-0.3325553,0.39805612,-0.7060164,0.41567513,0.3971736,0.3087138,-0.91484225,-0.07921825,-0.20907359,0.33276278,0.001289001,-0.056735016,0.44255224,0.18327376,-0.10519308
-0.14693797,-0.23980749,0.37150913,-0.724986,0.20150118,0.6188613,0.3512521,-0.23128347,0.009646634,-0.08621931,0.40012813,-0.2162949,-0.19800504,0.5552814,0.2925145,0.27738485
0.013098132,-0.2832266,0.30434194,-0.31406936,-0.07131216,0.7975875,0.29437217,0.15592428,0.262044,-0.048619963,0.4003363,-0.24638091,-0.4432407,0.53299254,0.16039121,0.39213437
0.20541848,-0.25561407,0.19399345,-0.21750459,0.072992794,0.7496634,0.16867979,-0.020865085,0.41931275,-0.21971841,0.3008827,-0.12498996,-0.50403994,0.37446854,0.23059464,0.20946579
0.26739424,-0.26414344,0.31304634,-0.37741098,0.21840304,0.67635477,0.23952895,-0.37267384,0.20977965,-0.2804373,0.41998002,0.024107384,-0.20144293,0.1962037,0.4008266,0.005507382
0.116256155,-0.24663657,0.39430687,-0.7375724,0.41240793,0.47196874,0.22357555,-0.81641316,0.0081813065,-0.22194289,0.32992882,-0.094796054,0.08203633,0.43508494,0.3307568,0.011769496
-0.21505545,-0.11906658,0.3708671,-0.7462573,0.32263473,0.42045733,0.3549255,-0.482944,-0.03752078,-0.11932941,0.38079417,-0.26218256,-0.13166219,0.49180165,0.2826126,0.032946307
-0.05857329,-0.19374406,0.31497145,-0.56489724,0.07340572,0.71650547,0.3437591,-0.14715718,0.0904471,-0.048165504,0.40019047,-0.23548438,-0.38378593,0.52084094,0.22265373,0.38199598
0.11226518,-0.25251666,0.22931655,-0.33370805,-0.1158217,0.7287316,0.21350804,0.08035577,0.33616555,-0.0836753,0.39973262,-0.2495361,-0.6144761,0.4556621,0.08939388,0.37553343
0.22740607,-0.21810226,0.10409784,-0.5122711,0.12504804,0.5685291,0.08178566,-0.19944888,0.34792736,-0.27722743,0.39324296,0.054433756,-0.4640475,0.23561461,0.31755045,-0.058803953
0.17287607,-0.3228488,0.33048943,-0.6787134,0.14783597,0.6370983,0.26484323,-0.34551287,0.21759842,-0.285591,0.3758465,0.36950198,-0.15680681,0.23002265,0.40021983,-0.25702333
-0.10575048,-0.28328636,0.39999932,-0.74520564,0.2882135,0.42067933,0.32179102,-0.6256245,0.03689796,-0.25269017,0.35608348,0.20780128,-0.033276927,0.4763807,0.26654965,-0.2089159
-0.21705754,-0.17694332,0.38222438,-0.73358303,0.13807273,0.5666448,0.3663157,-0.34213555,0.12420081,-0.012696391,0.40030298,-0.2375418,-0.19892436,0.5661466,0.32618958,0.39113566
0.0147422785,-0.29871324,0.33862722,-0.3741578,-0.15256555,0.8277391,0.2206194,-0.003390155,0.42940417,-0.061281193,0.40005684,-0.20660566,-0.5120261,0.5360611,0.118726365,0.7457922
0.19039932,-0.3285922,0.18232204,-0.41421235,0.07408663,0.7454899,0.14327316,-0.06487857,0.5436362,-0.29265553,0.2336854,-0.08164922,-0.5528975,0.32899967,0.1542242,0.35249782
0.2189619,-0.23884974,0.35748184,-0.48750326,0.27952942,0.62019074,0.15042232,-0.45241216,0.35422462,-0.35152698,0.35539412,0.0067622303,-0.25929454,0.15470642,0.3833605,0.2549495
0.16196467,-0.23104088,0.3963799,-0.6216013,0.43370038,0.51537764,0.17934738,-0.56724066,0.15057032,-0.3193443,0.40267262,0.062857434,0.062449034,0.35208485,0.3999828,0.056699615
-0.23787944,-0.09144845,0.39230523,-0.72599614,0.3868983,0.40687263,0.32260492,-0.71084046,0.06339323,-0.13352422,0.4032437,-0.01641878,-0.14728041,0.51759076,0.26055834,0.1254585
-0.09562483,-0.18680899,0.36444098,-0.3180741,0.18249683,0.6652317,0.3102265,-0.3120073,0.21442488,0.013421956,0.40007234,-0.25085396,-0.36506635,0.56273067,0.1958022,0.39889258
0.11277085,-0.23192994,0.3067508,-0.016451156,0.013690757,0.7140422,0.15800393,-0.062784,0.48479855,-0.07067855,0.3770585,-0.3605407,-0.6008105,0.47884515,0.08753704,0.20872322
0.24798302,-0.23654662,0.22488332,-0.30074286,0.22228651,0.6775644,0.20574254,-0.36264706,0.3343256,-0.21677348,0.37219387,-0.14958629,-0.3161015,0.23210114,0.33652464,0.1008765
0.23209679,-0.33960482,0.39910606,-0.61934894,0.38955748,0.5918034,0.23964913,-0.49830213,0.10961859,-0.20249529,0.39045605,-0.05689935,0.034589376,0.35885617,0.40010554,-0.04349453
-0.03771118,-0.25799,0.39999607,-0.74102956,0.45266834,0.4215981,0.27152833,-0.86703384,-0.044421308,-0.15941295,0.34212664,-0.07909288,-0.05569285,0.48925462,0.24261557,0.019333396
-0.11012015,-0.20347117,0.3720846,-0.5936553,0.22210039,0.6357837,0.36449504,-0.31989607,0.074703276,0.021270227,0.40018284,-0.14118175,-0.24612796,0.52977777,0.33460328,0.22092885
0.13170162,-0.30790666,0.28571606,-0.18551567,-0.052842665,0.7905487,0.22338188,-0.05104534,0.38328043,-0.01934873,0.3999798,-0.20048365,-0.5577797,0.51549375,0.1316089,0.47603986
0.26334384,-0.2549445,0.23298532,-0.30367398,0.1832639,0.7010575,0.21276408,-0.34215045,0.3492423,-0.1638001,0.34065175,-0.18043275,-0.36431766,0.23310672,0.3260984,0.18360397
0.22940604,-0.31650183,0.4000201,-0.61468565,0.34742588,0.61432344,0.2638249,-0.25254667,0.10887454,-0.17164935,0.38517997,-0.09479885,0.022474935,0.3771192,0.40035564,0.07641591
-0.15750167,-0.17319255,0.400023,-0.71912277,0.35665035,0.43582138,0.35551682,-0.70868844,-0.048510976,-0.09700984,0.35427767,0.033620007,-0.09169038,0.47462,0.28900516,-0.12009176
-0.08911801,-0.18044502,0.33054796,-0.696884,0.14008161,0.6334242,0.366716,-0.28013858,0.10266714,-0.023508795,0.4001166,-0.03867956,-0.29300064,0.5292148,0.28642175,0.27558774
0.11076053,-0.3003001,0.21468893,-0.17413205,-0.061084054,0.7246246,0.21019079,-0.13231306,0.42489338,-0.08756389,0.39985597,-0.23304749,-0.579585,0.50712484,0.13825585,0.5609352
0.22714438,-0.32628423,0.06645215,-0.16856907,0.12974694,0.64874536,0.21422084,-0.29712826,0.36944884,-0.24949053,0.3426219,-0.0473832,-0.44654572,0.26631844,0.30819425,0.058759287
0.16105424,-0.33011097,0.30432764,-0.6705386,0.2568856,0.61516196,0.2982249,-0.31158936,0.19756643,-0.2206933,0.39363378,0.07527333,-0.08433578,0.27672416,0.39657208,-0.18732394
-0.0746173,-0.32377473,0.39999506,-0.8500671,0.39612913,0.42963818,0.31670177,-0.7607884,-0.01508926,-0.13856499,0.31138945,0.05210137,-0.009583421,0.50692576,0.22101757,-0.19101568
-0.18433672,-0.19832952,0.40065295,-0.7292039,0.17982052,0.6632162,0.34119895,-0.18280256,0.13900767,0.04684906,0.39418966,-0.25718892,-0.18575698,0.5847674,0.31139436,0.3184077
0.020492224,-0.2819394,0.34196463,-0.3296727,-0.14655605,0.93009984,0.19216181,0.16380933,0.42689574,0.024914114,0.4002571,-0.29170698,-0.48156822,0.6044663,0.16260253,0.7114688
0.19950892,-0.26213366,0.13855135,-0.2625853,0.049708158,0.768957,0.16527814,-0.09878928,0.5836016,-0.22750972,0.2633841,-0.011374024,-0.5335272,0.39785817,0.24101026,0.54792815
0.18211176,-0.2115882,0.30347583,-0.52094704,0.21808851,0.6759305,0.19545089,-0.36262873,0.40815842,-0.26092038,0.415782,0.14022928,-0.21611957,0.26452065,0.4003148,0.17769381
0.06459679,-0.20907728,0.3925969,-0.8044486,0.38897148,0.56403637,0.20871814,-0.2605293,0.20995237,-0.24802946,0.37332314,0.33906153,0.11307664,0.45328382,0.38297084,-0.3506779
-0.26046354,-0.108514994,0.39792997,-0.8071202,0.42556208,0.41747504,0.28866708,-0.6319698,0.07403302,-0.19418366,0.3834923,0.25658548,-0.0724812,0.49561593,0.19743364,-0.017996078
-0.2221916,-0.12833503,0.36542144,-0.6004881,0.1989027,0.73017263,0.3650962,-0.19029269,0.17585067,-0.04863165,0.40034613,-0.111909926,-0.25690424,0.5544689,0.2654017,0.33269256
-0.04621077,-0.19707784,0.33905187,-0.3011046,-0.06771284,0.9084675,0.22596137,-0.023052836,0.41840693,-0.081940815,0.39997143,-0.20839687,-0.49149737,0.56066316,0.10364296,0.6877749
0.14750671,-0.2170847,0.25212657,-0.09366144,0.0215259,0.791489,0.120897196,-0.06827405,0.5489792,-0.28077295,0.26489082,-0.21928766,-0.5284543,0.36672693,0.1402104,0.3661191
0.22580129,-0.24915642,0.40001485,-0.49883977,0.27039242,0.7209825,0.12663189,-0.55031157,0.26792115,-0.34280667,0.40087822,-0.099959105,-0.11298752,0.3014639,0.38975182,0.21936259
0.05928375,-0.25352597,0.40000322,-0.7146735,0.43507463,0.5780829,0.19158296,-0.85768944,0.060661655,-0.31750414,0.39667764,0.14825526,0.09581096,0.5482085,0.32139474,0.06739901
-0.26228404,-0.17932183,0.3981964,-0.61304295,0.32784227,0.49911267,0.33255902,-0.76393193,0.03681656,-0.16322781,0.4009728,-0.06797546,-0.11803393,0.5403496,0.23129088,-0.08249602
-0.20816924,-0.18201555,0.30802318,-0.62702537,0.10407283,0.70843273,0.3448313,-0.14527199,0.18403986,-0.08278306,0.40030456,-0.29751077,-0.31867006,0.59121996,0.22151078,0.4039444
0.058325365,-0.30322102,0.25809962,-0.025483588,-0.11312008,0.7266817,0.20944919,0.007048029,0.51683974,-0.13727002,0.39976287,-0.28702727,-0.61967444,0.50991666,0.06641263,0.23110496
0.19777109,-0.29776716,0.0964516,-0.16883743,0.12198195,0.64669615,0.15520124,-0.2474659,0.48148635,-0.32117122,0.28177643,-0.15486802,-0.5387462,0.3082222,0.25225922,0.11077338
0.23039505,-0.41337296,0.37871513,-0.5882585,0.29624027,0.57677156,0.26018414,-0.39660296,0.2196239,-0.33327225,0.3946682,0.17624106,-0.10005988,0.23643762,0.4002985,0.070850894
0.008514757,-0.3299189,0.39348915,-0.7863113,0.49039707,0.3593839,0.27152982,-0.8778281,0.033944447,-0.26317325,0.304817,-0.12430874,0.08511921,0.47249252,0.29610145,-0.21661952
-0.22465865,-0.18032967,0.37164655,-0.7970209,0.26688614,0.4997239,0.3453468,-0.37506214,-0.024996389,-0.124491274,0.4008556,0.1970098,-0.19595107,0.564312,0.29366097,0.21693513
-0.059798423,-0.29122233,0.3393917,-0.41997996,0.03967006,0.7126328,0.3133724,-0.10810971,0.19062105,-0.035989728,0.4001598,-0.29178095,-0.42084536,0.56370157,0.18222867,0.39333686
0.13986023,-0.34009013,0.21138443,-0.22831076,0.014264643,0.6539053,0.16435775,0.09410241,0.45901483,-0.18191557,0.33562034,-0.109893344,-0.6077788,0.41524792,0.14464281,0.021926055
0.25446972,-0.37330347,0.26600656,-0.36847332,0.18008626,0.63084567,0.24505915,-0.30472073,0.24299657,-0.27849713,0.4154963,0.2884762,-0.31442463,0.18085226,0.40132397,-0.013717302
0.13369882,-0.3782228,0.39163998,-0.7925457,0.34360802,0.49858376,0.28104922,-0.5654412,0.06491032,-0.22183043,0.35944486,0.37066275,-0.007923164,0.38176957,0.34331486,-0.2388782
-0.23708063,-0.22095147,0.32592788,-0.85535187,0.20474976,0.48100615,0.33141327,-0.35791877,0.06996705,-0.12132935,0.40211004,-0.031766966,-0.20369315,0.48635036,0.3230806,0.16570531
-0.081476964,-0.30036026,0.32678163,-0.50244963,-0.03450212,0.6659796,0.33832192,-0.10360547,0.28524867,-0.07968017,0.40059686,-0.27719608,-0.42862624,0.51319253,0.18875267,0.49884066
0.13514929,-0.3728879,0.22550061,-0.27860913,-0.05039423,0.6901341,0.17160402,-0.0625885,0.51855135,-0.24122372,0.30997565,-0.18200836,-0.57479566,0.3213431,0.15418904,0.2589076
0.20946084,-0.34990183,0.2806458,-0.42667237,0.10325457,0.62029374,0.19059928,-0.27228504,0.28737122,-0.34986135,0.42181453,0.020251429,-0.24693891,0.118479215,0.39420742,0.17314778
0.07148158,-0.2975012,0.39741418,-0.6841903,0.24160537,0.50667024,0.30165783,-0.59668684,0.08635778,-0.29296026,0.3334941,0.12655176,0.15050401,0.42759824,0.36809304,0.029206019
-0.25678352,-0.14299315,0.38218576,-0.74093515,0.21357615,0.51571417,0.3590651,-0.45289716,0.06147776,-0.1516983,0.37958792,-0.07592829,-0.061979067,0.51265454,0.32531106,0.083386794
-0.16323939,-0.19192135,0.2995077,-0.60660255,-0.056797877,0.70971763,0.35762274,-0.22598815,0.23404999,-0.056945004,0.40011445,-0.07857955,-0.34544155,0.58130693,0.22385155,0.5058069
0.09858959,-0.28244993,0.22780456,-0.045961734,-0.09375062,0.7042351,0.18168594,-0.07756106,0.5632452,-0.22374266,0.31210443,-0.23885527,-0.5744784,0.45229784,0.15592752,0.38090953
0.15766144,-0.23623696,0.3023019,-0.47464284,0.119509764,0.65286,0.22378808,-0.3782519,0.34452602,-0.30914265,0.38872758,0.038462706,-0.24844472,0.22813942,0.4012781,0.3267256
0.10655945,-0.2738515,0.3992846,-0.7169708,0.27820498,0.53759915,0.2723556,-0.39789802,0.14735061,-0.26270857,0.35437435,0.05331957,0.093446106,0.39538363,0.3865981,0.0044603706
-0.20295073,-0.12846899,0.39999968,-0.8263512,0.2844501,0.4122755,0.3258886,-0.70519304,0.051504157,-0.20997232,0.34415555,0.20021923,-0.06393,0.4493221,0.27000058,0.102675684
-0.18901712,-0.1433053,0.380543,-0.7321517,0.077868305,0.67383134,0.34878227,-0.2728391,0.15379132,-0.049380794,0.40020248,-0.07665864,-0.25636566,0.5368765,0.2687264,0.4388424
0.052694127,-0.2799887,0.31925103,-0.15177424,-0.16732192,0.864948,0.20199263,0.023023603,0.48972675,-0.06870234,0.39983502,-0.29796636,-0.53673095,0.47412002,0.1070998,0.5962984
0.22937514,-0.23264404,0.24716818,-0.39673793,0.14165138,0.69758934,0.09022422,-0.22542293,0.40989304,-0.2821839,0.30678412,-0.012706619,-0.35677975,0.1980216,0.31847796,0.29418704
0.1850857,-0.30820107,0.4000453,-0.7142916,0.30876878,0.5979407,0.23161323,-0.384915,0.1508503,-0.2690058,0.38961715,0.110972136,0.03105524,0.32628033,0.38805935,0.046049748
-0.16558857,-0.18988632,0.40126583,-0.5846616,0.3257332,0.37606046,0.33050036,-0.44806767,0.040045176,-0.15967986,0.34148678,0.06795358,-0.09966891,0.42584595,0.18259671,-0.017871056
-0.065978386,-0.20208134,0.37354842,-0.5749169,0.06608296,0.6741386,0.34596643,-0.14470308,0.27022335,0.004412295,0.40019143,-0.1711,-0.30637303,0.5538516,0.2140791,0.4759174
0.16377307,-0.29878125,0.29004207,-0.048843067,-0.018586537,0.78013283,0.16511416,-0.017738923,0.5883394,-0.1460692,0.32991055,-0.18482122,-0.4979214,0.4445173,0.13257971,0.46185905
0.23375967,-0.2076716,0.31059617,-0.31344658,0.18097435,0.7164822,0.18866865,-0.35740867,0.39968196,-0.2255049,0.33922577,-0.022604508,-0.2551724,0.21136494,0.3648757,0.45520228
0.17860445,-0.31358275,0.4000028,-0.6804922,0.3940305,0.607243,0.25115308,-0.22599776,0.13480265,-0.20354635,0.38638034,0.15801987,0.14862624,0.36163372,0.40011567,-0.13895659
-0.12474487,-0.2316509,0.399996,-0.8303668,0.40087527,0.4345404,0.31056324,-0.6139533,-0.015857738,-0.16226381,0.3474349,0.11086808,-0.005641086,0.4587636,0.23255245,-0.11776997
-0.15911648,-0.21616255,0.39047697,-0.65465593,0.21243273,0.63154435,0.33819896,-0.31155244,0.07632724,-0.031972475,0.4001999,-0.25395405,-0.15334094,0.5404922,0.32687378,0.17425954
-0.0050857766,-0.2722243,0.34177613,-0.51582867,-0.049034994,0.7794988,0.25047755,-0.029888641,0.31224516,0.0034915025,0.4000327,-0.31576398,-0.383852,0.58681613,0.19060336,0.6016338
0.20370291,-0.37235153,0.16359842,-0.27822378,0.09772002,0.7298577,0.14473037,-0.09255806,0.49531743,-0.22786312,0.21902558,-0.13172443,-0.48003358,0.33498263,0.19945878,0.097097844
0.2782897,-0.37256756,0.35203812,-0.38854644,0.29475483,0.7282193,0.23977716,-0.34198293,0.2671454,-0.25324354,0.4139646,-0.16259079,-0.16737238,0.15445806,0.4009494,0.07204969
0.13317618,-0.3455541,0.39895073,-0.7216496,0.45046562,0.61080354,0.2574962,-0.23434973,0.072334066,-0.27304313,0.3874106,0.2195192,0.118980266,0.36400628,0.4005936,-0.10368032
-0.21042298,-0.16333635,0.38195348,-0.80703104,0.39224097,0.46201265,0.3339232,-0.52904165,0.017759414,-0.117140576,0.4002231,-0.1016159,-0.114262685,0.46907008,0.2746309,-0.033300698
-0.062636174,-0.24208012,0.35055822,-0.4221257,0.16262598,0.77360904,0.2833458,-0.031252496,0.21275654,0.04615549,0.40027204,-0.29518685,-0.3465405,0.5464383,0.24082296,0.4071636
0.14720014,-0.286369,0.2825637,-0.21224609,-0.05239179,0.76942635,0.17831056,0.103896886,0.5032918,-0.04506233,0.37639356,-0.13905734,-0.5636629,0.47695288,0.13238868,0.19453725
0.26931876,-0.31372514,0.22238013,-0.23448436,0.19850788,0.7060784,0.20312187,-0.31706056,0.33089927,-0.27134126,0.4025569,0.075688735,-0.32699412,0.22998354,0.36451656,-0.028024098
0.20855142,-0.399572,0.40002716,-0.59332615,0.35895094,0.60977006,0.24513568,-0.26816088,0.14444785,-0.24400614,0.3803097,0.29190335,-0.00077916397,0.2542159,0.400246,-0.12586226
-0.1734382,-0.28067917,0.40000784,-0.8213077,0.44847512,0.36049613,0.29064652,-0.8397741,-0.018028561,-0.099787384,0.31571147,0.17568828,-0.073099665,0.46034855,0.17954624,-0.08282293
-0.231235,-0.18936273,0.3984677,-0.77417284,0.22086792,0.64715314,0.32256162,-0.14995416,0.19476198,0.03908713,0.40008086,-0.094106175,-0.27217853,0.55011487,0.2543521,0.26791254
-0.054944836,-0.29453176,0.3309677,-0.5652333,-0.079074346,0.84963614,0.23259877,0.12006324,0.47066316,-0.007834601,0.40009105,-0.18901733,-0.5304926,0.55735826,0.11053515,0.6440195
0.13019465,-0.30152416,0.23938456,-0.31120485,0.036315143,0.75451815,0.1533918,0.051285077,0.58130735,-0.23384242,0.23682074,-0.06218822,-0.5455861,0.37615523,0.19207165,0.14583465
0.1731011,-0.30334294,0.3172,-0.6179389,0.20801584,0.6263964,0.15164134,-0.16587698,0.37430644,-0.29784313,0.40743575,0.21787274,-0.22121094,0.16313498,0.39205343,-0.11800679
-0.029349165,-0.24274786,0.39958784,-0.8241203,0.4155931,0.47432426,0.20127012,-0.45671254,0.14821143,-0.22401856,0.3857884,0.26811332,0.06937606,0.45378748,0.32070214,-0.1553332
-0.27111563,-0.13609329,0.38251996,-0.88557714,0.2148223,0.5854571,0.35402182,-0.37835744,0.1352371,-0.0843862,0.3939251,-0.08142614,-0.23353584,0.49676105,0.22282408,0.08438708
-0.08375108,-0.2532536,0.3842967,-0.29263905,-0.023161005,0.8082577,0.27427787,-0.11956585,0.35164168,-0.021575391,0.40005752,-0.24102281,-0.4527018,0.53679574,0.12775908,0.474591
0.10028864,-0.24711277,0.2972288,-0.16444252,-0.01418035,0.7838837,0.1522603,-0.1509793,0.5987881,-0.2032753,0.3391871,-0.12889837,-0.58624387,0.3896704,0.09136873,0.10448457
0.22674136,-0.20870094,0.21529154,-0.40960628,0.19164394,0.66899556,0.12353774,-0.31168076,0.4109503,-0.29015362,0.3558517,-0.036563,-0.31964016,0.16688272,0.34558564,0.1771448
0.21702877,-0.32911313,0.39999878,-0.66821444,0.38564882,0.5826503,0.18478148,-0.35843995,0.18197118,-0.3068598,0.3935617,0.25378135,0.035889268,0.31338176,0.400023,-0.11842557
-0.11424478,-0.27242786,0.39999545,-0.75672966,0.40445414,0.3709189,0.25656122,-0.8073103,0.016297016,-0.2578635,0.33559713,0.008155598,-0.08464131,0.43354034,0.1621095,-0.032662343
-0.18110102,-0.23284602,0.3668553,-0.63243234,0.21312307,0.535689,0.33900866,-0.35496953,0.048755657,-0.11624643,0.40216678,0.19689894,-0.22799686,0.5158351,0.24204434,0.2528533
0.028712485,-0.32230556,0.29536846,-0.37631565,-0.1149382,0.7636294,0.24924922,-0.0018013271,0.34716392,-0.0009232681,0.39999303,-0.3242146,-0.5185888,0.5125082,0.08635954,0.57050455
0.19977598,-0.35603023,0.16589884,-0.34118813,0.09323498,0.6776132,0.14252447,0.07182658,0.484442,-0.21195911,0.20728885,-0.17247176,-0.57053393,0.2985983,0.1313552,0.27165502
0.22934532,-0.3739651,0.27526763,-0.6300587,0.301355,0.6283382,0.15121429,-0.31508654,0.2555736,-0.23966932,0.41243863,0.06412177,-0.22868866,0.19717683,0.33154866,-0.07275268
0.052435767,-0.4011934,0.39724556,-0.80406624,0.5075493,0.42890635,0.18645947,-0.56358534,0.01839292,-0.2094812,0.36736143,0.3555867,0.08668011,0.48252282,0.348056,-0.11001592
-0.24475454,-0.27451727,0.37223345,-0.7501168,0.3605948,0.4649093,0.35274166,-0.5319204,0.008325743,-0.08530649,0.34081113,-0.12767902,-0.1485283,0.48431405,0.24209014,-0.14911982
-0.041074235,-0.40737167,0.37825564,-0.3186332,0.06826984,0.7171811,0.3282633,-0.018109363,0.27985382,-0.036934905,0.40012488,-0.28983754,-0.4159386,0.54389906,0.17366886,0.29884568
0.1526699,-0.45487294,0.23324876,-0.31476727,0.1338986,0.6820322,0.15228733,-0.18852842,0.49165303,-0.2139577,0.2826299,-0.14389428,-0.51811075,0.4136811,0.18924138,0.25466543
0.24293047,-0.4505231,0.33847827,-0.63503355,0.28711006,0.6589491,0.2743643,-0.38685215,0.2348327,-0.3236087,0.4014075,0.2558951,-0.14215818,0.25762156,0.3988934,-0.06032264
-0.015759123,-0.40056768,0.39999467,-0.87930655,0.4187977,0.45900875,0.30646455,-0.5230232,0.055257566,-0.27094796,0.3237488,0.2383635,-0.036424473,0.43538418,0.2960164,-0.1713394
-0.16963662,-0.24381125,0.38106763,-0.8035775,0.2549709,0.4961297,0.36296958,-0.54395026,0.13448268,-0.05642798,0.40020642,0.034934733,-0.1929056,0.43037337,0.271649,0.10165276
-0.020766154,-0.3365402,0.33007416,-0.44355136,0.004166705,0.79798937,0.30807108,0.09502731,0.3644612,0.040543925,0.40064403,-0.213651,-0.42883003,0.49674925,0.15274857,0.7226556
0.14115258,-0.37076056,0.251227,-0.18982431,0.03129174,0.71373713,0.16047467,0.028435376,0.5737745,-0.13049603,0.33712754,-0.15792337,-0.549845,0.3789178,0.11140231,0.4229113
0.22238572,-0.3751385,0.22351798,-0.4959006,0.23204435,0.64191276,0.19725448,-0.25299272,0.33048832,-0.23348005,0.3843107,0.047715496,-0.26796064,0.15841015,0.3705802,0.18832399
0.1615011,-0.4737074,0.40002447,-0.792858,0.39496583,0.52660495,0.229373,-0.35551885,0.12873684,-0.18319936,0.36471173,0.0071431194,0.10435089,0.4106246,0.3864948,-0.12461137
-0.22615112,-0.29206097,0.40001774,-0.7444703,0.35296118,0.3972072,0.3297559,-0.5819626,0.0120107,-0.08863235,0.33729702,-0.10312196,-0.090038024,0.48545653,0.2531826,-0.20385306
-0.15556811,-0.2706636,0.34547567,-0.5549162,0.13204752,0.6630388,0.36687845,-0.15153827,0.14051498,-0.032027345,0.40034506,-0.1778182,-0.3001694,0.55940557,0.26362136,0.25859413
0.03507586,-0.36000976,0.2863797,-0.23228529,-0.11591697,0.7316378,0.271706,0.14441559,0.40137032,-0.076930456,0.39647153,-0.1957179,-0.5569091,0.533438,0.09870862,0.36942855
0.1971563,-0.38686916,0.119796254,-0.10210276,0.1058165,0.6441064,0.19988729,-0.064539105,0.42990515,-0.2842185,0.28623337,-0.13077787,-0.55325866,0.31071323,0.22469077,0.08379728
0.24346355,-0.45166054,0.35092965,-0.43363103,0.25515202,0.65762335,0.33990085,-0.23051865,0.21359108,-0.274954,0.39553955,-0.103542864,-0.16851923,0.23090859,0.4014023,-0.09516402
-0.047051113,-0.34793693,0.3999949,-0.7114487,0.42905408,0.39169586,0.32207498,-0.91112626,-0.015559074,-0.19968086,0.32343054,0.020879343,-0.025396863,0.49283436,0.24360435,-0.17917934
-0.15338804,-0.24351124,0.3880859,-0.7007286,0.15794024,0.63885945,0.37973964,-0.28941178,0.12838341,-0.002866233,0.4000604,-0.018779783,-0.26637417,0.5809636,0.29306248,0.34619352
0.025410516,-0.3164663,0.35138428,-0.13507909,-0.1284305,0.77595747,0.25837478,0.08623525,0.4036345,0.00448018,0.39924225,-0.23389171,-0.5104902,0.5881065,0.15439293,0.5908119
0.19849296,-0.29143727,0.16302955,-0.13485263,0.043317653,0.70632386,0.16749637,-0.26111493,0.4944053,-0.1985202,0.26885438,-0.13441074,-0.4976399,0.34626848,0.2560031,0.30695632
0.27987683,-0.35292107,0.36003423,-0.43215406,0.19295102,0.6927262,0.26236758,-0.36295593,0.2673224,-0.24714355,0.41584584,0.10556267,-0.16603538,0.21897796,0.40100297,0.12744242
0.09133561,-0.34391534,0.40003723,-0.7103959,0.36920118,0.5411442,0.2619086,-0.58419234,0.08701747,-0.21959089,0.36603776,0.16838701,0.074448615,0.46064448,0.33332223,0.036467236
-0.17607485,-0.16828367,0.31774127,-0.78326946,0.1364473,0.62446344,0.3451582,-0.2407234,0.10254203,-0.077796906,0.3968241,-0.22515643,-0.20215224,0.5154153,0.2990301,0.16902335
-0.016727053,-0.2073023,0.27452064,-0.48253497,-0.10002745,0.7511366,0.29563135,-0.031645086,0.32455668,-0.034328505,0.39998695,-0.31993818,-0.43615767,0.5362547,0.17750563,0.56719714
0.16552253,-0.25982028,0.17354004,-0.2017036,-0.087966,0.7374669,0.18018651,0.055643015,0.5724653,-0.16969708,0.39833215,-0.24504961,-0.61861867,0.39462525,0.08433175,0.46155545
0.24770628,-0.16703124,0.2206055,-0.3375413,0.13505113,0.69600844,0.13431159,-0.6437872,0.483728,-0.23910269,0.29550245,-0.15920146,-0.41953072,0.21047212,0.29542422,0.5187429
0.21641847,-0.26541647,0.3955181,-0.59438175,0.27507454,0.68874913,0.23953694,-0.8123962,0.26798895,-0.27709356,0.4048876,0.018927062,-0.08812202,0.35838586,0.3762809,-0.03794911
-0.048232947,-0.22354116,0.40003157,-0.61592525,0.37942857,0.4649421,0.29794592,-1.0171009,0.10122372,-0.2315127,0.36189297,0.036065184,-0.07148496,0.54408187,0.19496669,0.0014512753
-0.13712513,-0.15060323,0.36742663,-0.76193535,0.09682049,0.6717423,0.32798222,-0.26125026,0.19685407,-0.06604196,0.40011922,-0.18986313,-0.32321718,0.6427807,0.24197309,0.4276461
0.037431102,-0.29886198,0.31507984,-0.12821996,-0.15641071,0.7174969,0.27957356,0.044043638,0.42632252,-0.07834611,0.39991027,-0.21193193,-0.54729116,0.5994664,0.1569188,0.31114435
0.21087448,-0.31157246,0.16214788,-0.16056716,0.028125158,0.6976824,0.23352872,-0.27346554,0.47634688,-0.24514009,0.32231364,-0.106268115,-0.50553286,0.40868548,0.3035819,0.059563138
0.22919646,-0.3543006,0.39855543,-0.57357967,0.24599229,0.68079066,0.30042157,-0.33759582,0.21481358,-0.28363746,0.39160857,0.2346417,-0.114119075,0.25817743,0.4008167,0.052258488
-0.022528384,-0.26930046,0.39999655,-0.7629696,0.40215486,0.44858465,0.27629662,-0.85540885,0.045828655,-0.24626106,0.36175418,0.33773044,-0.004900501,0.47915074,0.22944398,-0.19767933
-0.21740402,-0.15229397,0.3854838,-0.8347118,0.18887335,0.6390152,0.35762954,-0.27485937,0.11632395,-0.08458121,0.40021658,-0.18102166,-0.2347392,0.5355713,0.28193706,0.2708932
-0.01926276,-0.2660184,0.34891444,-0.44082007,-0.1014093,0.82307386,0.27343366,-0.028290698,0.37517166,-0.06046804,0.40007296,-0.29115534,-0.5125079,0.55100286,0.11687946,0.7716273
0.18347226,-0.32123303,0.20779678,-0.20637196,0.058665197,0.7032679,0.14409164,-0.12616624,0.5722136,-0.25499678,0.25306067,-0.17715034,-0.59377396,0.342638,0.14938714,0.23884547
0.20822693,-0.32667437,0.32851842,-0.5990856,0.22971633,0.6816834,0.21171069,-0.21372826,0.35470098,-0.32581753,0.42105672,0.058757905,-0.22963609,0.17916171,0.4005985,0.12526348
0.12034329,-0.35631067,0.40003276,-0.7655635,0.36743882,0.64063686,0.23396654,-0.34360144,0.2169942,-0.33422637,0.38157877,0.3711076,0.027105082,0.32883093,0.39572755,-0.13908218
-0.14291522,-0.26471484,0.40000305,-0.8530304,0.44102013,0.42565775,0.26315373,-0.5829966,0.06547102,-0.33569393,0.3718343,0.395527,-0.048435558,0.49431607,0.2194734,-0.079969384
-0.17009199,-0.20694852,0.37748608,-0.70460033,0.22050138,0.659248,0.38774627,-0.21546814,0.12636612,-0.14782058,0.4002544,-0.05066296,-0.26517707,0.5074485,0.2551251,0.22505918
0.045103066,-0.32107025,0.3048781,-0.3813407,-0.092540115,0.83789766,0.20709392,-0.0097360555,0.4395107,-0.1121591,0.39992377,-0.20804776,-0.5757769,0.50023586,0.069696635,0.7111862
0.22313298,-0.26038346,0.19244201,-0.3242472,0.14743385,0.67937064,0.10394201,-0.21084456,0.48055315,-0.27689278,0.26230827,-0.046086233,-0.5095544,0.27952746,0.20990051,0.35356337
0.20796399,-0.3167104,0.40002996,-0.7768024,0.32328826,0.64494205,0.1751947,-0.31505385,0.24600348,-0.33185628,0.40027907,0.19512136,-0.13620499,0.29870045,0.4003777,0.049959414
0.028255127,-0.24401966,0.4026123,-0.78213143,0.5172477,0.4741667,0.25565654,0.06516073,0.15316947,-0.32111752,0.36440325,0.36017856,0.168979,0.47462422,0.4001378,-0.23860702
-0.09581505,-0.18128777,0.39386955,-0.829071,0.65839934,0.39851,0.28460214,-0.6154038,0.10310974,-0.30528215,0.3160464,0.045343693,0.0014172124,0.5761205,0.2815294,-0.10229803
-0.111339845,-0.1826824,0.39533937,-0.6260587,0.4556952,0.72467333,0.32137606,-0.17838676,0.12491139,-0.07286796,0.37459776,-0.27747038,-0.17885834,0.6391207,0.2868654,0.27820572
0.032220602,-0.22198085,0.38144267,-0.66900533,0.17060752,1.0271225,0.1734837,0.21391861,0.3400129,-0.0810912,0.40014836,-0.25631788,-0.40237606,0.6320054,0.115503855,0.68566674
0.20796831,-0.2575754,0.2459783,-0.76136786,0.044760514,1.0340598,0.119394876,0.20107174,0.5845803,-0.2843724,0.35712215,-0.06898993,-0.5636462,0.47200453,0.015417287,0.6488779
0.28912646,-0.19459347,0.27154824,-0.48354778,0.34419298,0.8809584,0.13167475,-0.099783435,0.40251896,-0.35358092,0.31741142,0.0011568984,-0.3794586,0.2131903,0.267903,0.40212515
0.2003761,-0.1344841,0.40002504,-0.68227863,0.5632635,0.73326725,0.14393604,-0.33393824,0.23222986,-0.38331202,0.40733996,0.16119535,-0.017438268,0.31035948,0.39996305,0.050920375
-0.010152893,-0.094637774,0.39978462,-0.7153849,0.65433204,0.4951979,0.21376517,-0.8902525,0.04259001,-0.33805764,0.37294614,0.06958227,-0.03976252,0.50851667,0.22083929,0.00944868
-0.13663627,-0.034153152,0.31939209,-0.82389003,0.4719839,0.68890524,0.36170816,-0.35669875,0.08756761,-0.10847862,0.40026444,-0.15847841,-0.13960294,0.5453024,0.2931357,0.09777969
0.033892363,-0.13340408,0.28177863,-0.4432668,0.21746385,0.8826727,0.23500173,-0.027202314,0.3001509,-0.02053693,0.39999083,-0.34941104,-0.37734404,0.5851385,0.16907334,0.5667447
0.23126957,-0.21552813,0.18699913,-0.101496726,0.14952809,0.7505444,0.126362,-0.2692618,0.51623076,-0.18761164,0.35751733,-0.06540988,-0.5326637,0.43176746,0.14086708,0.54643613
0.31888118,-0.23873764,0.28821838,-0.46380574,0.36216697,0.6622276,0.19353221,-0.44470295,0.29735658,-0.25094378,0.4078998,0.034043178,-0.18331775,0.25974166,0.37759483,0.086623326
0.14070436,-0.32504702,0.40007043,-0.8440293,0.5586954,0.48177278,0.20049159,-0.47743675,0.0673114,-0.22972922,0.3748083,0.14995192,0.09425181,0.49199155,0.33022314,-0.15673207
-0.20573658,-0.17138028,0.37999412,-0.8864057,0.46644816,0.43862548,0.33092046,-0.4664398,-0.018405426,-0.14132686,0.40019143,-0.05463854,-0.13673449,0.4634081,0.22392811,-0.1287104
-0.07435191,-0.20958073,0.36447325,-0.7120008,0.28890723,0.6737657,0.34651893,-0.19093437,0.08340191,-0.05751728,0.40017977,-0.29209393,-0.29424283,0.5081687,0.2434917,0.19144294
0.10434461,-0.31564137,0.3142638,-0.30067506,0.016210932,0.7899297,0.21923414,-0.046501774,0.34439847,-0.06966478,0.39950404,-0.24187237,-0.5318596,0.5004312,0.07805498,0.64104676
0.28893924,-0.2804799,0.2654637,-0.3427349,0.26253083,0.7055201,0.18133362,-0.30979717,0.29355502,-0.26029262,0.3239415,-0.070466265,-0.34626883,0.21056421,0.30092755,0.3976155
0.28478983,-0.37865707,0.40000033,-0.62208074,0.39783543,0.61096954,0.24873962,-0.22737798,0.060707115,-0.2790259,0.40770337,0.04670936,-0.025700225,0.2933464,0.40005755,0.13197237
0.018564358,-0.30772653,0.39868355,-0.69971985,0.49944744,0.38515663,0.27117953,-0.7959273,-0.13793136,-0.20116052,0.35848287,-0.04026113,-0.025910988,0.44883785,0.23758176,-0.12830164
-0.06388816,-0.19650456,0.374518,-0.706351,0.29900053,0.56732345,0.3587332,-0.25598305,-0.1012914,-0.058198113,0.40093592,0.031874437,-0.16569798,0.49319884,0.34427825,-0.058202524
0.09409878,-0.24176134,0.26697886,-0.12823652,0.00029090012,0.68104595,0.3021164,-0.10980223,0.1875528,-0.027887048,0.4001663,-0.28253496,-0.4584402,0.5272533,0.19503023,0.4881228
0.25313213,-0.28694698,0.17283143,-0.0656881,0.05243067,0.75500154,0.2134753,-0.22876237,0.41325933,-0.16447115,0.2891958,-0.21035872,-0.5584057,0.38171998,0.16438518,0.21919638
0.29014447,-0.27580303,0.3115905,-0.41540506,0.22355251,0.72388405,0.26956564,-0.4218167,0.22425131,-0.19489932,0.3405901,-0.07882832,-0.23445264,0.25348783,0.40030932,0.20068474
0.17699404,-0.312342,0.39871022,-0.5916332,0.4270925,0.53092337,0.2504338,-0.7989798,-0.026285887,-0.14797232,0.3955324,-0.21624623,0.052810967,0.44375703,0.36884445,-0.13102007
-0.124116376,-0.22814785,0.40000945,-0.60474306,0.4006718,0.4475734,0.36342257,-0.88120025,-0.10922921,-0.056135572,0.402869,-0.0029457377,-0.08850036,0.54886717,0.27797607,-0.021315927
-0.0851458,-0.23947139,0.36931494,-0.5208115,0.1464079,0.7009571,0.3578333,0.04997101,0.053496778,0.030631736,0.40038204,-0.27688962,-0.2979872,0.56172514,0.29867592,0.30687982
0.078335874,-0.30458283,0.29950833,-0.34963945,-0.11315914,0.83853376,0.2786264,0.18754216,0.29396248,0.03527043,0.40145606,-0.18880083,-0.51646227,0.54847425,0.1545553,0.40567127
0.2214611,-0.33784622,0.10124183,-0.26926938,0.07144779,0.6761174,0.18038367,-0.008212748,0.44218814,-0.18955252,0.27859703,-0.16216904,-0.54058677,0.30717456,0.23253217,0.08604502
0.29602107,-0.36445165,0.32166553,-0.409354,0.18152887,0.70486015,0.3258933,-0.19919738,0.23074086,-0.22898503,0.40357447,0.048970513,-0.20847829,0.1761565,0.40026867,-0.05334691
0.01128071,-0.3197602,0.40002337,-0.659891,0.38496047,0.4659584,0.30403817,-0.8399406,-0.012685741,-0.18296918,0.37487647,0.19242735,-0.026755307,0.44160905,0.22821745,-0.10229606
-0.13019101,-0.20615143,0.36091986,-0.69012105,0.1027701,0.6853236,0.34499517,-0.19818269,0.10958617,0.0006473355,0.40012875,-0.108798824,-0.23750532,0.56214213,0.28620473,0.31029618
0.017232917,-0.25072575,0.30995855,-0.41581127,-0.14168067,0.8699557,0.26175207,0.019249303,0.3351535,-0.0032364745,0.39997068,-0.20632917,-0.46610105,0.5749223,0.14279306,0.59560436
0.1717985,-0.3183266,0.17654304,-0.22454187,-0.04328995,0.7645684,0.14695652,0.01878666,0.53952295,-0.18944746,0.2943958,-0.17023523,-0.5529606,0.413707,0.16030641,0.34931386
0.2501896,-0.31880927,0.39005864,-0.5241243,0.19582951,0.70831674,0.20532554,-0.48587146,0.29118145,-0.30120724,0.41394782,0.090254225,-0.18061487,0.28182366,0.40055034,0.31960255
0.094057314,-0.2347193,0.40000322,-0.76524556,0.3208757,0.57140756,0.24921954,-0.29951075,0.11696545,-0.29657084,0.36113864,0.40853754,0.12734759,0.4854989,0.38663334,0.03436373
-0.2922472,-0.12003542,0.39218393,-0.8505709,0.24929777,0.483271,0.34228146,-0.5260872,-0.004129476,-0.19054475,0.39911184,-0.023351144,-0.11064279,0.57393163,0.28497484,0.036352966
-0.09690053,-0.21469703,0.34361282,-0.43455544,-0.032474276,0.7419531,0.33642206,-0.024563596,0.17176731,-0.09499451,0.4003726,-0.26974684,-0.38143176,0.5924165,0.21890403,0.3931149
0.105441466,-0.22729391,0.21115807,-0.15561736,-0.052178603,0.6844771,0.18319981,-0.0034352413,0.4421468,-0.23444146,0.3815314,-0.18203403,-0.57050663,0.41213897,0.15595375,0.17892072
0.22974792,-0.18987994,0.21741386,-0.30669355,0.15984963,0.5687481,0.13181005,-0.27740723,0.30402836,-0.27763632,0.35072556,-0.119914375,-0.30314526,0.17432193,0.39692295,0.013167817
0.12796995,-0.22180581,0.3976504,-0.72190464,0.32199723,0.5273258,0.26281622,-0.5161937,0.05808628,-0.2573699,0.38598308,0.041328207,0.071354456,0.3627871,0.37521112,-0.2847078
-0.21907103,-0.1098911,0.4000406,-0.7219659,0.31127182,0.405434,0.34401122,-0.702634,-0.024883673,-0.12633055,0.35841647,-0.004576217,-0.10592184,0.4886382,0.26015225,-0.03065929
-0.10680014,-0.16318536,0.35224795,-0.5978136,0.071424596,0.6694527,0.3646662,-0.087512545,0.10718956,0.0033971781,0.39308262,-0.23084478,-0.3317125,0.54349405,0.24939659,0.34934944
0.094987944,-0.23987521,0.25431284,-0.170283,-0.06390123,0.69050175,0.20174946,-0.076104894,0.39755756,-0.063163266,0.39949164,-0.30258048,-0.57077694,0.4443194,0.14582063,0.24626867
0.22151788,-0.2348543,0.21768114,-0.27993432,0.13214621,0.6633848,0.19970833,-0.27362153,0.3048358,-0.23564515,0.37642354,-0.03629688,-0.34030768,0.19675303,0.36274067,0.10384566
0.22422114,-0.31783438,0.4000199,-0.56632835,0.24036767,0.616042,0.25384519,-0.5351739,0.12273225,-0.23794428,0.3846513,0.14563695,-0.008344198,0.28339502,0.40063873,0.070680395
-0.021694276,-0.2549726,0.39815706,-0.71598166,0.35156697,0.42885062,0.2972339,-1.0374603,-0.019278808,-0.22870316,0.32530418,0.036248326,-0.005517053,0.44688833,0.21909904,-0.061062753
-0.20005836,-0.13497473,0.30015546,-0.7600502,0.124447346,0.6528667,0.31505933,-0.24936217,0.044632953,-0.034874387,0.40019786,-0.29066974,-0.1889482,0.59803456,0.3108604,0.32918373
-0.036365904,-0.20312902,0.2722166,-0.2935059,-0.10598327,0.731348,0.31990057,-0.05164512,0.26006967,-0.038552485,0.39980227,-0.26827723,-0.4059149,0.58685464,0.19872415,0.43382636
0.18295,-0.24538764,0.088037185,-0.26291797,0.04184656,0.60971344,0.17368442,-0.17062493,0.46432942,-0.2302863,0.3027908,-0.114384264,-0.5352781,0.39655975,0.2329925,0.10065202
0.17690235,-0.2688047,0.26057863,-0.54281694,0.16059574,0.6177515,0.27470124,-0.33481064,0.2905661,-0.27825442,0.39601153,0.17295046,-0.24137944,0.22961403,0.40158916,0.09941089
0.07915549,-0.32307357,0.39081743,-0.82175016,0.3464448,0.52686876,0.30135795,-0.36299092,0.08567417,-0.2234725,0.37622142,0.22521976,0.09501835,0.4300415,0.36919904,-0.13336597
-0.2721821,-0.16730666,0.40017846,-0.77985203,0.29988033,0.49054334,0.3489452,-0.63826436,0.04472737,-0.055214696,0.39753637,0.1837432,-0.109905005,0.5557078,0.2907164,0.097462624
-0.13325836,-0.25344968,0.3741252,-0.49734688,0.06506709,0.77712584,0.30156144,-0.0747102,0.24218439,-0.0073553757,0.40009966,-0.14662135,-0.33147314,0.6318595,0.20853941,0.50868833
0.057603374,-0.2978787,0.32100847,-0.3528128,-0.19037123,0.88312644,0.23773964,0.12969545,0.4848584,-0.04784806,0.40023398,-0.16064519,-0.55111253,0.6171769,0.10652678,0.619543
0.19442348,-0.31078166,0.16120502,-0.3708352,0.030327568,0.7541861,0.15943389,-0.011561622,0.6086762,-0.24449402,0.21989174,-0.04180485,-0.5842876,0.44339475,0.19131945,0.22071102
0.24383503,-0.27395833,0.36097842,-0.4468053,0.1859447,0.6943642,0.21830653,-0.24448149,0.39656308,-0.3019894,0.4098184,0.009488528,-0.27257362,0.24872768,0.40109095,0.07513701
0.035916742,-0.1858938,0.4000031,-0.75366664,0.42704993,0.51592976,0.23669189,-0.33346516,0.15059419,-0.26544228,0.39148438,0.33529702,0.086799935,0.5052288,0.36043513,-0.14641705
-0.27425042,-0.10251552,0.40004092,-0.75366324,0.37245,0.4411879,0.34012762,-0.6370878,0.056718823,-0.21091329,0.37703782,-0.1372868,-0.12740675,0.5378141,0.2407134,-0.051472224
-0.13176793,-0.20574428,0.3611649,-0.32213378,0.13264075,0.71510184,0.32385916,-0.24920447,0.1733041,-0.077077694,0.4000784,-0.3648149,-0.3792767,0.57369435,0.17892031,0.42738852
0.0802326,-0.25967026,0.2946149,-0.21297872,0.018447313,0.71639705,0.14624935,-0.11896048,0.47354865,-0.17535102,0.37721828,-0.3468625,-0.58739644,0.47574994,0.095470056,0.15810682
0.2440829,-0.30040827,0.32510093,-0.44348964,0.2517299,0.65678304,0.21083425,-0.2541895,0.2123844,-0.28773645,0.41792527,0.1571349,-0.23772277,0.21136607,0.39202037,0.08650469
0.14649212,-0.3088868,0.39642084,-0.7108454,0.40140224,0.51277393,0.2512877,-0.3859927,0.040756885,-0.25267205,0.35885686,0.25081265,0.06585284,0.365158,0.4001195,-0.12811746
-0.18473168,-0.22392218,0.40000036,-0.7297896,0.3744752,0.40881544,0.32799911,-0.5614987,-0.06711911,-0.17074688,0.3388452,0.05530971,-0.047880966,0.5375739,0.37779602,0.03475305
-0.13804495,-0.23479147,0.32510352,-0.5678336,0.15980595,0.63229984,0.39018077,-0.12737302,0.076635696,-0.09486263,0.40027258,-0.19904678,-0.27528164,0.5542703,0.34123352,0.17696233
0.001080248,-0.30935568,0.25993225,-0.1969742,-0.06530887,0.7067977,0.3321159,-0.024301883,0.28581214,-0.09970249,0.4000452,-0.21950655,-0.5050656,0.53662235,0.16211292,0.30565146
0.17718937,-0.25885656,0.102317914,-0.19789754,0.014612453,0.6458052,0.21916732,-0.1097357,0.5066217,-0.25073507,0.24379271,-0.23587005,-0.5795739,0.3311365,0.20567891,0.007809089
0.26751524,-0.3026814,0.32346156,-0.37017468,0.1673095,0.66720146,0.3463414,-0.27393124,0.29095078,-0.27085406,0.3988278,-0.05143967,-0.26096752,0.1614637,0.40017802,0.01611987
0.067769,-0.31515774,0.3981714,-0.7231544,0.42799994,0.52344364,0.32889453,-0.60886407,0.029126093,-0.29506314,0.38177028,0.38100886,0.036343075,0.41846597,0.33495593,0.0050743264
-0.124618985,-0.15934494,0.3857639,-0.69809204,0.2584976,0.5679631,0.38645262,-0.4829672,0.10170919,-0.06351571,0.40028068,-0.011012946,-0.13990723,0.56165844,0.3125823,0.33706728
0.044184122,-0.2032076,0.28778294,-0.3097698,-0.035095394,0.86238486,0.23547354,0.06443682,0.3688317,0.006897733,0.3998753,-0.22794978,-0.41415253,0.60525817,0.1993397,0.80538964
0.24791862,-0.22346012,0.18999991,-0.037641242,0.019440444,0.7930072,0.121951394,-0.031531602,0.58311176,-0.1639723,0.29389095,-0.1777682,-0.54081947,0.4411249,0.17222416,0.5190102
0.23978762,-0.09354516,0.26831138,-0.48535857,0.2266937,0.7041801,0.18044977,-0.4117029,0.35921964,-0.21374683,0.41316113,0.04838793,-0.22432904,0.23899898,0.38886622,0.1938353
0.084045626,-0.14597985,0.40000272,-0.797989,0.41577497,0.540231,0.18838413,-0.6569904,0.13798596,-0.17236753,0.36281535,0.25153846,0.062306274,0.47068244,0.3353652,-0.15864156
-0.237276,-0.07081686,0.4000263,-0.73674816,0.3281428,0.46488574,0.33669692,-0.714114,0.08579877,-0.0603508,0.36798,0.17638084,-0.140338,0.47961903,0.21950598,0.0035968432
-0.12085314,-0.110047124,0.3490959,-0.58791393,0.076722,0.75258774,0.30806336,-0.21288827,0.3136852,0.029623885,0.40019462,-0.25470805,-0.34959817,0.56258446,0.18501522,0.564324
0.11651011,-0.2265629,0.30995572,0.0032335673,-0.06760139,0.8653899,0.14294717,0.012162832,0.55480444,-0.15529907,0.39007273,-0.23318267,-0.53657776,0.45294777,0.068476506,0.54896694
0.15031531,-0.19727112,0.354706,0.15422583,0.020602819,0.75908583,0.09298037,-0.764913,0.53300494,-0.28700978,0.24482301,0.26946527,-0.4047741,0.3551759,0.18657713,0.33959398
-0.02605625,-0.32968175,0.3999932,0.08123469,0.089741796,0.54497397,0.21970779,-1.199196,0.37288645,-0.33911496,0.35050637,0.26330918,-0.32039335,0.25552732,0.2837799,0.38941187
-0.22709231,-0.25615498,0.37565634,0.46568894,0.03091606,0.20020887,0.39195102,-1.0346576,0.35575283,-0.24390972,0.39990845,-0.25876006,-0.25080952,0.25926885,0.3506937,0.41723627
-0.16692479,-0.26618934,0.38277465,0.6094647,0.06678648,0.19862069,0.39400426,-0.76905936,0.39956012,-0.32060483,0.23941362,-0.12913613,-0.17717111,0.20080897,0.32764995,0.2411449
0.00979072,-0.2578243,0.4000086,0.29222536,0.077199586,0.2396757,0.3977553,-0.57682204,0.42906356,-0.33732146,0.2097697,0.24391112,0.13803549,-0.06097248,0.40031812,0.2960117
0.010269686,0.03324993,0.40001923,-0.03668564,0.07568283,0.32177183,0.4001921,-0.22195803,0.46699196,-0.35543323,0.08376308,0.40883318,0.3136577,-0.13912234,0.40017697,-0.14743027
-0.20571406,0.20284627,0.2757123,-0.10952161,0.1556159,0.21753302,0.36537117,-0.11660932,0.42855898,-0.33276892,0.053078648,0.31419215,-0.0023879255,0.01769198,0.36783585,-0.4308215
-0.13970251,0.14795122,0.31120723,0.11231244,-0.0034900485,0.07472606,0.4012789,-0.14922316,0.14072251,-0.053576503,0.36927935,-0.07254502,-0.12908307,0.14883733,0.24053676,-0.11596282
-0.09722191,0.11117834,0.39288524,0.14238052,-0.09046689,0.07523609,0.40005857,-0.3676792,-0.11427923,0.05777205,0.4000279,-0.12275684,-0.16574389,0.20035079,0.21731144,0.23092791
-0.07963337,0.020124268,0.35537612,0.23066907,0.066392496,0.04196707,0.30798787,-0.3380329,-0.0008374164,-0.0583145,0.29957208,-0.28976718,-0.19036248,0.04893546,0.17403492,0.0063708024
0.19940412,-0.09110852,0.40002528,0.04869692,0.0361671,0.04163159,0.3460018,-0.30952418,0.07317877,-0.13347396,0.23012929,0.092654906,0.1534128,-0.16820318,0.4000685,0.026525423
0.091492936,0.060830027,0.40001473,-0.16098975,-0.019933464,0.05735597,0.3801178,-0.3408514,0.15640923,-0.14596844,0.13583687,0.3922996,0.32402334,-0.123074494,0.3974166,-0.026379386
-0.16754201,0.1954292,0.36270842,-0.19909246,-0.009515507,0.10872021,0.35329255,-0.13284609,0.20748799,-0.1140277,-0.003072107,0.3726066,0.07635671,0.00014118366,0.398694,-0.13817228
-0.14094271,0.15233235,0.28142422,-0.049030323,-0.06362605,0.014027708,0.40006208,-0.15007038,-0.019520061,0.08348677,0.2403707,0.028610423,-0.1563336,0.14226727,0.2801202,0.017424664
-0.039928958,0.06667238,0.39674586,0.20721118,-0.10072787,0.03343839,0.37858498,-0.2646336,-0.18160091,0.12819773,0.4000258,-0.33925098,-0.206387,0.22770725,0.2678843,0.40289876
0.008583042,0.03527746,0.3071655,-0.0049170493,0.02142585,0.0021755623,0.26743338,-0.33116022,0.081880376,-0.086999536,0.21021758,-0.25693196,-0.15862544,0.090440646,0.24970157,0.26568452
0.197748,-0.06995268,0.39773208,0.13458699,-0.038993273,0.007825426,0.29654852,-0.27477857,0.1125437,-0.16751927,0.27314448,0.19437763,0.15465283,-0.13443245,0.4000918,0.13445303
0.12872685,0.051065903,0.393965,-0.17383188,-0.088775486,0.0470121,0.31948605,-0.18034138,0.16157825,-0.1686442,0.23679005,0.41477734,0.3820178,-0.14906858,0.40002924,0.067869246
-0.1169484,0.1411425,0.36268657,-0.1989677,-0.11102592,0.053103622,0.28146634,-0.04130234,0.23453718,-0.17138551,0.15357994,0.21187115,0.21900037,-0.08222507,0.39995718,-0.18399255
-0.12311184,0.12235154,0.25770584,0.15977316,-0.016302653,-0.08964302,0.34392026,-0.09831107,0.11347744,-0.09786351,0.21976058,-0.03024947,-0.09311331,0.15551803,0.26217312,-0.031377874
-0.02384493,0.10089856,0.32966596,0.1428892,-0.14266203,-0.016930964,0.40119088,-0.19131866,-0.13368255,0.085105285,0.4000042,-0.18702103,-0.16728143,0.19968694,0.21988782,0.27204978
0.020328136,0.028613046,0.3404899,0.15593216,0.068724826,-0.029974833,0.2713604,-0.29413724,-0.11735886,-0.0136126345,0.39855343,-0.42770487,-0.26575518,0.10182501,0.11938781,0.22057089
0.22206312,-0.0036854441,0.3871965,-0.016042726,0.049142245,0.011044483,0.32378286,-0.09526943,0.03475692,-0.059716273,0.25795156,-0.12018257,0.081041686,-0.19152871,0.4000776,0.23082025
0.14426804,0.044387396,0.40001488,-0.27341542,-0.00897307,0.07576764,0.35864836,0.21776833,0.100811526,-0.09779606,0.22523075,0.3435829,0.30335313,-0.14577061,0.4000211,0.050159767
-0.1264147,0.18383144,0.33076128,-0.24979585,0.0021151186,0.0839512,0.34580627,0.22067316,0.145579,-0.10524191,0.10049641,0.1943815,0.08133821,-0.009570283,0.3998298,-0.11842514
-0.09326088,0.16559768,0.29811907,0.06651013,-0.030033268,-0.020409357,0.40004727,-0.094338275,-0.09746332,0.037824146,0.24765247,0.009739551,-0.15853734,0.18629612,0.27006721,0.00085175934
-0.03171592,0.15793823,0.32763374,0.10713947,-0.16782455,0.037855085,0.4015691,-0.3473018,-0.3377931,0.16979663,0.4000062,-0.23788424,-0.24990131,0.22689906,0.20423222,0.40684164
-0.012063976,0.07299325,0.29311055,0.20910081,-0.01818861,0.025263356,0.2344611,-0.24722324,-0.13598862,0.05167779,0.3996825,-0.43532655,-0.33878148,0.14436607,0.104300514,0.2609695
0.21971145,-0.00079473597,0.34994075,0.11327717,0.0029503151,0.025375633,0.28411496,-0.16508362,0.031156197,-0.07930155,0.2267867,-0.027890267,0.018662302,-0.16256887,0.3928306,0.3093575
