ancorasir/BennettWheelLegRL/experiment_data/2024-02-13_04-14-08/joint_position_env0.csv
Joint_1,Joint_2,Joint_3,Joint_4,Joint_5,Joint_6,Joint_7,Joint_8,Joint_9,Joint_10,Joint_11,Joint_12,Joint_13,Joint_14,Joint_15,Joint_16
0.13560946,-0.0,-0.0,0.0,-0.1840195,0.0,0.0,0.0,-0.20222683,-0.0,-0.0,0.0,0.27530444,0.0,0.0,0.0
0.15509292,0.0018303784,-0.006202666,8.708458e-08,-0.1955872,0.007065054,0.013422283,-0.00023249528,-0.19209486,0.0070745754,-0.013838599,3.2524942e-05,0.26161838,0.0049235444,0.006907042,-0.00038470805
0.075340435,0.084628895,0.14752522,-0.17519562,-0.1571605,-0.05613277,0.2795074,-0.22997539,-0.21532294,0.08693721,0.26640838,-0.37026176,0.09539247,-0.052273165,0.12686594,0.13769507
0.11398876,0.12921356,0.18888767,-0.20957975,-0.16316116,-0.08869381,0.398211,-0.27461648,-0.25973085,0.07847597,0.37308627,-0.20181015,-0.016186243,-0.011352131,0.03506363,0.58733904
0.1130356,0.04286507,0.1847682,-0.06995214,0.06366175,-0.0128786145,0.31419015,-0.2587987,-0.21505433,0.059770856,0.39243847,-0.31111717,-0.02604966,-0.06426621,-0.0064128027,0.5621848
0.23290701,0.09077194,0.29524502,-0.026504686,0.018005818,0.04183586,0.25375655,-0.26026604,-0.021635018,0.0027831479,0.34147945,-0.09213224,0.179884,-0.2784282,0.35784307,0.13593927
0.14747265,-0.0060405643,0.3999994,-0.18675068,-0.07700395,0.12511428,0.2929902,0.008414269,0.09091899,-0.017754285,0.2983089,0.21564317,0.4147719,-0.22353046,0.40000844,0.020841584
-0.07040365,0.11036515,0.40000993,-0.19404477,-0.12080772,0.16307671,0.27226087,0.1732621,0.1839221,-0.05357564,0.17667155,0.33967033,0.23597571,-0.14204648,0.3998172,-0.12736802
-0.13191806,0.08747295,0.22459081,0.044822186,-0.0701922,0.06221906,0.28755948,0.057776734,0.12884276,-0.005877988,0.16704102,0.1485557,-0.048054364,0.0641551,0.31781346,-0.2247507
-0.004399491,0.028504241,0.30352223,0.19084887,-0.20893024,-0.028807266,0.39999968,-0.25513244,-0.18596558,0.2065836,0.40002576,-0.113109484,-0.18558761,0.15426156,0.24000792,0.31497788
0.023703992,-0.05049717,0.30330724,0.33414534,0.02193743,-0.06865237,0.20028737,-0.296852,-0.10229119,0.035203308,0.39726722,-0.27180958,-0.24068381,0.111351006,0.14811808,0.39232984
0.15385754,-0.13667075,0.4000054,0.18810773,-0.0496633,-0.011835739,0.24792247,-0.14885212,0.072349586,-0.08927182,0.2481888,-0.10199363,0.026113378,-0.11832527,0.34025937,0.18729179
0.11641602,0.023118155,0.4000086,-0.09147282,-0.21497229,0.090572834,0.3259967,0.19705793,0.20245032,-0.11038374,0.18431063,0.0765307,0.36876464,-0.17930488,0.40003562,0.00034017363
-0.11760004,0.123747446,0.3180545,-0.08620302,-0.20795979,0.107965015,0.2888709,0.30350396,0.22857742,-0.10435741,0.09588472,-0.009155382,0.26094863,-0.081267804,0.39985588,-0.16698466
-0.12029562,0.12226536,0.25493696,0.1446046,-0.14761549,-0.06250365,0.33863628,-0.13124561,0.08465,-0.033063572,0.21365726,-0.03595665,-0.06074551,0.13424137,0.29919183,-0.32589996
-0.026890092,0.09416582,0.29993898,0.16422379,-0.2057344,-0.059727352,0.3992911,-0.32072097,-0.16657059,0.059889976,0.397836,-0.057656042,-0.15128356,0.21134834,0.25966877,0.106989935
0.0048156115,0.03931134,0.2811705,0.34566268,-0.037956525,-0.07372197,0.22730914,-0.2830411,-0.035895523,-0.040377777,0.32104138,-0.26306066,-0.20203066,0.06859348,0.1684214,0.001100809
0.16760975,0.03194214,0.40006903,0.08422533,-0.16238783,0.007393149,0.30448902,-0.015184224,0.08257147,-0.08748052,0.21413156,-0.0054951548,0.15657203,-0.15961827,0.39784443,-0.0042371065
0.061667774,0.17664933,0.3996029,-0.011696416,-0.24640971,0.027145771,0.3141595,0.079294235,0.15323116,-0.12249535,0.16332111,0.166962,0.37588847,-0.103094265,0.3998821,-0.07450387
-0.1373722,0.17150086,0.29551753,-0.008214705,-0.24667782,0.044400476,0.24887682,0.2559953,0.21879664,-0.05979315,0.053659126,0.22928104,0.2103072,0.012216302,0.39848083,-0.24677564
-0.105683364,0.15175153,0.2959093,0.1009628,-0.21504304,-0.053049114,0.4000896,-0.12119329,0.01674405,0.15827611,0.27219298,-0.0039620628,-0.034275584,0.18993987,0.29365796,-0.24182205
-0.021103458,0.134293,0.32455507,0.052073915,-0.25803345,0.04641596,0.3999935,-0.050326124,-0.25496694,0.17866135,0.40009272,0.05966887,-0.14144215,0.25160304,0.19798706,0.22859003
-0.045733675,0.1550879,0.28966686,-0.16559394,-0.07352665,-0.026907498,0.28303272,-0.25772873,-0.13805619,0.035345245,0.39650497,-0.20464785,-0.14809585,0.17148374,0.1547324,0.19472013
0.14833148,0.111625545,0.40003318,0.11531565,-0.14573532,0.040929772,0.29673263,-0.062196266,0.053797256,-0.0876634,0.23894517,-0.02526522,0.19969693,-0.09901453,0.3904154,0.03079023
0.043018263,0.13278542,0.4000794,-0.014753933,-0.24391569,0.07634536,0.31517428,0.08433349,0.15560535,-0.079075985,0.15076402,-0.027982716,0.34370008,-0.112257816,0.39626157,0.09827947
-0.03700471,0.12819815,0.29363734,0.018908469,-0.15431288,-0.008993219,0.27699146,0.0673832,0.16729099,-0.09164043,0.11480069,-0.14936209,0.0780389,0.017506823,0.39594126,-0.18912068
0.013779918,0.1539128,0.2710345,-0.17829129,-0.22482929,-0.09309647,0.3999944,-0.29338485,-0.17755392,0.15018459,0.3999499,-0.1572697,-0.106800556,0.16251333,0.24289815,0.31866947
0.10615394,0.054384474,0.2926524,0.20798011,-0.1371322,-0.119988635,0.39999592,-0.4297564,-0.34735993,0.11461525,0.4000016,-0.29263428,-0.20872082,0.15518825,0.15196703,0.4269244
0.13194938,0.055712998,0.24997313,0.2092603,-0.034221098,-0.07867866,0.2666265,-0.21212745,-0.024540802,-0.04482989,0.24123667,-0.14168617,-0.12295121,-0.096958265,0.22776018,0.21672098
0.27288386,-0.057678156,0.39820555,0.18549944,-0.11448496,-0.05730337,0.3391896,-0.060546383,0.04274559,-0.12613468,0.20965475,0.21067548,0.22767422,-0.1774245,0.40000585,0.14355078
0.12618807,0.06115692,0.3994609,-0.03295895,-0.18323825,-0.029558178,0.36070317,0.023542484,0.13559523,-0.105770215,0.11411026,0.39501524,0.4180045,-0.1104867,0.40002456,-0.059972707
-0.15310928,0.15338385,0.25684908,-0.06168072,-0.13171245,-0.022925902,0.2922685,0.11896259,0.1831247,-0.057728518,-0.010192671,0.1476432,0.17430358,0.012643534,0.40000337,-0.26586977
-0.10085966,0.11710648,0.3041109,0.16007371,-0.24523537,-0.083445564,0.39880094,-0.058566447,-0.019930953,0.12710102,0.21963376,0.008111585,-0.041820478,0.19486868,0.307455,-0.09697314
-0.024502201,0.07296823,0.3490556,0.15991817,-0.19716981,-0.01645795,0.396372,-0.36187696,-0.21660945,0.1294234,0.40001133,-0.25650278,-0.142494,0.23363236,0.21328893,0.36598876
-0.004590741,0.022538437,0.28543118,0.17387931,-0.03981382,-0.0030503345,0.27924192,-0.1270742,0.025830641,-0.06892388,0.21116696,-0.07145108,-0.07242381,0.026584119,0.19651538,0.18430433
0.17416373,0.01637738,0.40001857,0.20031667,-0.09546109,-0.010764568,0.33058932,0.021640277,0.08614101,-0.10476042,0.1807101,0.14010349,0.22117105,-0.12723145,0.40006953,-0.008543149
0.072043575,0.13495843,0.39941612,0.007665899,-0.16889028,0.050360262,0.36096835,0.24994196,0.1612577,-0.10510233,0.09497543,0.33932436,0.43535477,-0.07500967,0.400044,-0.097652845
-0.22130264,0.20262347,0.2751867,-0.04481942,-0.14990495,0.028651526,0.33256742,0.20711689,0.19960979,-0.0878218,-0.00076479133,0.33569324,0.22167848,0.038173478,0.39994213,-0.30644047
-0.1932604,0.1739539,0.29474527,-0.008654877,-0.24973787,0.007488533,0.4000247,-0.1281143,-0.023818826,0.16746719,0.23357478,-0.103216685,0.026659468,0.15859604,0.30599156,-0.26645577
-0.10223438,0.110993885,0.35913128,0.10278214,-0.28280893,0.021981781,0.40000167,-0.38743025,-0.29436114,0.18648267,0.4000159,-0.08186449,-0.056850184,0.24660337,0.26447707,0.3526739
-0.07743104,0.04278928,0.32776478,0.19487026,-0.053824056,0.106902584,0.33047488,-0.32722932,-0.12823032,0.04229086,0.377049,-0.24608357,-0.12068182,0.13344935,0.1964419,0.24955907
0.14050539,-0.06641049,0.39958966,0.18812294,-0.029827505,0.091210574,0.35519874,-0.35809538,0.05027452,-0.06499046,0.18929353,0.049551617,0.21953475,-0.1721138,0.40018746,0.046846025
-0.0023000082,0.15354976,0.4000049,-0.16575716,-0.12740904,0.12679297,0.38308963,-0.32760277,0.17455178,-0.06865466,0.04868139,0.3264498,0.28501728,-0.12031255,0.399359,0.07617838
-0.17752257,0.19835155,0.25109607,-0.04560994,-0.0932453,0.1322916,0.35283184,-0.02768824,0.1717826,-0.034641374,0.0018624095,0.34873065,-0.03286455,0.051111892,0.3723709,-0.1748128
-0.10173655,0.1859705,0.3265898,-0.019354511,-0.23966944,0.0642319,0.39998904,-0.3571708,-0.15027553,0.14853494,0.4000242,-0.19356622,-0.15947245,0.19106084,0.31269294,0.38332486
-0.1032301,0.14177857,0.34473893,0.12948795,-0.029013397,0.035649717,0.33520705,-0.37628347,-0.19083807,0.026329737,0.39957333,-0.41781202,-0.18694109,0.15909095,0.25329974,0.2878134
0.020576885,0.041276515,0.34453386,0.32069194,0.014058009,0.0082545215,0.29697296,-0.29144552,0.028112207,-0.13638403,0.21896477,-0.044224475,-0.0070412345,-0.03842017,0.37639135,0.336083
0.15514497,0.040014118,0.40000692,0.072730646,-0.13749851,0.051543403,0.39426696,-0.29733062,0.1329652,-0.11863685,0.22219287,-0.09584134,0.37983063,-0.22125119,0.39899486,0.14240491
-0.010183828,0.18391438,0.4000021,-0.08674544,-0.20934492,0.09664317,0.3857308,-0.16817702,0.23525509,-0.111424506,0.088887,-0.010006398,0.38798317,-0.16218953,0.40000853,0.019964898
-0.20360574,0.18943022,0.2491662,0.01733313,-0.17236476,0.06349888,0.3247591,-0.09467359,0.24922174,-0.1459313,0.07262855,0.2041153,0.0833695,-0.00952579,0.3999715,-0.16606967
-0.08950356,0.1447557,0.27427337,0.14272094,-0.17863686,0.02851009,0.40002257,-0.3395601,-0.010225548,0.07058592,0.40004057,-0.14750408,-0.114635326,0.14409666,0.26729667,0.37813902
-0.05219957,0.09672478,0.27905622,0.22099417,0.055356942,-0.0036398447,0.3679454,-0.3784529,-0.18237698,0.013538788,0.3996684,-0.32422104,-0.16785367,0.12405439,0.20971163,0.36173302
0.114741795,-0.009930981,0.34064254,0.19426702,0.07795038,-0.025029311,0.36343285,-0.42781684,0.042702552,-0.117752664,0.25320426,-0.22240739,0.07355892,-0.110602416,0.3431018,0.18202591
0.20675592,-0.008958621,0.39953437,0.08932162,0.02076436,-0.028726023,0.38246062,-0.46581858,0.10930946,-0.13490139,0.2306059,0.02837682,0.34355405,-0.17151411,0.4000316,0.09181827
-0.08665757,0.16646935,0.38633513,-0.25802994,0.02238766,0.0027261355,0.3263196,-0.40129897,0.19872409,-0.13306406,0.043073006,0.19533303,0.097067975,0.0021693357,0.39770192,-0.1759366
-0.085986346,0.09652615,0.2831571,-0.0696989,-0.111497626,-0.03826972,0.39992929,-0.4003779,-0.07601247,0.07302846,0.34039328,0.045628935,-0.120077975,0.14228633,0.2898584,0.19724166
0.051780473,0.009570481,0.39413425,0.12934978,-0.19285378,-0.039089795,0.39535767,-0.50576335,-0.29192534,0.11390947,0.40004957,-0.1676263,-0.20144409,0.27765372,0.30657706,0.7562196
0.0476445,-0.025291396,0.35533047,0.0712634,0.051670045,-0.10023372,0.27017578,-0.30344316,-0.07613657,-0.014857164,0.39882293,-0.45020306,-0.23858625,0.20063725,0.18276809,0.52655035
0.22309643,-0.17027341,0.40009943,0.0985347,-0.031283744,-0.027711121,0.32582784,-0.18094839,0.053922895,-0.12376817,0.31316015,0.0029425966,0.05247751,-0.10860205,0.4001292,0.11958228
0.19183372,-0.13469316,0.4000019,0.016546817,-0.13246003,0.025156822,0.35319778,0.06491861,0.15537377,-0.14822923,0.28458548,0.3473793,0.32146478,-0.1434413,0.4001064,-0.017168064
-0.12084714,0.08239749,0.32995716,-0.16094767,-0.1571601,0.0469693,0.29115933,0.23357803,0.25253427,-0.15263745,0.1442484,0.17699121,0.24992639,-0.037977006,0.39994085,-0.21272457
-0.1004277,0.092682295,0.26536474,0.14204443,-0.08978848,-0.041303053,0.38756618,0.045921527,0.10008255,-0.03449086,0.1869105,0.22577128,-0.090671666,0.18539894,0.2190118,-0.19176476
-0.03326984,0.064425476,0.29615405,0.18702897,-0.16605382,-0.054938234,0.40160677,-0.25669014,-0.22682685,0.029763423,0.40001485,-0.24679498,-0.16635543,0.26034352,0.17835094,0.34004313
-0.002660807,0.012855943,0.25565618,0.28057355,0.03657692,-0.043999065,0.20629507,-0.17625704,-0.032517903,-0.095269985,0.3040478,-0.40809056,-0.14713496,0.10620154,0.13341832,0.22649376
0.19712603,-0.07654178,0.39682698,0.18613555,-0.09288014,-0.0062073967,0.32683876,-0.073094726,0.0826682,-0.15356396,0.24233852,-0.07325845,0.21555333,-0.12917426,0.39803535,0.16590828
0.069869734,0.05574935,0.40001374,-0.04771061,-0.19204429,0.031453744,0.3408961,0.08628485,0.1888344,-0.13440956,0.18295455,0.0460213,0.44488543,-0.09955469,0.4000248,-0.06347317
-0.21633504,0.16842149,0.24804893,0.012118039,-0.21635678,0.0717627,0.27778172,0.31939292,0.2613312,-0.15180218,0.058718786,0.24590285,0.20856644,0.015945537,0.39999455,-0.30869722
-0.1169211,0.10135836,0.29442936,0.1379594,-0.26863763,-0.059038,0.40003848,-0.09458627,-0.040431507,0.072858185,0.3720448,-0.042976588,-0.05012289,0.20666891,0.28051442,0.030583581
-0.033842716,0.01734539,0.3012461,0.24343397,-0.09586794,-0.07244388,0.4000622,-0.3916219,-0.1556333,0.071969785,0.39958715,-0.25772843,-0.18264018,0.2169374,0.13259977,0.44063228
0.06454135,0.013823756,0.35852328,0.17233989,-0.033470497,-0.07198637,0.23038359,-0.22937658,0.11986667,-0.076172315,0.18269625,-0.087536916,-0.030472025,-0.019480318,0.295314,0.16048053
0.17433167,0.045909207,0.40001002,0.060221575,-0.17473054,-0.035178434,0.32815856,-0.15311804,0.15895963,-0.11247868,0.25115314,0.010125396,0.27530774,-0.154586,0.40007424,0.11757582
-0.018122876,0.12549925,0.40000826,-0.10199716,-0.28194138,0.049682777,0.33340287,0.21687713,0.27032873,-0.1072017,0.14498334,0.076434165,0.40029475,-0.096392415,0.39852744,0.01770196
-0.123266906,0.11539773,0.22429913,-0.01386705,-0.17638266,-0.021977494,0.28350437,0.1481453,0.2511381,-0.12496637,0.1194797,-0.056150753,0.10419049,0.0683463,0.39827478,-0.35310796
-0.058755323,0.11242507,0.23788004,-0.010426794,-0.22752823,-0.070179366,0.4000381,-0.06244306,0.03880027,0.017576566,0.30446243,-0.069964156,-0.040238604,0.16870883,0.3026439,-0.09042493
0.008310124,0.087942086,0.26222318,-0.029821616,-0.17197627,-0.089434266,0.39734182,-0.1758064,-0.14618346,0.04035731,0.39875415,-0.13885663,-0.14077574,0.18920234,0.19463387,0.24200548
0.04988157,0.022901058,0.26437053,0.3485363,-0.025713742,-0.07075963,0.24402569,-0.046771318,0.02684256,-0.10845235,0.26973575,-0.24657153,-0.10651242,0.005530655,0.16591907,0.11121521
0.18751003,-0.054816328,0.39573503,0.04729462,-0.11228975,-0.06658055,0.31843972,0.021954674,0.08718113,-0.13878933,0.26040235,-0.07327399,0.20621745,-0.21862689,0.40111655,0.059317805
-0.028992685,-0.005495476,0.4000304,-0.0964466,-0.22304222,0.009338166,0.35600784,0.26480493,0.19267611,-0.13743134,0.16052486,0.085340515,0.39382392,-0.17315714,0.3997425,-0.03753966
-0.10724514,0.019133572,0.30686352,0.10489664,-0.1870332,-0.098595634,0.37465107,0.067149065,0.09034575,-0.059661303,0.14104919,0.059787404,-0.010714947,0.048491158,0.2559698,-0.2992286
-0.012706173,0.014486177,0.3636191,0.17137833,-0.22530587,-0.06712798,0.4000822,-0.23281755,-0.24852018,0.1602511,0.39875516,-0.14507587,-0.09263407,0.12776628,0.22859664,0.16655953
-0.0052616224,-0.02139583,0.33209875,0.20172925,-0.036222912,-0.02146193,0.25089025,-0.12649915,-0.10879488,-0.01815688,0.32374805,-0.18418539,-0.15794265,-0.011542438,0.18410768,0.20416276
0.15529759,-0.08327627,0.40002003,0.04298709,-0.075205326,-0.005994733,0.27820668,0.0652899,0.047792796,-0.090826035,0.18143359,-0.0042268187,0.15161136,-0.2260583,0.39511776,0.19313796
0.04472745,0.054320656,0.40000764,-0.102488324,-0.19769669,0.024264023,0.3127601,0.15164588,0.16094956,-0.10229916,0.087288156,0.15484534,0.40172896,-0.21874915,0.4000276,0.028906604
-0.17651443,0.14624365,0.23910983,-0.0378292,-0.19277357,0.0152140865,0.270183,0.25939924,0.1845461,-0.110897735,0.03123589,0.10484035,0.12128365,-0.07641372,0.38129163,-0.36213294
-0.05626967,0.12587333,0.30247456,0.037435215,-0.22786522,-0.09531007,0.39998528,-0.0070801773,-0.06403733,0.057410415,0.28032997,0.05144586,-0.07732278,0.098565646,0.2935481,-0.25182933
0.047307417,0.064975284,0.3087902,0.0766319,-0.14862524,-0.087104015,0.40131527,-0.21651657,-0.3571601,0.088952065,0.39629886,-0.1676423,-0.1747698,0.17861852,0.24126309,0.40536448
0.1624061,-0.011993609,0.34209433,0.31727168,0.04013007,-0.016795782,0.2501725,-0.10776277,-0.079092845,-0.10808521,0.20705995,-0.18733922,-0.09357454,-0.01634126,0.21796718,0.023598641
0.22727892,0.055466395,0.39785886,0.07927869,-0.06996192,0.018347496,0.33200318,0.0038146095,0.0003995844,-0.17106144,0.19032213,0.2582881,0.29275408,-0.09946032,0.39991295,0.13732402
-0.019180339,0.20763218,0.39984798,-0.06728612,-0.13601452,0.062927276,0.31884453,0.2338804,0.12121799,-0.14615089,0.024001118,0.3537789,0.3036495,-0.042859517,0.39962578,-0.039029043
-0.17072183,0.14541821,0.25673014,0.17413978,-0.07319845,-0.035512965,0.27296972,0.06754125,0.10701567,-0.12744421,-0.0019335262,-0.001955512,-0.021313047,0.13597627,0.31357867,-0.04325615
-0.10419023,0.14888343,0.2824786,0.04874153,-0.18978323,-0.078295864,0.40009052,-0.3765729,-0.18213989,0.06479847,0.40001854,-0.19874856,-0.13430631,0.22938451,0.21962991,0.42736527
-0.079763025,0.068137825,0.29352218,0.19913316,0.007534421,0.007788482,0.2696628,-0.30281734,-0.05813551,-0.06596545,0.3416115,-0.3727051,-0.15526615,0.13005997,0.14901544,0.20203172
0.10408251,-0.043880284,0.39949024,0.19610065,-0.014233994,0.0035542096,0.31904808,-0.2789864,0.07098872,-0.14401712,0.24109563,0.0039267037,0.1334678,-0.09579565,0.39816174,0.2111587
0.085525505,0.14302363,0.39999998,-0.094339,-0.18399812,0.07602233,0.3965058,-0.1881938,0.22197258,-0.112489425,0.14209843,0.008268495,0.42959914,-0.15507793,0.40001407,0.06262902
-0.12079645,0.19819877,0.20976254,0.034368034,-0.08778101,0.0039711874,0.36617854,0.16663672,0.21048874,-0.093787715,0.118238434,0.17475379,0.049372535,0.042490408,0.32053202,-0.20584428
-0.05356131,0.24354804,0.2606991,0.028747598,-0.21773183,-0.036937285,0.39999673,-0.17292371,-0.09619856,0.096027024,0.4000869,-0.033923488,-0.0505221,0.14781153,0.25794575,0.10428
0.020337764,0.24369274,0.27638057,-0.0023785438,-0.16634145,-0.0043596984,0.4000391,-0.27555093,-0.3439896,0.12289992,0.39973876,-0.1053286,-0.15093893,0.14028382,0.16691945,0.34819892
0.11556999,0.15397118,0.21422152,0.21891035,-0.022456653,0.044853166,0.23348473,0.002006222,-0.031050352,-0.06778509,0.20419338,-0.05064444,-0.04341251,-0.112552434,0.21585296,0.18533123
0.24238235,0.017707566,0.40002888,0.03623277,-0.14161745,0.06149879,0.31534106,-0.02885697,0.035733797,-0.08265846,0.22366662,0.0060457774,0.237513,-0.15244657,0.40014657,0.15377776
0.052071303,0.090275384,0.4000127,-0.06974257,-0.23022005,0.08622298,0.30019253,0.120950215,0.15111636,-0.070981935,0.11755489,0.07695466,0.42810374,-0.10170767,0.39832982,0.11438913
-0.16715369,0.15411277,0.24071027,-0.09634869,-0.21407649,0.057786517,0.23882283,0.21497343,0.19891293,-0.07695143,0.041407008,-0.052323375,0.22726403,-0.017681975,0.39993224,-0.23332357
-0.09615272,0.1375506,0.2841862,0.111935765,-0.22566332,-0.072959825,0.4000083,-0.16148779,-0.021591702,0.045545015,0.2798679,-0.06569909,-0.008742216,0.09301302,0.29987222,-0.11832521
-0.021580731,0.11544088,0.34105408,0.13136463,-0.13005164,-0.041984744,0.40001696,-0.3416778,-0.31769288,0.07377871,0.4000506,-0.14560139,-0.10550181,0.15271047,0.21836624,0.42042726
0.010391087,0.015678743,0.34276468,0.29013234,0.023431819,0.041901283,0.32060063,-0.12538214,-0.1424166,-0.07963731,0.30200103,-0.24987192,-0.16588609,-0.01737724,0.18911855,0.15394025
0.2013737,-0.054651055,0.4000398,0.16991243,-0.026487082,0.015793959,0.35244384,-0.11527903,-0.0043330025,-0.15221107,0.20290731,0.037379574,0.12351143,-0.22713028,0.38179022,0.14157255
0.18167058,0.062177718,0.4000135,0.0628873,-0.11169989,0.04125893,0.37611535,-0.04345244,0.08804103,-0.13734391,0.1413314,0.09646446,0.37196484,-0.17072459,0.40007842,0.02696867
-0.09559081,0.20104723,0.3677704,-0.052687213,-0.16247278,0.0750568,0.32572338,0.20320141,0.21625718,-0.0923784,-0.0104268715,0.046421476,0.22560507,-0.08411763,0.40004393,-0.20894052
-0.21522921,0.2178158,0.155857,0.15084203,-0.13601126,-0.078178756,0.37323752,-0.12861845,0.08369944,0.04425943,0.08872274,-0.05051724,-0.025923692,0.08465478,0.33368835,-0.1660464
-0.09208841,0.1775407,0.25398558,0.10824944,-0.23302288,-0.11223804,0.40002972,-0.42797163,-0.18199883,0.16989683,0.4000428,-0.11431819,-0.123932205,0.14241903,0.26409933,0.20766401
-0.028286938,0.0690758,0.28835505,0.30053422,-0.023478186,0.008910902,0.22367044,-0.26489523,-0.1616267,0.03464614,0.38856742,-0.31010574,-0.22009431,0.026158499,0.15677224,0.093809895
0.14587982,-0.0463399,0.3736754,0.11746667,-0.0712491,0.06491889,0.2973529,-0.0874728,0.011651222,-0.057519116,0.24460667,0.023111517,0.11028982,-0.22144862,0.40008107,0.12856185
0.13711534,0.036615815,0.3979981,0.018180648,-0.21112874,0.12315791,0.3533156,0.091251224,0.120638296,-0.086353056,0.22052978,0.40087557,0.41013324,-0.24529956,0.39937666,-0.015634147
-0.12789136,0.18522714,0.37938148,-0.05727438,-0.25303105,0.16768683,0.31341976,0.33638877,0.2141818,-0.049136903,0.081273794,0.18748881,0.30311626,-0.15902394,0.39159462,-0.25188988
-0.138821,0.12155762,0.28493252,0.16573958,-0.17230551,-0.04046733,0.37207022,-0.15615128,0.07275777,0.05173771,0.15273851,0.065886356,-0.057296168,0.10866982,0.29015854,-0.14010747
-0.049956005,0.08527344,0.33111313,0.22856013,-0.2360735,-0.078020155,0.40026978,-0.22957017,-0.2075542,0.20049395,0.40005457,-0.12394857,-0.15803516,0.078531995,0.21358968,-0.023077745
-0.03755957,-0.011339403,0.29779124,0.31048378,-0.009111317,-0.0542719,0.28524166,-0.30498436,-0.018897131,0.022343444,0.30119938,-0.20396076,-0.10045314,-0.008664556,0.121669695,0.1580145
0.15699887,-0.030137505,0.39911664,0.23174171,-0.07167808,-0.044854295,0.357443,-0.2255444,0.12217335,-0.074489556,0.20840238,0.12950368,0.27797577,-0.22343023,0.38218912,0.076698735
0.093175754,0.083747014,0.39951837,-0.0584646,-0.14883345,0.012485896,0.3856746,0.038437698,0.20284364,-0.06385254,0.14643262,0.34771582,0.41284096,-0.17716005,0.40007314,-0.052723803
-0.1417169,0.113650806,0.3007715,-0.096945114,-0.13403533,0.01639249,0.33514947,0.16994369,0.27817255,-0.0047851023,0.054887336,0.310951,0.21290237,-0.06698568,0.39762798,-0.2218905
-0.090204135,0.05732735,0.3003514,0.17525704,-0.17094924,-0.043980762,0.39019194,-0.15783693,0.091926105,0.1829996,0.20657144,0.049444567,-0.0715356,0.15354411,0.24631338,-0.10062336
-0.033448208,0.03199959,0.33619735,0.123871915,-0.18068796,0.0008210976,0.40102795,-0.074426994,-0.14913908,0.20242432,0.39991662,-0.091766596,-0.1355318,0.20233409,0.20165284,0.23537084
-0.010968348,-0.065361105,0.32348672,0.30602214,0.010486777,0.015546863,0.27289653,0.09565816,-0.049156383,-0.017995855,0.31454623,-0.18801595,-0.14649615,0.08199202,0.15459928,0.038787395
0.18677235,-0.042449415,0.40007448,0.14310873,-0.021113835,-0.019058956,0.29599467,0.14606859,0.059504166,-0.10389783,0.22086531,0.1301378,0.13386554,-0.15298878,0.38823426,0.03683407
0.1325375,0.091044195,0.39893937,-0.057417087,-0.11667092,-0.0059348904,0.33054358,0.18422468,0.16023132,-0.10678419,0.1327623,0.3457444,0.42254713,-0.19431308,0.3999883,-0.04016129
-0.10915756,0.12458178,0.29787475,-0.09104761,-0.10000345,0.034744594,0.28630826,0.2851388,0.19100048,-0.0817492,0.03444281,0.31491646,0.21675801,-0.09014757,0.40001538,-0.13129513
-0.0670235,0.10380867,0.30966884,0.120469585,-0.163116,-0.06794791,0.4000191,-0.09262136,-0.044422388,0.1505545,0.27042586,-0.05819196,-0.040052235,0.10692992,0.24052392,-0.106527016
-0.0010365242,0.13968661,0.3389786,-0.07569062,-0.2502908,0.03470911,0.399917,-0.4100557,-0.35108435,0.19905536,0.39963236,-0.20519495,-0.105437845,0.22515124,0.20885724,0.5705301
0.08468049,0.06280561,0.31165156,0.48943695,-0.013340624,0.02523521,0.25820887,-0.2479065,-0.03217169,-0.016233299,0.2795699,-0.29360834,-0.04716896,0.03833224,0.1500102,0.42285243
0.17295659,0.11425339,0.40001142,0.11641362,-0.161117,0.07513328,0.36487624,-0.10767973,0.091905646,-0.034697562,0.25822327,-0.15098235,0.33933187,-0.14144689,0.40012372,0.15110898
-0.06903282,0.19845551,0.40060848,-0.074221015,-0.24045041,0.12706938,0.3567456,0.25804028,0.19824603,-0.07432024,0.16011195,0.33628768,0.36261472,-0.07190076,0.39990494,-0.14407365
-0.14822888,0.20680647,0.25389805,-0.09233276,-0.19148436,0.055533748,0.34992275,0.27791604,0.16413221,-0.05872435,0.13248038,0.19877237,0.024965787,0.11261231,0.33354983,-0.22819248
-0.08379159,0.20873049,0.3082127,0.20605008,-0.2534272,0.038476337,0.40012288,-0.18042602,-0.10454375,0.13254786,0.36659282,-0.052083287,-0.0272976,0.14271615,0.29712802,-0.036330905
-0.067232,0.16257791,0.30428666,0.3810855,-0.016229527,0.021297663,0.3676375,-0.19831578,-0.34182045,0.1323986,0.39991832,-0.32638863,-0.09619012,0.14800484,0.19030818,0.36536968
0.032557074,0.12603682,0.2334029,0.2654751,0.06975114,-0.020898972,0.25099704,-0.17164232,-0.05599683,-0.06749433,0.28864893,0.0020891372,-0.014764208,-0.027051548,0.16006768,0.24785116
0.19644646,0.021253154,0.40001684,0.1918429,-0.0018352134,-0.01862989,0.29702038,0.03678632,0.06833114,-0.05957909,0.18492721,-0.02811614,0.34892637,-0.21320379,0.40008864,-0.005735273
0.04274314,0.17353632,0.40001088,-0.061216477,-0.08442321,0.04334935,0.32411644,0.2506524,0.16447668,-0.10123066,0.071036346,0.28193253,0.44379607,-0.17956802,0.39999747,-0.15744486
-0.15144217,0.1993649,0.22976843,-0.03400657,-0.11313855,-0.056986492,0.36831686,-0.046708304,0.14149374,0.073417656,0.09338498,0.079384044,0.046992876,0.03928853,0.326244,-0.088121995
-0.0704692,0.14668284,0.35257596,0.07656523,-0.21422212,-0.049351238,0.39833188,-0.22394581,-0.18304014,0.1483795,0.40006465,-0.068428695,-0.08232989,0.10416711,0.2485477,0.17228433
-0.06737485,0.08563725,0.34430504,0.022885932,-0.03236084,-0.025663525,0.32024124,-0.19646432,-0.21427262,0.00048420078,0.40001047,-0.35391593,-0.13170072,0.01497234,0.15506123,0.13269861
0.14600345,-0.03623701,0.40001896,0.02166385,-0.04158133,-0.019803302,0.30790132,0.09605969,-0.010035392,-0.09334523,0.18310207,-0.105169795,0.19898432,-0.2636665,0.40018696,0.037215874
0.12907864,-0.0013122585,0.39736113,-0.06836608,-0.13316397,-0.021351991,0.33461803,0.0752412,0.07037065,-0.13776594,0.13653068,0.18274732,0.4084529,-0.20246644,0.39998278,0.05688972
-0.1153667,0.13719033,0.40107426,-0.03850987,-0.16748254,-0.012399326,0.28993008,0.14394084,0.15230867,-0.13067254,0.012283053,0.32175288,0.3230276,-0.13244203,0.3981027,-0.1011526
-0.1278148,0.13351472,0.33352992,0.08637029,-0.19479144,-0.09314168,0.39839923,-0.19099334,-0.07922147,0.1184101,0.25799558,-0.10603321,-0.022540782,0.07297521,0.20975737,0.08745487
-0.06521514,0.11797481,0.3971624,0.09516683,-0.18097152,0.0019764337,0.4000046,-0.4676134,-0.37329254,0.20770176,0.39110973,-0.3509004,-0.09181139,0.11609157,0.15427345,0.49921712
-0.024329746,0.03101457,0.29963717,0.044833694,0.03141508,0.02920153,0.31016743,-0.30042773,-0.13706388,0.030109672,0.31925577,-0.31067795,-0.103772216,-0.061442304,0.16527605,0.2338061
0.19225729,-0.109689996,0.39998823,0.1761069,-0.029151995,0.042185243,0.38117236,-0.14974573,-0.005464603,-0.036037724,0.24115387,0.06877151,0.22781257,-0.27883273,0.40137956,0.2038972
0.10393373,0.078528546,0.39944953,-0.09029671,-0.10425795,0.0617678,0.38626927,0.11169167,0.085926056,-0.031052442,0.17520195,0.2496422,0.413929,-0.24348798,0.39996454,-0.14609239
-0.1339429,0.100648955,0.26014838,-0.057458375,-0.08093623,0.07851679,0.3553094,0.26696026,0.13236134,-0.0044799424,0.060339775,0.08481419,0.11103159,-0.044551104,0.39859492,-0.22678319
-0.04295256,0.084425166,0.27558145,0.15881185,-0.20858432,-0.056591585,0.40000957,0.002873867,-0.14406085,0.13927357,0.28079936,-0.06494488,-0.066054665,0.07989625,0.28291988,0.07622504
0.019560955,0.06521599,0.24429265,0.16431253,-0.077428676,-0.056420855,0.29908448,-0.32560053,-0.30654103,0.09527269,0.3989847,-0.29587054,-0.20774773,0.07443137,0.15568034,0.31308204
0.11642834,0.026673103,0.3091437,0.2379184,-0.014382232,-0.014718976,0.23487645,-0.28434214,-0.012958875,-0.09682616,0.1942585,-0.16642423,-0.07359227,-0.12534416,0.1547548,0.09404292
0.2211637,-0.008339429,0.3970368,0.1664008,-0.10622262,0.0029644405,0.3284508,-0.24711522,0.032472473,-0.14940844,0.2024864,0.06581994,0.23207356,-0.12781978,0.40003666,0.0666587
0.08253959,0.14071816,0.39997846,-0.05276006,-0.19582203,0.025617525,0.34483504,-0.15713438,0.12426836,-0.1577872,0.11298051,0.21041444,0.37472323,-0.09863121,0.39916736,-0.0693179
-0.15751864,0.24507163,0.31193566,-0.037420873,-0.223435,0.052393828,0.3071848,0.10139297,0.20825306,-0.053351477,0.014596046,-0.11999292,0.17458212,-0.011595967,0.40000874,-0.118175596
-0.1581921,0.22316359,0.27850536,0.05334255,-0.26674253,-0.06937541,0.4002327,-0.30497488,-0.049924362,0.09867953,0.26746306,-0.08569197,-0.035207417,0.15193017,0.3161149,0.07257556
-0.113942854,0.15913995,0.3520578,0.1893341,-0.18038885,0.06442337,0.37685737,-0.54584235,-0.28621617,0.18345352,0.391207,-0.37690464,-0.090190895,0.19533226,0.2505741,0.48381677
-0.09915046,0.13052586,0.31455487,0.31969106,-0.038013536,0.05581215,0.309312,-0.36077422,-0.06892425,-0.017543504,0.37773642,-0.31679332,-0.14301218,0.046258308,0.1879856,0.15898953
0.11268606,-0.010454429,0.40008,0.13261123,-0.035815112,0.031133924,0.31082365,-0.28899133,0.09539797,-0.08309748,0.22644322,-0.14437288,0.17131406,-0.20153157,0.40015328,0.2238363
0.14440817,0.03267625,0.4000045,-0.025518406,-0.13561098,0.067613065,0.36030987,-0.23002583,0.16884665,-0.11228123,0.22329684,0.06734821,0.45655444,-0.24489482,0.40006694,0.062110458
-0.13372886,0.16763048,0.24320441,-0.12851971,-0.14422575,0.10720573,0.31475037,0.10068195,0.2480479,-0.08134151,0.06561597,-0.07818257,0.1270582,-0.09425411,0.39759186,-0.33132282
-0.06956604,0.13184422,0.2838329,0.17449026,-0.17534095,0.0006232793,0.4000628,-0.35321966,-0.0110199135,0.107566245,0.30766454,-0.21622935,-0.09410497,0.081715465,0.28443953,-0.0849009
-0.0024686023,0.058525577,0.3284747,0.317894,-0.005447389,-0.0033450443,0.3005912,-0.3423469,-0.12366737,0.06936973,0.39971504,-0.38549885,-0.18850501,0.0946999,0.17909119,0.2546864
0.112827964,0.004428512,0.32536012,0.16654265,0.031703796,-0.02976369,0.26355785,-0.21815297,0.09075791,-0.11720636,0.21311085,0.16257788,-0.013750728,-0.119437635,0.29544258,0.23664367
0.21177529,-0.055272516,0.39964932,0.040677678,-0.084254704,0.060051464,0.32673746,0.11137743,0.17147036,-0.14132693,0.20528308,0.3650433,0.2959421,-0.2711728,0.393881,0.08657147
-0.06286844,0.124402896,0.39563853,-0.13216935,-0.16766615,0.113555185,0.31907,0.30297104,0.2971544,-0.12571217,0.048989158,0.42547444,0.29566875,-0.17645124,0.3999733,-0.21908662
-0.0606273,0.06501165,0.29815984,0.09357333,-0.12206168,0.016838644,0.37951013,0.044646714,0.20102699,0.047906574,0.13656494,0.2741584,-0.04954956,0.059980027,0.23902437,-0.28210944
0.011532955,0.116865315,0.322776,0.04128501,-0.22175917,-0.0006863907,0.40003684,-0.018679278,-0.076689266,0.12158579,0.40004587,0.038131446,-0.16583048,0.12727964,0.16946341,-0.08063189
0.027193949,0.104228914,0.3268342,0.03212413,-0.22479922,-0.013194588,0.39945528,-0.32840034,-0.21877895,0.08113341,0.39983356,-0.16897345,-0.19717617,0.20846103,0.11825716,0.46166474
0.092373274,0.07446771,0.36305016,0.17560226,-0.03836047,-0.02412295,0.19316496,-0.2247313,0.04184577,-0.12065532,0.27329662,-0.18336038,-0.09628442,-0.014189877,0.24925832,0.34304267
0.18337879,0.09980036,0.40000516,-0.024381185,-0.20700023,0.0035340164,0.28602374,-0.15677463,0.11807113,-0.13591444,0.334786,-0.16369106,0.17860034,-0.1805063,0.39964268,0.12680663
-0.018449426,0.08716821,0.40000737,-0.11571106,-0.31650183,0.09406676,0.29719684,0.2585115,0.22547904,-0.20765927,0.2926917,0.19487935,0.36613482,-0.16252583,0.3999343,0.009860059
-0.101277806,0.04144528,0.31016752,0.07466904,-0.25748125,0.017433314,0.24412122,0.3322821,0.24194926,-0.15902828,0.254986,-0.13980581,0.09330714,0.0012401402,0.38022584,-0.36088425
-0.022044484,-0.020062532,0.29187545,0.18113741,-0.19780265,-0.0929904,0.4002958,-0.057157166,0.045009315,0.06736477,0.3981986,-0.15530187,-0.1276332,0.1452444,0.24242792,-0.08065864
0.026019227,-0.023050822,0.2799502,0.30645823,-0.09000719,-0.12075668,0.36117715,-0.18255083,-0.13161191,0.10189054,0.39897335,-0.16059217,-0.22074674,0.17924245,0.119764544,0.31486672
0.026769543,-0.0010783531,0.25331596,0.2906493,-0.028306559,-0.082445525,0.21803296,-0.041748647,0.08462323,-0.056490213,0.22249013,0.043851707,-0.09725669,-0.0065304227,0.22780092,0.058633257
0.16595337,-0.013572886,0.40001088,0.08160804,-0.14174329,-0.05390528,0.30463827,0.06576377,0.1489809,-0.09288658,0.19553296,0.053910684,0.24869817,-0.19239296,0.40011227,0.037697088
-0.009568784,0.11626092,0.4000602,-0.08115562,-0.23483875,-0.012812334,0.32915056,0.23018384,0.22542171,-0.11865189,0.116949685,0.27007064,0.45617068,-0.16059603,0.3999235,-0.0688418
-0.13963512,0.12142187,0.2637058,-0.09276159,-0.18396552,-0.061060943,0.31186438,0.26265013,0.18846908,-0.045359347,0.067706116,0.11863603,0.10645897,0.056364384,0.35613784,-0.15635706
-0.055794083,0.08860094,0.32771403,0.20422846,-0.25672907,-0.095091954,0.39178,-0.204529,-0.055611122,0.12132338,0.3377842,0.008541709,-0.021364445,0.13057238,0.25723717,0.05566971
0.027171822,0.05165614,0.3693849,0.2345641,-0.15052119,-0.06629592,0.40170187,-0.24155046,-0.30916777,0.10565019,0.40016028,-0.17869543,-0.12801059,0.11237939,0.17297474,0.23783806
0.029787384,0.014992242,0.32405415,0.024916299,-0.012585958,-0.031652294,0.28024423,-0.121027224,-0.13886137,-0.035912137,0.36277488,-0.24839412,-0.15104546,-0.034642313,0.12364699,0.27767193
0.21739322,0.019775514,0.4000018,0.1326184,-0.0650813,-0.039947454,0.32484823,-0.04808183,0.022373281,-0.10315866,0.21385115,-0.016634671,0.21902281,-0.22105253,0.3672328,0.11217074
0.062388625,0.12813282,0.40000474,-0.0631713,-0.17121634,0.011621969,0.348446,0.101997495,0.14906672,-0.09211716,0.10827386,0.077164635,0.42439255,-0.13060634,0.39995137,-0.020374224
-0.13111748,0.14133835,0.27463678,-0.12696375,-0.15660316,-0.0040282914,0.27457994,0.18036869,0.19426934,-0.08614029,0.020254387,0.17429549,0.21055278,-0.033210933,0.40003812,-0.23066548
-0.100977525,0.18528648,0.27673277,-0.1705776,-0.1932427,-0.09353839,0.3938955,-0.08332567,-0.08600834,0.087109186,0.2773838,-0.06619564,-0.01243064,0.14351524,0.27017173,-0.07125452
0.0048533897,0.11621156,0.3418635,0.16591483,-0.14886174,-0.020025874,0.4000087,-0.22969867,-0.38226533,0.073893815,0.39876002,-0.24310668,-0.13347796,0.16547462,0.15045427,0.36657974
0.11769787,0.055309903,0.3025414,0.1874199,0.002564108,0.011288714,0.25098336,-0.089724556,-0.060697816,-0.09121804,0.19116291,-0.09312837,0.046972718,-0.11901127,0.30542973,0.15688913
0.21943791,0.009387286,0.39888236,0.10932024,-0.13532746,0.051430527,0.32882273,-0.0073382375,0.00945533,-0.12520948,0.20297009,0.029381176,0.32411948,-0.18730369,0.3988405,-0.03320179
0.0053300243,0.1933091,0.40001264,-0.043389782,-0.20801894,0.084045395,0.3024844,0.21553281,0.12349921,-0.10702199,0.07423986,0.11200162,0.3376178,-0.13668914,0.39943388,-0.1301751
-0.14638577,0.18347023,0.24309552,0.08589262,-0.13852742,-0.039558813,0.2837354,0.10443362,0.11478042,-0.046662804,0.09073641,0.07154055,0.000562327,0.037865397,0.37739757,-0.20661546
-0.07273468,0.1377964,0.33400422,0.22064206,-0.23711567,-0.039084837,0.40071467,-0.16470729,-0.2066083,0.15025157,0.39817107,-0.14866652,-0.079868585,0.1597074,0.35651112,0.33614305
-0.05740622,0.085091405,0.30100673,0.29184487,-0.050251253,-0.044454116,0.29213092,-0.23797959,-0.06840738,-0.012932711,0.36250558,-0.22118194,-0.1333056,0.049593475,0.30088395,0.16103874
0.13391656,0.007614988,0.400031,0.1183001,-0.09848378,-0.0112050045,0.3256126,-0.047005925,0.082477264,-0.09015777,0.24775504,0.03346732,0.1850073,-0.228642,0.40007573,0.023182712
0.07497446,0.10381132,0.39902946,-0.001050667,-0.1659702,0.026970604,0.33591998,0.14748317,0.16754642,-0.09246518,0.1700376,0.19153823,0.37876707,-0.18572405,0.39998046,-0.11279905
-0.10827612,0.1238554,0.2839341,-0.0753535,-0.11461045,0.022687968,0.27628082,0.11947438,0.16278972,-0.043563973,0.10486333,0.14604287,0.15746018,-0.02565859,0.3906755,-0.17174935
-0.0671093,0.12707624,0.30497402,0.070387386,-0.22472088,0.016816761,0.39870122,-0.11846852,-0.1557951,0.18088779,0.40007567,-0.13303624,-0.05400193,0.13900574,0.252763,0.008730504
-0.05008306,0.059619367,0.3232232,0.13253887,-0.05954767,-0.030398732,0.27735978,-0.24282478,-0.1717033,0.10242308,0.3995338,-0.28562343,-0.16125408,0.067623444,0.14470294,0.2119788
0.109280206,-0.013022484,0.3658299,0.2399391,-0.042304527,-0.017946793,0.26263905,-0.0045910412,0.06480848,-0.04952858,0.18554063,0.02252814,0.041880224,-0.15551725,0.29870436,0.11508568
0.15544851,0.06813647,0.39927694,0.025453897,-0.1868779,0.016760608,0.3528219,0.13683973,0.11325901,-0.08202311,0.23150769,0.15758963,0.3793874,-0.27687716,0.39998284,-0.19960603
-0.061945837,0.13785368,0.3929889,-0.033118226,-0.21637163,0.036120135,0.3352342,0.22771238,0.18927442,-0.07163385,0.0977033,0.120474994,0.34399557,-0.1978622,0.40007517,-0.19013068
-0.11000745,0.16643272,0.27294564,0.05208436,-0.1372935,-0.07984578,0.3373873,-0.06255574,0.06993073,0.04231831,0.1034185,0.15394893,-0.033837274,0.03445896,0.2742921,-0.12171901
-0.041744456,0.14588493,0.3105418,0.14022283,-0.21289796,-0.014152697,0.39614475,-0.23132609,-0.18222022,0.13320181,0.3815622,-0.17458968,-0.13127188,0.09536575,0.1858707,0.21813034
-0.02465819,0.10078503,0.3196297,0.3095574,0.001621661,0.003997393,0.2989611,-0.21233772,-0.25286964,0.046392858,0.38408607,-0.508282,-0.16034071,0.071346685,0.12611035,0.35086286
0.13653702,-0.065046154,0.37365162,0.26216847,0.03600695,-0.0016276842,0.2727114,-0.038327146,0.015007345,-0.1298344,0.21191488,-0.029764831,0.0919913,-0.20336784,0.29297137,0.21036683
0.22780791,-0.013427951,0.39956757,0.15896738,-0.07216951,0.0010208158,0.31884488,-0.0037530034,0.096506,-0.15128982,0.21470155,0.1292842,0.358768,-0.22447303,0.40000936,0.054060895
0.015870493,0.18559162,0.39752448,-0.07555387,-0.16834544,0.04964486,0.31699407,0.22990678,0.22888972,-0.12226177,0.05871842,0.20377076,0.29566935,-0.16180377,0.392453,-0.24781612
-0.18048333,0.21110676,0.18035394,0.1175845,-0.119418815,-0.06228109,0.2950875,-0.028037552,0.16170448,-0.10587527,0.12487624,0.15177324,-0.049176987,0.07153838,0.28927156,-0.27030066
-0.09241119,0.22216922,0.24747217,-0.18216279,-0.19911386,0.00033099877,0.40000468,-0.19627,-0.06089987,0.08106169,0.39999038,-0.09667996,-0.08998182,0.15038133,0.2765619,0.13743013
-0.006310086,0.09383712,0.29675058,0.3649808,-0.04038211,-0.059261594,0.338246,-0.33495346,-0.25302726,0.033367727,0.3987159,-0.32397434,-0.1670799,0.13986969,0.17555776,0.29917327
0.034226973,0.06807922,0.20386186,0.036723066,0.037583318,-0.07602374,0.2517296,-0.28334415,-0.05894301,-0.12651178,0.29163355,-0.27619112,-0.12952596,-0.020278525,0.1455041,0.31406093
0.22492892,-0.035108265,0.40001315,0.26011977,-0.022501362,-0.07051892,0.31272337,-0.18097362,0.07598287,-0.18122967,0.20944321,0.10094004,0.25348005,-0.20803028,0.38723746,0.060073003
0.09412319,0.113841996,0.39980942,0.005967243,-0.09563889,-0.020504018,0.3140629,0.033139367,0.17707212,-0.18386775,0.103803694,0.34253374,0.457633,-0.15045565,0.40003455,-0.035167888
-0.1665455,0.22822823,0.33591202,-0.13703102,-0.1241375,-0.014282087,0.2912372,0.080610536,0.25658888,-0.14021115,-0.005780392,0.18365763,0.21024127,-0.046306755,0.39998406,-0.36338788
-0.13582952,0.1772706,0.34673643,0.028893625,-0.23623635,-0.07843437,0.39999115,-0.20829113,-0.031062745,0.1352944,0.2928816,-0.117793396,-0.019024674,0.18126065,0.27764747,0.14046067
-0.09199607,0.13565941,0.3841543,0.12077794,-0.20705813,0.0363637,0.40039435,-0.29895547,-0.34054884,0.23970486,0.3995352,-0.19413286,-0.05047162,0.20034243,0.25050837,0.41686085
-0.07635811,0.06899564,0.3217375,0.13352601,-0.021643559,0.03522509,0.29742813,-0.23845854,-0.11222756,0.04597237,0.31177193,-0.28182963,-0.08673427,0.03000218,0.19467184,0.29228702
0.122127436,-0.044970453,0.37680587,0.12870443,-0.017295392,0.044561516,0.31263408,-0.087858856,-0.0023689908,-0.025018945,0.2334451,0.180877,0.1792434,-0.19358262,0.40024865,0.18297619
0.16687378,0.018168427,0.39958513,-0.013129966,-0.13916503,0.086745776,0.37065172,-0.034020305,0.0855551,-0.050963372,0.20902076,0.2236198,0.40605316,-0.24521162,0.39999172,-0.138139
-0.043758593,0.13722642,0.40000558,-0.13442859,-0.18326217,0.10501546,0.33143657,0.12172655,0.17042652,-0.046681874,0.10442244,0.15958077,0.35996452,-0.16722558,0.39975762,-0.12456399
-0.12360375,0.14298527,0.28099883,0.04445613,-0.09952894,-0.007217986,0.3078853,0.036842845,0.13202086,-0.027186178,0.055481505,-0.010581303,0.0015824512,0.012866434,0.33929372,-0.1853648
-0.077002935,0.089191325,0.34950048,0.23995689,-0.18885954,-0.051008724,0.38874003,-0.46937063,-0.2107928,0.18861358,0.40006593,-0.20148559,-0.13449872,0.16190651,0.21687533,0.37384123
-0.059742693,0.028657991,0.31187132,0.2206732,-0.059558265,-0.057788752,0.2915293,-0.22024423,-0.17302783,0.038463235,0.39566627,-0.1320208,-0.15009333,0.029294955,0.16122618,0.29791546
0.16731787,-0.028448286,0.40000015,0.29777345,-0.08227046,-0.04202011,0.32144397,0.043027103,0.02580437,-0.07317868,0.18156594,0.11826388,0.23125988,-0.21955106,0.40004268,-0.030030696
0.061740212,0.09839119,0.40000975,-0.040176347,-0.20844716,0.005116131,0.37749276,0.15828061,0.13141958,-0.041155014,0.11143909,0.089985095,0.46263388,-0.21358249,0.4000568,-0.051471446
-0.18248539,0.14890037,0.26439422,-0.026674349,-0.20326868,-0.0014561171,0.32953948,0.14275408,0.2027875,-0.044484045,-0.019253755,0.090195514,0.16427517,-0.06864554,0.39741334,-0.17285547
-0.13073017,0.12920962,0.30955505,0.1258198,-0.30945706,-0.087242395,0.4000469,-0.19390175,-0.08313813,0.1540685,0.25499198,-0.012708981,-0.051996704,0.091478564,0.3012103,0.19865024
-0.060980022,0.060535353,0.3786157,0.21608192,-0.1786916,-0.009076154,0.3742371,-0.4974133,-0.25667715,0.13247482,0.39762855,-0.27694193,-0.11804306,0.11664672,0.22857897,0.43830672
0.04440691,-0.03981214,0.3744453,0.340474,-0.055841073,0.025590342,0.3208315,-0.040163692,0.036049347,-0.06872563,0.20416105,-0.00039517795,-0.03196396,-0.13749877,0.2714448,0.09709209
0.15857372,0.010139982,0.38494837,-0.020641169,-0.14995122,0.035543907,0.3656911,0.061061077,0.11522048,-0.0994804,0.202835,0.13075231,0.30971974,-0.26112044,0.3998687,0.029801516
-0.10647946,0.1727721,0.3273528,-0.1558892,-0.20033984,0.091341905,0.3411167,0.31260735,0.20052908,-0.07873275,0.065228075,0.2530059,0.31214297,-0.17676653,0.39888912,-0.053294197
-0.12585287,0.12503143,0.27958697,-0.0066347,-0.18136643,-0.065756366,0.4000354,-0.1390616,0.00824416,0.11484962,0.23226775,-0.07575403,-0.052938726,0.0828069,0.22107297,0.034398057
-0.04661202,0.07624982,0.33609167,0.16834891,-0.27727097,-0.009214224,0.400506,-0.3509892,-0.28672862,0.2349999,0.40013447,-0.180441,-0.13285334,0.14458594,0.19776316,0.41142935
-0.045897122,0.019933723,0.31479397,0.2545995,-0.07591515,0.020533605,0.23000498,-0.16038318,-0.12965012,0.06549686,0.34327084,-0.27549928,-0.17783006,0.037025657,0.12700173,0.30290264
0.14485487,-0.06883174,0.40001503,0.20865594,-0.13613598,0.07318021,0.3016412,-0.027484706,0.04199264,-0.089051254,0.20698583,0.2574504,0.1643416,-0.26170465,0.40073025,0.07212503
0.08929744,0.040511128,0.3990752,0.0312589,-0.22465944,0.1047618,0.31409883,0.11790598,0.113034986,-0.11240041,0.18759544,0.15738328,0.40206882,-0.26985824,0.3992249,-0.06658557
-0.17866223,0.19155787,0.302119,-0.0115207005,-0.26272023,0.13065301,0.26311928,0.33925143,0.2246371,-0.09864053,0.026018912,0.17310913,0.20441766,-0.14920385,0.39998165,-0.25207257
-0.11854607,0.13540581,0.3023405,0.15212081,-0.24113186,-0.016390162,0.3999975,-0.14150317,0.04318913,0.14571321,0.2586402,-0.16110745,-0.064224415,0.07657657,0.24259672,-0.049797103
-0.06578817,0.0453198,0.34288973,0.3329405,-0.11033301,-0.00899882,0.40012372,-0.4068357,-0.22117567,0.15958193,0.39962724,-0.23878795,-0.08350776,0.13344583,0.18410428,0.32518533
0.0187847,-0.039524216,0.31577247,0.32402405,0.007467867,-0.049593084,0.2981295,-0.34770635,0.07284981,-0.084033206,0.16390362,-0.23268272,0.002784192,-0.12685513,0.18689495,0.257567
0.15691791,-0.058176562,0.40000054,0.19619612,-0.07380912,-0.02866719,0.3535032,-0.28495198,0.13082598,-0.14779827,0.19247481,-0.0021414293,0.3289308,-0.26261213,0.40004793,0.16321899
-0.026347088,0.14915863,0.40002802,-0.034631927,-0.15408882,0.07709149,0.36024803,0.091337025,0.23297079,-0.15057544,0.07058954,0.15914918,0.3712333,-0.20682886,0.39810535,-0.0023847246
-0.13897271,0.10301529,0.24131326,0.1934109,-0.087902345,0.059441883,0.30163255,0.15896611,0.22115232,-0.044589452,0.029439192,0.046465367,0.03659188,-0.009577697,0.3640527,-0.14382182
-0.09280252,-0.01142789,0.2928903,0.42771748,-0.14893304,-0.071657225,0.40173775,-0.055640582,-0.068032034,0.15023753,0.3995683,-0.25147364,-0.11079561,0.2553883,0.25120318,0.37802535
-0.08301712,-0.08650063,0.2698438,0.58906317,0.03910247,-0.20060566,0.2939785,-0.3227267,-0.121012054,0.110682026,0.3997018,-0.26465493,-0.16791369,0.26218665,0.1355418,0.5127167
0.0086873565,-0.12528694,0.26165774,0.49747875,0.14343397,-0.15173748,0.16638479,-0.1525352,0.19330755,-0.19822386,0.11915426,0.4027841,0.0057630977,-0.022584725,0.16262642,0.12036596
0.104896486,-0.14270909,0.40006384,0.44585764,0.10881469,-0.01769577,0.20445603,0.2303999,0.21494707,-0.31723207,0.11140061,0.6587011,0.28327766,-0.20155929,0.383464,-0.39955437
-0.026501592,0.16484265,0.4000089,0.39592758,0.044005547,0.1661583,0.19440992,0.43531483,0.3289908,-0.36813098,-0.11243914,0.64712006,0.27208853,-0.2716501,0.40003386,-0.69324064
-0.17493962,0.10923595,0.23941715,0.46030262,0.138158,0.12288885,0.08856195,0.2221163,0.32054785,-0.38729125,-0.20157276,0.1307265,-0.039112177,-0.14647482,0.37483636,-0.5441002
-0.27063948,-0.028326362,0.124772444,0.5604602,0.09097684,-0.028617831,0.32651404,-0.20578195,0.11624973,-0.15426736,0.19210008,-0.27444398,-0.2608415,0.1805272,0.08217859,0.02476072
-0.22173889,-0.23045906,0.15803981,0.67177045,0.055856295,-0.19886374,0.25715882,-0.32390484,-0.06342573,0.023217712,0.39959925,-0.3812068,-0.3037979,0.3238335,-0.0076667406,0.20154423
-0.1468131,-0.36832708,0.13684157,0.41876313,0.19932036,-0.18297437,0.11282707,-0.32988945,0.16236387,-0.20171064,0.17156179,-0.09633711,-0.22497459,0.18057549,0.0043455567,-0.21095018
0.07504469,-0.32715854,0.351631,0.43027866,0.15182117,-0.054736014,0.14272399,-0.26695794,0.23651348,-0.35392654,0.10005252,-0.21029122,0.0650352,-0.08087778,0.25036135,-0.43415526
0.17823654,0.016289698,0.4000426,0.65502053,0.12644412,0.16478114,0.12348353,-0.3156736,0.33886746,-0.45192325,-0.12620343,-0.1091177,0.019469015,-0.23291898,0.40018114,-0.56297356
-0.055447802,0.1435308,0.31912518,0.76390696,0.17277037,0.19824053,0.1595862,-0.38351503,0.30605406,-0.42528218,-0.17150152,-0.99806833,-0.24123873,0.015282689,0.27752152,-0.2948537
-0.10697749,-0.05043936,0.1622338,0.9355916,0.122411,0.09460281,0.34852767,-0.21674426,0.17601107,-0.23001267,0.078369275,-1.0393137,-0.28541455,0.33387217,0.21097805,0.48242584
-0.07034591,-0.16667156,0.12698817,0.91036403,-0.032876957,-0.11200334,0.3733042,-0.3019526,-0.027370457,0.05938455,0.40000784,-0.8876174,-0.31382456,0.48079753,0.19409093,0.4853217
-0.043248933,-0.30994564,0.054794677,0.7703919,0.019716093,-0.2803663,0.1701474,-0.36327597,0.04722977,0.107680306,0.40135738,-0.21430366,-0.38271856,0.49102092,0.01428378,-0.14103173
0.009683862,-0.33608592,0.23659815,0.6417169,0.062329717,-0.10624303,0.15753092,-0.2695117,0.3233461,-0.2214917,0.1275551,0.069201365,-0.10752531,0.30658662,0.16154873,-0.5002158
0.09755866,-0.22482915,0.40002903,0.5604522,0.021163331,0.12945877,0.15067948,0.091989204,0.39858615,-0.35104176,0.03651838,0.19773656,0.1619055,0.021466877,0.4002015,-0.6930557
0.111818835,0.17548418,0.40004194,0.66126096,0.060752112,0.29085013,0.05407691,0.22190826,0.43566543,-0.48270294,-0.16870922,0.101325,0.15411177,-0.20838584,0.4001359,-1.0831188
-0.087937325,0.2772563,0.2982423,0.7463543,0.12150796,0.28171983,0.05008747,0.15103662,0.41609985,-0.44357133,-0.25812903,-0.890078,-0.13537015,-0.020795288,0.31780258,-0.57130724
-0.16370897,0.042583868,0.1120988,1.0353001,0.12764917,0.10793383,0.29943353,-0.065477274,0.24868512,-0.26467937,0.029829862,-1.0638661,-0.3068357,0.25587916,0.11617614,0.087606594
-0.12226251,-0.15102875,0.13650751,1.1799424,-0.005527414,-0.016846282,0.3485962,-0.21574754,0.013089334,0.04686969,0.40075547,-0.8722975,-0.3589616,0.47468504,0.036369044,0.028384969
-0.16469544,-0.19703063,0.003682185,0.95643824,-0.02742559,-0.17780079,0.18218903,-0.27312222,0.107920356,0.09929988,0.37712777,-0.28008288,-0.33327582,0.5184939,-0.03744077,-0.2627935
-0.11064146,-0.09485386,0.26167667,0.7711055,0.018511537,0.0019067876,0.13268587,-0.35238534,0.37770763,-0.15876019,0.046004333,0.096315235,-0.00851725,0.2890048,0.22033685,-0.6121781
0.026881892,0.05381706,0.37374917,0.5452403,-0.028317695,0.21009035,0.12585413,-0.19632772,0.4236389,-0.31351367,-0.026151408,0.14656423,0.22838086,-0.012573036,0.3999883,-0.6996894
-0.051660057,0.31471413,0.39731207,0.59296477,0.050792497,0.2994255,0.06813836,-0.19783123,0.4048081,-0.40568587,-0.20921603,-0.2833291,0.064964764,-0.13841122,0.40000302,-0.6916882
-0.24963634,0.1909205,0.19510321,0.86940277,0.07137112,0.17224543,0.26888528,-0.11330941,0.26799116,-0.30850258,-0.025584184,-0.84626234,-0.2175826,0.13997604,0.19899353,-0.068366125
-0.21990003,-0.035971235,0.27998877,1.0962639,-0.037561297,-0.036211167,0.3349618,-0.38809574,0.07094674,0.07332974,0.40007332,-0.8422557,-0.2513897,0.4134686,0.22908545,0.19431983
-0.2272224,-0.14592825,0.2019771,0.74803936,0.09261238,-0.119561985,0.23379925,-0.20917483,0.20171748,-0.013900507,0.3355074,-0.16357079,-0.2354216,0.41884953,0.13951297,0.072489746
-0.017551243,-0.16760471,0.33402675,0.7497205,0.14857863,-0.064827435,0.12107697,-0.3272515,0.36519483,-0.20837949,0.15963611,0.18267874,0.02959508,0.20022656,0.28737232,-0.3367197
0.14203855,-0.06310676,0.40001175,0.76267874,0.14810663,0.09779365,0.0857377,-0.20251322,0.3866492,-0.37906656,0.087016836,0.50133175,0.13403173,-0.08086202,0.40031663,-0.5839171
0.025529345,0.2773698,0.3941641,0.54732186,0.24724928,0.1727158,-0.015661858,-0.52644366,0.34661403,-0.4704676,-0.075954214,0.024467122,-0.106755316,-0.009704453,0.3919215,-0.678674
-0.153722,0.11829637,0.13103607,0.9535814,0.2203517,0.017990172,0.33303487,-0.25723913,0.19801733,-0.35844216,0.07634962,-0.6929315,-0.26988366,0.31429002,0.20546184,-0.025094124
-0.13072245,-0.080393635,0.14791144,1.0099597,0.07199191,-0.16214521,0.32260495,-0.22457589,-0.027304249,-0.045893583,0.4000348,-0.89584064,-0.26878724,0.5395648,0.19224706,0.2914249
-0.11093694,-0.20418578,0.08262709,0.70445955,-0.020009443,-0.35328084,0.28362688,-0.3439257,0.0372242,0.105316155,0.4000063,-0.66451263,-0.27156425,0.5908959,0.06904139,0.13809443
-0.15314417,-0.2055324,0.17952023,0.6371923,-0.00043559703,-0.18742242,0.2094999,-0.14485402,0.28081232,-0.12252607,0.27241015,0.05067718,-0.060922656,0.50191927,0.15766054,-0.46405125
0.033205096,-0.11052748,0.40157858,0.75774074,-0.013182093,0.081593014,0.16174552,0.1078184,0.38998178,-0.32748502,0.10993628,0.40939468,0.22598612,0.13753153,0.40023464,-0.76970285
0.09029895,0.1090038,0.40005505,0.6490689,0.050825987,0.17191276,0.10041271,0.34156328,0.3746858,-0.4216704,-0.0076768105,0.3833418,0.24066874,-0.17580262,0.4000699,-1.0407126
-0.075753495,0.32724908,0.32712615,0.6320103,0.12447776,0.19527176,0.07654339,0.017804042,0.3466131,-0.4533112,-0.16980928,-0.053736176,-0.056597773,-0.15325528,0.39969644,-0.65813196
-0.18960342,0.09188412,0.08083159,1.0056974,0.08012219,0.07841731,0.29199085,-0.17482041,0.22348377,-0.27361825,0.0059057763,-0.65393317,-0.24044268,0.15770945,0.2180699,0.038535107
-0.18116514,-0.05000007,0.08639648,1.2270828,-0.012115137,-0.08843885,0.2796233,-0.14544547,0.030765982,-0.019850748,0.3195401,-0.75586826,-0.25504884,0.39987162,0.19888204,0.47214893
-0.18085161,-0.17454955,-0.0109693045,1.0983382,0.044385817,-0.13960432,0.17496575,-0.33984864,0.10064649,0.04616138,0.38292512,-0.14764413,-0.295754,0.40804642,0.01813794,-0.058307882
-0.057614703,-0.18878065,0.19963701,0.88288516,0.10060507,-0.047787227,0.06814409,-0.46876472,0.4029749,-0.17981385,-0.056017697,-0.020376125,-0.0039800378,0.18884988,0.21070269,-0.38490236
0.09500478,-0.008488826,0.4001194,0.771707,0.07831516,0.14516564,0.051999614,-0.26698613,0.42116818,-0.32579705,-0.10942348,0.041534636,0.15016384,-0.045539767,0.39040622,-0.6349688
-0.1359578,0.21172625,0.30700797,0.73788136,0.13652958,0.23159438,0.090639465,-0.30812123,0.31196675,-0.37915742,-0.118955255,-0.43973288,-0.15001012,0.14940815,0.30623606,-0.38007727
-0.1689902,-0.0076437094,0.19721562,0.8663379,0.0126214,0.052890263,0.3694906,-0.26264912,0.13643965,-0.30238467,0.13266893,-0.8017387,-0.20020434,0.41562024,0.28867915,0.06267335
-0.08138184,-0.13550906,0.20776299,1.2968013,-0.09995998,-0.14180022,0.38636512,0.020421188,0.001350196,0.061926283,0.3999033,-0.7682514,-0.25768963,0.52259296,0.21629418,0.116346106
-0.1418629,-0.25997034,0.052419357,0.81200135,0.016454004,-0.29722092,0.2236615,-0.1940081,0.17792538,0.04015486,0.3394751,-0.2915316,-0.2968692,0.53551537,0.05827964,-0.37857848
-0.04842909,-0.1819803,0.31316862,0.62453896,0.006433079,-0.049800836,0.24695377,-0.10000842,0.31527352,-0.17218553,0.16044587,0.14339921,-0.026061283,0.36600855,0.26637545,-0.51818514
0.042532884,-0.015610499,0.4000521,0.89268506,0.060732834,0.12445466,0.1431175,0.08616443,0.3230832,-0.3375239,0.04582313,0.13691811,0.24894606,-0.05758513,0.40006655,-0.6084203
0.091603465,0.22021025,0.40002298,0.6617769,0.116382465,0.2654457,0.055551406,0.21078655,0.3737425,-0.43025792,-0.2002749,0.124963865,0.1773794,-0.23996364,0.4001474,-0.9161831
-0.087181166,0.3157928,0.28298047,0.85453385,0.17140524,0.27097717,-0.03387686,-0.21421432,0.3450895,-0.41072863,-0.2701858,-0.6035569,-0.12680475,-0.0139015755,0.30549687,-0.35814375
-0.20198718,0.0041341246,0.07341948,1.1433866,0.043577913,0.037229944,0.2656207,-0.15843801,0.16653715,-0.29815823,0.0001594926,-0.88704693,-0.24369968,0.30527404,0.19831026,0.27111414
-0.22697493,-0.0975942,0.03228937,1.2739449,-0.03705302,-0.14875577,0.24831407,-0.40259567,-0.030919671,0.0063818414,0.37529457,-0.8808663,-0.24585654,0.46037495,0.14207229,0.3975382
-0.23441315,-0.23852721,-0.08027122,0.9580109,-0.07584998,-0.2979263,0.19604824,-0.2507033,-0.012748366,0.14195068,0.39990374,-0.61364675,-0.2662774,0.48371035,0.022382896,0.18090056
-0.24968344,-0.13266346,0.07606346,0.7086093,-0.0182037,-0.14543048,0.10407962,-0.15445875,0.29111922,-0.08441631,0.15727551,0.068855904,-0.07125349,0.34969336,0.092519574,-0.6445031
-0.07927566,-0.002420806,0.37747642,0.7015035,-0.016820803,0.062475704,0.086231545,0.075376436,0.3958815,-0.29221776,0.0146984495,0.25568658,0.262421,0.061709937,0.40092263,-0.7728789
-0.0025591191,0.2403734,0.4000186,0.7015088,0.029135957,0.18508725,-0.0048305313,-0.046833687,0.39983693,-0.38902333,-0.16920961,-0.02728591,0.17736147,-0.13549137,0.40013057,-0.84300023
-0.1796039,0.23585047,0.20733586,0.7020469,0.11376719,0.19475995,0.08346874,-0.11736191,0.32417876,-0.38454974,-0.16556273,-0.6922983,-0.124366395,0.03942158,0.3197062,-0.30997413
-0.1987591,-0.04399487,0.18729626,1.0595344,0.010989075,0.012448084,0.34115985,-0.29560298,0.068190776,-0.12165806,0.25850877,-0.9267145,-0.2497124,0.37758508,0.19618176,0.26804933
-0.1901932,-0.15746754,0.1394835,1.0411379,-0.054358486,-0.18810572,0.27738145,-0.3018924,0.006414433,0.12947279,0.39966345,-0.69023806,-0.2662769,0.44815537,0.11736833,0.15773642
-0.2035323,-0.2566551,0.0494491,1.0697868,0.10591151,-0.24988334,0.07699611,-0.24135728,0.20928378,-0.020117663,0.30337498,-0.14091134,-0.2405976,0.39093336,0.022749301,-0.27650604
-0.12378331,-0.18319097,0.2581746,0.8059623,0.074247524,-0.079133414,0.13990442,-0.20860377,0.38337708,-0.21327119,0.08088531,0.13986138,0.08071034,0.160188,0.24627092,-0.43493873
0.042651635,0.07521348,0.40002763,0.7334087,0.08645298,0.093363255,0.08316101,-0.29849878,0.41858494,-0.39056063,-0.020932106,0.43492958,0.21216461,-0.1264034,0.39604685,-0.7854546
-0.07967719,0.3661604,0.39843842,0.6073385,0.12769365,0.1844927,0.069472805,-0.3195781,0.42167926,-0.4154055,-0.20535828,-0.2972177,-0.07517693,-0.060268734,0.37019116,-0.58306384
-0.2403314,0.1600224,0.1071892,1.0441447,0.08754979,0.012845177,0.34894976,-0.3013432,0.22409992,-0.26141042,0.0822128,-0.51449573,-0.2525673,0.24444827,0.20431423,-0.021764994
-0.22383319,-0.03373511,0.13314976,1.086358,-0.041302744,-0.18282565,0.341946,-0.10416664,0.03217472,0.08074423,0.40015587,-0.701096,-0.25734648,0.4757892,0.20374016,0.26141292
-0.25764945,-0.21307786,0.04388949,0.8205376,0.057475958,-0.3413439,0.18799739,-0.16776493,0.18509707,0.027736051,0.3616568,-0.18963373,-0.26583466,0.51046747,0.02708541,-0.11643926
-0.12441376,-0.14015868,0.2897153,0.5742034,0.062179744,-0.099904105,0.18820943,0.032526515,0.33330604,-0.22447945,0.18966605,0.093129545,0.04134285,0.28080308,0.27661932,-0.44754303
0.056709316,0.027798293,0.40059724,0.81058353,0.0926187,0.13166875,0.13435757,0.35853857,0.36328223,-0.3928599,0.07868351,0.3039482,0.29052806,-0.048027955,0.40021324,-0.5909859
-0.0005248096,0.22056969,0.31500426,0.5445104,0.18147272,0.18873252,0.101493515,0.26447302,0.34217724,-0.45684305,-0.10703258,-0.2780987,0.14645304,-0.19668512,0.40005252,-0.6491027
-0.07804865,0.09456434,0.10660587,0.8020347,0.11145033,0.109660946,0.24766156,-0.07948776,0.23845115,-0.33259895,0.0031910657,-0.81521475,-0.19045039,0.07481599,0.22124095,0.03814966
0.05261996,-0.19661678,0.1778727,1.0636088,0.00014083687,-0.07823717,0.33617583,-0.29819724,-0.034288764,0.03403678,0.40013987,-0.93099815,-0.31374037,0.35796505,0.16440171,0.34737122
0.053042274,-0.25685146,0.046201598,0.7578906,0.036500607,-0.24754217,0.18696749,-0.2503162,0.028908072,0.107961744,0.40309379,-0.37360764,-0.33653012,0.3913557,0.07324678,0.14529166
0.050062995,-0.24607132,0.18932603,0.6498113,0.06269346,-0.10159992,0.1669369,-0.31059247,0.27491212,-0.17430796,0.13487493,0.006016507,-0.07268063,0.16591616,0.21216306,-0.25750142
0.16022545,-0.030624954,0.40005657,0.6814904,0.04936433,0.110351704,0.12858212,-0.31573173,0.3394676,-0.35980573,0.025615605,0.16316786,0.16285887,-0.16924962,0.40006337,-0.5293427
-0.03787785,0.26625505,0.40001366,0.5640095,0.14535256,0.17575487,0.086360246,-0.062787466,0.35628733,-0.41277218,-0.18438779,-0.22041516,-0.117440335,-0.07619117,0.39654464,-0.4414302
-0.19347073,0.028732771,0.15746973,1.0686233,0.10385511,-0.04864574,0.26937294,-0.30073962,0.16792998,-0.17435427,0.13182567,-0.5913268,-0.2996851,0.28796172,0.1918043,0.4197517
-0.12625915,-0.17792773,0.20345296,1.052882,0.0038451713,-0.17833786,0.34592018,-0.45124137,0.024446068,0.13220917,0.40034837,-0.6140586,-0.315744,0.5121984,0.24464582,0.55186665
-0.116731144,-0.3216987,0.08147518,0.78725505,0.09604974,-0.31361723,0.21118978,-0.32675457,0.24179986,0.027921297,0.32751563,-0.14657852,-0.3296913,0.49210072,0.07697968,-0.041355193
-0.024972206,-0.35971987,0.3241928,0.50721073,0.08437108,-0.057268124,0.2810339,-0.070384264,0.38929415,-0.21818437,0.14960174,0.26413375,-0.014282757,0.2556537,0.27459222,-0.5750929
0.13517456,-0.19781823,0.4000108,0.58041835,0.11317213,0.12872402,0.25308043,0.18022601,0.4016871,-0.37913144,0.042355713,0.4956123,0.27111822,-0.091499515,0.40022874,-1.0512097
0.200584,0.08152371,0.40001684,0.5534302,0.17219812,0.2551093,0.21148506,0.11059215,0.40134633,-0.46495858,-0.13329367,0.30317247,0.13481466,-0.22811343,0.39990753,-1.1337917
-0.06362818,0.17746668,0.26887748,0.7814807,0.1948312,0.18897343,0.12415555,-0.23819165,0.35012794,-0.43042722,-0.194616,-0.2276028,-0.21806936,0.025056578,0.23925936,-0.41782466
-0.10219982,-0.06487386,0.091484964,1.0911598,0.12240857,0.049434997,0.29088783,-0.41140288,0.20564918,-0.2118316,0.02094906,-0.8058702,-0.27481663,0.3503328,0.15893963,0.24018712
-0.0418721,-0.22785251,0.07856495,1.036576,0.06503745,-0.060074847,0.2862723,-0.28817347,-0.035042137,0.080766454,0.40019557,-0.710968,-0.2958388,0.48798364,0.11527647,0.16895941
-0.10540647,-0.40819436,-0.070982926,0.5621963,0.07109023,-0.15389039,0.21167947,-0.20314635,0.18024582,-0.072506346,0.28850168,-0.25493678,-0.25279143,0.44398743,0.037553634,-0.37398228
-0.037750732,-0.319235,0.18276095,0.44358823,0.04115958,0.05046975,0.2014955,0.11148174,0.32285175,-0.19245906,0.095803626,-0.11720846,0.05890159,0.1904001,0.28389558,-0.67124295
0.09908638,-0.16597158,0.3875572,0.4628473,0.038478583,0.18923119,0.1414555,0.2667985,0.36353034,-0.3389273,-0.025898585,0.15392177,0.29973575,-0.11080254,0.40011746,-0.7109017
0.10033337,0.15630026,0.4013198,0.91188544,0.089529976,0.2855779,0.031354465,0.21719788,0.37279502,-0.41593724,-0.19440798,-0.46002674,0.22064312,-0.27120346,0.40045008,-0.7234948
-0.07880722,0.18865533,0.25668722,0.83083624,0.13619503,0.24643368,0.060754925,-0.024102684,0.3250939,-0.3701331,-0.1828148,-1.1717994,-0.095809676,-0.064515844,0.2660157,-0.28537303
-0.0954051,-0.03871234,0.16023609,0.8353109,0.053611152,0.11743153,0.32388481,-0.17418352,0.08334024,-0.09565376,0.2140507,-1.2274199,-0.27664116,0.22527392,0.13815984,0.2829976
-0.017311702,-0.23535165,0.13178195,0.79821783,-0.007874458,-0.112625584,0.33971834,-0.20631915,-0.044914994,0.15586601,0.39089826,-0.7406353,-0.336761,0.38170585,0.056631133,0.2899368
-0.02345097,-0.3867301,0.018493604,0.8058005,0.04748968,-0.09875313,0.12399427,-0.38703296,0.1561196,-0.0615837,0.26601246,-0.14418381,-0.3205316,0.33367118,0.005305923,-0.4212749
0.05347953,-0.39167026,0.1631094,0.6718406,0.04071893,-0.0601721,0.09653861,-0.582527,0.2465987,-0.23659448,0.174313,-0.15719752,-0.11677253,0.193212,0.18314007,-0.5242798
0.23296724,-0.2604747,0.3251339,0.64439017,-0.0016698738,0.13200547,0.07763153,-0.3319003,0.2973159,-0.41408554,0.13763492,0.23082317,0.114911705,-0.114107735,0.40021777,-0.70114964
0.1378302,0.1150501,0.4000289,0.6396427,0.020347748,0.2607758,-0.020926971,-0.62973195,0.32580215,-0.50424314,-0.05298382,-0.15810294,-0.07717137,-0.12588874,0.39240816,-0.6945056
-0.10842797,0.12651469,0.22384433,0.9518772,0.0999367,0.18245982,0.21502052,-0.23573887,0.20987329,-0.46512118,0.020009747,-0.649172,-0.27474272,0.18467706,0.27064413,-0.042744365
-0.10021198,-0.09669548,0.18941961,1.1763736,0.08618957,-0.028827813,0.28449824,-0.35343632,0.012524487,-0.1367226,0.36076346,-0.9746897,-0.35177332,0.43648297,0.16395557,0.45471358
-0.13183463,-0.20769507,0.111188315,0.8078984,0.04337954,-0.23734164,0.22305208,-0.29452032,0.010947169,0.09491501,0.40010512,-0.66239196,-0.33813363,0.48419496,0.03835635,0.062173165
-0.13536751,-0.25453842,0.12165878,0.77494633,0.07715316,-0.1261984,0.1558281,-0.12687974,0.24649188,-0.12251789,0.1953498,-0.0804197,-0.22077934,0.36359954,0.023152247,-0.4039879
0.1349327,-0.11172059,0.40000775,0.72481453,0.079626344,0.04202149,0.12104059,-0.095731206,0.36770168,-0.33869192,0.009489328,0.114908695,0.11682157,-0.0038111876,0.40007573,-0.7106977
0.12585787,0.22103487,0.40007374,0.6438738,0.14275093,0.2054255,-0.0027357612,-0.1441893,0.43470696,-0.41152263,-0.2456414,-0.04336533,0.0002508956,-0.07322395,0.40002495,-0.78879833
-0.14302163,0.14030483,0.15629886,0.9918233,0.17719051,0.12055002,0.26157862,-0.17790961,0.27673134,-0.35163847,-0.08080922,-0.75375444,-0.24443771,0.21879275,0.2210926,-0.3919187
-0.17474703,-0.024242422,0.11688783,1.0330255,0.0036014991,-0.065698296,0.37387186,-0.23875538,0.070786476,-0.101829916,0.22771318,-1.0052272,-0.27266154,0.48913312,0.20470715,0.21474469
-0.15728465,-0.19561085,0.10276525,1.3578691,-0.10580379,-0.20044567,0.30337846,0.017595503,-0.06619389,0.121324465,0.4000663,-0.83294946,-0.30018568,0.60870415,0.13543594,0.14581749
-0.20112544,-0.24004956,0.005623022,0.8378556,-0.097353965,-0.36858532,0.18820868,-0.11528293,0.1524141,0.10740226,0.39990336,-0.50823134,-0.28238544,0.63605535,0.0001295225,-0.315401
-0.1690284,-0.1253086,0.2473958,0.7574889,-0.036193967,-0.09664291,0.18105978,0.02116568,0.39315856,-0.1460418,0.10918315,0.04542578,0.06610647,0.39575756,0.24152118,-0.7609031
-0.022092734,-0.022686638,0.39104182,0.8713597,0.014773539,0.07343878,0.116093755,0.2506111,0.38098186,-0.31132877,0.017382313,0.1819614,0.31727988,0.013893267,0.4000112,-0.8919158
-0.08921242,0.15094087,0.3089429,0.86744034,0.07407773,0.1757007,0.11291838,0.45016074,0.35964772,-0.40916422,-0.14411555,-0.08325447,0.24540612,-0.15012527,0.40011317,-0.74031323
-0.24002424,0.068976924,0.1261551,0.93016464,0.04661099,0.05497319,0.19561179,-0.059340633,0.27861655,-0.38249382,-0.10241584,-0.47312355,-0.07456631,0.084594205,0.19969743,-0.5411668
-0.16952285,-0.14811683,0.15489101,0.9839536,-0.04158221,-0.08995573,0.37410325,-0.25517666,0.07868621,-0.113306016,0.23736036,-0.85135794,-0.16016638,0.35944843,0.16521949,0.074408196
-0.18727991,-0.2359936,0.0015567055,0.68511933,-0.08367884,-0.30028403,0.3292481,-0.16060331,0.059534505,0.054976024,0.40001258,-0.5108403,-0.18380687,0.43023247,0.050572127,-0.014105898
-0.15743415,-0.21661498,0.18593721,0.7198319,0.013488196,-0.18876472,0.14513928,-0.12090213,0.29968587,-0.1347254,0.20681034,-0.12284207,0.0084582195,0.27424973,0.18516333,-0.40228242
0.007145416,-0.1486518,0.37421784,0.7095615,-0.055938426,-0.00784791,0.1977764,-0.0747096,0.35886335,-0.30560154,0.2036167,0.042889327,0.28936592,0.018587632,0.40129396,-0.52732116
0.11522035,0.12091507,0.39611685,0.6906787,0.00024210913,0.16232075,0.10266197,0.0659168,0.39132452,-0.44068927,0.06915877,0.32316107,0.26916373,-0.22419032,0.4000012,-0.5518181
-0.08750026,0.38663375,0.3982069,0.71283776,0.11750405,0.2625674,-0.033800114,0.08508741,0.40328157,-0.5131409,-0.22682476,-0.23534212,-0.033286516,-0.17615087,0.39990848,-0.578694
-0.22868487,0.16910233,0.13296613,1.0300663,0.13955012,0.15311582,0.18873851,-0.06320661,0.2509436,-0.41354364,-0.004907656,-0.5649423,-0.22790557,0.12601395,0.2335782,0.0042668683
-0.17925827,-0.05144235,0.17369747,1.0894517,0.08153193,-0.037846353,0.29557514,-0.26343217,0.04430758,-0.11584895,0.30688283,-0.8754306,-0.31001875,0.3131993,0.11112605,0.5266701
-0.1602095,-0.17396818,0.118033536,1.051828,0.0652897,-0.25383398,0.20760722,-0.3209688,-0.042056285,0.09403841,0.3979553,-0.65293276,-0.37030667,0.38105747,-0.032808855,0.4054786
-0.14542231,-0.13895974,0.1793455,0.74067175,0.1101122,-0.19127657,0.08948561,-0.26337153,0.31216103,-0.15775508,0.047670804,-0.04792879,-0.10231956,0.14381638,0.1777678,-0.0063086567
0.048438303,0.03040355,0.40004304,0.7138455,0.13535511,-0.009690246,0.07148058,-0.40715143,0.31102738,-0.3448712,-0.0036657986,-0.18368044,0.1506215,-0.14570382,0.4001106,-0.39304626
-0.061127286,0.2697963,0.4000485,0.68816864,0.20514385,0.12818328,0.0035186713,-0.23321234,0.2865003,-0.4258607,-0.18898338,-0.6322718,-0.09135977,-0.022102822,0.39984676,-0.30858293
-0.19515584,0.067905135,0.14997569,0.9515154,0.16613303,0.024279721,0.27365077,-0.23969701,0.14457233,-0.33466482,0.0073098033,-1.082545,-0.2541385,0.29557687,0.22397433,0.16237259
-0.120773666,-0.18491344,0.18899198,1.1513897,-0.0048426534,-0.170917,0.33178106,-0.10166562,-0.08883203,-0.010063951,0.39832938,-1.004728,-0.34167543,0.47803348,0.11941947,0.32027298
-0.10278178,-0.29280072,0.05825549,0.9126199,0.066232756,-0.3696818,0.2078191,-0.37712917,0.05185483,0.09659952,0.4000602,-0.5665139,-0.3302192,0.4712174,0.014474177,0.026477663
-0.014985418,-0.28181884,0.2856783,0.7493708,0.0545924,-0.1449135,0.15724315,-0.45275056,0.31044504,-0.22252104,0.15805773,0.0055486886,-0.023645828,0.28678936,0.2387674,-0.4556825
0.11610636,-0.18299165,0.40005916,0.68414766,0.05345849,0.047427632,0.14396866,-0.2687369,0.3410533,-0.39420393,0.080473065,0.4134253,0.1331818,-0.0264386,0.40034106,-0.8893114
0.11046913,0.168073,0.40006843,0.53817254,0.120794035,0.15178075,0.059857074,-0.48704514,0.3455507,-0.47725183,-0.10758265,0.27954435,-0.062009204,-0.06268388,0.4000137,-0.89444804
-0.1269801,0.12901849,0.27822125,0.8818498,0.16398801,0.058202785,0.23273776,-0.26688972,0.2555617,-0.4203473,-0.074921526,-0.7069086,-0.28171718,0.2330158,0.2618627,-0.18885314
-0.21600783,-0.10924252,0.14950298,1.091849,0.020454356,-0.1340907,0.3430377,-0.23518036,0.049397964,-0.18705915,0.25823778,-0.79828364,-0.30330253,0.50885445,0.22178543,0.21531475
-0.15319453,-0.24391623,0.15647464,1.1027246,-0.07443482,-0.32169038,0.3386671,-0.20570678,0.032392178,0.038617693,0.40011537,-0.6998159,-0.37044764,0.5842269,0.039720252,0.11557293
-0.21788207,-0.3083893,0.04715361,0.81124884,0.028662145,-0.3383364,0.08773039,-0.14402041,0.26646686,-0.12683862,0.28770012,-0.19558825,-0.30508995,0.55370516,0.017942868,-0.36382502
-0.06779637,-0.22525182,0.3120597,0.83116263,0.00084831694,-0.088539116,0.1454955,0.12835093,0.38896707,-0.2572556,0.10848169,0.058604993,-0.05155873,0.33016792,0.27133954,-0.70883673
0.018050458,-0.07988003,0.3926337,0.8689005,0.025590966,0.08508442,0.103535295,0.32874137,0.4213915,-0.3696908,-0.00591164,0.21668866,0.18618707,0.030191602,0.40018252,-0.7975462
0.033726607,0.10212389,0.36941642,0.5722005,0.10054833,0.15739018,0.058563076,0.43679604,0.3698105,-0.4659524,-0.1402196,-0.014625932,0.21047187,-0.1621729,0.40035743,-0.952935
-0.07583726,0.15558477,0.21124537,0.8060165,0.16797617,0.107907474,0.060284413,0.045352805,0.32549113,-0.47560528,-0.21095438,-0.98794967,-0.06891495,-0.03661504,0.36732298,-0.67728895
-0.1404799,-0.05022167,0.11099781,0.9855879,0.109207764,-0.010224515,0.34296757,-0.08868394,0.13502595,-0.25158045,0.09163176,-1.2269659,-0.26642293,0.25337625,0.16014424,-0.13036993
-0.09925179,-0.19863221,0.09766445,0.97855586,0.037869766,-0.17948496,0.2746578,-0.3007859,-0.04237092,0.0766164,0.40014774,-0.95768535,-0.2826714,0.44558346,0.14535828,0.028508399
-0.10898967,-0.2905225,0.00060435326,0.7088712,-0.014151163,-0.3838578,0.2543274,-0.342069,0.11704965,0.09566582,0.40006498,-0.49744228,-0.32288042,0.45162165,0.087887704,-0.3521346
-0.09574235,-0.1976884,0.2840263,0.6309856,0.012298616,-0.20517571,0.1852431,-0.12829052,0.34073067,-0.1351617,0.16623376,-0.05659719,-0.018483143,0.28764063,0.28855368,-0.7086859
0.061001405,-0.053280964,0.4000547,0.63406175,-0.013911332,-0.029343227,0.21547516,0.19520003,0.3373826,-0.29842672,0.20784383,0.2507521,0.28728387,-0.015544158,0.40016696,-0.7220433
0.030906186,0.19895077,0.40001875,0.43666384,0.0086562475,0.030308697,0.20239955,0.21885853,0.3402845,-0.34082022,0.13593769,0.22332168,0.20949851,-0.17133766,0.40003037,-0.6651792
-0.17546561,0.30678067,0.3080779,0.22264804,0.11284661,-0.032217376,0.1877292,0.07797116,0.29001763,-0.33698276,0.14766929,0.17583293,-0.0414988,-0.073861204,0.35961172,-0.47545728
-0.15941787,0.19112635,0.2683183,0.30715552,-0.02097331,-0.21744351,0.29022995,-0.40649614,-0.011703888,-0.012983583,0.40034932,-0.35409456,-0.19039235,0.09247401,0.2830745,-0.21086735
-0.14984876,0.10518882,0.27782023,0.3940253,-0.021004798,-0.2055414,0.19050112,-0.20998545,0.07147188,0.0013658986,0.32558793,-0.24094693,-0.17847613,0.12004186,0.2514487,-0.09511661
0.039527535,0.05727226,0.40004897,0.3565501,-0.10096886,-0.16256388,0.26086566,-0.06282111,0.19497536,-0.05609637,0.24109326,-0.03622163,0.16465105,-0.09888673,0.40015092,0.028086176
0.07074263,0.14120838,0.40002006,-0.023408715,-0.18502901,-0.14966428,0.31791073,0.012831556,0.25930116,-0.07058543,0.22785592,0.07228116,0.4435695,-0.13637926,0.40010613,-0.09131709
-0.14454515,0.20593221,0.2905278,-0.22291447,-0.23241283,-0.05669931,0.32920566,0.32199094,0.32741117,-0.069502436,0.11947271,0.09390902,0.30239254,-0.04446857,0.38690576,-0.41795385
-0.10874657,0.24472512,0.25334993,-0.2958551,-0.35447684,-0.010515223,0.39734712,-0.13361084,0.013340536,0.14814483,0.33977744,0.04306536,0.06074645,0.13536176,0.3450539,-0.12747334
0.011672478,0.16798006,0.34625712,0.027748685,-0.46594074,0.20783946,0.39721534,-0.54362774,-0.27326941,0.2484502,0.4000608,-0.15969187,-0.016254809,0.25672653,0.33186108,0.53928995
0.072647125,0.121512026,0.34814408,0.29773074,-0.21637517,0.4090594,0.34174174,-0.65247077,-0.059651215,0.06355306,0.3861315,-0.7923709,-0.103406124,0.25666165,0.24733755,0.9899394
0.2739613,-0.008611372,0.3659935,0.07591759,-0.1764255,0.2861343,0.37302735,-0.75723326,0.12567332,0.0516214,0.30656272,-0.6512663,0.13699172,-0.024637988,0.40023443,0.9818251
0.3583055,-0.17231892,0.39999965,-0.18893905,-0.20315053,0.22370507,0.3958778,-0.7099315,0.11653067,0.034561276,0.3783918,-0.19298571,0.33170226,-0.14730635,0.4000379,0.5131779
0.2529704,-0.29308626,0.4000262,-0.4650682,-0.24780682,0.22511499,0.39570418,-0.2551276,0.16171916,0.03389056,0.35306296,0.21360536,0.4981308,-0.097954325,0.40000793,0.0849079
-0.0013970233,-0.15843701,0.40001658,-0.7334581,-0.2678883,0.30709866,0.37856585,0.23678917,0.26252815,0.046466872,0.17300707,0.4713959,0.2645792,-0.005382837,0.39989054,-0.20239396
-0.08767327,-0.029096706,0.29583356,-0.8442428,-0.23073834,0.22131614,0.3975245,0.10595154,0.13598044,0.04105745,0.20756699,0.55768424,0.004239357,0.14648199,0.31516168,-0.36503688
-0.011850695,-0.07119832,0.3513145,-0.5063287,-0.39153683,0.37276003,0.3992587,-0.13086173,-0.11951244,0.071469165,0.40006542,0.2951769,-0.06715423,0.2273991,0.27530056,0.3150321
0.037093643,-0.07527785,0.37895486,-0.18844293,-0.29191893,0.43178678,0.38872597,-0.6713794,-0.16666912,0.045311905,0.37507504,-0.5024986,-0.111998625,0.3134325,0.27989626,1.019211
0.08947667,-0.13500191,0.35803804,0.137449,-0.022463951,0.34510556,0.3581944,-0.6658523,0.08703848,-0.108914495,0.31751943,-0.7791791,-0.13123508,0.21353962,0.27695283,1.1213973
0.30209306,-0.29824707,0.39591616,-0.09663017,-0.033235043,0.27603492,0.3984045,-0.6615197,0.10824001,-0.13712765,0.36648792,-0.24624172,0.12302833,-0.021429451,0.39053753,0.55691725
0.28616112,-0.25302142,0.3994402,-0.47006777,-0.065979525,0.28059676,0.4072049,-0.2992658,0.16617753,-0.12973924,0.36985502,0.26758337,0.3377727,-0.036841605,0.3999616,0.13516039
0.060446158,-0.16897494,0.40003657,-0.857623,-0.07412382,0.26826754,0.34457675,0.09291636,0.22962463,-0.14979327,0.30952546,0.6625796,0.13030101,0.005559539,0.39981914,-0.34049848
-0.06333503,-0.03261542,0.33392832,-0.7769149,-0.05511505,0.13655154,0.38326192,0.08409918,0.17631927,-0.10027465,0.26002657,0.54201293,-0.16143042,0.13333221,0.27997094,-0.366765
0.036372468,-0.06714817,0.4049763,-0.37738204,-0.23709318,0.3475508,0.39996493,-0.38582447,-0.18050067,0.14019702,0.4000589,0.02097713,-0.22244257,0.25783697,0.323136,0.51775867
0.06896695,-0.112885825,0.38656256,0.083913885,-0.14838862,0.33218077,0.39797688,-0.5788706,-0.13113736,0.10283446,0.3972609,-0.6105715,-0.29092702,0.2715882,0.25670654,0.9857981
0.19975738,-0.15043731,0.40132937,0.30032486,-0.03702428,0.28677493,0.34570774,-0.62709564,0.16722824,-0.023502804,0.1992972,-0.76635224,-0.14323902,0.05886475,0.28441522,0.8271277
0.3340612,-0.27856338,0.40003136,-0.12616907,-0.06511425,0.3023523,0.40273577,-0.4081495,0.15756439,-0.09597464,0.2813833,-0.19432625,0.13373755,-0.13392666,0.4000481,0.67398304
0.29681626,-0.27891114,0.40000382,-0.4683804,-0.07932053,0.25352338,0.38850167,-0.12656002,0.16621092,-0.12193524,0.33562508,0.14412676,0.340615,-0.12790067,0.3997437,0.13017794
0.07752195,-0.20735061,0.40004033,-0.77984524,-0.111230455,0.28207764,0.389618,0.2623613,0.22396764,-0.15707915,0.30509079,0.437428,0.19289562,-0.06319778,0.39959705,-0.29051846
-0.066424556,-0.08074431,0.36151734,-1.0075302,-0.10877116,0.16530971,0.40019882,0.21915588,0.18152244,-0.14788766,0.23925489,0.5217191,-0.10128137,0.11261837,0.30641603,-0.4959254
-0.038465366,-0.08137605,0.3778897,-0.69930845,-0.30664405,0.3036383,0.39998806,-0.12603834,-0.1676748,0.050435223,0.40003774,0.11255712,-0.15958646,0.12772451,0.29098082,0.2487028
-0.016259076,-0.114007585,0.3932492,-0.18991286,-0.2545633,0.45889735,0.4005489,-0.4741478,-0.16147637,0.032333814,0.39778697,-0.47532684,-0.20916454,0.21890275,0.2565607,1.0823064
0.11997903,-0.18264905,0.4015636,0.34640166,0.009338591,0.29703134,0.2799912,-0.7020062,0.11297629,-0.10412689,0.2903903,-0.93363136,-0.10245525,0.027528584,0.3161109,1.0877349
0.31951573,-0.3650553,0.40002123,0.06596979,-0.07712487,0.2956888,0.40605175,-0.6114549,0.12353158,-0.19295552,0.39724794,-0.23872864,0.1692174,-0.19369961,0.40001532,0.47165388
0.32302427,-0.29893383,0.3828956,-0.39979884,-0.11792165,0.26977965,0.40009892,-0.26942864,0.19439588,-0.17791176,0.34107375,0.17757238,0.38859317,-0.16211696,0.39658064,0.07218525
0.026457053,-0.12697947,0.4003138,-0.68019706,-0.12400286,0.2882206,0.3358761,0.22073272,0.27634788,-0.19020595,0.23982956,0.51548064,0.14877836,-0.08804555,0.39982393,-0.29780445
-0.05147301,-0.024288906,0.3640477,-0.59226036,-0.111818224,0.17997597,0.3873949,-0.0995106,0.1386879,-0.07764797,0.27501357,0.26001993,-0.12737757,0.12497305,0.26240805,-0.14969644
-0.0018802875,-0.06553606,0.39899215,-0.17006965,-0.2492177,0.3085546,0.40010014,-0.40098092,-0.16268049,0.09619603,0.4001181,-0.03529733,-0.16811794,0.19595698,0.2729073,0.4538008
0.027995512,-0.1575158,0.389157,0.27153814,-0.045597278,0.29541704,0.3435748,-0.58112717,-0.021194024,-0.026713323,0.39897853,-0.7396289,-0.2670338,0.14431511,0.13286377,0.9446345
0.20051166,-0.13736755,0.38475418,-0.04859063,0.006477791,0.25681838,0.35548037,-0.52107996,0.16269267,-0.11450414,0.28963754,-0.5816566,-0.012805718,-0.11435934,0.34118125,0.7518314
0.39487702,-0.3415531,0.4000364,-0.18373598,-0.008247122,0.20983419,0.4027671,-0.44301334,0.13001046,-0.17534994,0.4025176,-0.032971133,0.3033584,-0.22122662,0.3999115,0.3386357
0.25360397,-0.18645298,0.40000972,-0.7028842,-0.013181938,0.20574065,0.36876968,0.09072863,0.17075275,-0.21499918,0.3585724,0.4668032,0.2754091,-0.15678097,0.3999865,-0.24234913
0.02224388,-0.042758085,0.36975464,-0.982628,0.0009914563,0.18043572,0.35446763,0.36794335,0.18991716,-0.24209344,0.2548624,0.5347032,-0.04481167,0.052679703,0.35922226,-0.53763974
0.05913171,-0.07853389,0.4098312,-0.51212716,-0.10363651,0.25383604,0.39877608,-0.16546465,-0.08791368,0.026833117,0.3999876,0.21582642,-0.16466945,0.13354933,0.26023853,-0.1816197
0.09325561,-0.10057868,0.39716887,-0.09562407,-0.18982665,0.38820004,0.39856327,-0.42866609,-0.21210314,0.13428852,0.39835367,-0.37068707,-0.22608335,0.26152104,0.23661649,0.83012134
0.16015318,-0.16241921,0.34353805,0.29574737,-0.0304024,0.27355146,0.307911,-0.68718916,0.05543437,-0.06402963,0.3120777,-0.77072287,-0.2576856,0.09760374,0.15416496,0.7624196
0.34165764,-0.2864646,0.38993663,-0.10964511,-0.061618168,0.26387545,0.4052144,-0.55861664,0.1154767,-0.10633457,0.2962998,-0.23183648,0.056624215,-0.14993866,0.39210382,0.60887235
0.35660806,-0.33731714,0.40003836,-0.4859881,-0.06558405,0.21941687,0.38808787,-0.2234387,0.11543693,-0.09920635,0.34119567,0.18101753,0.28580573,-0.14974198,0.39651027,0.05662983
0.15181157,-0.21874279,0.4000065,-0.7453165,-0.10593626,0.25816613,0.3975489,0.19610643,0.1827081,-0.1121837,0.29792464,0.4270746,0.19635053,-0.06199142,0.40003744,-0.22830811
-0.022708155,-0.14261205,0.3840312,-0.95914894,-0.107948534,0.25273237,0.37263632,0.35589033,0.24617018,-0.08665798,0.19728282,0.43238854,-0.056411147,0.089632265,0.39924294,-0.50279456
-0.034308814,-0.095540695,0.37264666,-0.79182404,-0.14528246,0.15802023,0.40002993,0.04161103,0.02568014,0.029547252,0.31646705,0.35057926,-0.18353115,0.13404419,0.30608362,-0.4356507
0.0032695676,-0.15023814,0.39851367,-0.19315502,-0.26248682,0.3957881,0.3576256,-0.34305847,-0.17601514,0.12844484,0.3896701,-0.11222134,-0.23512061,0.25897786,0.28405145,0.55091053
0.016240174,-0.15390958,0.3840606,0.119388536,1.4841823e-05,0.32224122,0.31986204,-0.5088048,0.03232,-0.028878959,0.3437494,-0.8210216,-0.2621516,0.18446371,0.2475075,0.8837586
0.22793493,-0.27605164,0.372252,-0.03763271,0.03737031,0.31172138,0.4080163,-0.38241068,0.037128747,-0.07552665,0.39002287,-0.14556327,0.046046156,-0.12564114,0.4001607,0.41902542
0.3363541,-0.30468914,0.3999279,-0.34045157,0.046675123,0.1597503,0.37318948,-0.23552838,0.05611509,-0.05955754,0.3660371,0.15241402,0.30943486,-0.16894473,0.40001714,-0.076232724
0.08686504,-0.17000678,0.40000632,-0.84047425,-0.009750972,0.2737342,0.38455373,0.37180844,0.19868968,-0.037877217,0.18919736,0.5915079,0.118667044,-0.034481037,0.39993748,-0.32494333
-0.09053346,0.05023531,0.3625571,-0.731859,-0.11305371,0.1776046,0.40002266,0.11642346,0.050819978,0.06664352,0.23366426,0.5650405,-0.14023511,0.105000846,0.2604327,-0.31433642
-0.012173634,0.018170496,0.3988293,-0.26752797,-0.28860718,0.36022046,0.40007144,-0.43112323,-0.25945318,0.16846654,0.40019035,0.007895434,-0.17361927,0.2322857,0.30238596,0.575933
0.040419046,-0.05457574,0.39846188,0.26786363,-0.19176598,0.45667005,0.36396965,-0.6764964,-0.17962763,0.10494707,0.3729405,-0.85854524,-0.23961069,0.28640178,0.23070873,1.2446896
0.20230314,-0.11457194,0.3773325,0.13674597,-0.11203154,0.39316756,0.33730093,-0.6422853,0.15493254,-0.009142276,0.18091886,-0.79127264,-0.052069165,0.07639886,0.3702562,1.060794
0.35041076,-0.24757348,0.40001726,-0.14839844,-0.13904436,0.2770055,0.39121312,-0.88080055,0.12193471,-0.03622222,0.30758625,-0.34929863,0.220606,-0.13151298,0.40002522,0.67419845
0.33175844,-0.30902478,0.40001824,-0.43340254,-0.1615059,0.263666,0.3978122,-0.52428734,0.13725698,-0.058230493,0.3484864,0.00042412314,0.38453498,-0.12273272,0.3982715,0.30587015
0.13352259,-0.34955427,0.40004188,-0.70150024,-0.20268969,0.2970344,0.40342733,-0.009785337,0.21558575,-0.05044505,0.31674793,0.55105907,0.30473003,-0.05779993,0.39984307,-0.21678552
-0.08580754,-0.18428731,0.38342193,-0.9894623,-0.17511475,0.30535033,0.38678372,0.27611315,0.2594484,-0.027415775,0.1766544,0.74664307,-0.00480452,0.05321131,0.40026602,-0.5299707
-0.055894595,-0.18354134,0.39973298,-0.72220665,-0.23303819,0.2560362,0.40005988,-0.095177956,0.06781895,0.16761206,0.38828704,0.32639378,-0.14021285,0.13065676,0.29008886,-0.2614517
-0.035672292,-0.26421693,0.39935082,-0.21876028,-0.3049997,0.44171762,0.40104276,-0.20111859,-0.072989896,0.18251213,0.4001696,-0.0007544722,-0.18956773,0.23796454,0.25377083,0.52382195
-0.033015747,-0.2556098,0.39149958,0.024492975,-0.21614191,0.37919855,0.40142292,-0.6546726,0.06541624,0.13487571,0.40011206,-0.5765627,-0.21726495,0.29739907,0.2143576,0.9358646
0.011342509,-0.2441655,0.39138827,0.085377716,-0.0050038123,0.34433904,0.35502282,-0.8696954,0.2690068,-0.019729018,0.34750023,-1.0083307,-0.23333615,0.20734006,0.18457118,1.0344541
0.27907285,-0.28287864,0.40006512,0.09249629,-0.032147758,0.24380083,0.4079964,-0.7933322,0.33029646,-0.05335161,0.40170574,-0.7656765,0.042156823,-0.08931566,0.39999437,0.69446176
0.3131627,-0.34848747,0.37513998,-0.679048,-0.034926746,0.23576002,0.38708785,-0.31985056,0.3399379,-0.17023617,0.38773775,0.2976572,0.31336966,-0.16437516,0.39207146,0.27054974
0.117139556,-0.28271252,0.40007418,-0.8812365,-0.029737031,0.2545529,0.36863703,0.10707656,0.3644968,-0.16792174,0.33235642,0.517399,0.2054165,-0.10847005,0.39991364,-0.27878946
0.031773567,-0.17878276,0.37649423,-0.87734336,-0.05336702,0.20377456,0.40011403,0.124678254,0.27521858,-0.13616255,0.25363955,0.385082,-0.112436116,0.09412238,0.25903618,-0.44600892
0.00019656414,-0.1579041,0.39156613,-0.5922564,-0.26352596,0.41609493,0.40011075,-0.08575717,-0.08270009,0.07493857,0.40017965,0.23221992,-0.13823476,0.17836973,0.23536772,0.3055386
0.00704258,-0.19399117,0.40186873,0.01904709,-0.25035885,0.5351477,0.40010697,-0.63282496,-0.068141,0.08690959,0.39998344,-0.5250087,-0.16649161,0.28924578,0.23745751,1.2086103
0.035814963,-0.19503616,0.37682113,0.24200888,-0.017757539,0.36410967,0.36917195,-0.93584657,0.16987298,-0.115384236,0.35174483,-0.86867756,-0.21433192,0.18057346,0.21012723,1.2179117
0.31842062,-0.28323612,0.40005028,-0.010885066,-0.011082618,0.22602925,0.39597297,-0.8052722,0.20949706,-0.14397825,0.4055144,-0.46266487,0.106583744,-0.14624126,0.39990288,0.7943321
0.3605024,-0.35346317,0.40001425,-0.45403746,-0.059697203,0.21806872,0.40090576,-0.4919731,0.25943342,-0.12650074,0.34254342,0.07303758,0.35026455,-0.11625622,0.40000632,0.25095868
0.14610308,-0.25589967,0.40003294,-0.99255013,-0.069434255,0.23958851,0.3653926,0.073664606,0.32053813,-0.12877774,0.25977597,0.44449994,0.21836536,-0.04684758,0.39968362,-0.30935633
-0.03740875,-0.03990195,0.38634235,-1.0461537,-0.15074037,0.12796642,0.38740352,-0.04779377,0.16400862,-0.1235081,0.28268462,0.42667186,-0.113161884,0.10477322,0.26696393,-0.44511962
-0.015648907,0.08556903,0.38054842,-0.55390817,-0.3708081,0.42049006,0.3144604,-0.4252523,-0.058597937,0.09665819,0.40015006,0.2089791,-0.094092615,0.14857943,0.3460635,0.16977023
0.059735227,0.030105727,0.39491075,0.28183907,-0.37083706,0.64826596,0.1536574,-1.1184279,-0.021976681,-0.050464287,0.3975055,-0.98799187,-0.16078377,0.20876074,0.30302733,0.9952768
0.17438023,-0.13579632,0.38989225,0.60704756,-0.15142111,0.49459478,0.28639728,-1.6901724,0.28007466,-0.12061823,0.32788575,-1.6018823,-0.100369915,0.13497992,0.32181382,0.92814684
0.35130647,-0.34159854,0.38368246,0.030011578,-0.22181611,0.37694824,0.40872222,-1.6510524,0.27066112,-0.092497736,0.42450774,-0.97886056,0.13921346,0.05301092,0.3992471,0.86150676
0.49062434,-0.54353786,0.37246552,-0.7231295,-0.12346189,0.1145429,0.39974397,-0.9772006,0.25923124,-0.11667564,0.37610513,0.0839184,0.37797397,0.115559205,0.39995658,0.33436534
0.34096965,-0.6162773,0.36360648,-1.6664767,-0.03360625,0.08549549,0.399939,0.072730005,0.20251323,-0.12768827,0.37435156,0.8163341,0.191243,0.30894065,0.36548924,-0.32351068
0.14532053,-0.33049726,0.40315288,-1.8207928,-0.20663218,0.28421354,0.36890224,-0.2716557,0.12271973,0.008867046,0.39082295,0.52085066,-0.052527346,0.18530229,0.2880655,-0.33006144
0.05156391,-0.03714749,0.39241198,-1.4489355,-0.441132,0.58514273,0.25162902,-0.54142934,0.019573612,-0.06369793,0.40014988,0.21795928,-0.001904584,0.080871016,0.34386042,0.08466088
0.1170695,-0.10250403,0.39562508,-0.121741384,-0.49501204,0.8070171,0.16209681,-1.1651503,0.02490364,-0.25573966,0.37125933,-0.86878,-0.050899882,0.084629,0.30171376,0.90900636
0.20971276,-0.23500142,0.37672174,0.5249705,-0.18325415,0.6359477,0.25937504,-1.9068123,0.27365193,-0.33288896,0.31378758,-1.5944966,-0.095904395,-0.048648197,0.23920554,1.1079671
0.39488855,-0.44633108,0.33947015,0.089534245,-0.18093082,0.4586257,0.41979975,-1.7992239,0.30393377,-0.16942564,0.38787258,-1.2499238,0.07682362,0.015316576,0.3794831,0.85979265
0.5736357,-0.696733,0.3976687,-0.48794627,-0.10511312,0.17272027,0.4015082,-1.2763411,0.31610334,-0.16632663,0.39876026,-0.0592409,0.37453368,0.1873437,0.3989146,0.3587607
0.3795864,-0.76891357,0.39998993,-1.5644422,-0.04585946,0.108175926,0.38974196,-0.5108164,0.2922212,-0.18031722,0.38773227,0.69494927,0.26929513,0.40735278,0.37318948,-0.29524747
0.07663475,-0.43254682,0.37107566,-1.9126455,-0.20998302,0.32817757,0.3905113,-0.3284508,0.18315874,-0.103906184,0.40953377,0.5670659,-0.055059623,0.23499161,0.23059319,-0.42233413
0.010128387,-0.278028,0.40584353,-1.0000268,-0.41036826,0.61824167,0.30141947,-0.7997341,0.067408465,-0.18625061,0.40001133,-0.017586047,-0.03010928,0.1781011,0.27636972,0.37568372
0.07052834,-0.24927019,0.4016892,0.09489232,-0.44650203,0.8478422,0.25100663,-1.2972656,0.104906164,-0.43609816,0.34891507,-1.0412335,-0.10842985,0.17675091,0.22376949,1.1513842
0.18199791,-0.37625965,0.36436218,0.44798818,-0.16251223,0.627657,0.32563406,-1.8228122,0.3570886,-0.43004915,0.31858647,-1.6721215,-0.15243353,0.03014119,0.26633725,1.182149
0.34636375,-0.5717207,0.38372907,0.1754674,-0.1422062,0.47961763,0.42909878,-1.7675422,0.35817555,-0.32692587,0.40198413,-1.4354379,-0.0031559435,0.043347694,0.40100518,1.2994605
0.50364244,-0.7378935,0.3710316,-0.552573,-0.02807556,0.1920465,0.39626786,-1.2910118,0.3712418,-0.29105908,0.40415832,-0.57290775,0.26839477,0.046022743,0.39365262,0.6398684
0.37865147,-0.7238574,0.39217603,-1.7194988,0.04119002,0.10768242,0.39303982,-0.3635766,0.34887257,-0.28944463,0.40105587,0.5937712,0.19184232,0.27159476,0.37291738,-0.371185
0.15546346,-0.42400512,0.40003476,-1.9058783,-0.13556717,0.22193691,0.3999516,0.065027826,0.2769703,-0.239672,0.41326195,0.67768204,-0.11869578,0.16548671,0.16860543,-0.8602492
0.038811814,-0.20030837,0.40508485,-0.814542,-0.30194142,0.5116883,0.22602265,-0.67285573,0.123471245,-0.17333713,0.40037283,-0.094303,-0.11954956,0.08805487,0.2251789,-0.03259804
0.09366428,-0.22126621,0.41731912,0.5313656,-0.28895837,0.74686694,0.16443855,-1.3412089,0.14842345,-0.45008904,0.3335582,-1.2399317,-0.18748972,0.06746579,0.16136508,0.94268006
0.30261788,-0.47987616,0.31450814,0.4715196,-0.066567004,0.460746,0.4265266,-1.843432,0.32137543,-0.33615097,0.3658035,-1.4660611,-0.07566079,-0.025546618,0.3164078,0.6119953
0.4780278,-0.683953,0.37039635,-0.010237241,0.05096499,0.1890752,0.40067044,-1.4806777,0.29182443,-0.29899237,0.39278516,-0.5411293,0.20036228,0.14395127,0.40105218,0.78690195
0.510792,-0.87511134,0.3235125,-1.3600672,0.12006902,-0.017347964,0.40063456,-0.42522103,0.30446705,-0.28852788,0.40746444,0.59327507,0.3451314,0.40405127,0.39908338,-0.13946983
0.20141193,-0.6226885,0.40002832,-2.152804,0.01919875,0.07037862,0.4000266,0.11079251,0.2552229,-0.31130612,0.34948006,0.43886513,0.017253289,0.38203827,0.21689166,-0.82253987
0.041713916,-0.31451386,0.38458773,-1.528426,-0.12833585,0.21419203,0.37159935,-0.24902011,0.17415677,-0.21933128,0.40005848,0.46665448,-0.042590212,0.239012,0.2265696,-0.5697169
0.07466817,-0.24126476,0.4080964,-0.30010217,-0.2855769,0.54562175,0.20382008,-1.1083994,-0.010325229,-0.35405993,0.3858205,-0.6342355,-0.15193553,0.24927935,0.22552592,0.6943178
0.17216049,-0.3434203,0.394946,0.82871956,-0.14713182,0.5329102,0.2971634,-1.6386316,0.23816684,-0.5040077,0.30963638,-1.54301,-0.21200769,0.14399578,0.177752,1.0522933
0.36382714,-0.56039697,0.3290718,0.21699737,-0.07243291,0.37857842,0.41731212,-1.6453872,0.30483526,-0.37596264,0.37906727,-1.0926586,0.0032133807,0.08725517,0.39933017,0.93493205
0.5120697,-0.7399804,0.3638246,-0.37741324,-0.021644032,0.16194281,0.39999086,-1.2018957,0.3164937,-0.35610846,0.38954642,-0.3577849,0.28085938,0.23125052,0.39062148,0.37660208
0.42785582,-0.8305456,0.3632093,-1.5270817,0.01704935,0.07175157,0.41252556,-0.3890776,0.3116277,-0.36385167,0.40646133,0.67504287,0.21961798,0.4511469,0.39291397,-0.60354304
0.12554398,-0.49077213,0.40004385,-2.1049447,-0.06996873,0.19581676,0.39998534,-0.043664534,0.25659436,-0.3026925,0.4160268,0.6025907,-0.115867205,0.29507086,0.19573884,-0.942343
0.039690685,-0.29257494,0.4056108,-1.1347605,-0.24444287,0.474847,0.31630567,-0.5811367,0.17419338,-0.16668865,0.39987096,0.092123695,-0.12525085,0.19890638,0.25770172,-0.14868127
0.06489501,-0.26797742,0.41393527,0.11810016,-0.31472686,0.7406709,0.2158017,-1.3223667,0.14573933,-0.4214524,0.34307006,-1.118734,-0.16936429,0.20951064,0.21009606,0.92487407
0.19741148,-0.42092213,0.3724643,0.64931995,-0.12179966,0.54710895,0.34658656,-1.8286452,0.4283313,-0.37214646,0.25891927,-1.628798,-0.11870963,0.07488437,0.28189534,1.2503158
0.39854565,-0.6662938,0.3519232,-0.04834214,-0.035333227,0.23191749,0.40393922,-1.5365189,0.3668241,-0.28315488,0.4015284,-0.91417444,0.14909588,0.007745545,0.3999164,0.81293523
0.48873383,-0.82481664,0.35624823,-1.0016344,0.015186483,0.043485254,0.4006151,-0.87394696,0.3769839,-0.31234902,0.4041216,0.26386052,0.38832986,0.18914153,0.3997065,0.016548386
0.16645533,-0.5664065,0.4162396,-2.085863,-0.059061415,0.14428307,0.39775896,0.18187879,0.30048794,-0.26795152,0.40167692,0.8417513,-0.01384404,0.23189057,0.26222217,-0.89707047
0.018321225,-0.34137246,0.4022128,-1.3664271,-0.21981618,0.3986456,0.27641833,-0.21698949,0.25250754,-0.13925749,0.39801976,0.4265918,-0.081602216,0.09355089,0.21061006,-0.4475974
0.02470147,-0.24615999,0.41074747,-0.086020015,-0.33760983,0.71388197,0.12397235,-1.0970966,0.13321385,-0.36343676,0.36694935,-0.8125684,-0.11562985,0.063531645,0.17512889,0.67228323
0.09585954,-0.30456775,0.39414877,0.8625918,-0.1228319,0.650265,0.23875342,-1.7585568,0.34909028,-0.48827523,0.31876597,-1.6014146,-0.13912013,-0.010059628,0.10738798,0.93247896
0.2818782,-0.5234881,0.34244788,0.41550237,-0.032172963,0.433158,0.4338082,-1.9080263,0.4069025,-0.33628833,0.4134857,-1.5258299,-0.02538349,-0.043775823,0.3356123,1.0879809
0.42853907,-0.6989514,0.37771878,-0.5460188,0.05631434,0.21295327,0.4052183,-1.2730832,0.41702214,-0.32249734,0.39867193,-0.4529029,0.29431906,0.10438541,0.39515093,0.3818449
0.36870185,-0.7537801,0.35861295,-1.6014792,0.10382516,0.096031204,0.39871106,-0.37732092,0.4182864,-0.31774715,0.40213007,0.6480886,0.24336372,0.33508915,0.3715889,-0.46062994
0.12521158,-0.47191873,0.4046461,-1.7592086,-0.039339982,0.20994627,0.40022105,0.012118774,0.3473802,-0.2926775,0.3845102,0.62705904,-0.0358993,0.3027702,0.19764566,-0.80021375
-0.0144201955,-0.22599757,0.40336236,-0.8692769,-0.25745797,0.5497792,0.2207452,-0.60680777,0.1280889,-0.19207333,0.400151,0.056054614,-0.09637685,0.17619976,0.21310967,-0.13469052
0.033538375,-0.28712195,0.40855217,0.29348406,-0.24823976,0.76109445,0.14918734,-1.350443,0.048209626,-0.4148126,0.35114846,-1.1541985,-0.18895367,0.19731057,0.15107173,0.88514656
0.14650655,-0.42198148,0.36628464,0.58202535,-0.029133985,0.51793706,0.28635818,-1.6817447,0.26106128,-0.43862027,0.32385725,-1.5933418,-0.20189498,0.040176034,0.20575747,1.3004212
0.3839385,-0.7059812,0.31954667,0.048220698,0.035141986,0.23968546,0.39698336,-1.5665405,0.31154314,-0.33230218,0.39936,-0.9461508,0.08784753,0.055335283,0.40026462,0.94648516
0.4715833,-0.84332323,0.28484467,-1.0842044,0.09822853,0.019084025,0.40154824,-0.91388875,0.33816314,-0.38809663,0.40760806,0.3133649,0.3603188,0.24367875,0.3913341,0.06371109
0.20452306,-0.67197144,0.38955036,-2.1432316,0.032925714,0.08338985,0.3999926,0.21153305,0.2937444,-0.3996531,0.40163645,0.7981231,0.041631952,0.3662529,0.25573298,-0.9181928
-0.024540989,-0.3321705,0.40005586,-1.5501972,-0.14346792,0.3302645,0.30946934,-0.08407224,0.197285,-0.18722391,0.4001708,0.44353557,-0.067876734,0.20685795,0.20765053,-0.56617194
-0.10537844,-0.104851246,0.40455884,-0.8673077,-0.33281174,0.6368216,0.1533466,-0.71280974,0.057937115,-0.25544953,0.39786685,-0.29587713,-0.07599354,0.17656672,0.27068692,0.2368836
-0.04774219,-0.1567239,0.4044832,0.23513238,-0.32815257,0.8695275,0.115850516,-1.388886,0.10082431,-0.49792394,0.3817581,-1.4358658,-0.16093183,0.1376417,0.1905821,1.025263
0.1095208,-0.35837168,0.33963186,0.38363817,-0.025104733,0.60319597,0.3083459,-1.9117852,0.25884086,-0.40280232,0.4045828,-1.7789931,-0.17391461,-0.055463627,0.3061039,1.0760391
0.3264938,-0.6061476,0.36598048,0.06957066,0.12587012,0.32374972,0.40450653,-1.713849,0.33219936,-0.39724746,0.43370688,-0.9830842,0.09504808,0.0091724,0.39969194,0.73001087
0.49042723,-0.79799384,0.34851044,-0.6935222,0.2447174,0.043055248,0.39455718,-1.060885,0.37360385,-0.39221635,0.3892014,-0.05245177,0.38024125,0.13385198,0.40007484,0.15525685
0.34137228,-0.67947334,0.36646485,-1.7272613,0.1913736,0.047855426,0.40066987,-0.039702334,0.34979716,-0.36130872,0.40247145,0.631122,0.1395251,0.32853472,0.35292134,-0.51332664
0.08442345,-0.32153928,0.4000328,-1.5096819,-0.018235741,0.3124873,0.33115476,-0.32866493,0.2869435,-0.12695685,0.38329026,0.32802093,-0.13055462,0.082370274,0.14361948,-0.53863573
0.0005476755,-0.16889337,0.38977605,-0.6426525,-0.18323861,0.58876747,0.1492327,-0.8714174,0.085086495,-0.24019916,0.39052978,-0.41509157,-0.1094632,0.08747045,0.1748435,0.3042437
0.079146974,-0.27117142,0.37615725,0.5357525,-0.03380945,0.580318,0.2175936,-1.7218711,0.17417637,-0.4638356,0.29416916,-1.5313925,-0.20324036,0.024584655,0.09553416,0.9209421
0.26729503,-0.50199574,0.2799567,0.41642946,0.04582965,0.3792431,0.40819153,-1.7964728,0.27010325,-0.3184894,0.37738428,-1.3092262,-0.12423095,-0.048960574,0.2935082,1.0215449
0.42286688,-0.69881874,0.28102267,-0.29173425,0.13844404,0.16576657,0.40470174,-1.3456457,0.27182958,-0.30395314,0.3854001,-0.5164889,0.18319933,0.14141224,0.39473593,0.42917964
0.49508095,-0.8393599,0.27790436,-1.2407622,0.19529799,0.015642472,0.40274787,-0.8203404,0.25475457,-0.27679637,0.40069768,0.39614636,0.34455445,0.38903812,0.38158286,-0.15934956
0.20103651,-0.58873904,0.4000319,-1.9650878,0.08655365,0.13030748,0.3977199,-0.09085392,0.20446302,-0.19824538,0.40023443,0.75075954,-0.010262933,0.33726785,0.1907416,-0.5763894
0.01249399,-0.2931482,0.3883899,-1.4058546,-0.12812087,0.44342196,0.33528695,-0.43532625,0.19109139,-0.015876116,0.40034664,0.26618353,-0.04015559,0.19023171,0.26862866,-0.30578718
0.01649889,-0.17956191,0.41180566,-0.49972323,-0.28517628,0.7160077,0.18302797,-0.9710027,0.06449622,-0.20624216,0.4000143,-0.43205488,-0.095056005,0.20332475,0.2809194,0.5290035
0.06653651,-0.2197389,0.39634028,0.5577689,-0.1888985,0.72014356,0.23912123,-1.5970042,0.20405048,-0.4523613,0.30243656,-1.4248735,-0.18631956,0.15467867,0.23655832,1.2193371
0.25591937,-0.42550477,0.36592734,0.45243984,-0.13295348,0.5285558,0.4207622,-1.7734218,0.3486995,-0.31814337,0.35618243,-1.5939846,-0.043717526,0.065304816,0.3331439,0.83164215
0.43183282,-0.633846,0.38972595,-0.029456671,-0.034343805,0.27966356,0.40004906,-1.7531867,0.3075383,-0.3183547,0.40117717,-0.74052185,0.18665859,0.03547193,0.40012634,0.67113847
0.5047562,-0.8593861,0.39779654,-1.3766675,0.048461232,0.041153807,0.40029576,-0.6121932,0.3115585,-0.33566537,0.39870724,0.55120426,0.35600397,0.30789992,0.37611493,-0.10948807
0.22221094,-0.60996497,0.4000612,-2.0536244,-0.013429539,0.11574626,0.39984208,0.100758426,0.23970024,-0.30297217,0.40326795,0.63638234,0.0148078855,0.29900813,0.25039297,-0.9020651
0.072266534,-0.35537076,0.40022683,-1.5609998,-0.18769048,0.363209,0.34208232,-0.15212105,0.20711797,-0.16218187,0.4002414,0.41422078,-0.049304873,0.14065953,0.22010855,-0.49604332
0.036565892,-0.15478086,0.39635435,-0.7604362,-0.3280528,0.6000669,0.22583021,-0.7631678,0.059200447,-0.29531947,0.4001664,-0.1395349,-0.028474942,0.12516946,0.26302314,0.29302755
0.12669408,-0.24402638,0.4031329,0.44053298,-0.2536026,0.7626139,0.23909561,-1.4664782,0.09963684,-0.54442453,0.33211493,-1.2958702,-0.13193089,0.11452278,0.18428421,1.1306701
0.26032278,-0.43564364,0.36762694,0.492836,-0.08436872,0.5467184,0.38846698,-1.6628642,0.31378603,-0.40814993,0.34817883,-1.5947734,-0.08584802,-0.053534154,0.282815,1.0451422
0.4882966,-0.6969023,0.38462162,-0.093057096,0.019957928,0.188247,0.39907652,-1.3807985,0.29185006,-0.3493887,0.40678108,-0.6108063,0.2079656,0.08658031,0.39981434,0.7378739
0.5366868,-0.8654518,0.36664498,-1.152772,0.06356647,0.03733532,0.40237355,-0.66708624,0.30379516,-0.34607783,0.4010907,0.43056008,0.35983035,0.3165587,0.3997542,-0.07179704
0.2071264,-0.5820715,0.41960445,-2.1365547,-0.05880489,0.12319608,0.38599038,0.09505755,0.2543876,-0.32828724,0.41304928,0.7282078,-0.03774479,0.28973335,0.23483975,-0.66761476
0.054213688,-0.2937821,0.4036323,-1.427136,-0.23803835,0.3970539,0.29956266,-0.32642168,0.21237172,-0.18086345,0.40001297,0.335473,-0.061543386,0.17604643,0.25832683,-0.32664227
0.04278984,-0.1618267,0.39666167,-0.81439996,-0.3916476,0.6390014,0.19654606,-0.7595992,0.077409536,-0.31431535,0.40000537,-0.32078543,-0.08725353,0.1212987,0.24030986,0.36412415
0.109266356,-0.22670859,0.38126743,0.45751092,-0.18096004,0.7281053,0.23095159,-1.6928537,0.21106018,-0.5383643,0.323124,-1.6258357,-0.1541109,0.07808582,0.1598789,0.99213
0.3064669,-0.48027775,0.3288938,0.2960784,-0.0289953,0.49815768,0.3936821,-1.7526243,0.32556054,-0.415888,0.40210783,-1.4754868,-0.042400375,-0.0091773765,0.36018282,1.0469553
0.4883611,-0.6799025,0.4000526,-0.2226196,0.0796211,0.2037552,0.40220946,-1.257048,0.32115412,-0.32782692,0.3731139,-0.5464187,0.21631119,0.10545314,0.40023947,0.5547892
