ancorasir/BennettWheelLegRL/experiment_data/2024-02-13_04-14-08/joint_torque_env0.csv
Joint_1,Joint_2,Joint_3,Joint_4,Joint_5,Joint_6,Joint_7,Joint_8,Joint_9,Joint_10,Joint_11,Joint_12,Joint_13,Joint_14,Joint_15,Joint_16
0.0,0.0,0.0,0.0,0.0,0.0,0.0,0.0,0.0,0.0,0.0,0.0,0.0,0.0,0.0,0.0
-0.07319933,0.7310575,-1.9120395,1.399625e-06,-0.52072483,0.6447245,1.7520552,0.00033602281,0.09987859,0.54066896,-1.7186279,0.0009604177,-0.72899544,0.7152597,1.8461399,0.023440165
-5.0,5.0,-4.840411,-10.0,-5.0,3.0880356,1.3627436,-0.1358793,3.4130878,0.03519714,5.0,-9.152969,-5.0,0.58856666,-3.7261462,5.0
-5.0,5.0,-2.6871214,0.12702267,0.17380285,2.9386916,2.0537257,-0.29630086,-0.0057432353,-5.0,5.0,2.6763523,-3.229018,-5.0,-0.045330763,5.0
-1.5495565,5.0,-3.8065064,-0.34563828,5.0,-1.8766983,-1.1600132,-0.17037557,5.0,-3.159616,3.4436245,-4.22497,-2.0326214,-5.0,2.2914963,5.0
1.1654153,-5.0,1.0055926,0.45379218,5.0,-5.0,-5.0,-3.9387126,2.2039013,5.0,-5.0,-5.9079685,4.20417,3.6341782,4.1376867,-1.5065794
0.42386842,-5.0,4.182184,-0.23017934,5.0,-5.0,-5.0,5.0,2.007554,5.0,-5.0,4.639815,0.661548,5.0,5.0,-0.71154183
-2.5240183,0.12076914,0.46414247,0.114037305,5.0,-5.0,-5.0,5.0,4.9567075,5.0,-5.0,1.0014021,-1.8180842,5.0,5.0,-1.2904938
-5.0,5.0,-5.0,0.5480375,-0.06556231,-5.0,2.4035594,-4.251449,1.5548997,5.0,0.11704409,-0.43793818,-3.2320948,3.75729,-0.99417436,-0.1336287
-5.0,5.0,-5.0,1.7543739,0.6627512,-0.11268377,0.42676216,-0.08482081,-2.6271348,-4.699012,5.0,-0.44596386,-1.6530901,-5.0,-5.0,-4.0878725
-5.0,5.0,-5.0,0.91418207,3.4994712,-5.0,-3.76712,1.4798666,2.8863451,-5.0,1.0389014,-0.3428793,-0.62503827,-5.0,0.47429973,5.0
3.7114794,-1.7227703,-0.11487901,-0.01775658,5.0,-5.0,-5.0,1.6326962,3.6310058,5.0,-5.0,-5.8469553,5.0,-5.0,0.74325323,-0.3777594
-0.5472245,-3.5758588,5.0,-0.3077369,5.0,-4.819776,-5.0,4.7069616,3.4004085,5.0,-5.0,-9.325575,2.7080472,5.0,5.0,-0.73255515
-4.1199603,1.598449,-1.2729611,-0.31654558,5.0,-5.0,-5.0,5.0,5.0,5.0,-0.7916967,-10.0,-0.49052215,5.0,3.1832526,0.15606873
-5.0,4.2243843,-5.0,-4.015909,-5.0,1.6021944,4.5918226,-1.3443959,-2.0571167,3.9540098,4.586497,1.8484122,-5.0,-1.7678803,-5.0,-5.0
-5.0,5.0,-5.0,-6.5109644,0.5238908,-0.020715298,1.60209,0.03408385,-1.3436922,-2.99468,5.0,-1.1852813,-4.436314,-5.0,-5.0,-4.6702538
-2.1289062,4.8812895,-4.6286497,-1.981293,5.0,-5.0,-5.0,1.3034362,3.6114416,-2.1299934,-0.58527255,0.38484076,1.5548439,-5.0,3.8109546,-2.1192555
1.7407068,-4.404131,4.5742326,0.98787296,5.0,-0.94863886,-5.0,5.0,5.0,5.0,-5.0,-3.8167353,5.0,0.5456703,2.1402106,-2.0985951
0.71085453,-3.8526587,4.428952,-0.15854944,5.0,-5.0,-5.0,-5.0,5.0,5.0,-3.3955956,10.0,2.261582,5.0,4.8759866,-0.30379218
-5.0,3.222006,-5.0,0.72000045,5.0,-5.0,-1.3328991,-0.2595334,5.0,5.0,-0.6548104,-5.7820845,-2.3905163,5.0,2.668727,0.36888793
-5.0,5.0,-5.0,8.217736,-5.0,2.7426429,3.867046,0.5197205,-2.6782923,2.8112655,1.7102735,0.3374123,-5.0,-2.3929374,-5.0,1.803174
-5.0,5.0,-5.0,10.0,-0.99470603,4.248685,2.3121283,0.022635125,-3.4338818,-5.0,5.0,-0.67557245,-3.0719628,-5.0,-5.0,5.0
2.5640054,0.14617598,0.02513653,10.0,5.0,-5.0,-5.0,2.47551,5.0,-1.7631912,-5.0,1.8208752,4.2538376,-5.0,1.8933654,5.0
1.8289154,-3.6173406,3.810434,0.43226784,5.0,1.1037431,-3.2437577,5.0,5.0,5.0,-5.0,-7.537574,5.0,-0.04170108,1.6417004,0.17830427
-1.5208648,-0.51088715,1.9579107,6.553305,5.0,-5.0,-3.6630952,-5.0,5.0,5.0,-3.7852106,-9.908106,1.3564186,5.0,5.0,-1.1242441
-5.0,5.0,-5.0,-1.2065324,4.747941,-5.0,-0.050055385,-1.8184017,4.4071064,5.0,-2.1526718,-8.975837,-3.0532045,5.0,1.1342915,-0.27462322
-5.0,5.0,-5.0,-10.0,-2.8197398,3.2701013,3.106062,-0.057918265,-4.84839,-2.0321617,4.811953,0.74915916,-5.0,-5.0,-4.7300406,4.6948757
-5.0,5.0,-5.0,1.5908816,-0.15846348,-0.0009227991,1.886976,-0.12511344,0.2525995,-5.0,5.0,-0.17415196,-5.0,-5.0,-2.2428849,2.2079911
5.0,-5.0,5.0,1.9090966,5.0,-5.0,-5.0,-5.0,5.0,5.0,-5.0,0.92752355,5.0,-5.0,-0.67193115,-2.289628
1.5596312,-5.0,4.284846,-0.67694294,5.0,-3.9929652,-5.0,-5.0,3.8476186,5.0,-5.0,10.0,5.0,1.4959328,2.6664257,-0.111424014
0.34874964,-4.694949,5.0,-0.20950943,5.0,-5.0,-5.0,-3.9471078,2.913003,5.0,-4.8542185,-1.753104,-0.24119425,5.0,5.0,-0.27135858
-5.0,4.007274,-4.565228,0.32787922,4.263041,-5.0,-2.6390417,-5.0,5.0,5.0,-1.9456323,-2.986415,-3.025685,5.0,1.423138,0.8320873
-5.0,3.787272,-5.0,-3.2145889,-4.499287,0.8427545,2.527593,-0.43637395,-2.7749507,1.5101029,3.202867,0.41492265,-5.0,-2.3543344,-5.0,-1.4393828
-5.0,5.0,-5.0,4.692561,5.0,-1.4220462,-1.2366483,0.29660603,-0.4444214,-5.0,3.9116073,-0.37944618,-2.6529343,-5.0,-2.2932587,-2.985375
-0.5098288,4.3420367,-2.1321201,7.647047,5.0,-5.0,-5.0,-5.0,5.0,4.1436934,-4.4401083,0.6728806,5.0,-5.0,0.65022516,-0.60985947
3.8641376,-3.8934536,5.0,0.27912912,5.0,-0.92085105,-5.0,5.0,2.8561053,5.0,-5.0,10.0,5.0,1.5421963,3.3592749,-0.74595356
0.23825645,-5.0,5.0,-0.22598098,5.0,-4.514408,-5.0,5.0,5.0,5.0,-4.518964,10.0,2.311943,5.0,5.0,0.3530934
-4.7083564,1.4025041,-1.6853033,-0.779289,2.942976,-5.0,-3.230496,4.0943227,2.4527817,5.0,-3.1708395,-3.6757104,-5.0,5.0,2.8688285,0.062246963
-5.0,5.0,-5.0,6.201088,-5.0,1.2043165,5.0,-5.0,-5.0,-2.7752957,5.0,3.9498043,-5.0,-5.0,-2.9959118,5.0
-5.0,5.0,-5.0,-0.6002264,-0.9786765,2.1105113,2.1242423,0.2758173,-1.4601617,-4.159498,5.0,-0.27500075,-4.310109,-5.0,-5.0,5.0
1.8901963,2.3728805,-4.9382663,2.7181435,5.0,-5.0,-5.0,5.0,5.0,-1.2049272,-5.0,3.1342616,4.520437,-5.0,4.3889074,-0.7234639
3.8426983,-3.3915792,1.3966386,-0.47848892,5.0,-5.0,-5.0,-4.427266,2.729287,5.0,-5.0,-9.978826,3.765594,-2.4009016,5.0,0.6176683
-0.7436545,-2.9034574,5.0,0.028426101,5.0,-5.0,-5.0,-3.7722483,5.0,5.0,-1.8549926,1.9922211,-0.22225654,5.0,5.0,-0.80547106
-5.0,4.193608,-4.3386564,0.3346188,0.4322103,-5.0,-1.1477553,-1.3907743,0.11859703,5.0,2.779327,1.9359782,-3.8647342,5.0,0.6815233,1.5332317
-5.0,5.0,-5.0,-1.2474875,-1.47808,1.654257,1.5780013,-0.030462243,-3.1449022,-2.4387689,5.0,-0.49396607,-4.1426845,-5.0,-5.0,3.8414655
-5.0,5.0,-5.0,-5.36636,5.0,-1.5653872,0.020196319,-0.38263673,0.5442034,-4.9078946,2.1456628,0.63561136,-4.393206,-5.0,-1.7106143,-5.0
5.0,-1.9787362,1.7736555,4.717774,5.0,-5.0,-5.0,-5.0,4.5151725,5.0,-5.0,1.2338347,4.788771,-5.0,0.36207557,-0.5608698
1.7991848,-4.793872,5.0,0.060215417,5.0,-5.0,-4.9712667,-3.623866,1.3179963,5.0,-5.0,-8.236056,1.3833231,4.2127647,5.0,-1.5199906
-0.12647748,-3.6597426,4.6691318,0.0071563534,5.0,-5.0,-5.0,-4.3973417,4.7366796,5.0,-2.4367657,-3.0644763,-0.71413887,5.0,5.0,-0.13166124
-5.0,3.28154,-4.0716505,0.5746137,5.0,-5.0,-1.0408105,-0.58468103,2.1581721,5.0,-1.0990688,10.0,-3.690006,5.0,0.73416257,0.6698492
-5.0,5.0,-5.0,1.1701434,-0.0876627,2.1012886,1.8389841,0.5024419,-4.1441584,-0.9866214,5.0,0.023847725,-3.3720882,-5.0,-5.0,2.3056989
-5.0,5.0,-5.0,0.18799758,3.1985612,-1.7427868,0.86211723,-0.016688913,-0.35850376,-5.0,3.0230563,0.2807101,-3.0894232,-5.0,0.2866063,5.0
5.0,-4.3237376,1.0009282,0.25236407,5.0,-3.87897,-5.0,5.0,2.756395,5.0,-5.0,10.0,4.316925,-5.0,1.2084235,-0.25831723
1.8244994,-5.0,5.0,-0.804409,5.0,-5.0,-5.0,-5.0,-0.73812914,5.0,-5.0,-7.407764,-0.047810137,4.541019,5.0,-0.61298543
-5.0,-0.6334613,1.1403028,0.09699471,3.684002,-5.0,-2.0568917,-2.762588,4.946083,5.0,-1.3014172,-8.298248,-5.0,5.0,1.5813618,-0.31084752
-5.0,5.0,-5.0,1.251129,-5.0,0.5011606,2.3896635,-0.25242093,-2.9906654,1.9547671,5.0,0.18726571,-1.9487001,-5.0,-5.0,5.0
-5.0,5.0,-5.0,10.0,0.0896734,-0.6161623,1.8606671,-1.8980205,-0.6982396,-5.0,5.0,-0.15462542,-2.1134458,-5.0,-5.0,4.437608
-5.0,5.0,-5.0,-5.999202,5.0,-5.0,-3.7294774,0.333344,1.4900149,-5.0,1.3471546,0.55012685,-0.68959737,-5.0,0.812833,1.2457716
1.5926579,-3.4091203,1.2366679,0.96436405,5.0,-2.207532,-5.0,5.0,2.822703,5.0,-5.0,-3.773384,5.0,-3.8937583,2.3365688,-0.30221856
0.27991235,-4.0133667,5.0,-0.009645731,5.0,-3.5999184,-4.1315794,5.0,2.2771902,5.0,-5.0,-0.08092487,5.0,5.0,5.0,0.4772885
-4.015913,0.979709,-0.34094524,0.33747047,5.0,-5.0,-4.9641914,-5.0,5.0,5.0,-3.4487085,-2.59832,-2.5826316,5.0,4.760131,0.017697431
-5.0,5.0,-5.0,1.3145944,-1.9721864,-0.3054458,1.6560737,3.1033185,-1.7782736,5.0,2.9573848,3.0223687,-5.0,2.1911886,-2.8542693,-0.078599766
-5.0,5.0,-5.0,-4.150791,-1.3163407,1.1820568,1.8540051,2.4493377,-0.13384283,-4.121278,5.0,-0.028546624,-3.687557,-5.0,-5.0,4.11517
-0.5715117,4.0000477,-0.6180763,5.2557893,5.0,-4.747414,-5.0,0.94673675,4.912159,-0.6782737,-0.50209284,0.22670892,4.16221,-5.0,-1.2093706,-2.0525777
1.754443,-5.0,4.3899264,-1.2360653,5.0,-2.775895,-5.0,-5.0,5.0,5.0,-5.0,-0.043975353,5.0,0.29822585,2.2057347,0.67121005
0.041676044,-3.9897223,5.0,0.17876168,5.0,-5.0,-5.0,-5.0,3.3677552,5.0,-5.0,-7.5774302,0.443376,5.0,5.0,-0.20221211
-4.270698,2.835656,-3.3838215,0.24821453,5.0,-5.0,-4.0718102,5.0,5.0,5.0,-0.69747233,10.0,-2.1826377,5.0,3.6153667,0.04086292
-5.0,5.0,-5.0,-1.8696675,-2.8118725,4.4769607,2.302049,-5.0,-3.6587477,-1.3023912,5.0,-0.71726006,-3.862298,-5.0,-5.0,5.0
-5.0,5.0,-5.0,4.777115,3.3732872,-0.28159797,0.82535684,-0.055819884,0.68544066,-5.0,4.524691,0.052263707,-3.0859857,-5.0,-1.3764157,1.1582211
4.945623,-0.22355372,0.22293913,0.4138704,5.0,-5.0,-5.0,-5.0,3.0970588,5.0,-5.0,1.0499732,3.9295564,-5.0,1.244555,0.37764734
2.1363869,-4.804951,5.0,-0.4522686,5.0,-3.567309,-5.0,-5.0,2.694975,5.0,-5.0,-2.14572,5.0,4.0481524,4.341942,-0.09213096
-2.3325608,-2.0432222,2.6524909,-0.29750156,5.0,-5.0,-5.0,-1.5230454,5.0,5.0,-4.011301,-8.226911,1.1449385,5.0,5.0,-0.8612207
-5.0,5.0,-5.0,-7.2806125,3.9517193,-5.0,0.017411947,-2.1239424,3.3316352,5.0,-2.4455776,-5.134779,-3.7657595,5.0,0.59597075,-0.11667641
-5.0,5.0,-5.0,-6.764593,-4.348654,1.9151706,3.715386,0.19585031,-3.8509068,1.3845327,3.6273966,0.26605102,-5.0,-5.0,-5.0,-4.8076143
-5.0,3.997099,-1.659003,-10.0,0.12512374,-0.04358837,1.0185971,3.5837703,-0.8069992,-5.0,5.0,0.079091616,-4.924736,-5.0,-3.6166635,-1.182043
5.0,-2.1691623,0.9478836,-10.0,5.0,-5.0,-5.0,-5.0,4.3770533,5.0,-5.0,5.5229826,5.0,-5.0,4.5624747,-0.97227204
-1.169655,-3.8314734,3.7662618,-1.5582695,5.0,-4.187274,-5.0,-5.0,3.0006688,5.0,-5.0,10.0,5.0,3.5021734,5.0,4.223958
-0.2553823,-1.4246335,3.3917813,0.4062892,5.0,-5.0,-5.0,-5.0,5.0,5.0,-4.3058066,-10.0,0.46268168,5.0,5.0,-0.5849872
-5.0,5.0,-4.972538,0.21233058,-1.0291798,-0.6979297,0.68995345,0.059786875,-1.1408134,5.0,1.3867728,-0.03638841,-5.0,-0.12775457,-3.0265465,-0.50434655
-5.0,5.0,-5.0,-5.073712,-1.2715586,2.2430878,3.5677128,0.6921325,-2.9588332,-3.5395606,5.0,-1.3670608,-5.0,-5.0,-5.0,-0.5079746
0.32374248,5.0,-3.3397348,-1.6713183,5.0,-4.974147,-5.0,5.0,5.0,-0.12365234,-4.9983983,0.11832111,5.0,-5.0,1.113426,1.5304395
2.2855759,-2.54848,3.554275,0.5272971,5.0,-1.7532071,-5.0,1.9128022,4.513053,5.0,-5.0,-9.026123,5.0,-0.22632504,0.9828017,0.009128496
-0.4918114,-3.4766874,5.0,-0.15157929,5.0,-3.686668,-5.0,5.0,5.0,5.0,-4.341145,-9.312746,2.0126014,5.0,5.0,-0.6998827
-5.0,5.0,-5.0,0.47255346,1.9741323,-5.0,1.1671548,5.0,1.8499746,5.0,0.49324596,10.0,-5.0,5.0,-0.14817178,1.430056
-5.0,1.514097,-5.0,10.0,-5.0,4.158325,4.2881966,-0.13943136,-3.8919675,0.82369137,4.517265,0.3257635,-5.0,-1.9419298,-3.652155,5.0
-5.0,5.0,-5.0,-8.138136,1.1974154,0.6669781,1.9013315,3.9550912,-0.95398676,-5.0,5.0,-1.2514551,-5.0,-5.0,-5.0,-4.30319
3.33958,-2.2762203,3.1654525,5.202629,5.0,-4.8876247,-5.0,5.0,5.0,3.2656915,-5.0,0.7443391,3.6862674,-5.0,-0.014860988,0.17084326
1.4953909,-5.0,5.0,-0.8075968,5.0,-5.0,-5.0,-5.0,2.995311,5.0,-5.0,10.0,2.4398394,4.199216,5.0,-0.33715907
-1.1379632,-3.1656668,4.129662,-0.08358747,5.0,-5.0,-5.0,5.0,5.0,5.0,-1.0046072,10.0,-0.58195376,5.0,5.0,-0.75276184
-5.0,2.2571876,-5.0,3.2575846,-5.0,-2.5784287,4.4538774,-5.0,-2.9685097,5.0,3.2272775,-9.2126255,-5.0,1.9083506,-4.514657,3.6741676
-5.0,4.1250067,-5.0,1.4225106,-0.27317846,1.7245119,2.385911,0.97607154,-3.6693687,-1.9337745,4.4797745,-0.22671154,-5.0,-5.0,-5.0,-0.18497586
-1.7886875,5.0,-5.0,-3.8449214,5.0,-5.0,-4.315447,0.5049875,3.7242484,-1.0003687,-0.3363675,-0.26838222,-0.10069686,-5.0,-1.0655766,-5.0
3.7048297,-0.56474245,2.7699614,-2.704876,5.0,-2.8878148,-5.0,5.0,2.6684723,5.0,-5.0,9.780653,5.0,-2.1454237,1.3273784,-2.5140498
0.3589942,-3.8665385,5.0,-0.035571948,5.0,-5.0,-5.0,-5.0,4.0626044,5.0,-4.2699423,-8.802356,0.3846929,5.0,5.0,-0.6226815
-5.0,5.0,-5.0,-3.5890625,0.19874197,-2.5104964,1.1751018,1.8774534,1.280426,5.0,2.291773,1.3181307,-5.0,5.0,-0.20104802,0.46752414
-5.0,4.1905417,-5.0,0.9983623,-5.0,3.472596,3.8242426,-0.12722148,-5.0,-0.00782299,3.2605057,0.082390495,-5.0,-5.0,-4.7518144,5.0
-5.0,5.0,-5.0,-4.926457,1.2437444,1.5970871,2.3270032,0.28054532,-2.2805438,-5.0,5.0,-0.10835304,-3.6237845,-5.0,-1.9712107,-1.8009169
1.5709723,0.083079636,1.2733991,7.17229,5.0,-2.77749,-5.0,4.252666,5.0,5.0,-5.0,0.6065743,5.0,-5.0,-0.36953747,-0.56287104
1.3513731,-4.8283973,2.1211302,0.3035368,5.0,-3.20562,-4.9190345,5.0,3.5047517,5.0,-5.0,-7.0683517,5.0,3.6061275,5.0,0.5574237
-0.22181106,-4.699296,5.0,0.15414742,5.0,-5.0,-5.0,-5.0,5.0,5.0,-4.2791743,-8.893185,2.0378814,5.0,5.0,-1.2449106
-5.0,2.783463,-3.0412085,0.21348783,5.0,-5.0,-2.479199,-4.953285,5.0,5.0,-0.94788057,-2.259142,-2.2452397,5.0,3.7898011,0.1457346
-5.0,5.0,-5.0,0.32141054,-5.0,5.0,4.369384,-0.23073256,-4.573717,-0.68127,5.0,0.092209004,-5.0,-5.0,-5.0,2.1688528
-5.0,5.0,-5.0,10.0,-0.4023621,2.504443,3.6079183,-0.8353617,-0.6955961,-5.0,5.0,-0.78069735,-5.0,-5.0,-4.7201324,3.6457264
-0.1298674,4.1856875,-5.0,5.889533,5.0,-5.0,-5.0,5.0,5.0,-0.36507118,-0.67821956,-0.4858888,0.65441024,-5.0,-0.6934244,0.097325765
5.0,-3.8815541,3.5060232,0.5766423,5.0,-1.8383867,-5.0,5.0,2.7708657,5.0,-5.0,-1.1432973,3.5311832,-1.4788994,0.56065905,-0.3546973
0.76973796,-4.8118863,5.0,-0.4213308,5.0,-1.8050015,-5.0,5.0,5.0,5.0,-4.4446635,-9.430382,1.9474295,5.0,5.0,-1.2281271
-3.580043,0.35516477,0.51920426,0.124179356,5.0,-5.0,-4.555857,5.0,5.0,5.0,-0.030820131,-8.303722,-1.5808175,5.0,3.4010882,-0.21623431
-5.0,3.695693,-5.0,-2.186044,-3.8569207,-1.3013519,-0.32233703,-2.7165608,-3.334445,3.1849778,5.0,-1.1023166,-4.1951475,-3.117302,-5.0,5.0
-5.0,5.0,-5.0,10.0,-2.5166044,3.258389,3.4587166,0.3804503,-4.3966284,-2.3842187,5.0,-0.11565997,-5.0,-5.0,-5.0,4.444256
-2.1558332,5.0,-5.0,3.016502,5.0,-5.0,-5.0,1.5655663,2.7335658,-5.0,0.8260191,0.08224026,-0.7320434,-5.0,-1.0504943,-5.0
3.129397,-4.9521246,0.8495387,-0.5264625,5.0,-5.0,-5.0,-5.0,5.0,5.0,-5.0,-4.453761,5.0,-1.1778146,0.9169581,0.47421256
1.0155079,-4.535373,5.0,-1.0337121,5.0,-4.710485,-5.0,5.0,2.9323955,5.0,-5.0,10.0,1.5150707,5.0,5.0,-1.2199756
-5.0,3.3505561,-5.0,1.0692616,5.0,-5.0,-2.3307748,-5.0,5.0,5.0,1.6201315,10.0,-4.717991,5.0,3.7545981,0.14583878
-5.0,5.0,-5.0,-2.2874231,-2.5162544,-1.1873262,1.7708709,2.9890738,-2.4200592,5.0,0.4573655,-3.4987223,-5.0,2.4223838,-5.0,-5.0
-5.0,5.0,-5.0,4.847633,-0.48647386,1.8746755,2.093526,1.1513536,-1.1180695,-2.7889645,5.0,-0.10092251,-3.9974463,-5.0,-5.0,-3.982606
4.503832,3.455902,-3.254747,2.645834,5.0,-5.0,-5.0,-5.0,5.0,-0.013536811,-5.0,-0.21894269,4.477973,-5.0,-1.4185507,-5.0
3.5044196,-4.796277,4.9342813,-0.3824661,5.0,-4.099124,-5.0,-4.6556597,3.1702452,5.0,-5.0,10.0,5.0,0.41425008,1.931719,3.6327088
0.88483274,-4.484871,5.0,-0.33172745,5.0,-5.0,-5.0,-5.0,1.4858259,5.0,-5.0,0.055151403,-0.16425683,5.0,5.0,0.5238979
-5.0,2.4253287,-2.9518116,-0.0018878648,5.0,-5.0,-5.0,-5.0,3.618152,5.0,1.4921839,2.2966685,-2.2918298,5.0,2.7275085,-0.2026607
-5.0,5.0,-5.0,4.8097706,-4.65956,1.6099396,2.309996,-3.8667858,-5.0,1.2493498,5.0,-6.0664716,-5.0,-5.0,-5.0,5.0
-5.0,5.0,-5.0,-5.6405473,1.6457717,-0.32992634,1.0844685,3.1125069,-1.4009225,-5.0,4.9845943,-0.00015475228,-3.7502773,-5.0,-3.9003994,5.0
-1.5924401,5.0,-3.3628237,10.0,5.0,-5.0,-5.0,5.0,3.1216102,-1.1070962,-0.94082534,0.46180907,1.520989,-5.0,3.7484672,-1.6087699
3.5265942,-1.3732045,1.6871783,0.4310204,5.0,-1.2694635,-4.106951,3.7820134,2.4758883,5.0,-5.0,10.0,5.0,-3.2809339,1.3702418,-0.3277646
0.21667862,-5.0,5.0,-0.40511876,5.0,-2.461914,-5.0,5.0,5.0,5.0,-5.0,-4.7520733,0.78555816,5.0,5.0,-0.6000682
-4.9594526,3.5702696,-3.4422746,0.29969814,2.7418559,-5.0,-1.3806051,5.0,3.7184753,5.0,-0.587353,-0.28217474,-4.6367054,5.0,4.1038127,0.1772995
-5.0,5.0,-5.0,-0.581025,-5.0,1.039844,3.7170777,0.48483077,-4.423137,5.0,2.4909163,0.6250859,-5.0,-1.2324679,-5.0,3.1983967
-5.0,5.0,-5.0,-8.601014,-0.93153423,0.90716517,2.7255156,0.47446012,-0.3046618,-5.0,5.0,-0.18938816,-4.658636,-5.0,-5.0,4.6808705
1.839543,0.95866203,1.2681496,2.2524538,5.0,-4.272316,-5.0,5.0,5.0,1.8911426,-4.447233,0.37833545,4.613062,-5.0,1.7766136,2.0466037
1.5518047,-5.0,4.4511075,-0.5446412,5.0,-2.2954164,-4.18733,5.0,2.5388212,5.0,-5.0,-6.5460777,5.0,3.9997587,5.0,-0.23598826
-1.1605971,-1.0428137,2.2280807,1.4994758,5.0,-5.0,-5.0,4.886512,5.0,5.0,-3.0757399,7.1453123,-0.2361821,5.0,5.0,-0.16264692
-5.0,5.0,-5.0,-9.937902,0.20821306,-3.1836667,0.66439354,2.328783,-1.0211183,5.0,3.928605,6.4355965,-4.538664,3.5040035,-0.017831802,-0.38894716
-5.0,2.7034786,-5.0,10.0,-1.5156153,3.360538,2.9651885,0.5190621,-5.0,-0.04076767,3.8354974,-0.16906507,-5.0,-5.0,-5.0,-3.0750942
-5.0,4.6573906,-5.0,10.0,1.201137,-1.5599695,1.5267519,2.9891682,-0.81792325,-5.0,4.530909,0.15543461,-5.0,-5.0,-0.80023426,5.0
5.0,-5.0,4.70989,-2.6309354,5.0,-5.0,-5.0,-5.0,5.0,5.0,-5.0,9.848795,5.0,-5.0,4.6953917,1.4099176
2.3587513,-4.40781,5.0,-0.67576975,5.0,-1.5794725,-3.32824,4.3907676,1.8884315,5.0,-5.0,10.0,3.361301,3.1709332,5.0,-0.708261
-0.56768394,-4.5924253,5.0,0.08531297,5.0,-5.0,-5.0,-1.7631876,5.0,5.0,-3.9038787,-10.0,0.21589291,5.0,5.0,-0.1494082
-5.0,5.0,-5.0,-4.7059097,-3.4245777,-0.34935212,0.6933881,-0.480145,-4.1473393,5.0,2.3386972,0.6033184,-5.0,2.5525432,-2.5450797,-0.014409181
-5.0,5.0,-5.0,-0.22814465,-2.971422,3.1072526,2.4991708,-0.6805426,-4.492686,-2.9149141,5.0,0.18643719,-4.908843,-5.0,-5.0,-5.0
1.1293602,4.5566964,-4.669773,1.3610859,5.0,-4.194476,-5.0,5.0,5.0,2.117707,-5.0,-0.017773569,3.0527372,-5.0,0.12374234,-0.21582532
1.8924259,-3.2754545,2.0639489,0.5784374,5.0,-1.4758704,-5.0,5.0,5.0,5.0,-5.0,-5.391539,5.0,0.10722256,1.9328587,0.8136037
1.1556392,-3.3625321,5.0,-0.9975865,5.0,-4.82135,-5.0,-5.0,5.0,5.0,-3.269002,10.0,2.3432627,5.0,4.9543753,0.1384652
-2.7620978,-1.6208155,2.3955295,4.474089,5.0,-5.0,-5.0,-4.782113,5.0,5.0,-3.592484,2.4476857,-0.502936,5.0,5.0,-0.3589366
-5.0,5.0,-5.0,-0.15706062,-5.0,3.449923,4.2466803,-1.0391753,-4.8181877,1.5206467,2.261568,0.77308893,-5.0,-0.9712366,-5.0,-5.0
-5.0,5.0,-5.0,1.5116224,4.2204895,1.6763184,0.1801458,-0.34440956,-0.4792205,-5.0,5.0,-3.7659483,-3.7876794,-5.0,-4.4525456,-1.8369856
2.709834,4.235838,-5.0,-5.5689363,5.0,-5.0,-5.0,-5.0,5.0,0.36834943,-4.9054513,0.26920152,1.1564612,-5.0,0.33113825,-1.2265911
4.4500103,-2.8486679,2.9159606,-0.06235652,5.0,-2.720119,-5.0,5.0,3.2186077,5.0,-5.0,10.0,4.1250005,-0.024522066,1.5829034,4.117744
0.59175897,-4.7779465,5.0,-0.21353234,5.0,-5.0,-5.0,-5.0,4.1546164,5.0,-5.0,10.0,-0.08596191,5.0,5.0,-0.25637335
-5.0,3.695256,-5.0,-2.0439796,1.4583952,-5.0,-3.0005648,1.8355352,2.0471246,5.0,1.9069424,2.9034717,-2.6920254,5.0,1.718738,0.37750465
-5.0,5.0,-5.0,-0.5574459,-5.0,3.9273624,3.9558694,-4.5075083,-4.225919,-3.4264376,5.0,-1.8658435,-5.0,-5.0,-5.0,5.0
-5.0,5.0,-4.6310368,-5.374758,4.772752,-2.3044226,-0.68698156,-0.60570925,0.71915996,-5.0,4.5815625,-0.40181205,-5.0,-5.0,0.12863815,5.0
4.6827073,-1.9952681,1.1025627,0.6261266,5.0,-5.0,-5.0,-5.0,5.0,2.3522396,-5.0,0.6189586,5.0,-5.0,0.03294632,0.20139505
2.0940216,-5.0,5.0,-1.0969797,5.0,-4.922998,-5.0,-5.0,4.8151026,5.0,-5.0,10.0,3.8318722,3.0668957,4.208679,0.08617699
0.3664379,-3.986628,5.0,-0.01632658,5.0,-5.0,-5.0,-4.8340654,5.0,5.0,-2.3135343,10.0,0.27754563,5.0,5.0,-0.5756821
-5.0,4.3134184,-5.0,0.029261755,5.0,-5.0,-2.003537,-2.390476,3.0511155,5.0,0.9729104,10.0,-3.7015243,5.0,1.5762784,0.47440806
-5.0,5.0,-5.0,-5.5741343,-3.405994,4.0181756,3.1247735,-0.46144372,-4.659183,2.1452012,5.0,-0.0745967,-5.0,-5.0,-5.0,-3.4869921
-3.498805,5.0,-5.0,10.0,5.0,-2.5869572,-0.34979686,-4.655242,2.8648593,-5.0,3.9819891,-3.9335527,-5.0,-5.0,-3.9866838,-5.0
2.943895,1.9354274,-2.8793926,-5.5505524,5.0,-5.0,-5.0,-1.2029772,5.0,0.31299508,-5.0,0.46978295,2.1547523,-5.0,1.7123234,2.0271869
3.4510317,-3.914051,2.9796448,0.59443647,5.0,-3.2978168,-5.0,5.0,1.885072,5.0,-5.0,10.0,5.0,-1.0101566,4.0872936,-0.0707403
1.1388823,-4.884418,4.8972273,-0.11042321,5.0,-5.0,-5.0,-3.4162102,0.7467917,5.0,-5.0,-6.2573757,0.22666335,5.0,5.0,-0.44129837
-5.0,4.9872174,-3.8887448,0.027623476,5.0,-5.0,-1.5072546,2.983275,5.0,5.0,-0.25235242,-8.267209,-2.558243,5.0,2.4157286,0.24098712
-5.0,5.0,-5.0,6.7652793,-2.9341831,4.1970143,3.031724,0.22831772,-5.0,-0.5875928,5.0,-0.14400381,-5.0,-5.0,-5.0,-1.6873231
-5.0,5.0,-5.0,10.0,3.91988,-3.1789265,-1.1988993,-0.71905124,-0.97515273,-5.0,2.8684552,0.30495226,-3.661216,-5.0,-3.2669594,5.0
1.6902258,-2.983611,0.000916183,-0.15208772,5.0,-5.0,-5.0,-5.0,3.3905978,4.2549195,-5.0,0.20550005,5.0,-5.0,1.0669354,-0.5534761
-0.8958056,-1.0701437,5.0,-0.33637866,5.0,-5.0,-5.0,2.1102934,3.352511,5.0,-5.0,-2.536737,3.8244462,5.0,4.548126,-3.5499167
-4.491888,-1.2280234,1.7199757,2.3252397,5.0,-5.0,-5.0,-3.59159,5.0,5.0,-1.7931023,4.505431,-1.1714327,5.0,5.0,-0.4039813
-5.0,5.0,-5.0,-1.413661,-2.8792844,-1.602655,2.2541094,0.4477467,-1.990988,5.0,4.15029,4.6548843,-5.0,4.2780466,-2.5925379,-0.4527818
-5.0,2.635316,-5.0,10.0,-5.0,3.9889603,4.1442194,0.78888285,-2.2100143,-3.4723876,5.0,-1.1547626,-3.6562948,-5.0,-5.0,5.0
-5.0,5.0,-4.82171,-7.42383,-1.408076,2.0178246,3.5682628,0.13688931,0.008721165,-5.0,5.0,-0.5530553,-4.2383137,-5.0,-5.0,-5.0
4.1774297,-0.77178186,0.7255035,-0.20028691,5.0,-4.9347205,-5.0,-1.5399592,4.7284346,5.0,-5.0,-1.9363735,2.0872393,-5.0,2.694457,2.920134
1.5325942,-4.805216,5.0,-0.045547694,5.0,0.25286674,-3.6053567,5.0,2.7662501,5.0,-5.0,-7.880047,5.0,2.5306983,5.0,-1.456945
-1.1368876,0.26528263,0.24574675,0.12295909,5.0,-5.0,-4.7322254,-3.2935386,5.0,5.0,-5.0,-9.360801,2.714784,5.0,5.0,-0.22256415
-5.0,5.0,-5.0,4.7067294,5.0,-5.0,0.4051516,-5.0,2.7274752,5.0,-3.2354295,1.5205485,-5.0,5.0,0.22663283,2.4122984
-5.0,5.0,-5.0,1.0762858,-5.0,1.2239244,3.4723873,1.8899411,-3.782901,2.490896,5.0,-2.1019206,-3.3204849,-5.0,-5.0,5.0
-5.0,5.0,-4.5438843,-0.43316412,4.343113,0.2952059,1.4941504,2.195189,-0.6662818,-5.0,4.74978,-0.2258113,-1.1034299,-5.0,-2.8548346,-0.18369406
3.804339,-2.277039,1.157754,-0.9097963,5.0,-5.0,-5.0,5.0,5.0,5.0,-5.0,0.7547019,5.0,-5.0,0.8959389,0.28386647
1.5859393,-4.6415625,5.0,-0.4195994,5.0,-0.8608005,-4.1732016,5.0,2.3228736,5.0,-5.0,-7.6228557,5.0,3.0451603,5.0,-0.3495021
-0.066003084,-3.1918883,4.199724,0.91570777,5.0,-5.0,-5.0,-2.3526978,5.0,5.0,-2.558531,2.6966608,1.7046808,5.0,4.746024,-0.35278296
-5.0,5.0,-5.0,-9.661708,-0.7545361,-1.3619467,1.8087672,1.5966752,-2.3569846,5.0,0.43086076,-3.9635923,-5.0,5.0,-3.0108716,-0.2000982
-5.0,5.0,-5.0,-10.0,-1.8805686,4.3496857,3.703713,0.12730128,-5.0,-1.96401,4.8150964,-0.50946856,-5.0,-5.0,-5.0,0.29112434
-5.0,5.0,-5.0,10.0,0.84413826,0.0055897236,1.2915361,4.6661406,-0.3687948,-5.0,5.0,-0.50804704,-5.0,-5.0,-3.544604,-1.92815
1.8938316,1.9938415,-0.038362026,10.0,5.0,-5.0,-5.0,-5.0,5.0,1.1175835,-5.0,-0.14445218,5.0,-5.0,-1.0330114,-3.147494
3.2615526,-4.3920393,4.7572436,-0.11023433,5.0,-3.241683,-5.0,-5.0,5.0,5.0,-5.0,-7.241231,5.0,-0.0801266,0.39427185,-0.20255148
-0.63295484,-4.6927686,5.0,0.028129576,5.0,-5.0,-5.0,-5.0,5.0,5.0,-3.4906898,-8.384426,1.5242449,5.0,5.0,-0.2865687
-5.0,5.0,-5.0,2.8202596,1.3078796,-4.562785,4.6145005,5.0,-2.7797763,5.0,1.7061255,-3.0015063,-5.0,5.0,-1.1342863,1.9222555
-5.0,2.926817,-5.0,-10.0,-5.0,4.5222383,4.4124312,-2.0821433,-2.7877197,-1.1262738,5.0,-3.2444782,-5.0,-5.0,-5.0,5.0
-5.0,5.0,-5.0,-0.07215309,0.68664587,1.1196189,1.2456932,0.27111864,-0.9359511,-5.0,5.0,-0.7345537,-5.0,-5.0,-4.250709,-0.7162607
4.241355,-0.17424625,0.21494778,0.25145444,5.0,-4.545402,-4.9010243,-5.0,5.0,5.0,-4.8313317,0.1744079,5.0,-5.0,1.453549,0.55391794
1.6257147,-4.1791906,5.0,-0.96000504,5.0,-5.0,-3.8031526,-3.817666,3.9686725,5.0,-5.0,10.0,1.0263768,5.0,5.0,-1.1176707
-1.543023,-4.6562653,5.0,-0.29869264,5.0,-4.061407,-5.0,5.0,5.0,5.0,-3.2012053,-6.507645,0.7361866,5.0,5.0,-1.0685722
-5.0,4.126691,-5.0,0.59218115,-0.43047583,-4.903386,2.5699997,-4.8006096,0.6180795,5.0,0.66217506,5.7080483,-4.1083245,5.0,-0.14666924,-0.5591046
-5.0,5.0,-5.0,-6.3664074,-0.22196442,0.7067399,1.1477487,2.095739,-1.7745821,-2.3509986,5.0,-0.80892444,-4.1688447,-5.0,-5.0,5.0
2.7967865,1.3224869,-2.1231372,1.0491217,5.0,-5.0,-5.0,-5.0,4.470787,-0.3148737,-5.0,0.26157823,0.67411864,-5.0,-0.7185354,-0.77681875
1.1813031,-2.8226633,2.825453,0.51846707,5.0,-5.0,-5.0,-2.8452148,2.7220204,5.0,-5.0,10.0,5.0,-1.0668336,3.817662,0.4696725
0.4859839,-4.170232,5.0,-0.3994315,5.0,-5.0,-5.0,-5.0,5.0,5.0,-3.8349385,10.0,2.379506,5.0,5.0,-0.18414403
-5.0,4.5915174,-5.0,10.0,0.7226207,-5.0,1.4842,5.0,0.082897305,5.0,-0.0010281801,0.06475318,-4.8510895,5.0,-1.3405328,0.626118
-5.0,5.0,-5.0,-4.319409,-4.0586243,2.0467694,1.3263398,-0.32822493,-3.435431,0.24578583,2.333897,0.37003875,-5.0,-5.0,-5.0,-0.67624855
-5.0,5.0,-5.0,-7.618755,5.0,-2.9311624,-1.163367,0.5262845,1.9088119,-5.0,1.6353372,0.47529367,-2.010479,-5.0,-0.31989443,-5.0
3.7988496,-0.90122795,-0.16958499,0.121126086,5.0,-3.6794934,-4.7305574,5.0,3.8299773,5.0,-5.0,1.0951406,4.782689,-5.0,1.0472003,0.6501091
0.76278263,-3.674924,5.0,-0.27885497,5.0,-4.8006067,-5.0,-5.0,2.818682,5.0,-5.0,10.0,3.4610538,5.0,5.0,-0.35579428
-2.644715,-1.4505327,1.618322,4.0582695,5.0,-5.0,-5.0,-3.7371588,5.0,5.0,-4.283891,-8.691982,-0.7743467,5.0,5.0,1.0569918
-5.0,5.0,-5.0,-3.842227,-4.6324177,1.0409634,2.9721713,-0.06598495,-3.9822922,3.8763475,4.1969323,1.6380593,-5.0,1.8013469,-4.3446417,-0.3655858
-5.0,5.0,-5.0,-1.0953336,1.9207275,0.55374897,1.7768408,-1.2892787,-5.0,-5.0,4.571455,-4.3576307,-5.0,-5.0,-4.830145,1.7609463
-2.4158359,5.0,-5.0,-0.4579978,5.0,-3.8468678,-5.0,0.6312401,5.0,-3.5656884,2.2980072,-5.222165,-1.3562899,-5.0,-0.12098396,5.0
5.0,-3.5115547,0.3432747,0.58404535,5.0,-4.787635,-5.0,5.0,5.0,5.0,-5.0,3.9356785,4.2332125,-5.0,1.582504,0.47335446
2.7020652,-3.539471,5.0,-0.16819882,5.0,-3.4783204,-3.886905,-2.4422302,1.0944418,5.0,-5.0,10.0,0.29384303,5.0,5.0,-0.3232025
-2.9215498,-1.6343281,3.6461437,-1.124192,5.0,-5.0,-5.0,-4.304261,5.0,5.0,-2.3229322,-6.3144855,-2.3778865,5.0,5.0,-3.315048
-5.0,4.7386694,-4.635868,0.5925577,-0.5498338,-1.6975572,0.35978675,-5.0,-0.8035675,5.0,4.060764,10.0,-1.9030445,2.2628496,-2.4059658,-0.4599686
-5.0,5.0,-5.0,-10.0,-1.2791586,2.3603063,2.6114745,0.6108031,-5.0,-1.122886,3.8443677,-0.8844753,-5.0,-5.0,-5.0,-0.012608528
-5.0,3.7333827,-5.0,9.142067,2.7078147,-3.0639157,-2.5688493,1.6372929,0.060239077,-5.0,4.112501,-0.3473591,-5.0,-5.0,-1.357959,-5.0
0.7117114,3.8466163,-3.574575,-8.534342,5.0,-5.0,-5.0,-5.0,5.0,1.2960498,-4.1412215,-0.08959614,3.5926402,-5.0,0.39794782,0.14254813
2.6081705,-5.0,5.0,-0.38837028,5.0,-4.6027937,-5.0,-5.0,3.5729353,5.0,-5.0,10.0,5.0,1.1354725,3.676255,1.3781115
0.45198,-5.0,5.0,-0.0803702,5.0,-5.0,-5.0,-4.72793,5.0,5.0,-3.2043774,10.0,0.55817145,5.0,5.0,0.8763177
-5.0,3.1383734,-5.0,1.4857851,2.1167674,-5.0,0.73857397,-4.2039795,0.12022489,5.0,3.2108684,3.4505992,-5.0,5.0,1.8955991,0.3390217
-5.0,4.269107,-5.0,-1.099127,-5.0,2.367156,2.4793484,0.1597504,-5.0,2.0274324,2.5483277,-0.024875894,-5.0,1.7967415,-4.544618,5.0
-5.0,5.0,-5.0,-4.1679153,2.0068302,1.0449551,2.3109028,-1.395784,-1.1629994,-5.0,5.0,-0.18921553,-5.0,-5.0,-3.7643898,2.8854084
1.0843135,5.0,-4.6593246,1.2030554,5.0,-5.0,-5.0,-5.0,5.0,-1.2457916,-1.6156104,-0.09556933,1.2736127,-5.0,3.160618,2.299829
4.2808433,-1.335485,-0.2334131,0.033077784,5.0,-3.6247592,-3.8912349,5.0,4.625502,5.0,-5.0,-7.2432737,4.0509024,-3.3949556,3.3794856,0.08933973
0.75596327,-3.3686619,4.9561143,-0.21657754,5.0,-5.0,-4.5220017,-3.4115562,2.7860997,5.0,-5.0,10.0,1.013837,5.0,5.0,-0.31363285
-1.827842,-0.66487306,1.796447,-0.5010909,5.0,-5.0,-5.0,-5.0,5.0,5.0,-0.98666966,-7.1649427,0.0038627386,5.0,5.0,-0.35003254
-5.0,5.0,-5.0,6.5887823,-3.6957676,1.1692173,4.841282,-2.9729722,-5.0,5.0,5.0,3.311813,-5.0,4.0226274,-4.7372484,5.0
-5.0,5.0,-5.0,-6.184041,0.052351534,0.033018857,1.2082675,1.896424,-5.0,-2.534638,5.0,0.26804173,-5.0,-5.0,-4.926176,-0.67641926
2.628408,4.8731546,-4.465364,5.1721954,5.0,-2.3659053,-5.0,5.0,5.0,-0.99611676,-5.0,0.13895667,5.0,-5.0,-1.7188256,-4.195771
4.486332,-4.640346,4.7957234,-0.08606906,5.0,0.19399607,-3.8799558,5.0,5.0,5.0,-5.0,0.72572553,5.0,-0.10881674,2.083947,0.23807508
-1.4575447,-1.9839131,3.8714397,-3.1010053,5.0,-5.0,-5.0,5.0,5.0,5.0,-2.9970644,10.0,-1.4058673,5.0,5.0,0.7276159
-5.0,2.8114026,-4.854005,0.4242875,4.9792814,-5.0,-3.235913,5.0,2.558505,5.0,2.2482202,3.2750456,-3.63158,5.0,2.3352246,-0.5408964
-5.0,5.0,-5.0,4.341878,-5.0,3.7572196,3.0855143,0.28634554,-5.0,1.2003564,4.311325,-0.61833704,-5.0,-1.6590974,-4.8617387,2.074844
-5.0,5.0,-5.0,10.0,5.0,-0.7581785,-1.4714812,-5.0,4.059423,-5.0,2.826797,-1.5065359,-2.2557204,-5.0,-1.6506085,5.0
2.0869524,-1.4988647,-1.8570191,-6.229461,5.0,-5.0,-5.0,-5.0,5.0,3.5318224,-5.0,1.1496185,5.0,-5.0,0.3218633,-0.61731917
-1.7111424,-2.5105162,5.0,-5.519985,5.0,-1.7710662,-5.0,5.0,4.8956885,5.0,-5.0,10.0,4.573619,5.0,5.0,-1.25252
-5.0,0.63985646,-5.0,4.876905,5.0,-5.0,-5.0,-2.7420104,5.0,5.0,0.8005723,8.152657,-4.5728216,5.0,2.8764253,-1.5271848
-5.0,2.4737985,-5.0,10.0,-4.008911,3.1625524,4.3589015,0.503321,-5.0,3.4549038,4.1444354,-0.15358499,-5.0,0.09867787,-4.398898,-0.13793994
-5.0,5.0,-5.0,0.6212151,-1.9954755,1.4773836,1.9716165,1.5287472,-1.7623334,-4.3670597,5.0,0.94137365,-2.798935,-5.0,-5.0,-1.8339624
-3.4684746,5.0,-5.0,2.0840838,5.0,-5.0,-3.0614655,0.26858583,4.0307217,-4.5616517,-0.24571228,-0.14597963,-0.69051105,-5.0,-0.014899969,-5.0
1.9880679,-2.8908744,3.3664405,-0.6428516,5.0,-0.76285934,-5.0,5.0,5.0,5.0,-5.0,1.2742126,5.0,-0.036054492,1.7563196,2.2566097
1.0738622,-4.088542,5.0,-0.35240063,5.0,-4.183419,-3.659431,5.0,1.4494233,5.0,-5.0,10.0,1.064106,5.0,5.0,-1.3423079
-5.0,2.5654595,-4.6534796,0.12236201,5.0,-5.0,-2.1490166,5.0,4.1057878,5.0,0.74673605,10.0,-3.3699405,5.0,3.937954,-0.20414719
-5.0,3.5528805,-5.0,4.9189534,-2.5145917,0.68038857,2.4443772,-0.19314721,-5.0,0.36268365,5.0,-0.13682067,-5.0,-4.224026,-5.0,-5.0
-5.0,5.0,-5.0,-7.4780483,3.9761848,-4.883963,-1.8034827,-3.1568446,3.1201587,-5.0,3.143826,-1.0579103,-5.0,-5.0,0.23721391,5.0
3.7926013,-2.0439272,2.1433659,2.8939219,5.0,-5.0,-5.0,-5.0,5.0,3.2101176,-5.0,0.17545372,5.0,-5.0,1.0228298,1.3554379
1.9661405,-4.346373,4.150029,-0.0036993476,5.0,-3.287221,-5.0,-4.5253496,4.281958,5.0,-5.0,-7.2863235,5.0,-0.012449652,0.8478352,0.27648696
-3.0735679,-0.46552706,2.6517434,0.3725609,5.0,-5.0,-5.0,-5.0,5.0,5.0,-2.7463546,4.6364417,-0.4327469,5.0,5.0,-0.99404925
-5.0,4.0836725,-5.0,-1.8720437,0.07220578,-5.0,1.7745097,2.7862108,0.94116783,5.0,-1.0422754,0.41007864,-5.0,5.0,-0.28498763,0.3995293
-5.0,0.099589825,-5.0,10.0,-0.8045343,0.7406348,2.2700133,5.0,-3.3141036,-2.5620854,5.0,-0.78410006,-5.0,-2.624775,-5.0,-0.92760515
-5.0,2.1693604,-5.0,10.0,3.0581255,-2.1972218,0.55927527,0.4195554,-1.7169931,-5.0,4.246234,-0.21989149,-4.906497,-5.0,-2.4373891,5.0
4.1891685,-2.4152217,2.3505392,-0.23458399,5.0,-1.5241987,-5.0,-5.0,5.0,0.0051431656,-5.0,0.30138358,5.0,-5.0,1.2218627,1.4240305
2.0691895,-0.8951132,5.0,0.84633076,5.0,2.6320071,-5.0,4.486266,4.5860715,2.7795427,-5.0,10.0,5.0,-1.2740428,1.1223577,0.49219915
-0.8331305,0.6749104,3.8171115,-0.11626428,5.0,-0.5388689,-4.426862,5.0,5.0,5.0,-1.425751,-0.58079386,0.44985306,5.0,5.0,-0.07779243
-5.0,2.2118595,-5.0,-0.19531514,1.7862575,-5.0,-2.225017,-3.2221217,4.19026,5.0,4.9403467,1.0281979,-4.1571355,5.0,0.5545858,-0.32665303
-5.0,-2.9953244,-5.0,-3.825099,-5.0,-0.31589377,3.2138598,2.0822332,-3.9987175,1.516103,5.0,0.5986655,-5.0,5.0,-5.0,-5.0
-5.0,4.364048,-5.0,0.22782469,0.57531476,-2.565012,-0.21335769,0.24863507,-0.70281434,-1.533532,5.0,-0.41380093,-1.9873532,-5.0,-3.8468256,-5.0
4.600451,-2.7475827,4.0666647,1.5675809,5.0,-1.8499289,-5.0,-5.0,5.0,-2.7377586,-5.0,-0.1923618,5.0,-5.0,3.4934952,0.002471611
4.160281,1.4797642,0.99204147,-2.1014278,5.0,2.7617884,-5.0,-4.7407947,4.2796617,-1.3992033,-5.0,10.0,3.5612621,-5.0,1.9816729,0.7889731
-0.07377872,1.2789625,5.0,0.47540784,5.0,-2.6125143,-5.0,-0.019956589,0.46800375,5.0,-5.0,-1.5085407,-1.6603568,5.0,5.0,1.0145802
-5.0,0.8047708,-5.0,0.057613418,-1.7497913,-0.9224973,2.6738226,-0.30860814,-1.9165033,5.0,5.0,-5.554817,-1.6877238,5.0,-2.5258913,0.44547835
-5.0,2.9139547,-5.0,-3.7793403,-1.997139,0.14447904,2.4011965,5.0,-3.9057498,5.0,5.0,0.34249055,-1.3931389,4.3032575,-5.0,-4.793932
-5.0,1.6085289,-5.0,-9.156182,-1.5240752,-2.402607,0.82598937,4.2507977,-2.0883927,1.8937404,5.0,-0.26817888,-3.4991784,-5.0,-5.0,-5.0
-5.0,5.0,-1.984205,-3.8226736,5.0,-0.18193752,-5.0,1.6099424,5.0,-5.0,-1.0075015,8.617012,2.4875984,-5.0,-1.1845843,-5.0
4.436348,-1.3126515,1.8951775,0.78651416,5.0,2.5065827,-5.0,-5.0,5.0,-3.5383275,-5.0,0.8912979,5.0,-5.0,1.1329671,1.6371119
0.4666306,0.8591769,3.8677897,0.7178611,5.0,-1.2134533,-4.393105,0.23020887,0.9896506,3.8710873,-5.0,-1.847023,3.1822,-5.0,5.0,0.4361386
0.6536815,1.1051415,4.659977,0.44314817,5.0,-0.7079673,-2.8299086,5.0,3.3122685,5.0,-4.0023775,5.9421444,-0.5287373,5.0,5.0,-0.17643872
-5.0,-0.20277667,-5.0,-0.31660646,-0.55339134,-1.1357863,3.8721504,2.675256,0.24841285,5.0,-0.16495275,-10.0,-4.7039337,5.0,-1.2812557,-0.67971385
-5.0,-1.0987363,-5.0,-2.765218,-5.0,-1.0030296,1.8706614,-0.59671843,-4.9094486,5.0,5.0,-0.47009507,-2.795837,5.0,-4.489155,-1.1522126
-5.0,1.0229924,-3.819413,-6.500005,-3.4164085,-4.217521,4.0363145,1.8300054,-1.0189067,1.1524639,5.0,-1.4925743,-4.6233735,-5.0,-1.5267885,-5.0
-3.5924215,-0.35892165,0.3870567,8.3217325,3.0673597,-4.1773524,-4.428928,0.78944767,4.6476507,-3.9366446,-1.5934734,-0.15453964,-1.3256283,-5.0,-2.0687897,-5.0
5.0,-2.6372423,3.4841044,-1.1608793,5.0,2.1285937,-5.0,1.6772647,5.0,-0.5759027,-5.0,1.0142251,5.0,-5.0,1.0781537,-0.18201914
0.050456166,1.295043,3.568607,-10.0,5.0,0.33814156,-3.711759,-0.49559152,2.4520745,5.0,-5.0,0.4572587,2.2531233,-5.0,4.645004,-0.5457771
-1.3013356,-1.0806293,5.0,-1.0431365,5.0,-5.0,1.5788115,2.900444,3.1467295,5.0,0.026837826,3.5594554,-2.700244,5.0,5.0,-0.12411078
-5.0,-5.0,-5.0,3.9646556,-3.9637928,-3.4500866,1.0144918,-0.9767299,-3.992754,5.0,5.0,0.10663918,-3.0720994,5.0,-4.508585,2.7265387
-5.0,3.2265067,-5.0,-5.619851,-0.959835,-1.8562262,1.9060532,3.269318,0.6316176,3.3829634,5.0,0.22899178,0.27974784,-5.0,-5.0,-4.4683332
-3.3136039,1.2749091,-4.1707253,1.7128412,5.0,-5.0,-5.0,5.0,3.4129124,-4.0163636,-2.3479972,-0.40880978,-2.0036583,-5.0,0.4256341,5.0
4.658051,0.8367924,-0.5424664,-1.8851267,5.0,1.4738945,-5.0,-4.5335174,2.5793936,-1.1825922,-5.0,10.0,2.8506384,-5.0,1.7770461,0.57935816
2.633889,0.49212146,4.8628473,-0.8601753,5.0,1.4953506,-5.0,3.6567643,-0.65934473,3.2869186,-5.0,10.0,-0.24286751,-1.5395453,4.949263,0.24686879
-5.0,1.055407,2.0235248,-2.2949364,2.61842,-3.7326431,0.008020163,-5.0,5.0,5.0,-3.2126446,10.0,-2.8263006,5.0,0.58739257,-2.7032416
-5.0,0.8263028,-4.0771613,0.15413097,-5.0,-1.3663167,2.297681,0.45283538,-3.255326,5.0,5.0,-0.15060577,-2.3576732,1.6250017,-5.0,1.4058738
-5.0,-0.57996345,-5.0,-2.1787038,-4.4718504,-1.5288911,1.6640167,3.9401116,-1.1293814,5.0,5.0,-0.39514303,-4.7669587,-4.639984,-5.0,5.0
-5.0,-1.5353575,-3.02957,-0.45436907,-0.50559664,-3.489258,0.033932924,0.2726328,0.6019044,-3.2137408,5.0,0.19544357,-5.0,-5.0,-2.0366259,1.8008661
5.0,0.3180705,3.4190278,0.8085192,5.0,5.0,-5.0,-4.2161508,5.0,-2.2263186,-5.0,10.0,5.0,-5.0,1.8549871,-3.2758856
1.7666025,-0.36472598,2.6474967,3.733627,5.0,-2.285168,-3.279366,5.0,1.9550924,3.7230039,-5.0,10.0,0.64235663,-5.0,5.0,-0.19764583
1.6578685,1.5423942,5.0,0.66218203,5.0,-0.51590633,-1.1202599,4.1152434,5.0,5.0,-5.0,4.898323,-0.07097983,-0.85498905,5.0,-0.59813225
-5.0,-0.15853345,-0.95725465,-0.0006955722,0.51825917,-4.4155526,1.9587082,0.9962789,2.3714716,5.0,0.24905115,8.950384,-3.4503155,5.0,0.21217076,0.6246032
-5.0,-1.8466079,-3.6172683,-0.2644693,-4.824793,-0.963707,1.9554445,-0.35953194,-3.1604261,5.0,5.0,-9.307731,-2.4243813,5.0,-5.0,0.90487075
-5.0,-3.2304163,-4.6082115,10.0,-0.9209852,-2.2386456,1.4214633,4.2060604,-3.892152,3.860254,5.0,0.9151396,-5.0,-2.3941736,-5.0,-5.0
-1.5779321,1.9881449,2.807305,3.2060063,4.2673135,-3.3778937,-5.0,1.3124777,5.0,-4.5785494,-1.266675,-0.92315835,1.6318212,-5.0,-1.9369524,0.23641396
5.0,-2.9578347,1.3463578,0.21922097,5.0,0.16159487,-5.0,-5.0,1.9392099,-1.4438641,-5.0,-0.22660337,3.196848,-5.0,0.829569,0.10442933
-0.10189706,5.0,5.0,0.8978902,5.0,3.6489778,-1.9941998,5.0,2.3470385,5.0,-4.591677,1.3227444,-2.7145848,5.0,4.086853,-5.0
-5.0,1.3454585,-4.426425,0.74544066,-1.6793381,-0.5717627,1.777294,0.14521258,0.21110845,5.0,2.8932567,10.0,-2.0458515,5.0,-2.200988,-0.22664858
-5.0,-1.004449,-5.0,-2.5644794,-5.0,-2.3437886,0.8502754,0.357793,-2.842995,5.0,5.0,0.1957199,-3.3816843,0.59524965,-5.0,-1.7129238
-5.0,1.0617101,-2.9823718,9.980883,-0.44121966,-2.258028,2.286326,3.7729068,-0.40479374,2.061098,5.0,0.11624822,-3.1996002,-5.0,-5.0,0.877718
-5.0,-0.57339215,-0.7853775,0.4917137,2.742417,-3.8682637,-5.0,-0.11522,2.8053346,-4.4492702,-0.738811,-0.36667782,-2.3535683,-5.0,-2.5354657,-5.0
2.7659125,-0.3597116,2.6972098,0.09259215,5.0,1.4870546,-5.0,0.3791864,5.0,-0.48684883,-5.0,-1.0414038,5.0,-5.0,2.7820523,0.5114681
1.7960665,2.8518648,3.243545,5.7962704,5.0,0.45211256,-1.4950649,-0.96579635,3.5234385,5.0,-5.0,7.6552315,4.1822977,-5.0,5.0,-0.6109172
0.6401403,3.9367878,5.0,2.7396324,5.0,-1.1907295,-1.7528131,-5.0,5.0,5.0,-1.8940532,-10.0,-4.088483,5.0,4.1487494,-2.5204952
-5.0,-5.0,-5.0,0.6421949,-5.0,-2.2276301,4.1699743,0.6037449,-5.0,5.0,5.0,-6.3146596,-3.1028795,5.0,-3.0511253,-0.19341716
-5.0,-3.4260688,-5.0,-6.583666,-4.6539316,-2.3966455,-0.05918324,-3.7212093,-5.0,5.0,5.0,0.3875283,-2.649095,5.0,-5.0,-5.0
-5.0,-2.731565,-3.8317719,5.767904,0.11788207,-3.2467809,-1.4068953,-2.498287,-3.491235,3.8028753,5.0,0.4550866,-5.0,-2.787941,-4.801873,5.0
-5.0,-1.5248383,1.9078107,4.7747765,-1.7571477,-3.105958,2.2134843,1.8751453,0.7956381,-3.9976385,5.0,-0.37912786,-5.0,-5.0,-1.0937337,3.0350318
5.0,-1.6678066,5.0,-0.10456166,5.0,5.0,-5.0,5.0,5.0,-3.3587866,-5.0,0.28140998,5.0,-5.0,2.7098732,0.020291038
2.965511,0.19978619,0.93472385,-0.23247403,5.0,2.753529,-3.0426412,5.0,2.1845102,5.0,-5.0,-6.79713,2.574854,-5.0,3.8293931,-2.9201784
0.9314775,0.7740847,5.0,-0.49476928,5.0,2.6044874,-1.9382905,3.0064235,5.0,5.0,-4.7637644,-6.4095583,-0.66883147,5.0,5.0,-1.2031176
-5.0,-1.5190878,-5.0,0.90312785,-2.9893968,-0.9395112,4.2109704,0.48085988,-2.2827206,5.0,5.0,-4.2013173,-4.9795656,5.0,-2.5025177,0.6922095
-5.0,2.065414,-5.0,2.5817602,-1.9432801,-1.5022305,-0.3923905,-5.0,-1.9103566,5.0,5.0,0.316458,-2.926384,1.6690016,-5.0,5.0
-5.0,0.6642128,-3.241098,-7.823116,0.24012214,-5.0,-1.284555,-1.5374618,-0.2981925,-1.2976084,5.0,0.029342683,-5.0,-5.0,-4.92707,-5.0
-0.51287836,-0.5233792,1.7053074,2.8376648,4.553496,-1.5101305,-5.0,0.7171346,4.273393,-4.1507435,-4.2979145,-0.2575,2.2709591,-5.0,0.76831853,5.0
5.0,-1.365573,2.363308,-0.056343447,5.0,4.179461,-5.0,5.0,4.5748644,-1.7305517,-5.0,2.1451485,5.0,-5.0,0.9331346,1.3681608
1.9741163,3.817473,5.0,-0.4900952,5.0,0.94872236,-4.864391,-5.0,1.0426697,5.0,-5.0,-5.161123,-3.511248,3.7133043,5.0,-2.7906415
-5.0,1.2779071,-2.0292726,0.037490472,2.3374026,0.39057118,4.4988213,5.0,2.3231146,5.0,3.7490523,0.3945546,-2.0482085,5.0,0.38019407,-0.67413217
-5.0,-0.7855979,-3.0295284,-0.38588235,-4.3340144,-0.93302906,1.6455286,0.21220723,-4.1149025,5.0,5.0,0.10676187,-2.4687567,2.9373395,-5.0,0.9196168
-5.0,0.30042207,-5.0,-7.4840937,-2.1045377,-3.0098672,-1.716529,-5.0,0.5552313,1.4877853,5.0,0.56104124,-2.5904016,-5.0,-5.0,5.0
-0.8491429,1.2084756,-0.66609526,-2.3243978,5.0,-0.81253624,-4.4340863,-0.16831285,5.0,-4.079983,-4.981347,-0.1004637,1.475768,-5.0,0.13035381,-5.0
3.9550502,-0.5024685,1.5896873,-0.20065597,5.0,2.8606195,-5.0,5.0,3.9134333,1.3938243,-5.0,-0.8179018,5.0,-5.0,1.0628506,0.38827077
-1.7018914,3.146227,1.1573908,-10.0,5.0,-2.3200247,-0.10153407,1.7857547,4.3465614,5.0,-5.0,-2.4850218,0.316198,-3.981504,5.0,-3.0112834
-1.1808648,3.247266,-2.1235332,-10.0,3.4745657,-1.919611,-3.8396502,-5.0,5.0,5.0,-1.2643802,-7.8255258,-2.124466,5.0,2.766875,-0.8612054
-5.0,-1.9260117,-5.0,3.0273201,-5.0,-1.8241367,3.6063495,0.36959875,-5.0,5.0,5.0,-2.2094693,-5.0,5.0,-2.390282,-0.6958106
-5.0,1.3216109,-5.0,2.801055,0.21546477,-4.893529,-1.0108892,-4.227711,-1.2625192,2.1142046,5.0,0.09776613,-2.979444,-4.3058543,-5.0,-3.4898233
-5.0,0.7493106,-0.7314297,3.6450682,3.5956137,-3.5773523,-3.7572367,-0.44161108,1.7382662,-5.0,1.8695545,0.888043,-2.1695638,-5.0,-1.8429064,-5.0
4.9118347,-2.9318233,3.6296039,0.006966855,5.0,0.93110573,-5.0,-5.0,5.0,-1.845691,-5.0,-0.22552311,5.0,-5.0,0.40225685,1.7855841
0.7475643,3.54875,5.0,0.4421378,5.0,0.21959567,-4.4140244,-0.027814329,0.10752618,5.0,-5.0,-2.642485,-0.37561306,-0.67626584,4.1199203,-0.4322151
-5.0,0.79337287,2.939056,-0.2595968,5.0,0.19510305,1.910454,5.0,5.0,5.0,-2.5245223,-2.7400422,-2.1794646,5.0,-0.16665033,-0.46619582
-5.0,-1.2508403,-5.0,5.7612133,0.48509598,-3.1557224,-2.2452965,2.505206,-5.0,5.0,5.0,-0.48444343,-4.1574707,1.2055469,-5.0,-1.9149399
-5.0,3.5694542,-4.6105165,-7.8537097,-2.7460916,-3.2951627,1.8253372,-0.3234821,2.0893426,-1.635589,5.0,1.8913527,1.6762743,-5.0,-5.0,4.933293
-5.0,1.9893224,-4.6418324,-1.7985291,1.1417162,-3.1931698,-3.316996,0.58259803,3.0779579,-5.0,-1.582634,-0.43331376,0.673006,-5.0,0.1757083,-5.0
1.8878906,0.42417574,-0.9398804,-10.0,5.0,0.6383016,-5.0,-2.0994174,1.5531728,-1.0865021,-5.0,-9.299646,5.0,-5.0,1.5873427,-0.022348896
1.4872777,2.1207304,4.5350237,-0.01769792,5.0,0.11005938,-5.0,5.0,2.3556237,1.5115701,-5.0,10.0,0.54612267,-5.0,5.0,0.6758386
0.8418156,2.596867,5.0,-0.3823233,5.0,-3.315906,-5.0,-5.0,4.5831757,5.0,0.49096632,5.0442033,-0.41452658,3.5024717,3.9181128,-1.0555749
-5.0,-0.52996457,-5.0,-0.15886681,-1.2804145,-2.0055022,0.3614844,0.11627592,-1.3788431,5.0,3.546739,10.0,-2.4346418,5.0,-2.6068952,-0.28949925
-5.0,-1.1207662,-5.0,6.023207,-2.8742218,-4.4722404,-1.105401,-4.5399456,-5.0,5.0,5.0,-4.9136825,-4.4672613,2.5660121,-5.0,5.0
-5.0,-0.4252622,-5.0,10.0,0.49925172,-3.4977205,1.7587886,0.31960347,-1.4443579,-0.5459725,5.0,0.2740953,-5.0,-5.0,-5.0,-5.0
-3.3800383,0.3056509,4.9726825,3.4410632,5.0,0.78332984,-5.0,0.045167685,5.0,-2.347021,-5.0,-0.076578915,5.0,-5.0,0.5213446,5.0
2.8647964,-0.4162897,-0.0073776245,0.072967134,5.0,-0.21393418,-5.0,-4.5808954,0.57846963,-1.2357334,-5.0,-3.6011147,5.0,-5.0,2.2922661,0.019812971
0.5339936,2.4948144,1.402417,-2.7297697,5.0,-1.1481752,-3.784658,-5.0,1.5644798,4.0316963,-5.0,-0.77720976,2.070857,-5.0,5.0,0.21866688
-0.5223382,1.6467501,3.4373558,4.6072726,5.0,-1.6825821,-2.5855637,-5.0,2.8837857,5.0,-4.417962,-10.0,-5.0,5.0,4.7653093,3.6390681
-5.0,-1.9408398,-5.0,0.9140099,-5.0,-0.25306845,5.0,-3.511449,-4.379086,5.0,5.0,10.0,-5.0,5.0,-3.1576538,-0.20234872
-5.0,-1.0597856,-4.278216,3.358849,-2.6621304,-1.7003372,0.2983327,-2.9889288,-3.5994692,5.0,5.0,0.4399044,-3.45015,5.0,-5.0,3.472814
-5.0,3.7638133,-4.8029747,-8.816948,0.11192918,-5.0,0.7851167,1.437796,0.3386941,-2.9488688,5.0,-4.06239,-3.9972894,-5.0,-2.6839793,5.0
-3.1387637,-0.84511423,1.4641397,10.0,5.0,-4.0250235,-5.0,-1.0370986,5.0,-4.1301985,-5.0,-0.16305457,2.8895266,-5.0,1.0084424,5.0
3.2166305,-1.3124881,-0.02273804,-2.9052093,5.0,3.7965276,-5.0,5.0,1.7969688,-0.70005774,-5.0,-0.5829828,4.0304794,-5.0,1.8505832,1.0134566
2.2470994,1.7319874,3.091193,0.16561672,5.0,2.6603851,-5.0,5.0,0.64727545,3.0546694,-5.0,3.9310272,0.12863776,-3.2215695,3.0098903,0.06337616
-2.9297175,5.0,5.0,-0.2896004,5.0,0.3898471,0.37891674,5.0,5.0,5.0,-2.6488047,7.6918616,-0.71337914,5.0,-0.052776426,1.6296093
-5.0,-1.8428094,-2.8266172,-0.4013635,-4.0656977,-1.760241,4.459256,0.34897417,-2.084565,5.0,5.0,10.0,-2.251479,5.0,-4.4404516,-0.5316863
-5.0,-1.409726,-5.0,1.7329901,-2.9981155,-4.68789,-1.3609526,-5.0,-3.2321098,5.0,5.0,0.94383013,-1.7168065,-3.5690641,-5.0,-4.682193
-5.0,3.5082116,-5.0,-7.575334,0.124881625,-2.8171844,-3.6989288,-4.886213,1.4080777,-1.9794729,5.0,0.09797935,-0.07164416,-5.0,-1.2298431,-5.0
2.1015508,0.12841284,1.7172048,0.45029968,5.0,1.058997,-5.0,-5.0,5.0,-0.9313458,-5.0,-0.17212908,5.0,-5.0,-0.51951385,-1.1546828
2.12113,2.2630908,3.5754664,-0.054627776,5.0,1.1324482,-4.933924,-5.0,0.043492734,5.0,-5.0,-0.35699677,1.4101485,-4.577717,3.6880927,0.08278384
0.32615328,4.7874823,5.0,0.6537163,5.0,-0.2069006,-1.6504892,-0.14394677,3.756,5.0,-0.6920779,0.4130385,-1.5585272,5.0,3.8157172,-0.34948158
-5.0,-1.3050417,-3.1824164,0.086502165,-5.0,0.3337556,3.1454659,0.075237066,-3.4210582,5.0,5.0,-10.0,-2.3223343,5.0,-5.0,-5.0
-5.0,0.0027976036,-5.0,-7.194001,-4.047501,-1.5741546,0.07983291,-0.005771458,-2.965015,5.0,5.0,-0.3714847,-4.9279766,-1.7527783,-5.0,4.5818357
-5.0,-0.41567278,-1.9546499,6.391403,0.6732216,-1.2751992,1.5092075,2.8107102,-1.8741143,0.30540514,5.0,0.743679,-4.3685746,-5.0,-5.0,3.6481576
-5.0,-3.3429198,0.25750685,10.0,0.34806895,-0.8739636,0.38018644,1.126404,3.5171258,-4.460624,0.08276558,0.31169415,-3.7513072,-5.0,0.32117766,5.0
5.0,-3.7700126,2.7614362,-0.78099245,5.0,4.346779,-5.0,5.0,4.2587337,-1.6958392,-5.0,-7.5204253,5.0,-5.0,1.8577762,0.1277426
1.358211,2.1531825,2.6999118,4.528106,5.0,0.52057934,-2.491682,-5.0,3.6245248,5.0,-5.0,-10.0,2.849593,-5.0,5.0,-0.63598144
-0.7125957,1.449761,0.950673,2.1653183,4.9978123,-1.3189093,-1.5294675,5.0,5.0,5.0,-3.088408,-5.555668,-1.794097,5.0,5.0,1.0527225
-5.0,-0.8521143,-3.4619246,0.26437518,-4.1955004,-2.186803,2.0341787,0.60265225,-2.6477213,5.0,5.0,1.4536339,-5.0,5.0,-4.0535264,-0.13481373
-5.0,-0.024677634,-5.0,-4.2533774,-3.7619367,-4.574787,-0.56452405,-1.5969242,-1.0658623,3.0664463,5.0,-0.58443224,-4.2601156,-1.5781422,-5.0,5.0
-5.0,-0.6320031,-0.72018266,10.0,1.2325288,-2.13889,-0.2707188,2.1348755,-0.15894389,-3.2075164,4.477007,-0.09085121,-5.0,-5.0,-1.4898545,-5.0
3.6860576,-1.3323216,3.165252,-0.9243775,5.0,0.4658506,-5.0,-5.0,4.2988043,-0.7852421,-5.0,-0.24902195,5.0,-5.0,0.9020299,-1.7072122
3.2318037,-0.4452994,4.2759557,3.929923,5.0,1.4803784,-5.0,-5.0,2.0047472,3.590407,-5.0,-0.532621,1.8868868,-5.0,1.9294887,2.4106169
-0.84262073,1.5943915,5.0,-1.5184212,5.0,0.19077861,-2.6832783,1.8233364,1.8316762,5.0,-5.0,9.39817,-1.216768,4.541851,5.0,-1.0374846
-4.004169,0.14285553,0.36307782,-0.11674115,3.3038669,-1.9891065,3.5609937,5.0,1.4521886,5.0,0.3732078,2.8288975,-4.056942,5.0,0.50253534,0.6162036
-5.0,-1.7221692,-4.112442,0.08761547,-3.9719043,-1.2211581,3.1966105,-0.11736661,-4.062934,5.0,5.0,-10.0,-3.4306731,5.0,-5.0,0.38024616
-5.0,0.97237,-5.0,-4.515665,-0.88988197,-4.7181354,0.7969482,-0.92739356,-3.0914137,5.0,5.0,-0.06823231,-2.221603,-0.95238686,-4.575522,-0.60219043
-5.0,1.3723583,-4.497753,-2.8036532,0.32511717,-4.148006,-1.0114853,-0.079236545,-0.2240829,-1.0275538,5.0,-1.0035425,-2.7641687,-5.0,-0.71887326,-4.1531754
5.0,-3.233516,2.590191,-1.0888959,5.0,5.0,-5.0,5.0,2.938931,-1.6286994,-5.0,-0.45711464,5.0,-5.0,0.34734535,0.34854254
4.295176,1.0704471,5.0,0.46658897,5.0,4.043178,-5.0,5.0,1.4100907,5.0,-4.8491535,-0.33885378,-0.13644433,0.30352598,4.244743,0.339909
-5.0,0.26322085,3.0732722,0.6288128,-0.930458,-2.4640653,1.1347318,1.3673407,-0.1700579,5.0,-0.31222224,10.0,-5.0,5.0,-0.025676072,0.5523665
-5.0,-1.5522329,-3.0296648,-0.27129278,-5.0,-2.2042575,2.7283237,0.41546634,-4.370549,5.0,5.0,-5.5284195,-2.0007405,3.8522754,-5.0,2.3537586
-5.0,-1.9128187,-5.0,-2.8928828,-4.1927223,-4.0580225,-1.3705714,-4.5790377,0.33597016,1.4396958,5.0,0.44010755,-4.4705544,-5.0,-4.553982,-5.0
-4.079138,0.17898321,2.308352,9.673047,2.4255753,-0.4793148,-5.0,2.2396407,5.0,-5.0,-4.281379,9.475874,0.530259,-5.0,0.7775895,-5.0
5.0,-0.9169761,3.0091681,-0.52574414,5.0,5.0,-5.0,-0.86385345,3.4690027,0.08896637,-5.0,-5.793586,5.0,-5.0,0.9763783,0.66415924
4.0601115,3.4290638,5.0,1.0898921,5.0,1.7425475,-5.0,3.411633,0.42728454,4.4362597,-5.0,10.0,-0.3181749,-5.0,5.0,0.6549869
-0.7111485,4.353545,5.0,0.5826826,5.0,2.4511507,-2.7959056,5.0,4.282724,5.0,-3.319013,8.868572,-1.201818,5.0,2.5266857,-0.4300168
-5.0,-0.9689268,-5.0,6.112477,-5.0,-1.8413663,4.4465227,2.1875389,-4.357072,5.0,5.0,-5.106478,-2.7819037,3.3996158,-5.0,5.0
-5.0,2.3393943,-5.0,-0.55804706,-1.7293952,-2.0698512,2.562664,1.5478055,-2.4019399,5.0,5.0,0.65051544,-2.0082424,-5.0,-5.0,0.7597512
-5.0,3.379653,-3.9276097,10.0,-0.06513178,-1.5933664,2.5092893,2.70121,-0.29071414,-1.6165112,5.0,-0.03544961,-3.8376048,-5.0,-2.7270303,1.6914816
-3.8044882,0.7997818,-2.6401134,-1.9843667,4.217345,0.4883535,-2.1968002,-0.62221664,3.933944,-2.0704143,-3.1529574,0.121967986,2.644225,-5.0,-0.81478703,-5.0
3.2367895,-0.86432457,2.5642486,3.7354503,5.0,2.045053,-5.0,0.6082502,2.386491,2.8392925,-5.0,-5.401097,5.0,-5.0,1.9106299,-0.18947187
-0.20573282,3.2266054,-1.4230746,-10.0,5.0,0.9722357,-2.3652823,2.2472453,1.7239566,5.0,-4.9162245,8.269853,2.4933748,-3.4579265,5.0,-2.3158937
-1.5542806,1.7167773,-2.236803,-10.0,3.3377495,-0.30598122,-0.45376724,5.0,5.0,5.0,-2.2778375,-10.0,-1.9738768,5.0,5.0,0.62511855
-5.0,0.8706902,-5.0,0.5672071,-5.0,-0.7191415,5.0,5.0,-2.7888966,5.0,5.0,9.693562,-5.0,5.0,-3.8522656,3.6154728
-5.0,-0.76714337,-5.0,0.025696278,-5.0,-1.8644712,1.4442934,0.8990834,-4.796715,5.0,5.0,0.85680884,-5.0,5.0,-4.7001023,-0.013905048
-5.0,1.8605789,-0.5455823,1.6990782,-2.6309776,-1.5255275,1.2349159,0.34906536,-0.7276975,3.0583558,5.0,0.74756455,-4.2438025,-5.0,-5.0,5.0
-5.0,0.0177069,1.7009776,4.918671,-0.35939622,-1.0594114,1.0606695,0.053789243,1.5351732,-4.658395,1.8428729,0.17211074,-2.759366,-5.0,0.19305405,5.0
4.7814107,-2.332466,2.720564,0.3661434,5.0,1.3186502,-5.0,-1.0944047,2.6394475,2.8051016,-5.0,1.6276536,5.0,-5.0,2.2799735,1.1536807
2.4500422,-0.13047445,5.0,0.7002811,5.0,-3.422039,-3.3425407,-2.6053128,1.092227,5.0,-5.0,-10.0,0.036968946,-5.0,4.7561526,0.21868628
0.33836824,-0.44073033,5.0,0.19077943,5.0,-2.2340617,-2.0619779,0.5453861,3.5925114,5.0,-4.002118,-5.988146,-0.15877628,5.0,5.0,-0.42874673
-4.8363824,3.2077725,-3.2202215,-0.96101904,3.6036503,-2.2738457,-0.6829909,-5.0,2.3009949,5.0,1.2528056,5.382448,-1.8320043,5.0,0.33406997,-2.1640167
-5.0,5.0,-5.0,-7.217698,-2.290834,-1.1722715,-0.86367214,0.48363203,-2.7026448,5.0,3.984023,1.450919,-3.2144492,-5.0,-5.0,-4.277728
0.21947253,2.4075184,-1.361123,-0.56320405,5.0,-5.0,-5.0,0.8786591,3.502186,-0.41360605,-1.5899676,-0.4293546,1.1951609,-5.0,0.041245043,-2.4415681
5.0,-3.3902903,3.8519223,0.73067474,5.0,-0.65491015,-3.3558834,0.2205782,3.730058,5.0,-5.0,-6.775592,5.0,-3.548216,1.0457585,0.17854899
1.2568995,-4.770944,4.7890096,-0.6727611,5.0,-5.0,-5.0,-5.0,2.2798088,5.0,-5.0,-9.440841,2.1529112,5.0,4.911078,0.16162258
-4.4825673,4.5411463,-4.8668704,-1.2034534,3.377626,-5.0,-2.3101113,-5.0,0.40063053,5.0,0.91442806,10.0,-4.8953934,5.0,1.341326,1.3358812
-5.0,5.0,-5.0,-8.095833,-5.0,5.0,1.291057,-0.7855921,-4.9317455,4.735858,2.7523305,0.28597778,-5.0,-5.0,-5.0,5.0
-5.0,5.0,-5.0,2.8461905,-2.7832754,5.0,0.8906488,-0.6813943,-0.28156054,-2.793711,4.576465,-0.0039003193,-5.0,-5.0,-5.0,3.4290428
-1.6418164,4.8747916,-5.0,10.0,5.0,-1.3890872,0.0597831,-0.030779704,5.0,-5.0,-0.21868351,1.647122,-1.5272949,-5.0,-0.5693631,-5.0
4.0565147,-4.938546,0.40405846,0.08545866,5.0,-4.321321,-3.4975944,5.0,5.0,5.0,-5.0,-7.5101347,3.020058,-2.8084419,3.1673558,0.4973188
0.95191216,-5.0,1.4885818,0.12351479,5.0,-5.0,-0.4304679,-5.0,0.86733043,5.0,-5.0,-7.3600807,2.1736188,4.2119484,5.0,-0.7385695
0.26520717,-3.6653936,3.7433884,0.36672136,5.0,-5.0,-4.475448,-5.0,4.5571365,5.0,-5.0,-9.110559,0.08994037,5.0,5.0,-0.83022267
-4.791301,0.33250356,3.2105904,-0.79465884,5.0,-5.0,-5.0,5.0,4.5722995,5.0,-5.0,-8.583462,-2.9209247,5.0,4.2718453,-0.25377673
-5.0,5.0,-5.0,-10.0,-5.0,1.5380125,2.966855,-0.61830175,-1.645835,3.838791,2.4562159,1.0989056,-5.0,0.4181955,-5.0,-5.0
-5.0,5.0,-2.568235,3.5829098,-4.8863444,2.8083105,1.307689,-0.20803362,-0.5046829,-3.5546668,5.0,-1.0511475,-5.0,-5.0,-5.0,4.665881
-5.0,5.0,-5.0,10.0,2.9447913,1.4978788,1.2954074,2.5704648,-0.41141278,-5.0,4.794645,-0.2175273,-3.6453013,-5.0,-5.0,5.0
1.3055983,5.0,-3.5505645,0.03705263,5.0,-5.0,-3.6351445,5.0,4.3253727,-0.74169385,0.53038836,3.0975885,0.670731,-5.0,3.2946763,1.2405696
3.999773,-4.2073464,2.709985,-0.43869025,5.0,-5.0,-0.9181709,5.0,1.2967827,5.0,-5.0,7.6963625,4.544268,2.3030672,5.0,-4.3697534
0.60334784,-4.4869,5.0,-0.5693128,5.0,-5.0,-2.3332257,3.9575481,4.37381,5.0,-5.0,-1.3936365,1.0353084,5.0,5.0,-0.87991595
-1.9173825,-1.6247587,3.9885314,0.5969203,5.0,-5.0,-2.5257602,5.0,2.8040652,5.0,-5.0,10.0,-0.70070255,5.0,5.0,-0.09883307
-5.0,5.0,-1.4896499,4.696903,-2.72561,-1.3161001,3.5592341,1.8394697,-0.99080485,5.0,-0.27967268,0.9875661,-2.3521004,0.8348626,-1.7510409,-0.40318343
-5.0,5.0,-5.0,4.591741,-4.227804,2.4398694,0.53134626,-0.13481496,-2.193728,-1.9178865,5.0,-0.4733344,-2.3261557,-5.0,-5.0,-0.319479
-5.0,5.0,-4.8316865,-4.511195,3.878139,-0.93828034,2.1664767,3.7440238,0.89250493,-5.0,4.836891,-0.62899643,-3.0019953,-5.0,-4.5017033,4.2266355
4.1731634,-2.0729923,2.6085448,4.5970497,5.0,-5.0,-5.0,-5.0,3.9881654,2.0819519,-2.1622949,0.47129545,4.8209963,-5.0,0.51135445,0.029744126
1.4747933,-3.8221822,2.4324272,0.48267967,5.0,-5.0,-1.2976621,5.0,4.024635,5.0,-5.0,1.6533298,5.0,3.3517418,5.0,-0.35718733
0.571733,-4.214251,3.642519,0.09416863,5.0,-5.0,-3.103223,-5.0,0.3723277,5.0,-5.0,-9.873969,0.2201873,5.0,5.0,-0.9604935
-1.9354464,-2.6295693,3.5272245,0.6616124,5.0,-5.0,-3.8296502,4.261569,2.0997617,5.0,-5.0,4.0866776,-1.9996071,5.0,5.0,-0.63791484
-5.0,5.0,-1.2217851,-7.240831,-1.0664583,-2.6827,3.2988665,-0.47921208,-1.8356878,5.0,1.4872849,1.5464294,-5.0,1.4694644,-2.6329389,0.66296625
-5.0,5.0,-3.62626,-10.0,-5.0,2.5732121,1.2604897,0.5294795,-1.250922,-3.2906218,5.0,0.3256261,-3.4677148,-5.0,-5.0,5.0
-5.0,5.0,-5.0,-4.284562,2.5762644,1.811538,2.6609,5.0,-0.7124671,-5.0,4.7969804,-0.5273187,-0.45864552,-5.0,-5.0,3.3503623
4.8213553,-0.7149926,0.3883009,10.0,5.0,-5.0,-4.2419395,2.2873833,5.0,3.2274313,-5.0,1.5984101,2.653899,-5.0,0.3498175,0.29907167
3.8296604,-2.7744942,1.3265612,0.27061924,5.0,-5.0,-2.4785323,5.0,0.8987016,5.0,-5.0,5.625973,1.7323519,1.1681111,5.0,-0.47909546
-1.2815943,-0.93665373,5.0,-6.07569,5.0,-5.0,0.08487761,5.0,4.1500435,5.0,-5.0,10.0,-2.2384477,5.0,5.0,-2.7297084
-3.292545,0.30980676,2.5283532,1.1920406,5.0,-5.0,-4.020172,1.2922974,4.1967573,5.0,-5.0,10.0,-1.2417752,5.0,5.0,-0.48612428
-5.0,5.0,-5.0,-5.2357707,-5.0,2.559689,1.7147791,-4.4246364,-4.100015,5.0,5.0,-2.584489,-2.6265852,-5.0,-3.7330685,5.0
-5.0,5.0,-5.0,-10.0,-3.3140996,2.9163213,2.7564647,0.86515814,-0.15918684,-3.8728688,5.0,-0.45793885,-4.220988,-5.0,-5.0,3.4683766
2.7332687,5.0,-4.4099703,0.9062924,5.0,-5.0,-5.0,0.017694337,5.0,-3.993914,-1.3090571,-7.530857,2.655917,-5.0,0.6458554,4.600622
5.0,-3.0873923,1.3737109,-5.4606023,5.0,-5.0,-2.0874965,5.0,4.416111,5.0,-5.0,10.0,5.0,-3.5139167,3.108316,-2.1810546
1.4370916,-3.368734,2.3072393,0.50262403,5.0,-5.0,-3.8334527,3.6411085,-1.4078354,5.0,-5.0,10.0,1.3703678,4.434043,5.0,-0.41194555
-1.9202731,-5.0,5.0,-0.97169095,5.0,-5.0,-4.754324,3.6443434,3.8048446,5.0,-5.0,4.8698854,-0.5705831,5.0,5.0,-1.6291828
-5.0,5.0,-1.896289,-3.201521,0.86573565,-5.0,0.9713745,1.7842853,-0.80694443,5.0,-4.999058,-0.08255577,-5.0,5.0,0.46149325,0.60977066
-5.0,5.0,-5.0,3.5866036,-5.0,3.8082707,2.444484,-0.53809214,-2.9255383,4.381895,5.0,0.17329176,-5.0,-5.0,-5.0,5.0
-5.0,5.0,-5.0,-4.878185,-0.9529398,1.0504053,2.1556177,3.756425,0.27419233,-4.5718927,5.0,-0.5622587,-3.2310627,-5.0,-5.0,-3.0478754
5.0,-1.4427297,3.253205,-4.157474,5.0,-5.0,-4.101383,5.0,5.0,5.0,-4.905962,4.852408,5.0,-5.0,5.0,3.8138819
1.9558815,-5.0,1.5398811,-3.5862906,5.0,-5.0,-2.7481003,5.0,-0.2811588,5.0,-5.0,0.84756184,5.0,3.9480526,5.0,-5.0
0.63593763,-3.9192631,4.033086,-0.022766769,5.0,-5.0,-3.360773,5.0,1.8464714,5.0,-5.0,10.0,1.3536783,5.0,5.0,0.007655248
0.3798411,-2.9306808,4.0428286,0.17809965,5.0,-5.0,-4.7338705,-5.0,0.8778546,5.0,-5.0,10.0,-0.13147223,5.0,5.0,-0.5844873
-5.0,5.0,1.3796601,-8.145207,5.0,-5.0,-3.4427283,-5.0,2.5493693,5.0,-3.8604531,-1.7797816,-2.0805573,5.0,0.4148075,1.7953048
-5.0,5.0,-4.9511995,-1.5749722,-5.0,4.0104237,2.7329683,0.48210698,-2.9349256,1.7174029,3.6572843,-0.51697075,-5.0,-5.0,-5.0,-5.0
-5.0,5.0,-4.3813663,6.925638,1.1114328,0.034842253,1.5937994,-5.0,-0.3075685,-5.0,5.0,-5.851034,-3.606963,-5.0,-5.0,5.0
3.1650767,5.0,-3.896172,-1.7043111,5.0,-5.0,-2.7970607,4.0626,4.965689,1.8343534,-4.726665,-1.6917809,4.692574,-5.0,1.702318,1.3281078
5.0,-4.418444,0.8937167,1.9307927,5.0,-5.0,-4.060334,4.6359816,0.59193003,5.0,-5.0,6.8540907,3.9704914,-1.0447874,4.5210104,-0.6911128
0.511672,-3.960191,3.3305986,-0.044805128,5.0,-5.0,-3.347511,-4.5872436,0.32879275,5.0,-5.0,-1.2953253,-0.09813291,5.0,5.0,-0.08902367
-1.7922649,-0.72345924,4.9508095,0.07133843,5.0,-5.0,-5.0,5.0,4.0646057,5.0,-5.0,-9.528521,-1.2529298,5.0,4.0006466,-0.008141734
-5.0,5.0,-3.6254716,3.0026937,-5.0,1.2230082,2.3724144,-0.110405914,-2.8445082,5.0,2.3325777,0.005212486,-5.0,-3.3048334,-5.0,0.99081945
-5.0,5.0,-5.0,-1.8143501,-4.4144626,3.711284,1.2174809,-0.20172524,-1.2577953,-5.0,5.0,-0.8154416,-4.995885,-5.0,-5.0,2.4767094
-3.2505026,5.0,-5.0,0.7236123,5.0,-5.0,-5.0,-1.6469847,5.0,-5.0,1.7154235,-9.61683,-1.5296576,-5.0,-4.8970075,5.0
5.0,-5.0,3.7478743,2.4368343,5.0,-5.0,-4.393915,5.0,5.0,4.6751356,-4.8123617,0.61793107,5.0,-5.0,2.3528047,0.2707882
1.9749671,-3.8916855,3.5465412,0.2775355,5.0,-4.406276,0.37222347,-1.688858,4.834928,5.0,-5.0,-4.228042,4.1698213,3.5371513,5.0,-0.0878572
-1.2800909,-4.3087406,2.1983807,-2.911545,5.0,-5.0,-1.7920924,5.0,4.21494,5.0,-5.0,-3.2623692,1.0930648,5.0,5.0,-4.4790463
-0.36489272,-1.8057362,3.2706776,0.60867196,5.0,-5.0,-3.8931532,4.303982,3.3875868,5.0,-5.0,-1.7553935,0.19354904,5.0,5.0,-0.27015182
-5.0,4.4465322,1.4663386,0.19708498,5.0,-5.0,-1.8265096,-5.0,4.078829,5.0,-5.0,-6.742879,-2.517396,5.0,2.6988578,0.22632116
-5.0,5.0,-3.1348326,-6.1055923,-5.0,2.9552855,1.6406202,0.82934695,-2.3313107,0.86954653,4.0001693,-0.04373404,-4.981526,-5.0,-5.0,-3.7015276
-5.0,5.0,-5.0,8.034716,-1.8901424,1.5378792,2.0575209,2.1702096,-0.69633657,-5.0,4.7855625,-0.08549142,-1.5259359,-5.0,-5.0,2.3366857
-5.0,5.0,-1.4482335,-2.0752852,-1.3939803,0.84754294,2.2725883,2.2450144,1.4556607,-5.0,4.757026,-0.06764996,-2.4741092,-5.0,-4.097891,5.0
5.0,5.0,0.44835198,-2.7053945,5.0,-2.255206,0.6996772,0.3167297,1.633785,-1.6305363,0.6722741,5.1634398,0.6601883,-5.0,-0.19479346,-5.0
4.3171945,-2.3264828,0.8537985,0.6190946,5.0,-5.0,-4.950759,4.762271,-0.36487436,5.0,-5.0,-5.6626067,3.1550014,-2.463419,2.8271165,-0.11109384
-2.4562428,-1.5005647,3.4821842,-8.75762,5.0,-5.0,-2.8850443,5.0,1.9032589,5.0,-5.0,3.55089,0.4869883,5.0,5.0,-5.0
-1.9262216,-0.108169496,3.1755054,0.8635254,5.0,-5.0,-3.9584322,-0.65995264,0.9787975,5.0,-5.0,10.0,-2.6142907,5.0,5.0,0.045918167
-5.0,5.0,-2.545378,10.0,-5.0,5.0,1.3044692,-1.0044165,-4.46544,5.0,5.0,-7.859582,-2.8831882,-3.9010735,-5.0,0.64486754
-5.0,5.0,-4.0108685,10.0,-5.0,3.2605941,0.6118681,0.6324745,-2.8445249,-1.7516621,5.0,0.009993233,-4.062919,-5.0,-5.0,0.6381674
-5.0,5.0,-3.0541515,10.0,0.9123887,0.040124014,0.9736473,0.11512756,0.60350895,-5.0,4.9349413,-0.020091608,-5.0,-5.0,-5.0,5.0
0.36139992,5.0,-4.174513,0.17397976,5.0,-5.0,-0.4107082,0.39790064,3.2278435,-4.0837393,0.18656743,1.7422181,-1.115209,-5.0,-1.1635102,-0.8680296
4.847964,-2.5096846,0.9401654,0.65885967,5.0,-5.0,-0.8394375,-1.2158461,0.4549353,5.0,-5.0,10.0,4.6389117,0.71291834,5.0,-1.0361397
0.08569077,-5.0,4.0678654,0.1290646,5.0,-5.0,-3.4276524,5.0,4.1498046,5.0,-5.0,-8.343961,3.5738597,5.0,3.2239594,-0.7484117
-1.7607138,-1.2015402,3.9230464,0.61300904,5.0,-5.0,-1.8209829,-5.0,3.0380783,5.0,-5.0,-3.9687471,-2.2504952,5.0,4.138548,-0.033499252
-5.0,5.0,-4.4868,-1.5009468,-5.0,5.0,0.43820554,0.114581466,-2.7931063,5.0,4.663829,2.2225785,-4.7727885,-4.8274727,-4.987226,1.0362494
-5.0,5.0,-0.27369082,3.0825615,-5.0,5.0,-0.39753497,-0.039333906,-0.107937634,-1.9334693,4.052602,0.09442768,-5.0,-5.0,-5.0,5.0
-5.0,5.0,-1.7675714,5.837528,0.14681804,4.706629,-0.85749143,0.4781804,2.8322237,-5.0,-1.2297188,-0.8521619,-5.0,-5.0,-5.0,5.0
5.0,-5.0,0.3269136,-0.5433948,5.0,-4.528797,0.5831617,5.0,4.804859,2.9361262,0.78090817,0.19173716,2.2647336,-5.0,2.3323803,5.0
5.0,-5.0,-0.78942335,0.8627782,5.0,-5.0,3.2688713,-1.6742086,2.0003119,5.0,-5.0,10.0,5.0,1.6343044,3.2614923,0.33199912
1.571357,-5.0,-1.3341943,0.37250137,5.0,-3.2357678,2.1432219,1.5479555,3.344082,5.0,-5.0,10.0,2.700996,3.8399143,3.8745213,0.11126512
-4.719181,0.8962481,1.1933442,0.47422993,1.3850693,0.39110434,1.0266469,3.3977332,5.0,5.0,-5.0,4.030418,-4.584394,4.1102943,-0.34266227,-0.3649238
-5.0,5.0,4.626987,3.4562447,-5.0,5.0,-3.20218,-1.7029182,2.0215287,-3.2304835,3.7093253,-4.4775486,-5.0,-5.0,-5.0,5.0
-5.0,5.0,-1.0261132,-8.682834,-5.0,5.0,-0.34146488,1.3207915,-0.8273318,-5.0,2.124243,0.05775127,-5.0,-5.0,-5.0,-5.0
-5.0,5.0,-1.5351994,-0.7436538,-1.6030095,5.0,0.87422985,-0.4578566,2.1772866,-5.0,0.41340327,-0.30524358,-5.0,-5.0,-5.0,-0.80662155
5.0,-5.0,0.18354666,-8.417886,5.0,-5.0,2.2140603,-3.0541825,5.0,5.0,-2.7686234,-2.402812,2.0748675,-1.7849035,2.6896076,0.9212413
5.0,-5.0,1.0767256,-7.3260217,5.0,-4.717061,1.6237729,5.0,4.8507023,5.0,-5.0,-8.741403,4.906513,2.84769,-2.0091307,-5.0
2.3168154,-5.0,0.09186357,-0.40556186,5.0,-4.595896,1.7221982,-2.5058556,3.3704097,5.0,-5.0,-10.0,2.652001,3.612637,0.73676884,-0.46627057
-4.0061464,0.52229524,0.70141244,0.20650937,4.112045,-2.4956667,0.7508323,-5.0,4.992609,5.0,-3.4849253,10.0,-4.6244087,2.7662463,1.1000179,-0.4220522
-5.0,5.0,-1.9244827,-1.0919876,-5.0,5.0,-0.24404061,1.9486518,-1.3887993,-3.6785927,3.236268,4.423155,-5.0,-5.0,-1.6664724,-5.0
-5.0,5.0,1.3267591,10.0,-5.0,5.0,-0.0020871162,0.6181527,-0.63982844,-5.0,0.8550755,-0.35270795,-5.0,-5.0,-4.274751,5.0
-5.0,5.0,-0.75839514,10.0,0.18141961,2.576475,0.5816451,2.0898857,1.5159905,-5.0,-1.4117358,-0.28768945,-5.0,-5.0,-5.0,5.0
5.0,-5.0,0.7983067,1.9678255,5.0,-5.0,2.3637805,-0.03345222,4.767288,5.0,-4.58027,-10.0,-1.3622098,-3.2649298,1.8174586,3.884902
5.0,-5.0,0.3400151,-0.5110046,5.0,-5.0,0.45097178,-1.5780282,2.7952113,5.0,-5.0,3.0026953,3.0887766,0.7794893,1.6803845,2.4619873
1.73875,-1.8930503,0.77337635,-10.0,5.0,-4.592596,1.7878275,5.0,2.5844789,5.0,-4.802746,10.0,5.0,3.5390866,2.8136797,-5.0
-4.7744555,1.20724,0.9534037,0.48386,2.407665,-0.84228826,0.7894236,5.0,3.9772694,5.0,-5.0,-3.8119698,-4.6594377,5.0,-1.425603,-0.94557446
-5.0,5.0,5.0,0.2930136,-5.0,5.0,-0.09107922,0.5920969,-3.186143,4.13241,2.0950184,8.165084,-5.0,-5.0,0.7161721,0.10638927
-5.0,5.0,1.0010014,10.0,-5.0,5.0,-0.51060104,0.74952644,-1.0026739,-3.8115377,1.9748759,-1.6398886,-5.0,-5.0,-3.3408542,5.0
-5.0,5.0,-0.32886052,5.8715305,-0.51753175,1.5473397,0.08444953,0.32441705,3.7614639,-4.1999784,0.7030474,0.055841397,-5.0,-5.0,-3.2503743,5.0
5.0,-5.0,-0.50594175,0.8506192,5.0,-5.0,-1.8640553,5.0,0.7469282,5.0,-5.0,-2.3435402,2.5806203,2.0641046,-0.38758695,-2.873252
5.0,-5.0,0.018001318,-0.06257031,5.0,-4.3185577,2.7414749,-0.09215657,3.1542745,5.0,-5.0,10.0,4.106357,0.71127355,0.2736113,2.124474
-0.46215677,-1.996927,-1.3416673,0.37238175,3.923664,-2.8323588,1.1964748,-2.6140785,2.111509,5.0,-5.0,-0.4389615,-3.1518033,2.5452929,0.74113935,0.31050262
-5.0,5.0,4.999442,-0.75891644,-5.0,4.0786233,2.0259593,0.65021443,-1.1614753,5.0,-1.8523138,-10.0,-5.0,-4.426233,0.6170013,-0.46022594
-5.0,5.0,5.0,-9.201517,-5.0,5.0,-0.37237966,-5.0,-0.18299621,0.13140178,4.017536,0.20033851,-5.0,-5.0,-1.3631,-5.0
-5.0,5.0,-2.2244537,10.0,-5.0,5.0,-1.0966642,0.42930257,0.7838206,-5.0,-0.11440319,-1.8682525,-5.0,-5.0,-4.721573,5.0
4.5749893,-5.0,0.28451645,-2.1370966,5.0,-5.0,-0.10294914,5.0,5.0,-1.1342275,3.0163856,2.4219043,-1.8842785,-5.0,-0.113495365,-2.8210242
5.0,-5.0,0.03044653,1.3741733,5.0,-4.762559,0.7086648,4.8211083,2.9926376,5.0,-5.0,5.1024704,2.1441903,0.1988951,0.16491318,-0.39824522
4.168586,-5.0,0.34827006,-0.7156674,5.0,-4.7952437,1.296767,0.59544015,3.433244,5.0,-4.942397,-9.579671,3.2627833,2.924306,-0.7512174,0.098950855
-0.853809,-1.4006045,-0.2983929,0.07082878,5.0,-1.557872,0.7616925,5.0,4.3033247,5.0,-5.0,-3.4706087,-2.3582277,1.9241797,-0.7443492,-2.7614133
-5.0,5.0,5.0,0.4346517,-5.0,5.0,0.5186776,0.67685163,1.136034,5.0,1.8900894,2.1500487,-5.0,-5.0,0.6246705,-0.71962553
-5.0,5.0,0.61916345,-1.1250924,-5.0,5.0,-1.1320181,-1.793674,-0.95921266,-4.260809,1.9361354,0.53122056,-5.0,-5.0,-5.0,2.5905523
-5.0,5.0,-2.8926094,2.6969748,-0.56445175,1.8901584,-0.750132,-0.39271724,2.9580734,-5.0,-0.25061184,-1.4270633,-5.0,-5.0,-5.0,5.0
5.0,-5.0,-0.47983426,0.15619577,5.0,-5.0,-1.1830896,-5.0,2.5732336,5.0,1.3701583,-0.47628745,-0.13458449,-5.0,1.2349879,4.129234
5.0,-5.0,-0.72415733,0.42268237,5.0,-3.7784383,2.9816086,-5.0,0.3013919,5.0,-3.4615607,10.0,4.672097,1.1259325,1.8438249,1.1437486
1.5186343,-1.8769758,-0.7493694,0.008033112,5.0,-3.111958,0.96899045,5.0,2.9523637,5.0,-5.0,-5.3537884,0.95581913,5.0,1.4479,-0.3596522
-5.0,5.0,1.4011656,-3.6499438,-5.0,5.0,0.47023565,-0.46249086,-1.4767457,5.0,2.0417182,-7.125042,-5.0,-2.9787145,-0.93481904,0.32731462
-5.0,5.0,2.8941727,-2.8068619,-5.0,5.0,-0.21942699,0.019009473,-0.53518176,-0.73988396,3.3327527,-1.6125314,-5.0,-5.0,-2.13352,-0.820951
-5.0,5.0,-1.4519761,4.9349313,-3.1928322,5.0,-1.130288,0.13365592,1.1739854,-5.0,-0.686035,-1.8184507,-5.0,-5.0,-5.0,-4.3556976
4.7517004,-4.490974,0.43997097,-2.4920597,5.0,-4.8223033,0.8060684,0.64339364,2.155159,-0.40083754,2.5787096,10.0,-5.0,-5.0,-2.0329738,-5.0
5.0,-5.0,0.6032966,-0.6239436,5.0,-5.0,-0.22181094,-3.6661654,1.2800529,5.0,-4.297361,-10.0,2.0529768,0.67752457,2.0715673,5.0
4.38044,-5.0,0.09395778,-0.53167164,5.0,-5.0,0.8602595,-1.2053928,3.1626682,5.0,-5.0,1.5547934,3.2583742,4.7904816,0.87455547,1.0748454
-1.5815161,0.6390851,0.9093243,0.11054367,2.555539,-2.35422,0.8069835,-0.7845249,3.5427742,5.0,-5.0,-2.3404236,-2.8309422,3.619571,-1.0336807,-0.959033
-5.0,5.0,5.0,-2.2782068,-5.0,5.0,-0.6664263,-5.0,-2.2564874,5.0,3.6630988,-3.1097028,-5.0,-5.0,-0.20477116,2.6728773
-5.0,5.0,-0.2411834,4.916809,-5.0,5.0,-1.150414,0.49902296,-0.9858552,-3.0633109,1.8383405,-0.28633103,-5.0,-5.0,-4.3479433,-3.234603
-5.0,5.0,-2.4336295,10.0,-3.3875334,4.9255815,0.09868622,-0.33985764,4.3189754,-5.0,0.039823532,0.2658422,-5.0,-5.0,-4.7932854,5.0
5.0,-5.0,-0.44023287,0.65940875,5.0,-5.0,1.3404847,0.52726245,5.0,5.0,-2.619577,7.666543,-0.16167355,-5.0,2.5858498,2.641895
5.0,-5.0,0.03338939,0.2845202,5.0,-5.0,2.3743014,-2.3237042,0.705786,5.0,-5.0,3.4414592,5.0,1.8417714,1.2380358,-0.3207837
3.391098,-3.5078323,3.197629,-6.070591,5.0,-5.0,-1.4863012,5.0,2.160242,5.0,-4.7346735,-3.7947865,-1.6777266,5.0,0.6678713,-5.0
-5.0,5.0,1.6992866,1.183554,-5.0,4.5452046,2.8578954,0.9781999,-2.7267888,5.0,-3.1475585,-5.3826375,-5.0,-1.1975677,1.795587,2.23207
-5.0,5.0,4.518431,0.3452563,-5.0,5.0,-0.47982848,2.1055133,-0.010425568,-0.21598709,3.8539367,0.64313066,-5.0,-5.0,-2.4716463,5.0
-5.0,5.0,1.5791309,10.0,-5.0,5.0,-0.050273776,-0.1908552,-0.61958957,-5.0,0.8912917,0.9155184,-5.0,-5.0,-5.0,4.6787043
-5.0,5.0,-0.9813405,10.0,0.8776332,3.0320911,-0.92329454,0.41772756,3.356565,-2.1716366,-1.0010413,-2.440648,-5.0,-5.0,-5.0,-2.021512
5.0,-5.0,-1.2628982,-3.6825573,5.0,-5.0,2.873457,-3.671456,2.5518873,5.0,-5.0,5.04107,1.0908701,-0.22079742,2.430958,0.50341856
5.0,-5.0,-0.006764084,0.560467,5.0,-5.0,0.905691,-5.0,1.7812504,5.0,-4.2643156,1.8511796,2.7376814,0.035349846,1.7049772,0.5019395
2.90027,-2.978966,-1.2033014,0.271854,4.771372,-5.0,1.1864505,-5.0,-0.04577577,5.0,-5.0,-1.7183304,2.005238,4.354798,1.7827728,0.54987377
-4.976087,4.1511126,2.3081417,-0.19325396,-2.9129739,1.3391064,1.0053467,1.3974853,-0.7691769,5.0,-2.5105898,10.0,-5.0,1.556613,0.46480465,-0.1238358
-5.0,5.0,4.680107,-0.3609163,-5.0,5.0,-2.5134647,-2.3779144,-0.42074502,-0.9395815,5.0,-7.21333,-5.0,-5.0,-3.3771524,-5.0
-5.0,5.0,1.2776968,-10.0,-5.0,5.0,-1.6273863,0.7391525,-0.06042862,-5.0,-1.1416196,-1.6225257,-5.0,-5.0,-5.0,-5.0
1.4355893,-1.4588075,-0.36007345,-8.773926,2.9355273,-2.2124925,1.1637033,0.33673668,5.0,-2.6407623,0.38547724,0.50912106,-3.901691,-5.0,-1.0288644,-4.9607935
5.0,-5.0,-0.1712097,1.4967049,5.0,-5.0,-1.2727085,-5.0,1.4366409,5.0,-5.0,0.3002826,0.73746514,-0.17294121,0.37966645,0.10973239
5.0,-5.0,3.582064,1.5124646,5.0,-5.0,1.9321334,3.4288502,2.2665744,5.0,-5.0,-0.4119482,3.8917394,3.0883384,-0.654866,-0.60240126
2.4312005,-3.6729586,2.7870157,-0.35489988,3.3858333,-2.9712763,0.20069367,2.3948593,4.909824,5.0,-4.8038964,10.0,-1.3126047,3.944513,-1.7863078,0.2596771
-5.0,5.0,4.531711,-0.8252321,-5.0,5.0,0.7241161,-0.68310755,0.24070758,5.0,0.6439031,-0.5082275,-5.0,-5.0,0.8253102,-0.8440291
-5.0,5.0,4.5073714,0.5718341,-5.0,5.0,-0.78588635,-0.44990748,-0.17368805,-3.6434507,3.3915033,0.36498338,-5.0,-5.0,-2.767631,4.283666
-5.0,5.0,-0.8973033,10.0,-5.0,5.0,-0.08081448,0.43836996,0.73181885,-5.0,-0.35696107,0.4318749,-5.0,-5.0,-5.0,0.14994144
-4.7241535,-1.8583214,-0.57042515,10.0,2.9251728,-2.60991,1.9822031,-0.35841042,4.054387,-3.942148,0.8880975,-0.002809018,-5.0,-5.0,-5.0,-0.7389784
5.0,-5.0,0.5751667,-0.51596797,5.0,-5.0,-0.8195691,-5.0,1.9421159,5.0,-5.0,-10.0,2.075759,0.65724397,-0.64027834,-5.0
5.0,-5.0,0.10575934,-0.53150403,5.0,-5.0,5.0,5.0,1.58412,5.0,-3.8317876,10.0,3.7219505,0.7996996,3.0907416,-0.7194804
-0.3751262,-1.846774,-0.98043823,-2.0822055,5.0,-3.2787187,1.1075907,5.0,4.159354,5.0,-5.0,1.8921142,0.34652293,5.0,0.17079622,-0.015482195
-5.0,5.0,4.834129,0.67201024,-5.0,5.0,2.5263295,-0.39998737,-0.3584777,5.0,-1.5064566,-3.4369695,-5.0,-3.783074,0.36529994,0.39227533
-5.0,5.0,3.9092488,3.4575052,-5.0,5.0,-0.08354068,2.134233,-0.39074683,-0.7383233,4.287657,0.0767951,-5.0,-5.0,-2.8529491,-5.0
-5.0,5.0,0.83264726,3.3692904,-5.0,5.0,0.19326043,0.47159794,-1.5952966,-5.0,0.8736315,-0.26528203,-5.0,-5.0,-5.0,0.05919552
-5.0,5.0,-3.318059,5.0248866,-0.023042202,0.45030308,0.8558552,0.08918053,3.9747891,-3.2630718,0.7842938,0.3055067,-5.0,-5.0,-3.459377,5.0
5.0,-5.0,0.45681858,-0.077018,5.0,-5.0,-2.04222,1.6404747,5.0,5.0,-3.3443294,-10.0,0.588512,-1.979972,2.034871,0.1934071
5.0,-5.0,-0.819705,-1.3998512,5.0,-5.0,2.4618864,-2.7842908,2.572985,5.0,-5.0,0.111533165,4.1041036,1.5162941,1.0745106,-0.1612531
-0.4759524,-1.3111423,-0.9511479,0.27418342,5.0,-3.4198298,0.936646,5.0,4.7207923,5.0,-5.0,-6.668712,0.47768855,3.9633837,0.2856915,-0.35547
-5.0,5.0,3.1791766,-2.383563,-5.0,5.0,0.60539097,0.8070152,-2.2016757,5.0,3.5813947,10.0,-5.0,-5.0,-0.48388886,0.20955876
-5.0,5.0,2.241291,-0.92740893,-5.0,5.0,0.059167027,0.08722681,-0.41574407,-3.3878045,3.4960227,0.0032794327,-5.0,-5.0,-3.6472335,3.992711
-5.0,5.0,0.14027947,-5.1039424,-5.0,5.0,0.57712024,0.23510703,-0.19267446,-3.840244,1.2331903,-0.15525924,-5.0,-5.0,-4.5512185,5.0
5.0,-5.0,0.4160018,-9.092566,5.0,-5.0,3.7706213,1.9337442,4.7085495,0.58120096,3.5633569,2.3982875,-5.0,-5.0,-0.97874284,-5.0
5.0,-5.0,-0.17329529,-0.4857896,5.0,-5.0,-1.8399631,-1.813498,0.35614097,5.0,-5.0,-10.0,2.3658319,0.6433935,-0.49914944,0.33684063
4.9459653,-5.0,1.2963215,0.6664618,5.0,-2.8753915,3.2912588,5.0,3.6120396,5.0,-2.3836117,-7.2417293,5.0,2.599475,0.5076877,0.8671336
-2.1782222,-0.1838764,1.7495716,-0.23704772,2.679371,-2.6880412,-0.23040994,5.0,3.622488,5.0,-4.411396,8.70347,-3.7378774,2.5516093,1.0828403,0.43726438
-5.0,5.0,2.5973067,-4.437082,-5.0,5.0,-0.40671396,-1.6594342,-1.8681762,5.0,3.2856114,10.0,-5.0,-5.0,0.74582195,-0.82549745
-5.0,5.0,0.2914918,7.8927364,-5.0,5.0,-0.9598738,2.3925033,-1.968818,-0.7220521,4.012813,0.52910817,-5.0,-5.0,-3.5726824,3.271719
-5.0,5.0,-3.5966656,6.51219,-5.0,5.0,-0.74619603,-1.0124012,1.8902054,-5.0,-0.3355354,-1.4278849,-5.0,-5.0,-4.0947204,5.0
5.0,-5.0,-0.880517,1.0666052,5.0,-5.0,0.15323246,1.6337831,5.0,3.1869118,1.5040574,2.019005,-1.0940659,-5.0,2.615887,1.6017411
5.0,-5.0,-0.0091511905,0.46428463,5.0,-5.0,0.39331126,5.0,2.5379946,5.0,-5.0,4.1649046,4.3448734,3.393991,-0.19930983,-0.021268427
2.2799783,-4.6068583,-1.0459074,-0.7367192,5.0,-4.1896544,0.33415493,-1.0568118,4.2497435,5.0,-4.678833,-10.0,0.732098,3.5808785,-0.59268856,0.94417983
-5.0,3.5529335,2.1473355,-0.5830476,-1.2521515,1.1656221,1.3777764,-5.0,1.5831053,5.0,-5.0,-7.266738,-5.0,-1.496635,-1.058483,0.11370165
-5.0,5.0,3.8356078,-0.5174584,-5.0,5.0,0.8130087,0.026962057,-0.9325149,4.0497394,5.0,-10.0,-5.0,-5.0,-3.9370065,0.9989393
-5.0,5.0,0.30316088,10.0,-5.0,5.0,-1.6937613,-5.0,-0.9613332,-5.0,0.69387805,-10.0,-5.0,-5.0,-4.5787454,2.4105682
-5.0,5.0,-1.1860492,10.0,0.854234,-0.2224549,-0.45455575,-1.3659681,4.130796,-4.377197,0.0053952634,0.6970055,-5.0,-5.0,-5.0,5.0
5.0,-5.0,-0.30323994,1.3530571,5.0,-5.0,-1.4554348,-0.07354331,4.3034625,5.0,-5.0,-6.8150845,0.0923025,-4.029121,2.3624966,5.0
5.0,-5.0,0.02971512,0.54926854,5.0,-4.449728,1.862113,2.4990137,0.68923056,5.0,-5.0,5.3422832,4.545297,0.24621451,1.0872633,0.3983341
4.993313,-4.346272,1.9865526,-1.9395208,5.0,-3.693643,-1.0585443,5.0,2.656952,5.0,-5.0,-2.696216,-0.74243546,4.266533,0.6553467,-2.493496
-5.0,5.0,3.3740196,0.04599572,-4.839289,2.8148565,0.8392077,-0.5579972,0.2192716,5.0,-1.7319297,0.99736726,-5.0,-0.7889221,0.31246364,-0.28554532
-5.0,5.0,3.461624,6.0159564,-5.0,5.0,-0.506716,1.4875121,-0.07298255,-1.2449019,3.3321414,-0.3663517,-5.0,-5.0,-4.050172,5.0
-5.0,5.0,2.6136122,1.9210904,-5.0,5.0,0.36547434,1.5784928,-1.1390048,-4.4926267,3.4078524,0.12641129,-5.0,-5.0,-5.0,-5.0
-5.0,3.2668371,0.10204947,10.0,2.983079,-0.62074655,5.0,-2.5668087,4.0507317,-4.1303926,1.9385155,-1.8253329,-5.0,-5.0,-5.0,-5.0
5.0,-5.0,-0.7675208,1.0871309,5.0,-5.0,-0.9195694,-4.105522,1.0549313,5.0,-5.0,1.5863419,1.4003302,0.63200486,2.5366569,3.6612034
5.0,-5.0,0.027792096,0.111750185,5.0,-5.0,4.209779,-5.0,2.389451,5.0,-3.4724207,1.0950274,4.7693,1.0091007,0.80001974,1.523676
-0.61896765,-2.0364218,-0.8880316,0.18677528,5.0,-3.409944,-0.5405191,2.5667348,5.0,5.0,-4.487405,0.73093367,0.35888827,4.3575535,0.5822599,0.1497188
-5.0,5.0,4.4451466,0.6993265,-5.0,5.0,2.2526486,0.3132854,-1.0945354,5.0,-1.1995687,10.0,-5.0,-2.968761,0.32123423,0.3489774
-5.0,5.0,3.494401,-1.2061564,-5.0,5.0,-0.05806732,2.2066252,-0.94528264,-2.5689027,3.9195478,-0.8144156,-5.0,-5.0,-3.182684,-1.8065605
-5.0,5.0,-1.6803211,-9.014103,-5.0,5.0,-0.7601174,1.1217966,1.4519311,-3.5477293,0.24235773,0.16124067,-5.0,-5.0,-5.0,2.6203737
-1.2118593,-2.2928321,0.5153501,10.0,4.6362104,-1.6371263,1.4296745,0.45558423,4.7011094,-2.0278988,0.82697767,-0.6686335,-5.0,-5.0,-3.7441149,0.5743966
5.0,-5.0,-0.4104457,0.35025528,5.0,-5.0,2.2853868,-5.0,1.4099349,5.0,-5.0,-1.8743882,1.5886347,1.7302477,3.5438385,5.0
1.9376535,-3.2325492,-0.8660886,0.38430455,5.0,-2.9579196,0.66067797,3.1970875,3.5054379,5.0,-5.0,-3.9494748,1.540549,5.0,0.8211978,0.019430682
-5.0,2.4727755,1.7533516,0.4984792,-1.256494,0.36328572,0.70362926,3.0829182,1.3068707,5.0,-3.0603304,10.0,-5.0,1.8005278,1.0833861,0.15519747
-5.0,5.0,4.796551,0.22607978,-5.0,5.0,-0.064744435,0.9426048,-1.1640606,2.6826334,3.3304448,-8.20591,-5.0,-5.0,0.3602717,-0.76573277
-5.0,5.0,1.0084622,0.5003778,-5.0,5.0,-0.19688427,-0.4310722,-0.60455835,-1.2375671,1.2203007,5.8382316,-5.0,-5.0,-3.3472636,0.09002781
0.0018819869,-1.5901158,-0.08939925,-10.0,4.5718126,-5.0,1.862773,-0.40769657,5.0,-1.4522235,1.2634473,-0.5395874,-5.0,-5.0,0.7146057,-0.014567748
5.0,-5.0,0.47180974,0.027098011,5.0,-5.0,-1.3536628,5.0,1.2685235,5.0,-5.0,-3.9124095,1.6623769,0.85899854,0.74120975,5.0
4.910581,-5.0,-0.38645637,-0.24347019,5.0,-5.0,3.1560001,5.0,2.9739337,5.0,-4.375748,-8.227074,5.0,2.0775666,1.1535423,-2.0707788
-2.7190146,0.44883457,2.6712537,0.30898613,2.3459368,0.19417739,1.8441349,4.191405,4.0803227,5.0,-5.0,2.199648,-5.0,2.4483962,-1.9653668,0.3191404
-5.0,5.0,4.157262,0.54235613,-5.0,5.0,-0.4320104,-1.5504832,0.14485711,3.957471,4.2998605,10.0,-5.0,-5.0,1.3684125,-0.21331212
-5.0,5.0,1.7222326,10.0,-5.0,5.0,0.63270056,0.06878957,-1.1648226,-1.5723847,2.2794557,-0.66232175,-5.0,-5.0,-2.7149696,-5.0
-5.0,5.0,-2.4885578,-1.7105799,-4.0125365,5.0,-0.020860076,1.1081454,2.6742806,-4.431219,-1.4961143,-0.85262316,-5.0,-5.0,-4.562235,0.20503998
5.0,-5.0,0.14815784,2.9104455,5.0,-5.0,1.8970951,0.35312393,2.811782,5.0,2.578516,2.2895105,-0.26398867,-5.0,2.8917584,5.0
5.0,-5.0,0.67568254,0.112578526,5.0,-2.2429192,1.3207604,5.0,2.7764688,5.0,-5.0,-3.8497372,0.7969408,-1.5766246,-1.1877668,-2.5567627
4.435612,-4.198112,-1.1162478,0.09604726,5.0,-4.9047394,2.4497106,-3.4887967,0.45772463,5.0,-5.0,10.0,2.847303,3.421002,0.7592133,0.30633506
-2.2843292,0.89368916,1.007448,0.26051086,0.90151894,-0.48556027,-0.6550029,-5.0,3.2790325,5.0,-5.0,-6.5503674,-4.565387,4.1838255,0.1571595,0.3161372
-5.0,5.0,5.0,7.954128,-5.0,5.0,-0.47860217,-5.0,-1.9857441,2.735337,3.8516698,-0.13109016,-5.0,-5.0,1.0740591,-1.2754667
-5.0,5.0,1.394603,3.930787,-5.0,5.0,0.116702795,-5.0,-2.4269967,-4.1593037,1.6328492,-6.72252,-5.0,-5.0,-2.6102781,3.673583
-5.0,5.0,-2.7629347,10.0,-2.4431443,5.0,0.8232844,0.5897515,4.261129,-3.5157099,-0.419725,-1.1351693,-5.0,-5.0,-4.9271674,5.0
5.0,-5.0,-0.8293265,-1.807399,5.0,-4.746101,0.7345661,-0.54555386,3.0555506,5.0,0.36667085,-0.25760308,-0.47206533,-5.0,-0.3566811,-5.0
5.0,-5.0,-0.40163302,-0.22089304,5.0,-2.793611,1.1796184,4.1728287,3.3383765,5.0,-5.0,-2.113935,4.2158985,1.4813137,2.615146,4.6233554
2.696894,-3.565539,-0.87245,0.2947197,5.0,-3.2942863,1.2881207,-0.967751,3.610222,5.0,-5.0,-10.0,0.8832525,4.432328,0.3391646,-2.0832558
-5.0,5.0,4.9607334,2.1758194,-5.0,5.0,1.5556548,0.12429911,-0.09996152,5.0,-1.1713643,-3.807264,-5.0,-5.0,-0.23961288,-0.4862408
-5.0,5.0,5.0,-8.054665,-5.0,5.0,-0.6838064,-1.5331347,-1.2290573,-1.1988362,3.3790586,0.56169975,-5.0,-5.0,-1.8732734,5.0
-5.0,5.0,0.2253638,-2.759841,-5.0,5.0,-0.53776836,0.30618858,-1.1798316,-3.573083,0.86364096,1.3714505,-5.0,-5.0,-4.2252955,1.7416162
-5.0,5.0,-3.024878,-7.15858,2.3123937,-1.0187482,0.5491872,-0.6364269,3.096559,-4.129061,0.30554914,-0.40487272,-5.0,-5.0,-5.0,-5.0
5.0,-5.0,-1.4947712,-4.0094795,5.0,-5.0,-0.7437384,-5.0,-0.28715235,5.0,-5.0,-2.8061657,1.4064581,-0.03290172,1.0378287,-5.0
4.455616,-5.0,0.10003269,0.28788915,5.0,-3.815633,3.0175738,3.6530218,0.7732388,5.0,-5.0,7.042329,4.8428917,3.549787,2.5047643,0.29975146
-3.9272919,2.8916438,2.9089296,-10.0,5.0,-1.9348307,-0.17883834,5.0,5.0,5.0,-5.0,8.998966,-3.9802265,4.864188,-0.8984299,-5.0
-5.0,5.0,5.0,-4.941453,-5.0,5.0,0.37398428,-0.2771336,-3.3909662,5.0,1.7118049,-10.0,-5.0,-5.0,-2.0926304,2.525402
-5.0,5.0,1.1517347,9.457676,-5.0,5.0,-0.08333957,-0.1124005,-1.9431818,-0.113876045,1.5157005,2.461562,-5.0,-5.0,-4.640978,1.8274918
-5.0,5.0,-0.33677804,10.0,4.309863,0.9864453,1.8163006,-5.0,3.318449,-4.5225153,-0.9401082,-10.0,-5.0,-5.0,-5.0,1.1061249
5.0,-5.0,-3.4463766,-6.44606,5.0,-5.0,-0.98372877,2.1445775,4.7163053,5.0,-3.5205226,-9.681673,-0.897887,-5.0,-0.31790447,-2.7523217
5.0,-4.7571564,-1.5469043,-0.9761325,5.0,-5.0,2.895355,-0.16032767,-0.826173,5.0,-5.0,1.3582847,2.576702,1.1961645,4.49348,0.2922151
4.806293,-4.438702,3.516787,2.0644534,5.0,-5.0,-1.1787306,1.244081,4.5069237,5.0,-4.4626856,10.0,1.116291,5.0,0.3794756,-3.3521533
-5.0,2.603178,1.8849057,-0.5336362,0.85532707,-0.724151,0.07437262,-4.973241,3.851385,5.0,-5.0,-3.3602872,-5.0,1.0794034,-0.85720825,-2.0400684
-5.0,5.0,2.8420594,6.5117483,-5.0,5.0,-0.32549396,0.40300155,-0.46169376,1.9771051,5.0,0.6321636,-5.0,-5.0,-4.0248766,-5.0
-5.0,5.0,0.688437,-2.4823048,-5.0,3.3578687,0.21890144,0.16216053,-0.9292619,-5.0,5.0,-0.2772658,-5.0,-5.0,-3.7010162,5.0
-5.0,5.0,-1.781467,-5.992347,-0.9970025,0.55321145,2.7049265,0.049409017,0.48949474,-4.3509545,3.0993514,0.29105762,-5.0,-5.0,-4.474379,4.109067
-3.7746546,3.8042908,-2.9648,8.665359,5.0,-5.0,-0.9028718,1.8621998,4.4662046,-1.2849997,0.8398801,3.0898833,-2.4516473,-5.0,-0.79872406,-5.0
2.4272547,-3.2256207,1.7017148,-0.06714061,5.0,-5.0,-3.376408,-5.0,1.5391785,5.0,-5.0,-10.0,5.0,3.7904563,4.2714005,0.46751538
0.91203445,-5.0,5.0,-0.9082856,5.0,-5.0,-2.5676818,5.0,3.271569,5.0,-5.0,10.0,3.0468664,5.0,5.0,-0.29659295
0.23723745,-2.325705,5.0,-0.09229577,5.0,-5.0,-5.0,-1.8260903,5.0,5.0,-4.731351,10.0,-0.21639049,5.0,5.0,-1.1150038
-5.0,4.6279783,2.750618,10.0,5.0,-5.0,2.4391093,3.299691,2.103183,5.0,-2.3140073,10.0,-3.9778435,4.944834,1.0996568,-0.39490426
-5.0,5.0,-5.0,10.0,-4.596496,3.9936895,4.9700603,5.0,-4.4904137,3.2940202,4.5432463,0.07533959,-4.181815,-5.0,-5.0,-4.9149227
-5.0,5.0,-5.0,5.2402463,4.834028,-3.6133375,-1.0833253,-5.0,3.3255324,-5.0,4.690732,-3.2858086,-2.5820158,-5.0,-3.1820555,-5.0
2.7626686,2.2347636,-2.4900699,-5.0810375,5.0,-4.411424,-5.0,5.0,5.0,2.5215123,-5.0,0.04272248,5.0,-5.0,0.33743596,1.3700237
1.1920199,-3.1843047,4.558125,-0.4093741,5.0,-4.1460686,-5.0,-5.0,4.5871234,5.0,-5.0,-10.0,5.0,0.61807215,3.4557014,0.54509175
-1.5451616,-1.0552596,4.7621236,0.20428602,5.0,-4.746742,-5.0,-3.9049778,5.0,5.0,-1.2737758,2.72902,-0.25195515,5.0,5.0,-1.1875116
-5.0,-0.76988196,-5.0,-8.887572,0.114735544,-4.5426817,1.6974977,0.52784467,-2.0973706,4.0695763,1.7193658,0.3957929,-5.0,5.0,-2.1513314,-0.6905582
-5.0,-1.0394843,-5.0,-1.110441,-1.2501578,-1.1239218,2.4797525,-1.4595246,-4.115113,-2.5554345,3.5883844,-0.09223285,-5.0,-3.113001,-3.2780964,-3.4438002
-5.0,5.0,-5.0,-8.689909,5.0,-5.0,-5.0,-5.0,0.5411558,-4.2133694,1.5825062,-0.5652099,-4.6614876,-5.0,1.0570688,-5.0
3.5158603,-0.37559074,0.7464627,0.2009474,5.0,0.850332,-5.0,-2.4225535,5.0,0.34174484,-5.0,2.939824,5.0,-5.0,1.6477258,1.8547553
3.0217707,-0.76870227,5.0,-0.58658785,5.0,0.9614763,-5.0,-5.0,4.794631,3.397183,-4.6102023,10.0,0.10776949,1.8472531,4.377398,0.87901604
-5.0,-1.0112909,-1.6253203,-0.7549403,2.5496812,-3.0550754,-0.8560655,1.2585015,5.0,5.0,0.7065946,3.5359051,-5.0,5.0,1.432786,-1.8101542
-5.0,-3.7599213,-5.0,-7.664943,-3.6969273,-2.135029,3.686392,-5.0,-5.0,4.3435555,5.0,-0.413216,-5.0,5.0,-5.0,3.778375
-5.0,2.3346653,-5.0,-9.126038,-2.8307903,-1.1038902,3.06232,3.6553237,-0.6406684,-0.067748904,5.0,0.30918068,-5.0,-3.63276,-5.0,5.0
-5.0,5.0,-5.0,1.1014904,5.0,-3.431456,-4.444053,0.32649815,4.3757563,-3.461034,-0.20080817,0.19058867,1.726997,-5.0,0.06165427,-1.0503603
5.0,-2.2259784,2.3714032,-0.447873,5.0,5.0,-5.0,5.0,3.0438552,4.5023527,-5.0,1.8854415,5.0,-5.0,0.86751294,0.3899278
1.279804,-1.618325,4.743288,-0.30369118,5.0,-1.4307715,-3.6257324,-5.0,0.2896254,5.0,-5.0,-6.539442,0.7911587,-1.9411657,5.0,0.33969885
-0.443501,-0.9307724,5.0,0.35353515,5.0,-2.7124,-2.614963,-4.006179,3.3760426,5.0,-5.0,-5.090305,0.5210296,5.0,5.0,0.017762102
-5.0,-0.0032670498,-4.422451,0.14869468,0.04717982,-1.0308584,1.9225746,-0.08543039,1.003499,5.0,1.1509025,-10.0,-4.275153,5.0,-3.0157683,-0.22795603
-5.0,-1.4093866,-5.0,10.0,1.537951,-2.736814,-0.53843653,-5.0,-4.100698,4.5125513,5.0,-0.103112504,-5.0,-2.70323,-5.0,-2.0745575
-5.0,4.3565564,-5.0,-2.3492708,0.34421623,-2.300597,-1.263637,0.39685214,-0.13966262,-1.986341,5.0,-1.111618,-2.9268024,-5.0,-2.5884628,-2.1522176
3.5961943,0.2815563,-1.1916394,0.13946308,5.0,-3.33808,-5.0,-3.249478,4.8033485,0.2633592,-5.0,0.102543265,4.7105746,-5.0,2.0225086,2.368684
2.9715345,-1.4264917,5.0,-0.6964408,5.0,0.97177637,-3.8330922,-5.0,2.4225285,5.0,-5.0,5.488261,5.0,0.4364441,4.284233,0.5429562
0.72719014,-0.80748856,5.0,0.14401403,5.0,-2.9430783,-3.2335167,-0.025004983,2.0186672,5.0,-5.0,9.345936,-0.4779538,5.0,5.0,-1.2050287
-5.0,0.4471922,-5.0,0.02696206,-1.9881568,-1.7920625,5.0,5.0,5.0,5.0,1.1023307,10.0,-3.8276744,5.0,-2.0192597,-1.2145795
-5.0,-2.489109,-5.0,7.0482683,-5.0,-0.5100509,1.8768842,-0.12164511,-3.6129785,5.0,5.0,0.48883286,-3.095246,3.6000829,-5.0,-5.0
-5.0,-0.55890465,-5.0,9.827391,1.326618,-2.156707,-1.0157698,0.019243702,-1.4287239,-2.3151932,5.0,-1.1216309,-4.751716,-5.0,-4.086722,3.1283188
1.8667712,2.4439476,1.3084816,2.2623308,5.0,-3.285973,-5.0,0.28120136,4.9088216,-2.130582,-4.673616,-0.5350323,4.18511,-5.0,1.0276326,-0.56725097
3.9861631,-0.8479321,1.7246252,0.17170665,5.0,1.5657632,-5.0,-3.901936,4.1833553,4.894611,-5.0,1.7126132,5.0,-5.0,0.54167056,1.5566665
0.96809185,-2.2068176,5.0,0.53446966,5.0,-1.9250964,-3.8886473,-3.169576,1.9613997,5.0,-5.0,1.8943342,-0.13999844,3.0396357,5.0,-0.0368113
-1.5140973,1.2305962,1.3185235,0.0523124,5.0,-0.3426969,-0.7133002,5.0,5.0,5.0,-2.8319771,10.0,-0.8131199,5.0,4.9159875,-0.38273755
-5.0,-3.1335588,-5.0,10.0,-4.4959216,0.0020477772,3.1550221,-0.0271217,-2.938974,5.0,3.2989388,0.2580692,-4.3238826,5.0,-4.5658207,2.5198252
-5.0,0.48351878,-5.0,-5.6393447,0.37603277,-3.836745,-3.363255,-4.3207254,-4.1955504,0.5898479,5.0,-0.8530078,-4.630493,-2.5239782,-5.0,-2.226524
-2.4881902,5.0,-5.0,-10.0,5.0,-4.5442634,-5.0,1.5804214,5.0,-2.9118934,-4.5570707,-0.57229966,0.9945287,-5.0,-1.797615,-5.0
5.0,-0.9382647,0.98259497,-0.2579372,5.0,-0.090370655,-5.0,-5.0,5.0,2.7161126,-5.0,3.566082,5.0,-5.0,1.3675508,1.8801645
1.4340576,-1.246529,5.0,-0.72274876,5.0,-2.2740338,-2.4504247,-5.0,1.3891498,5.0,-5.0,10.0,0.04791093,3.9349918,5.0,-0.14850463
-5.0,0.35270214,-3.0986385,0.9726499,5.0,-0.7695753,-1.1539842,4.9370704,4.2477503,5.0,3.1342032,2.926068,-1.6034799,5.0,1.3227731,0.33180088
-5.0,-4.891713,-5.0,3.9822204,-3.93883,-3.3513918,0.9320799,-0.5160407,-4.5715075,4.2442265,5.0,0.52795464,-3.767004,5.0,-4.8724656,-0.14305586
-5.0,1.8312522,-5.0,1.1269299,-1.3542627,-3.8761008,-1.4669802,-5.0,-0.054518938,-0.65775836,5.0,2.7039325,-4.228702,-5.0,-5.0,-5.0
-1.6298845,5.0,-5.0,-4.955051,5.0,-5.0,-5.0,1.4660585,3.883196,-1.3346766,-0.9219682,-0.2274682,3.194416,-5.0,1.7485445,5.0
4.8364015,2.4346337,3.3656158,-2.4267046,5.0,4.899606,-5.0,5.0,3.5936923,5.0,-5.0,2.432717,5.0,-5.0,2.7855103,1.1118263
3.494073,-0.64504015,5.0,0.39899483,5.0,0.14385283,-5.0,-5.0,0.43229026,5.0,-5.0,-7.5663376,-0.18989791,2.217196,5.0,0.28375465
-0.90735924,-1.4303001,5.0,0.32160544,5.0,-3.139062,-5.0,-5.0,5.0,5.0,-4.033487,10.0,-0.55208135,5.0,5.0,-1.40107
-5.0,-2.1883757,-5.0,-0.30650613,-1.4771384,-3.1507604,2.6470032,3.841343,-1.2759877,5.0,5.0,2.0434442,-4.0369916,5.0,-2.4455109,-0.28270367
-5.0,-0.24676454,-5.0,1.4010943,-1.5482426,-1.654301,1.703564,4.65569,-3.8331704,5.0,5.0,-0.029494535,-2.2143757,-0.06621289,-5.0,0.50587654
-5.0,5.0,-5.0,1.0729749,1.9760228,-1.1119969,-0.07305646,1.5217742,0.28705466,-1.1755965,5.0,-1.0132923,-2.368853,-5.0,-5.0,-3.283431
2.9232981,0.81399167,-0.76715374,9.311772,5.0,-2.1110573,-5.0,5.0,4.9140587,-1.3493617,-5.0,-0.38797194,5.0,-5.0,-0.78143525,-2.3566432
1.1542093,-0.8406419,1.148857,10.0,5.0,1.2803235,-4.644153,5.0,3.9613457,2.7487545,-5.0,-2.3035533,5.0,-5.0,0.7343893,1.4819179
0.053567767,-0.35966933,2.9836671,-0.15245679,5.0,-0.77318627,-2.9277372,5.0,1.8524991,5.0,-5.0,10.0,0.526437,5.0,5.0,-0.7446557
-2.060863,1.1315725,1.9003683,5.3418636,5.0,-2.3508332,-4.584571,-4.8776,5.0,5.0,-4.6448364,-10.0,0.5617429,5.0,5.0,-0.8669989
-5.0,0.44752902,-5.0,5.6869144,-5.0,-2.1403816,5.0,-3.8105965,-3.1081877,5.0,4.022132,-10.0,-5.0,5.0,-5.0,5.0
-5.0,0.54392505,-5.0,10.0,-1.5260625,-3.9760842,-0.8202139,-3.8427591,-2.457451,-2.0319972,5.0,-0.5546217,-3.4493918,-4.9106812,-5.0,-5.0
-5.0,5.0,-5.0,0.044924498,5.0,-3.0522368,-5.0,-0.39790344,5.0,-5.0,2.9569445,4.356802,-0.076051235,-5.0,0.5485998,-5.0
3.690854,-0.1532399,0.21549523,0.07789864,5.0,-1.4864494,-5.0,-4.778464,3.9066732,2.5139742,-5.0,0.12280786,5.0,-5.0,0.09379077,-1.9500108
2.2313187,-1.2153906,4.172071,0.29760325,5.0,0.028957725,-4.8204937,-5.0,0.8473046,5.0,-5.0,-7.5400915,4.2452927,-1.121232,1.8728094,-0.08573905
0.07778251,0.2846241,5.0,-0.24764706,5.0,-2.5843947,-3.4004672,-5.0,4.9476557,5.0,-1.72683,-10.0,-0.1598748,5.0,5.0,-0.48709738
-5.0,-0.056695342,-4.497512,0.5597497,-3.2267177,-2.2809956,1.3256011,-1.7471671,-2.3907068,5.0,5.0,-10.0,-2.304537,5.0,-4.9535284,-0.46954924
-5.0,1.3840318,-5.0,-10.0,0.5367223,-3.3706975,-2.9578133,-5.0,-3.9173386,1.1646447,5.0,0.3891558,-3.9081442,-2.9036107,-5.0,5.0
-5.0,2.1163907,-5.0,8.667627,5.0,-2.569688,-5.0,-5.0,-0.6089889,-1.0637742,-0.32789725,-4.160329,-2.6927032,-5.0,-0.32818532,5.0
4.3929167,-1.0611511,-0.14961356,0.3451786,5.0,-1.5736743,-5.0,-5.0,4.4311256,1.5929685,-5.0,0.48807418,5.0,-5.0,0.99868774,1.6878304
2.0897355,-1.7952013,5.0,-0.873984,5.0,0.4524681,-4.781763,5.0,2.7009275,3.0859327,-5.0,10.0,0.55177975,4.5189476,5.0,-1.3084182
-2.4603772,2.960973,5.0,0.31806767,5.0,1.2602897,-4.1099606,5.0,5.0,5.0,-2.3276916,0.6963775,-1.0924852,5.0,3.5049307,-0.4418306
-5.0,-0.5507902,-5.0,-10.0,-3.2940962,-1.7525203,2.4260328,3.92304,-3.179449,5.0,5.0,-6.9444327,-3.7937918,5.0,-5.0,-0.29586938
-5.0,3.1401176,-5.0,-10.0,-0.9561392,-0.7394848,2.2717552,1.3527131,-2.0126252,-1.785948,5.0,-0.08979491,-1.8718882,-5.0,-5.0,-4.916421
-4.413457,5.0,-5.0,1.7617786,2.802593,-4.3226624,-2.8432126,-0.042000666,2.6489935,-2.1357546,0.9767115,-0.11961009,1.6491201,-5.0,-1.5610149,-5.0
4.2877965,-1.8147452,1.1509483,-0.39717373,5.0,0.8540323,-5.0,-5.0,2.3461604,0.45832813,-5.0,9.873995,5.0,-5.0,1.654614,2.4275758
2.6853878,-0.9362553,5.0,-0.10953045,5.0,-2.093408,-5.0,-5.0,0.13198888,4.104681,-5.0,10.0,-1.4844066,0.7463013,5.0,0.44410226
-5.0,-0.12494272,1.0092374,-0.15877861,4.74424,-4.218887,-4.7508802,-1.4685476,3.0807028,5.0,-1.5172254,-2.4221518,-2.553759,5.0,2.810914,-0.49116874
-5.0,0.37124836,-3.921338,0.6001301,-4.0540705,-2.9542685,2.1910276,1.9742744,-2.0740047,5.0,5.0,0.36437652,-3.2053313,4.104521,-5.0,1.0214052
-5.0,4.4288483,-5.0,-6.0740337,-0.22686124,-2.7335062,-1.8255091,-5.0,-2.3087084,0.6040871,5.0,-0.043989222,-3.6334393,-5.0,-5.0,-4.6847687
-0.022639811,2.5869613,0.051677227,0.31110287,5.0,-1.6792517,-5.0,-0.17737286,4.4994626,-3.5066423,-5.0,-0.097289816,4.186403,-5.0,0.38350123,5.0
1.5804735,-2.2115731,2.3573058,0.85699314,5.0,2.9743488,-5.0,-5.0,4.029607,5.0,-5.0,-8.314262,5.0,-5.0,0.5208914,1.4175417
0.28690276,-2.3128037,5.0,0.14353627,5.0,1.2577027,-1.732121,-0.44203508,3.4048598,5.0,-5.0,-8.727506,3.2436557,2.5719073,5.0,-0.07132622
-3.202654,1.7741958,-1.4599864,0.25817972,5.0,-3.3603103,-1.0852985,-5.0,4.3602653,5.0,2.674378,4.2434287,-0.8062966,5.0,5.0,1.1143264
-5.0,-0.26021314,-5.0,10.0,-1.7534229,-0.9295708,0.6904726,0.40611053,-2.1052647,5.0,3.4440293,-0.13729814,-5.0,5.0,-3.3022516,-0.8238773
-5.0,-1.7999344,-5.0,10.0,-3.5537117,-1.2665356,2.7481463,1.8092022,-1.2414657,1.7096596,5.0,-0.115258574,-5.0,-4.310113,-5.0,-1.114049
-5.0,-0.83929443,-4.3821135,7.800903,3.0224404,-2.051669,-0.011670709,0.42584985,0.89955354,-5.0,3.067424,0.20462756,-3.9425266,-5.0,1.0704068,-1.595005
3.771338,-1.8991283,2.2426627,0.31470597,5.0,2.6744266,-5.0,-5.0,5.0,0.029721618,-5.0,0.47330755,5.0,-5.0,0.20263267,1.6844501
2.5985422,-1.39678,5.0,-0.14593111,5.0,1.0158956,-4.965465,-0.33548307,5.0,4.149663,-4.0940094,10.0,3.829745,-4.468621,1.7431586,0.19886082
0.6513929,-0.6829114,5.0,0.38992,5.0,0.47296673,-4.2785645,2.4363208,5.0,5.0,-1.8376405,10.0,-1.7554153,5.0,5.0,-0.4223577
-5.0,-3.5304394,-4.6916475,-0.047931522,-5.0,-0.86779654,3.7596571,0.9110955,-4.0716558,2.8236647,5.0,-0.8643348,-4.1624827,4.4618635,-5.0,-0.11306621
-5.0,-2.1394453,-5.0,10.0,0.8643462,-2.6692393,-1.0539973,0.97598577,-3.5429232,0.70891273,5.0,0.3800818,-4.1201267,-5.0,-5.0,-4.850698
-5.0,1.4952698,-5.0,10.0,1.295469,-2.4632812,-0.7193068,-0.068902664,0.19340467,-3.5763035,3.982843,-0.6133671,-3.1981335,-5.0,-2.5675616,-5.0
2.2458158,0.031287253,0.74104095,-0.35121992,5.0,-0.61543924,-5.0,-5.0,5.0,1.5082926,-5.0,0.21955031,5.0,-5.0,0.009665966,-1.8915042
1.0034182,-1.4564292,5.0,-1.0693848,5.0,-2.8875265,-2.3623483,0.9329266,2.6699057,5.0,-5.0,10.0,-1.0989879,3.4801526,5.0,-0.81107503
-0.4365008,-0.12808788,3.0792618,0.82675594,5.0,-2.271282,-3.3926868,-5.0,5.0,5.0,-1.624953,9.290873,-1.408098,5.0,5.0,1.1122726
-5.0,-3.550399,-5.0,3.437972,-2.7630277,-0.9284921,0.13970542,0.23634738,-2.7351184,5.0,3.5675704,-0.075719364,-4.817583,5.0,-3.6505172,-0.0029484127
-5.0,2.6578913,-5.0,1.0430995,-0.6827251,-0.5603987,-1.0277969,0.28469706,1.3519188,2.4502945,5.0,0.6001781,-1.8459289,-5.0,-5.0,-0.9949874
0.34194684,3.1061811,-5.0,-0.05146551,5.0,-5.0,-5.0,-1.7667665,5.0,-4.1698465,-4.6711116,-0.55028075,3.0168128,-5.0,-2.8042164,-5.0
0.9201423,0.4417758,-1.8034598,-3.0720024,5.0,1.4214302,-5.0,5.0,1.1192474,2.4074848,-5.0,10.0,5.0,-5.0,0.8131757,-1.7113905
-0.0724175,2.0680528,-0.80352855,-10.0,5.0,2.016417,-3.962683,5.0,5.0,5.0,-5.0,10.0,5.0,4.8438168,5.0,0.80642414
-4.864271,3.5342128,-5.0,2.2828906,3.5340083,-3.7702515,-1.7897955,2.3355994,5.0,5.0,0.052903473,1.6196933,-3.9680452,5.0,1.2519913,0.75917536
-5.0,-0.30545884,-5.0,-4.7644176,-5.0,-1.0534323,2.0356727,-0.4871444,-2.6041813,1.6954058,2.406388,0.6021408,-5.0,5.0,-2.9578795,-0.79096717
-5.0,2.7914467,-5.0,-3.7981167,-0.72836006,-2.8607006,1.6978738,3.959374,-0.11982763,-2.6642518,5.0,0.5073706,-3.0666404,-5.0,-4.878295,5.0
0.29558158,2.6245992,-1.293786,3.7153199,5.0,-3.6922488,-5.0,0.56534535,3.9820142,-1.193861,-5.0,-0.07577455,4.8404875,-5.0,3.3159823,0.3196608
0.96674395,2.84938,0.053135395,-7.8349476,5.0,2.3057497,-5.0,5.0,2.8374982,5.0,-5.0,10.0,5.0,-5.0,1.9440668,1.768364
0.62294245,3.1159804,2.9202023,5.567425,5.0,1.4846461,-2.9480703,2.635384,3.6639743,5.0,-5.0,-8.35544,3.49442,1.9230878,3.951541,-0.7954372
-0.95927334,3.6368482,3.5079536,6.5497885,5.0,-3.2005029,-1.7527304,5.0,4.0283628,5.0,-5.0,-5.090729,-0.88323057,5.0,5.0,-0.8581592
-5.0,0.51271147,-5.0,-8.036165,-1.7739887,-0.7466949,1.6813058,-5.0,-4.9737477,5.0,2.0281038,-1.0003784,-5.0,5.0,-5.0,5.0
-5.0,5.0,-5.0,-6.466236,-0.5091937,-1.2530098,1.4768696,4.7603745,-0.5868131,0.015671134,5.0,0.99649733,0.65523124,-4.421332,-5.0,2.4683657
-5.0,5.0,-5.0,-6.791849,4.149337,-5.0,-4.8684597,0.39231238,0.2324121,-4.0343914,3.6549568,-0.10540003,-1.495399,-5.0,2.3490596,-2.4524248
2.9675996,0.19775361,0.5452604,-2.9976459,5.0,1.4265025,-5.0,-5.0,-0.14945921,5.0,-5.0,1.645556,3.3312206,-5.0,0.9138855,1.9690367
1.2460669,2.2060747,5.0,0.47963515,5.0,0.6204163,-4.8586164,-5.0,1.5644276,5.0,-5.0,10.0,-0.22493804,4.6053314,4.7584267,0.74059796
-4.3219094,-0.49734926,5.0,-0.5610451,5.0,-1.2532223,-3.5272253,5.0,3.5441942,5.0,-2.0507278,-3.802751,0.1278472,5.0,3.1822808,-0.97131854
-5.0,-1.6378114,-3.8224964,-0.1336497,-5.0,-4.1898785,2.983656,-1.1905174,-4.2065244,5.0,5.0,1.322092,-1.382466,-0.2022736,-5.0,5.0
-5.0,4.2791314,-5.0,-10.0,-1.4868529,-0.09897041,2.2670646,1.7272964,-0.62436116,0.6206666,5.0,-0.025486961,-0.06800389,-5.0,-5.0,0.56985927
-5.0,2.60335,-5.0,10.0,-0.3388112,-3.2893643,-0.48438096,-0.36640728,1.715902,-2.1924992,2.5515566,0.26516825,-1.9368263,-5.0,-2.9205568,5.0
4.9099197,-0.92469424,1.8336614,0.63845813,5.0,1.1989834,-5.0,-2.6255536,4.7698197,2.279993,-5.0,-1.6775572,5.0,-5.0,0.9603295,0.55977374
1.333937,-3.2492871,4.800672,-0.9961177,5.0,-2.244923,-3.4745443,-0.8996961,-0.8486239,5.0,-5.0,-6.6982937,2.3034797,-0.8464606,5.0,0.039381042
-1.703545,-0.11266661,0.9916639,-0.09808981,5.0,-4.2632885,-3.4942536,-5.0,5.0,5.0,-2.5676153,8.797377,-1.3462473,5.0,3.8450096,0.012944749
-5.0,-3.527769,-5.0,10.0,-5.0,0.8476327,3.4998803,1.4462174,-3.1295893,4.097366,5.0,-5.632798,-3.8334026,5.0,-5.0,0.09767973
-5.0,-0.34299117,-5.0,7.677925,-1.4056499,-2.946747,2.2311475,1.367127,-0.98646647,-1.0152572,5.0,-0.6747946,-2.6503813,-5.0,-4.4046726,5.0
2.5839472,3.3361611,-1.6329378,1.8694772,5.0,-2.4795501,-4.6673293,0.52170384,4.9407644,-0.5637374,-5.0,-0.37471598,5.0,-5.0,0.5355625,-1.8023393
3.3838644,1.273053,1.1058106,-7.8509865,5.0,0.88104117,-4.3640857,-5.0,2.0944526,5.0,-5.0,3.2063322,4.6889763,-2.4943511,3.2780874,0.4729354
1.4902979,0.01971078,5.0,0.43047568,5.0,0.6638259,-4.0688386,5.0,0.96252555,5.0,-5.0,1.9312786,0.742688,5.0,5.0,-0.5363872
0.018400073,-1.0465443,5.0,-0.22507156,5.0,-0.57354057,-1.7077961,5.0,1.5491487,5.0,-5.0,1.2275041,0.37486398,5.0,5.0,-1.1567583
-5.0,1.3177838,-4.321768,0.506919,-1.4353049,-3.2141747,3.9796205,0.59896487,3.7410822,5.0,3.88971,2.9191828,-0.58576775,5.0,-1.7352214,-0.387623
-5.0,1.6783898,-5.0,-8.4759445,-3.404448,-1.2349585,3.0520816,4.0598803,-4.8709545,4.3255177,5.0,0.6192875,-3.2884831,3.3498456,-5.0,-4.517373
-1.5149505,2.264904,-5.0,9.6820965,3.7338316,-5.0,-5.0,0.32886028,2.3022285,-1.7549713,2.0702815,-3.2812276,-2.732991,-5.0,-0.8373488,-0.3849969
5.0,-0.9725342,0.060115576,-0.17477055,5.0,-1.0176499,-5.0,-3.2003844,5.0,0.8225284,-5.0,-0.80790496,5.0,-5.0,1.0543563,0.44341657
0.51871336,-0.5616212,5.0,-0.58909494,5.0,-0.41510794,-4.1173205,5.0,1.6878204,5.0,-5.0,10.0,0.3141421,5.0,5.0,3.6750631
-3.8682797,-1.1178602,1.7390822,3.4319167,1.7378414,-1.0169561,0.3527856,5.0,5.0,5.0,0.58030653,0.2783824,-3.6406274,5.0,0.7497748,0.053329982
-5.0,-0.6864958,-5.0,9.070998,-3.31451,-0.65296066,1.424788,0.43208778,-4.254356,4.9163837,5.0,-0.2958631,-3.5715394,5.0,-4.945744,0.5909724
-5.0,2.2683873,-5.0,-10.0,-2.2117271,-1.7118934,2.305176,1.7860394,-0.81228137,-1.5414035,5.0,0.9446014,-2.3252492,-5.0,-5.0,3.9152112
1.3655412,1.5495162,-5.0,6.150642,5.0,-2.5892127,-5.0,3.2992299,3.47465,-1.1295118,-5.0,8.548555,5.0,-5.0,2.9520223,-5.0
4.0670576,-1.6207937,0.21364295,-0.9788045,5.0,-2.5984344,-5.0,-5.0,0.6039425,5.0,-5.0,-6.419157,4.283107,-5.0,-0.16061652,-0.48294446
0.16590102,1.6748289,5.0,0.39394817,5.0,-1.0464724,-2.919718,-3.5032086,2.102502,5.0,-5.0,-10.0,0.39666355,5.0,5.0,-1.0190115
-2.9351492,1.1514418,2.577543,-0.079933286,5.0,1.0614402,1.3269523,5.0,5.0,5.0,0.60850376,4.2397223,-3.362781,5.0,1.7284707,-0.21479419
-5.0,1.2586648,-5.0,4.0810843,-4.180186,-0.46366024,0.7897105,-0.25509694,-3.9598088,4.1995826,5.0,-0.69302577,-3.0725806,1.1028473,-5.0,-3.7700334
-5.0,-1.4713817,-5.0,-10.0,-0.37749165,-2.0069005,0.7385331,0.21026036,-2.6336358,-1.751329,5.0,0.7288454,-5.0,-5.0,-5.0,5.0
-1.8084222,4.5206337,-2.4735012,-2.3879657,5.0,-5.0,-5.0,-1.9197762,4.93769,-2.5035443,-0.47982585,-2.1231956,1.9784746,-5.0,2.4132636,-3.6508381
2.7512808,-2.1005466,4.273532,0.7678579,5.0,1.5063641,-5.0,-5.0,4.2937837,5.0,-5.0,-6.557119,5.0,-5.0,2.2846675,0.6638064
2.7505183,-3.2123313,5.0,-0.4145916,5.0,-1.2685907,-5.0,4.352365,1.2507386,5.0,-5.0,10.0,0.023952723,2.1837556,5.0,-1.2054011
-1.6670909,1.1279249,-1.4215531,-9.5826435,5.0,-3.277821,-3.033592,-0.4439413,5.0,5.0,-0.1171484,10.0,-1.3437732,5.0,4.895017,-0.07414159
-5.0,-2.2853158,-5.0,-1.6929319,-3.5952473,-0.7225547,1.8540173,2.2839048,-3.2493837,5.0,5.0,-0.6929254,-3.7900867,5.0,-3.317669,-0.22100917
-5.0,5.0,-5.0,2.8780117,-0.49082208,-2.0960536,1.5404526,4.972805,-0.5115063,0.8793962,5.0,-0.68719375,-4.1627088,-5.0,-4.141359,-3.3186731
-1.345499,2.5032334,-5.0,7.3438535,5.0,-5.0,-4.6922174,0.22626045,3.6808248,-2.0159357,-0.27238286,0.22225946,1.4552277,-5.0,2.7291036,1.9664111
5.0,-2.044508,-0.46881923,-0.31246284,5.0,-1.786397,-5.0,-2.8056817,3.0433304,1.3115015,-5.0,-6.013936,3.5893526,-5.0,0.19131148,-0.06950381
1.4833282,-0.30777,5.0,-1.7748964,5.0,1.8116895,-5.0,5.0,-0.565951,2.130575,-5.0,10.0,-1.1751335,3.515087,5.0,-3.1743436
-1.3248552,3.5088177,5.0,0.3355447,5.0,-0.5963418,-5.0,-5.0,5.0,5.0,-1.2629435,-4.5882006,-1.182719,5.0,4.9258122,-1.2093176
-5.0,1.9802899,-5.0,0.4595295,-1.8284485,-2.3188448,2.38689,0.14653635,-2.4572413,5.0,5.0,-1.9633093,-4.9212465,5.0,-1.6626105,-0.22972247
