ancorasir/BennettWheelLegRL/experiment_data/2024-02-13_04-14-08/joint_vel_env0.csv
Joint_1,Joint_2,Joint_3,Joint_4,Joint_5,Joint_6,Joint_7,Joint_8,Joint_9,Joint_10,Joint_11,Joint_12,Joint_13,Joint_14,Joint_15,Joint_16
0.0,0.0,0.0,0.0,0.0,0.0,0.0,0.0,0.0,0.0,0.0,0.0,0.0,0.0,0.0,0.0
0.082396075,1.3265457,-3.2985978,-2.5973736e-06,-1.4646096,1.4227152,3.2856095,-0.0014809389,1.3066535,1.537012,-3.2648053,-0.00012560845,0.30506974,1.4098607,3.2653546,0.00088543724
0.44617486,1.7019656,1.1079966,-12.914384,-2.2696745,1.9244418,3.0345006,0.011899099,-1.7355764,4.8186035,-0.2784238,57.06102,0.28134638,2.8950152,-0.5127743,10.957613
-0.64544064,0.8847649,-3.5985577,-1.2917364e-05,3.247889,1.1450669,-0.008003529,-0.0119588785,-0.99611694,0.357251,-1.0393956,-4.5056796,-2.0075002,-0.4290861,-2.3214438,1.0114644
-0.9661964,-0.006429121,-3.372114,-6.752409e-06,3.372641,-0.51370513,-3.2755308,-0.006060593,2.7501945,1.564307,-0.5741878,-0.694381,2.4176784,-1.5698011,4.386889,0.62413406
1.7095232,-1.9756464,3.3612032,4.094877e-06,-1.5816371,2.6525748,1.6936498,5.2437563,1.3649166,-2.1481624,0.6894038,10.964891,3.2008119,0.06851383,3.3814988,0.029184107
-2.6807265,0.3836321,0.14455988,-8.3925124e-07,-1.7196667,2.525308,0.6103968,8.026252,2.7373998,-1.1803155,-1.5424836,9.643902,3.104691,1.6473747,-0.042471424,-0.013078549
-3.3490157,1.6103302,-0.018311344,4.3946056e-07,-0.3286475,2.2154613,-0.5162718,9.633228,1.4925953,-0.24790859,-2.3082361,4.035059,-3.5899665,1.7157049,0.8075364,0.010452062
1.1328522,-0.7836142,1.2475513,0.96822846,0.12992665,-3.5152917,2.1307955,-0.0022937926,-0.65962124,3.1986525,1.125362,-0.020456381,-3.304854,3.640674,-3.4600205,0.036953695
1.7850643,-0.9657326,0.92565805,0.39927578,1.2204788,-0.70787036,0.05756546,0.00010295864,-3.3331397,-0.8098183,-0.022134762,0.0014446294,-2.0615218,-0.8821784,-1.8334343,-0.72008634
0.9290399,-0.34706903,0.6543814,-1.1016748,2.8714423,1.7492572,-3.3907976,-0.0076244567,3.4168088,-3.5027447,-0.009249471,-0.009222327,-0.91038144,-0.20235848,0.345622,0.5077049
3.4138818,-3.002406,-0.0074380273,9.482603e-07,-3.5056984,1.6986603,2.9227726,0.043563277,2.3078086,2.0606833,-1.097053,-9.848684,3.7216015,-3.3350914,3.2211196,-0.046644077
-3.2226088,2.53976,-0.013780318,2.2248987e-06,-1.9592981,2.233107,1.44294,12.335997,2.5127425,2.880594,-2.784443,-9.527116,2.6160533,1.3100139,-0.03934924,-0.031220159
-3.1664371,0.6820044,-3.1662438,-1.3458343e-06,-0.66893166,2.4822161,-0.42362243,8.552878,0.78314257,3.5392895,-2.08463,-6.8551035,-2.6228764,3.3589647,0.012472421,-0.059126724
-0.6138092,2.3362544,-1.3172014,-18.495098,-1.5017937,-1.4631917,3.4218314,0.011509389,-3.107709,4.22132,4.0645027,0.009381808,0.607866,-2.3229797,1.8618906,-9.281723
0.12581456,4.005546,2.6934857,8.186167,1.6999668,0.28451526,0.098600745,-0.07117554,-2.7547174,0.567091,0.07572834,-0.094883725,-1.6680468,-2.3092933,-1.7381699,-4.0454884
-0.040663287,1.4177369,-3.4921627,-0.6983041,2.1825364,1.9092436,-3.4336474,-0.008562643,3.4592159,-3.3606668,-3.0155458,-0.0030784337,1.1985621,-3.3859067,2.0280867,0.013478668
1.2252105,0.6495347,-0.14487761,-8.235879e-06,-2.2101011,2.528749,1.4849848,6.891276,1.0922072,1.398798,-0.19268286,-8.070058,3.4971168,1.0728688,-0.00755018,-0.051711563
-1.6184525,2.2667027,-0.0005885009,-1.121381e-06,0.4227513,-2.6681364,-1.1557832,-7.0258827,-0.07232094,-2.6974065,-0.49115622,11.534504,1.2500494,0.7100763,-0.007590171,0.024995442
-0.81564385,0.12942855,-0.69134736,0.7523137,0.52921927,-1.5549994,-1.5839444,-4.189807,1.045083,2.8239985,-1.483183,-3.355495,-3.5883923,3.315208,0.21925665,0.005870754
2.1039767,-2.9688637,3.4581237,0.12944078,-2.1554582,0.66053975,-0.17945606,-0.01868622,-3.2169127,3.59175,3.5242105,-0.016682617,-0.28436,0.38253635,0.07519446,3.4071226
1.4152578,-3.4803555,0.9894049,0.62854874,1.3623459,2.3416805,-0.017841317,0.027791485,-3.4274316,-0.59998006,-0.15300122,-0.009886103,-0.7512973,2.5647583,-0.47434193,5.924897
2.5679958,-1.5046326,4.5719466,-0.006192062,2.50461,1.9207067,-3.0858374,0.06121897,3.5576315,-3.3399115,-3.4259248,0.022773191,3.2597287,-1.7731844,4.768798,0.049430847
1.8355528,0.33228323,-0.06278396,-2.0005468e-06,-2.443355,3.434219,2.0357854,7.6148357,1.1827543,1.9306757,-0.3457178,-9.812643,3.0850365,-2.385236,3.2913032,-0.031788155
-2.4192472,-2.7384992,4.6991334,0.0015850067,-0.99412847,-2.0773425,-0.44629967,-9.113378,1.7740551,3.3569007,-3.0017836,-12.180695,-1.194018,0.7604643,-0.041588824,0.06579815
-0.9525168,0.5785322,-1.609331,3.9840763,2.233834,-3.1785529,0.42623326,-2.4658687,1.1876776,3.6407442,-0.28188416,1.3489506,-3.487769,3.4083364,-0.027750492,0.012830246
-1.2398005,2.78927,-1.2245162,-8.025464,-2.075109,0.22853945,-0.073535934,-0.012506798,-3.1430297,1.3769715,-0.04591453,0.067633435,1.2378402,1.43248,1.3425648,4.2587442
1.6363379,-0.18805133,0.025710076,-0.43160957,3.263396,-2.2210011,0.19124511,0.004323985,0.22552483,-1.3251526,-0.026964538,0.0065298127,-2.5295792,-0.27008498,-2.5027173,2.892067
2.7824466,-0.44883388,3.6197553,1.2851107e-05,0.93293595,-2.7985067,-0.3618104,-5.2564497,3.1477609,-0.20846811,-3.5358977,0.0043235794,3.640351,-3.3425772,1.247102,0.0059371814
0.4174763,0.7276233,0.02234498,-1.8095207e-06,0.27135372,-2.097005,-0.7800658,-4.7263565,-0.019549608,-2.3457594,0.14752415,12.391957,3.5071728,1.201575,-0.044083834,0.03280352
-2.4315038,2.3017752,0.0034935295,-1.0254353e-06,-0.5529428,-1.4169939,-0.9712355,-5.903945,1.2193668,0.37772322,-2.685268,0.86406875,0.23606393,1.1003522,-0.0398769,0.005936969
-2.209702,-1.1695418,-3.4735346,-1.265193e-05,2.4128377,-2.5800943,-2.6215172,-20.63499,1.278306,0.98129773,-3.963386,0.036163505,-3.580985,3.2049642,0.18860781,-0.019917676
1.449116,2.0644658,1.452254,-8.674808,-3.3016899,0.07001261,0.011555478,0.030995846,-3.170639,3.7286448,3.5804915,0.032960866,-0.8876532,-0.29156733,-0.32640696,0.25417125
-0.9572179,0.3284339,-0.7822141,-0.4170158,3.3000407,1.485301,2.6764555,0.0016854238,3.1899998,-1.9154272,0.109871626,0.0055271797,-0.25855792,-0.31241828,-1.6545541,1.5137017
1.4362456,-1.3515303,-0.49600542,10.440798,2.1766899,-3.0550833,-1.8209157,-2.9733193,2.0928683,-2.4445603,-3.6012192,-0.01751493,3.37828,-3.1558425,0.74481237,0.03259918
2.5706294,2.2085013,-0.039994963,-3.2960493e-06,-1.7430811,2.8478944,1.864929,8.182205,1.0549216,-2.62827,-0.14845702,11.960798,3.5967252,0.038673118,-0.15785742,0.0062858537
-1.9386489,2.3416238,-0.0007176258,-2.036434e-06,-0.17117018,1.1771348,-0.49762,6.0966196,0.254641,-3.3414757,-0.5554029,4.598054,2.4444292,0.91613394,-0.09124434,-0.01437714
-3.248278,0.41335607,-3.431907,-7.297088e-06,-0.07693493,0.3710727,3.1473076,0.22334054,-1.8575046,-3.2773647,3.548753,0.06377097,-3.779957,3.0492067,0.07083365,0.004782035
2.3481627,-2.0738754,3.1345854,4.232814,-2.7623007,-0.44404325,0.066756055,-0.03079597,-2.0532107,2.2095015,3.9448972,-0.038220115,-0.55328953,1.8258004,0.05625227,6.0679746
0.56114733,0.28690553,0.26394612,-1.2458804,0.52659076,1.8587227,-0.013424292,0.005877051,-3.2839494,-0.44517738,-0.05872257,0.00572864,-1.2763828,1.8839482,-0.48657462,9.19207
1.5455265,-1.2089915,0.06479359,4.528314,1.4938145,2.2517881,-0.37168613,9.503019,3.4515016,-3.4023676,-3.0176353,-0.0014953855,0.38600925,-3.6122897,3.4264364,-0.006245993
3.350523,-2.6960156,0.26014686,2.9823032e-06,-1.2640564,-1.2930055,1.253197,-9.744303,1.8538078,3.3449323,-2.724948,-10.10874,3.124076,-3.4663594,-0.24775562,0.0026672557
-3.3134384,3.321798,-0.005040084,1.726684e-06,0.19071266,-2.6476204,-1.4664663,-7.3956804,1.3359848,0.13236377,-2.0921404,3.526149,-3.3890584,0.832761,0.041581202,0.020390766
1.7104479,0.65491724,0.29336864,2.4548948,2.146764,-3.2828965,-3.1449556,-0.0065953787,-1.9250723,1.5626696,4.203893,0.017923355,-3.5736988,3.4549308,0.8283987,0.03835751
0.39079577,1.243489,-0.1494363,-2.6818087,-0.29337487,2.0196264,-0.001277307,0.008143038,-3.261857,1.7820784,-0.05177351,0.010917471,-0.73899204,0.69973683,-0.038804412,5.9253235
-1.9293486,2.699171,-0.98322356,-14.936888,3.3910203,-2.814006,-2.4243186,-0.010309957,3.5597,-3.4915435,-0.109268725,0.06542414,-1.0261488,-2.5757658,0.6617725,19.580217
3.3094046,-2.895945,4.1397257,0.000579834,1.2349283,-2.9081986,-0.4465387,-5.361307,-2.9939625,-0.9197203,4.764542,-1.0280204,4.1068554,-3.2984622,3.2963936,-0.033598762
-0.1460475,1.9477917,-0.010553729,1.1509105e-06,-0.5363435,-2.0927835,-0.2479416,-7.833729,0.99108565,3.569843,-0.483037,-6.319022,3.1453736,0.022293326,0.0334211,-0.023815576
-3.3108265,2.7183075,-0.001069461,1.4175087e-06,-0.40364063,-2.2812054,-1.110205,-6.2908516,1.5444498,2.030206,-2.0258522,-7.30134,-3.3704777,0.93180287,-0.033180043,-0.012352686
-2.8059971,-1.2763975,-3.533257,-9.882464e-06,1.6951523,-1.9741594,-1.9025221,-1.057508,-1.5427319,-2.981604,2.1334589,3.8640566,-3.6226614,3.2564416,0.04022085,0.001118904
1.077297,0.27001578,0.37013546,-0.99573743,2.831851,2.724097,-0.07332939,0.0061736084,-3.3984313,2.7136676,-0.1365996,0.00527511,-0.820258,0.7349365,-0.91697323,4.4060183
-0.095408246,0.16678593,-0.20384002,-0.67924625,3.3364697,-2.4408953,-0.1699157,0.0053378423,-0.18438105,-3.3077564,-0.04331708,0.01665524,-0.50808823,-0.34371465,0.48294836,0.655674
3.3239284,-3.1223736,3.3202367,4.3697146e-06,-1.053854,-2.231378,1.0908977,-11.438879,0.45210105,1.2912124,1.0727924,-8.808632,3.643085,-3.539453,3.4501717,0.0075348653
-1.065751,1.7047616,0.5137211,2.6632074e-06,0.45519927,-2.9197052,-0.9891304,-9.15251,0.91790074,3.068994,-2.2735314,-14.075632,0.24533531,1.2169843,-0.09869677,0.009580687
-3.440766,-1.3001609,2.3392334,5.958774e-07,0.5605686,-2.3230906,-0.99515903,-8.995331,0.5962647,3.1592245,-1.7340553,-21.637085,-3.9633267,3.3625493,-0.09192569,0.07046196
2.5904753,-1.3621535,2.9168859,-0.43610513,-3.2876217,0.21021654,-0.0046873065,0.0024800478,-3.144693,4.0727987,3.8326116,-0.0007904349,-0.17205496,3.4316263,2.6521158,7.0790787
2.7546198,-3.5808806,1.6393819,-0.21665579,1.665525,-2.327078,-0.02542007,0.019042045,-1.8437338,-1.0629193,-0.13889134,-0.027665868,-2.5860212,1.3095711,-1.6722724,9.217434
-1.8200163,1.0971382,-2.9062667,-31.534515,3.180753,1.2621167,-3.3974104,-0.0030260533,3.334435,-3.619908,-0.051023416,-0.026487924,0.06337732,-1.1747384,-0.6026818,-0.74078804
3.1770322,-2.2587194,-0.20659259,-1.15658695e-05,-1.8454554,2.6703687,1.793669,7.6099286,0.72974205,1.3174355,0.47178885,-7.412223,3.51427,-3.483539,-0.2439555,-0.035634845
-2.937887,2.4852562,-7.66539e-05,8.399196e-07,-2.158606,3.103169,0.99733365,5.590192,2.0554097,0.6918508,-1.2285796,0.30973768,3.4432917,1.3770065,-0.20993173,-0.005813334
-3.4191067,2.318691,-3.0599327,-2.7611459e-06,1.1514357,-2.4424634,-3.1340077,-15.048103,1.2615731,1.9464135,-2.3742535,-4.780253,-3.7167513,1.8084118,0.049226277,-0.041066647
-0.8784115,2.338245,-1.5170702,-0.36235726,-3.2238183,-0.10798663,4.2838674,19.517843,-3.2977765,3.4787447,4.637536,9.110321,-3.2632895,3.8681724,-3.7386699,0.013710724
-0.41983905,2.8475053,-0.6729696,-10.094936,-0.22134984,0.9042736,0.19738957,0.6954479,-1.1851636,-0.6512087,-0.13173574,-0.0287567,-0.28034514,1.1788448,-1.4275086,7.744274
2.6680286,-2.780964,3.8655078,1.4868082,2.604521,2.6575694,-3.432392,0.0124993585,3.4835694,-1.8836902,-3.0110357,0.0048433244,2.9223702,-3.3727965,-1.914912,0.009612363
0.105744585,0.72845566,0.15093482,1.4236116e-06,-1.8667804,2.8623338,1.7357043,8.0649805,0.9803277,-1.564069,0.40289867,2.997919,3.4540505,0.12914038,0.01625451,-0.012843959
-3.2747948,2.6399999,-0.027270481,-5.8474916e-07,-1.2299373,-1.7698853,-0.30975592,-7.13423,1.7793584,2.5563543,-2.2019432,-9.240913,1.7323226,0.9099987,-0.039239585,-0.005730696
-2.5491986,-1.1293324,-3.510236,-1.3481587e-05,-0.060603976,1.8152115,-0.9357519,6.806937,0.53698134,-3.0941906,0.113025784,8.986521,-3.4082775,2.7548027,0.031086534,-0.026884105
2.4564338,-2.4147682,3.276153,2.1327195,-2.5091121,-0.79209626,-0.03417402,-0.024149958,-2.9773557,2.3686943,3.4770055,-0.025466837,-1.7952442,1.7789294,-1.1098676,9.329514
0.5157528,-0.9968089,-1.1699253,6.7586627,3.4959133,-2.6224546,-0.005129043,-0.026238685,3.487185,-2.0046504,-0.052249655,-0.0077177435,-1.5453827,-0.82441676,-2.1402898,0.6826489
3.4966707,-1.7564365,3.0894377,4.439013e-06,-0.3288498,-2.7376845,0.6051448,-7.3047385,2.4797177,-0.95329463,-3.734486,0.06434351,3.7157035,-3.7371178,3.735358,-0.048103034
0.23268928,2.122774,0.03954625,1.5232154e-05,-0.77268976,-2.14511,-0.05257678,-6.6885347,0.8676911,0.9102253,-0.063021034,-3.4508274,3.520221,0.58213115,-0.06969315,0.002251789
-3.4371104,-0.37337288,-0.008797187,3.970561e-06,-0.8820506,0.45180005,-0.6571573,2.2075596,1.3971475,2.5449152,-2.4663715,-10.413661,-0.80111116,1.0920906,-0.033983387,0.0022763908
-1.6034454,3.0005062,-2.204833,-4.1599174,2.328754,-3.1930451,1.2657131,-1.7765094,1.0823504,2.360902,0.20921004,-9.264519,-3.9192142,3.474164,0.37212855,0.043490387
0.14418566,2.5733204,-1.4742899,-5.6847982,-2.7858782,-0.8288997,0.019409161,-0.007879868,-3.2676785,3.6240308,3.5239007,-0.0150808245,-1.17403,-2.4245174,-1.0413487,-6.525982
-2.7995307,2.815889,-0.5553043,-11.827629,1.5448383,1.9386917,3.3246493,16.324787,1.2319572,-0.3709181,-0.08876609,0.042647243,0.7362274,0.08637968,-0.9585418,0.7760446
1.1330502,-0.76844865,0.66477203,4.2073298,-0.27710807,1.7331151,0.73399806,8.706238,3.2236934,-0.35878947,-3.3040214,0.0013293419,3.0805101,-3.3915174,1.0635672,-0.0016568303
-0.3641069,0.450444,-1.3658777e-05,5.445103e-06,-0.7148659,-2.3253703,-0.007438183,-8.677104,0.42822814,-2.164792,0.28450823,8.944241,2.44289,-2.1899486,-2.1334784,0.05431273
-3.270258,1.3981116,-0.062450692,-1.4705073e-06,-0.43204826,-2.7108667,-0.04919672,-12.480885,1.6115502,3.045521,-2.831955,-10.322434,-0.13872054,1.2513955,-0.009028668,0.032284915
-1.0995228,0.9851288,-0.81117034,5.228508,-3.2510462,-1.7789255,2.1114562,-0.014727354,-3.103274,3.7631853,3.6511662,-0.022538815,-3.2325733,2.4078197,-3.5112028,0.0100337155
0.6128831,-0.987147,-0.095376134,4.710863,1.1919187,-0.628821,-0.089774236,-0.023467328,-3.3719442,0.1648402,0.0063358583,-0.032256555,-1.0344856,0.27072066,-1.0605025,4.637602
1.1495291,1.181036,-1.805037,-1.5298705,0.8659388,1.7716078,-0.34358323,10.166438,2.9524693,-3.7136745,-3.615131,0.018135328,2.9141564,-3.6014476,3.6276398,-0.013279334
2.9415126,-0.31997633,-0.03347028,5.6389763e-07,-3.0518482,2.393209,2.320889,4.887529,1.9327197,2.7903962,-1.032912,-12.001083,3.3538945,-2.5876434,3.1236167,-0.040389482
-3.221795,2.56171,-0.010457097,1.2695145e-06,-1.731307,2.4860072,1.0646739,11.41629,2.2600505,2.8499331,-2.92163,-9.555325,1.9452783,1.4203401,-0.0045751035,-0.03465426
-2.305113,-0.81607306,-3.5445514,-1.0992291e-05,-0.84673095,0.86245394,2.5571594,0.43799698,-0.24946558,-1.4546889,0.80466974,0.31692627,-3.593883,3.4252431,-0.5246316,-0.008516691
2.9394338,-3.4280276,2.3834872,12.105257,-1.9653256,-1.6261613,-0.03193067,0.06329266,-2.7471364,2.8993585,3.323845,0.021649975,-1.05731,2.162108,-0.29857904,9.735113
-0.5240685,1.2545094,3.9594264,20.270716,4.107819,1.146178,0.55037785,12.484859,-0.80935895,-1.0636876,0.06061565,0.0101156235,0.83634466,-2.27206,2.7329295,-13.227222
3.1431987,-1.9498684,4.4300914,0.00061511993,0.24633774,2.1619368,1.1790801,9.455688,3.436964,-1.8243673,-3.6519046,0.055429675,3.7811282,-3.339469,0.10478335,-0.042867966
-0.89304096,2.600708,-0.0010464364,-1.5454643e-06,0.09519613,-2.194305,-0.99224293,-4.243079,0.64456075,-2.0703342,-0.63233405,13.513285,3.1545124,-0.041968904,-0.015562952,0.035605162
-3.2650197,1.2306362,0.049819,-2.080592e-06,-1.4012426,2.1381369,-0.15176797,9.725771,1.7835597,-2.2546113,-2.3658967,15.042072,-1.9418677,0.73298913,-0.004673704,-0.012133816
0.69593865,-0.95657635,1.1761104,5.9069605,0.0025466066,-3.4630194,2.7093682,-0.021127474,-1.309638,1.9688718,0.65278244,15.149009,-3.5580556,3.4948702,-3.2988439,0.09272244
0.76083046,0.03000471,0.5111866,-1.9455673,0.8395957,0.6135957,-0.20606425,0.00784108,-3.291182,2.3317685,-0.09634387,0.005270455,-1.0330489,-0.45557964,-1.629541,1.2817992
0.17850843,1.2170392,0.91739964,-2.9237785,-0.03711742,0.78802794,0.35171145,2.1658604,3.293418,-3.2581797,-1.869197,-0.020255985,-0.42427576,-3.1502128,-3.8226566,0.023457289
3.381795,-2.8037016,3.266743,1.6280992e-06,-1.5080912,-2.036858,1.1831313,-9.771673,0.58603644,1.1047359,0.7440359,-6.6983776,3.6838202,-3.4559941,3.4134881,-0.021040302
-2.5549073,2.8033729,-0.0010832152,-4.7819344e-07,-1.0379534,-2.116085,-0.6680667,-6.5372396,2.125367,2.8229268,-2.6201243,-9.501169,2.0218983,1.0218825,0.05769758,-0.03409411
-0.5538722,2.447201,-1.1761764,-2.9575162,0.9263252,-3.319472,3.9371092,24.861605,0.628776,2.6104207,3.2570963,0.30688542,-3.5664139,3.4387486,-3.3148859,-0.011074379
0.5386592,-0.18138996,0.9027374,1.3278841,-3.3180046,-0.04166062,-0.004649978,0.005635569,-3.1967087,3.1055472,-0.06889677,-0.0015497878,0.5086754,3.2052379,1.4696424,7.1145954
-1.3979039,2.2425554,-4.0499115,-25.0265,3.331584,1.2197164,0.07232839,-2.7127564e-05,-2.3380024,-0.87549907,-0.05021928,-0.003957063,-1.9392687,-1.4749036,-0.72144705,-4.0943503
3.194929,-2.7521424,4.4329643,0.0032978058,0.30287805,1.8912281,0.7432037,10.610985,2.8430145,-1.3983195,-3.677862,0.050484624,3.7654195,-3.3517537,-0.10157836,-0.035936765
0.966077,-1.2811118,-0.054270275,-4.802823e-07,-2.0692666,2.769019,1.2228807,7.38993,2.29423,2.4173477,-1.770683,-8.281641,3.3003426,0.2527055,-0.24521393,-0.049788266
-3.148676,1.987141,-0.027403504,-1.2920596e-06,-1.066951,-2.4859018,-0.65253806,-9.663588,2.1758146,3.2591414,-3.0547166,-9.937387,2.31048,0.87030447,-0.004931598,0.016844414
-2.9213576,-0.62863135,-3.4150403,-9.060574e-06,2.0583546,-2.6106358,-3.0550804,-22.132915,0.08678677,1.8960372,-0.089646906,-7.729761,-3.3861196,2.6622648,0.78169936,-0.0136801675
1.2596285,0.30959988,0.94398177,-1.6536947,-2.3055277,0.23457551,-0.001265388,0.0070219086,-3.1240277,2.2674913,3.4441528,0.008219794,-0.94160295,1.0037527,-0.43849814,6.462341
2.4372034,-3.2339284,2.938723,0.2885749,3.3755362,-0.5017909,0.047540724,0.005573511,-3.3566532,-1.848137,-0.029966265,0.004789356,-2.5653615,0.522164,-2.5947726,5.1527624
2.0387182,-2.1046472,0.61702776,9.844153,1.3753097,1.9310981,-0.51803446,10.0033245,3.4020252,-3.330314,-3.1920187,-0.02764111,0.3654425,-3.4042864,-0.024339035,0.026936
3.4034245,-0.78038484,-0.085957065,-3.8088515e-06,-2.6960988,2.5523262,1.7944759,8.132402,1.6684036,0.35134178,-0.3367543,-0.6797444,3.4945025,-3.143671,2.8005128,-0.044394072
-2.7330575,2.0062697,-0.010065071,6.2185336e-06,-2.5411246,3.345295,1.657684,6.28755,2.4224565,3.139936,-3.0089965,-10.747479,2.8736603,1.1180719,-0.04530102,-0.04624798
-3.3141675,2.5029144,-3.3135571,-1.8667133e-06,0.46645153,-1.9580114,-1.539646,-4.0818405,0.7477321,3.7265353,-0.38735437,14.181587,-4.3653283,2.0058634,0.13647771,-0.012046706
3.3867815,-0.91932964,3.255755,-2.3332553,-3.2285447,-3.4639115,-0.5154826,0.0030670166,-2.5223696,4.2356296,4.078008,-0.026840283,-1.8201162,2.3503911,-0.56150013,9.306519
-0.8132647,-1.1073492,-0.85696113,-0.69598484,-1.3805642,0.61944705,-0.16815047,-0.013046678,-2.7681594,1.0888768,-0.06338428,-0.016924016,0.68734986,1.1871748,-0.19282734,10.499845
1.9158905,-2.6198387,1.8230177,5.792791,2.73869,3.1678483,-3.3533852,-0.021242745,3.4759068,-3.37638,-0.18685468,-0.029780945,-2.865995,-2.9814818,-3.9373822,0.033254087
3.2772863,-3.3211284,2.7782807,1.3933923e-06,-1.3445964,-1.8442831,1.2623423,-8.026947,-0.139898,1.1434379,1.4426359,-8.054654,3.406756,-3.511692,2.8278863,-0.0062996782
-2.1620085,2.8083653,0.38111103,-1.3920732e-06,-1.6638236,1.6530228,-0.31028926,8.62941,1.3809054,-1.0671803,-0.60229397,5.961361,3.3260815,1.2182721,-0.029866718,0.07644419
-3.2091963,-0.8411476,-3.4951162,-1.9234101e-05,2.0497038,-3.022168,-3.542161,-20.210476,-1.2735658,-1.2718351,4.0024757,1.2433741,-3.9980407,2.015366,-0.031244159,-0.09096187
0.89837813,-1.6233203,1.740829,7.0626307,-2.222614,-3.319736,2.2998128,-0.04064417,-3.5206492,3.6928034,4.316889,-0.043754578,2.3427112,2.4816725,2.9799817,8.193675
1.863426,-2.4921403,1.2168609,5.93863,1.4678539,0.93438166,-0.4429791,-0.020719625,-3.0307655,0.3674443,-0.066672966,-0.027372826,-3.1034434,-2.6600199,-3.5338967,-3.3301349
2.9378314,-2.5001223,3.1039429,3.7296433,1.9987246,-2.4615219,-0.8236747,-8.043121,2.9864714,-3.594552,-3.5512116,-0.011415437,2.442177,-3.3019674,-3.3844256,0.013427459
2.7802548,1.538405,0.10487062,-2.9506812e-06,0.1922965,-2.5946734,-0.3047818,-5.9247217,-0.39897048,-2.2787097,1.0585666,12.096098,3.15484,-0.81535983,3.9450612,0.02624464
-1.9750943,2.54132,0.08538038,6.097648e-07,-0.5148998,-1.6176739,-0.642342,-6.10845,0.703909,0.41477883,-2.3289726,0.93981206,-2.3455796,1.3955714,-0.13480878,0.004655827
-2.8806045,-0.2861539,-3.4262366,-8.893259e-06,2.0316925,-2.6134112,-2.1506085,-13.608076,1.5968579,1.5348241,-0.66617715,0.75644565,-3.4447498,3.3198345,0.03552688,-0.018131092
2.5770695,-2.411696,3.6050353,4.016257,-1.2178175,0.72622,0.006043315,-0.02571646,-3.2004147,3.3271713,1.2047825,-0.025435455,-1.0918512,2.0270407,0.7262845,8.76059
-1.0616486,2.2800703,2.885295,10.721331,3.3575654,0.26891387,2.18911,13.259354,-1.3792303,-0.98962384,-0.023852572,-0.048266392,0.6183182,2.2390738,0.0024229288,9.388536
0.6094551,-1.1933504,-0.5048071,4.5434804,0.5236518,1.6286929,0.2379964,9.651394,3.4428663,-2.5927312,-2.9022298,-0.0061202273,0.7329635,-3.4062135,2.003202,0.007093206
2.7932272,0.4956417,0.042451143,7.9357866e-05,-1.7217607,2.0865872,2.0072474,10.366973,0.19807206,-2.284836,1.0329125,12.16297,3.903411,-3.5999079,3.5713105,0.030451309
-3.1185594,1.9145406,-0.0036192834,2.8168224e-06,-1.0191875,1.4614041,0.35326493,3.7684267,1.5068774,1.1375363,-1.6018379,-4.720327,2.0560508,1.3499464,0.037684545,-0.028519884
-3.1477935,-0.1471307,-3.4731128,-1.1821317e-05,0.69031477,1.4163809,-1.263797,6.4184666,-0.027725875,0.19186068,-0.7337258,-1.1915987,-3.784776,2.455542,0.03465277,-0.02847656
1.9337007,0.8158759,1.9982965,-2.559432,-2.2457762,-0.5894501,-0.07329747,0.010175314,-3.3614762,3.5696003,3.4089434,0.0110244695,0.19173269,1.7561045,1.7962371,7.5176525
-1.8898965,2.5431623,-1.5363643,-14.628502,0.076675765,-0.95976555,0.002561599,-0.012071393,0.45232138,-1.7227423,-0.00402081,-0.0052845925,0.14481312,1.4075387,-1.4634771,8.330984
3.5528102,0.75318366,0.61425793,29.751255,-0.4274653,2.2786672,1.461837,8.991864,3.1627512,-2.642424,-3.6305456,0.055462763,3.5230188,-3.4785564,3.689734,-0.060075145
0.25345334,0.7446235,-0.014902674,1.8138198e-06,-1.4986203,2.624711,1.0013199,7.9654264,1.834769,2.582315,-1.14144,-9.320345,3.3842273,-0.04542926,-0.16883023,-0.044262275
-3.7169096,0.12969467,-0.7548889,0.00017547607,-0.89659,2.4693828,0.015673816,3.5705805,1.4423847,-1.5361174,-1.091438,1.1259757,-3.0522234,1.4306216,-0.030401014,0.022819065
-3.3403168,2.2933648,-6.909807,-96.34864,0.05729747,-2.78766,2.84399,0.00065612793,-1.795305,-1.002904,4.5332127,17.057941,-3.671779,3.4527538,-1.2774947,0.06362316
1.3298838,-2.3056927,1.5294194,9.737717,-1.0855594,1.6842511,-0.1227282,-0.039896175,-2.6243317,2.5577435,3.3716,-0.04984664,-0.503445,-1.7657348,-1.0604025,-2.7029164
1.0266786,-2.6846328,1.0877868,9.913984,2.134348,0.78978336,3.0425963,22.125916,-0.6631736,-1.554987,-0.004247794,-0.038364526,-1.0140574,0.014817297,-0.48672265,1.1034231
3.2601562,-0.9358454,2.6469398,-8.591905e-06,2.1676319,-3.3413258,-1.7942727,-0.32005647,2.6900058,-3.375331,1.2136855,0.0024927948,3.4090223,-4.1736703,3.9174972,0.005446419
0.25118715,2.300056,0.00851738,-9.440138e-07,-1.8274442,3.1832368,1.57893,0.6954967,1.4739859,-2.8433537,-0.6228901,10.6947,3.4766722,-1.448433,-0.03361158,0.032263666
-2.8783977,2.013578,-0.023171585,-1.0815002e-06,-0.25802308,-0.58615875,0.3755246,-3.5597167,2.3996558,2.634315,-4.8567996,-41.56416,-2.6053169,1.1064103,-0.047493696,-0.0060260445
0.25026613,1.4950076,1.2351947,-7.4366407,-3.4030375,-0.8783983,2.8478296,-0.0012461022,-3.4778996,4.0718184,3.972622,-0.03769213,-3.3932946,3.8484626,-3.7353115,0.011163805
1.1579514,-0.026399791,1.4083972,-2.5156717,-1.215915,1.9112546,0.09846738,0.009100625,-3.4711788,0.76837415,-0.16398877,0.011944745,-1.2129574,-1.0021394,-1.2013204,-1.387439
-0.2661044,0.9467088,1.7740438,3.2783985,0.82727116,2.077174,-0.8592516,11.132822,3.4842093,-3.342051,1.403482,-0.043287203,-1.9303231,-3.360489,-3.7012281,0.033412457
2.5332727,-1.5233229,-0.035908327,7.741846e-08,-2.6447158,2.4879847,1.9913143,6.30061,2.1561968,2.8320673,-1.3136214,-10.965525,3.487168,-1.2436166,-0.36277878,-0.04113584
-1.5802639,2.9408472,0.05164178,-5.4462575e-06,0.021823019,-2.6287005,-2.0116782,-7.968256,0.4710024,-2.2439873,-0.8626966,12.309158,2.2761714,0.84908307,-0.05378872,0.0060988665
-4.1957693,-1.045784,0.93166924,0.0012950897,1.0909799,-2.39985,-2.5222437,-13.965904,0.9436811,-0.9749465,-2.7682123,9.433057,-2.7699418,1.1027293,0.06765115,0.08294055
1.398175,0.2728046,1.608496,-0.03339088,-2.088707,0.098683715,0.38128603,0.009996652,-3.385207,3.5007849,3.362629,0.011154514,-0.02678883,-1.5464311,0.22834074,-5.3213897
0.44880745,-0.23143235,0.32896078,-0.44326198,3.4526513,2.9342387,0.00500077,0.0038580552,-1.8097394,-0.66295916,-0.030169204,0.021223819,-1.4377309,-1.051748,-2.0756443,-0.5622978
3.8658457,0.1649198,-4.3428097,-6.5768836e-05,2.278748,-2.9980278,-1.4309177,-6.171346,2.6842103,-3.8075795,-3.5974994,-0.0072013997,1.4158278,-3.3029766,2.768629,0.0077061877
3.351161,-0.8183218,-0.00093853194,-1.5944438e-06,-2.1101894,2.6100612,2.0219975,7.4086094,0.9309601,-2.7085195,0.78238505,10.999588,3.2144,-2.7910213,-0.82792586,0.006737709
-1.7481712,2.473892,-0.00075485744,-1.6342001e-06,0.52081335,-1.8608806,-1.3192014,-4.420951,-0.4502445,-3.4216356,-0.0334611,2.8970566,-1.5126581,0.96621424,-0.00042221695,-0.00074180216
-0.58491725,1.5840821,-1.2983319,-2.425376,0.20218992,0.6148429,-0.4626413,3.3295999,0.6716237,-0.24334264,-0.52681375,5.9545126,-3.2370143,3.3524656,-0.0034050383,-0.011127718
0.4946686,0.28553942,0.14372514,0.7731382,-3.2323353,-0.71407354,0.003119737,-0.00560911,-3.0057533,1.6271763,3.3219345,-0.008376889,-0.46179646,1.4813254,-0.2713313,11.466728
-0.79571265,1.4201752,1.2553065,12.075537,3.3998866,-2.1924214,-3.239605,-0.039977655,3.4198005,-1.678155,0.179306,-0.038054086,-0.34471244,-0.62493163,2.0990553,0.9339248
3.422009,-1.9513829,3.303967,6.866885e-06,1.4584336,-2.8018403,-0.3340728,-6.823384,3.093359,-2.6375308,-3.6409674,0.040008087,3.8763356,-3.3359804,0.36518955,-0.02178502
-0.19573705,2.0149693,0.00022913655,1.7891166e-06,-0.9347316,-2.4566474,0.18147472,-8.094065,0.6668817,-2.6502323,0.14473385,6.40613,3.3744936,-0.0757993,-0.089138925,0.023516916
-2.1412783,2.9717157,-0.0010379083,-1.0854924e-06,0.6572348,-2.6774921,-1.396139,-5.422031,0.10003528,-2.7195888,-0.42895103,11.411143,0.2260685,0.42477113,-0.009388752,0.021726314
-2.5135639,-1.5764478,-3.5668476,-1.37125135e-05,0.5298057,-1.9690361,-1.0328896,-7.0793366,-1.0026382,-2.2183967,2.1284676,0.516872,-3.6388028,3.294219,0.15326685,0.010338258
0.60559523,4.12192,2.789553,-14.537102,-1.3502381,0.91505146,0.091439724,-0.11102641,-3.4845176,3.7265508,3.7246306,0.008398265,-0.32313094,-1.2829088,0.037569225,-3.3185446
-0.8794383,-2.4593549,-0.010213375,10.375939,3.2866945,-1.9422115,-3.935945,-0.034792423,2.799419,-2.1577094,0.057801016,-0.07227862,1.4249625,-2.4203553,0.32130408,-10.59233
1.9993371,-1.4893621,0.28847057,7.0358953,2.0070682,2.270307,-0.7544525,9.727788,3.479744,-3.370764,-0.56081486,0.0007969225,1.9865426,-3.412188,-1.4190494,-0.0033516474
3.291459,-0.8135329,-0.08685124,-4.612387e-06,-1.7978822,2.7433934,1.6494246,7.285182,0.764992,-2.360699,0.98072743,9.183946,3.5543833,-3.1596677,-0.16422445,0.009288702
-1.5047438,2.1027706,0.0037826002,5.4319703e-06,-0.7106794,-1.853015,-0.12284504,-6.419843,1.3839233,2.4092417,-1.2931099,-7.809357,2.5017407,1.0613195,-0.078090966,-0.0026470292
-1.7988712,-0.50349534,-3.4293792,-8.825249e-06,-0.4874533,2.2898092,0.057914175,-1.2544198,0.41419476,3.6009302,-0.92746663,-6.4742002,-3.6229727,3.4204597,-0.016471948,-0.010613769
1.3261223,-2.0728989,1.5301038,6.6395216,-1.3847394,1.1807778,-0.028348668,-0.02676726,-2.8211982,2.1026254,3.4588144,-0.028885245,-0.84205544,-0.07180886,-0.35811904,1.9311166
0.29821485,-2.746022,0.5891082,9.518108,3.0044239,-0.41468778,-3.2551544,-0.028562225,1.880043,-2.9890347,0.06871576,-0.05577082,0.52372634,2.1279664,-0.45087034,5.9446545
3.2957864,-3.3201847,1.5231506,4.9257324e-08,2.026493,-3.1248913,-1.1849877,-4.8529463,-3.138508,-1.9051908,4.1043262,3.8583307,3.6111636,-3.4909434,3.4198818,-0.0038409568
-0.81823456,2.1700728,0.30398178,-4.3263026e-06,-2.4625394,2.2095444,1.3540068,5.249324,2.1753428,2.10263,-1.6576587,-6.410913,3.5306432,0.7008746,0.00054965913,-0.029448543
-3.575532,-2.6409478,3.7554717,3.4695724e-05,-0.83274704,-1.829771,1.8503195,-12.342848,0.45209175,-0.89688826,-1.1632038,0.4239514,-3.4038074,1.3561236,0.5237917,0.017321646
-0.033559814,1.2636037,-0.2552126,1.197166,-3.2388322,-3.5784023,3.451318,-0.0035534743,-3.1443057,4.0140896,5.088788,18.338633,-3.2429657,3.998863,-3.8717608,0.049970087
3.6193829,-4.768403,2.5550265,-11.618836,-1.4459066,0.21339175,-0.15187052,0.06881076,-3.2690978,0.50504375,-0.22786266,0.0010211132,-2.400677,1.6328831,-1.9168202,9.186525
-1.9756255,2.1434813,-3.4291887,-49.062035,1.3495014,-1.221774,0.13050961,-0.039729398,1.162297,-1.4069308,0.098176435,-0.07328595,-0.42590857,-1.2686555,-1.5431094,-3.5334783
3.4169366,-2.839737,2.7425997,7.474381e-07,-3.5829349,0.38446173,2.777095,-0.39120218,0.963192,-0.19632116,1.8572819,-1.9281473,3.4247804,-1.0053294,3.6398993,-0.004196992
-0.39550048,1.7757552,-0.0040755486,2.308322e-06,-2.2808418,2.7763674,1.3302538,8.802919,1.7399498,2.550455,-0.27066886,-4.4945145,3.278374,-1.3971702,0.015826643,-0.046293594
-3.269517,-2.6491954,-0.017766498,-1.8603014e-06,-1.042191,2.2202616,-0.007695198,6.0375147,1.203123,-2.342599,-1.2444011,12.178536,-0.8156677,1.1985431,-0.021222986,0.0018722061
1.1329092,-3.626707,0.49613714,0.37430412,2.3488185,-1.8829536,4.566634,0.7638664,-2.0673964,0.09630084,4.6537943,-0.0030580591,-3.4502985,3.4365525,-3.3751855,-0.03756599
1.6663419,-0.7741671,0.54781616,2.0229306,-2.3157053,-0.53821015,-0.54954004,-0.0039824597,-3.6375384,3.2344036,-0.012663633,-0.006955076,-2.1333685,1.5950553,-1.8276743,10.668538
-0.76147294,0.4919043,-0.9955811,-0.21252769,3.2809198,1.1625884,2.9291956,0.0026726723,1.3691658,-1.4360567,-0.052076295,0.01356481,0.30770797,0.12559202,-0.90644044,0.5058262
3.3829825,-0.8015822,3.2105985,1.2764331e-06,-1.2756755,1.8294741,1.4574219,7.7815623,2.8043993,-1.326275,-3.5727267,0.046125494,3.5065718,-3.6762362,3.5892942,-0.043387726
-0.012917251,1.8299798,-0.014275942,1.9999534e-06,-1.9420228,2.6402316,1.4340311,7.738983,1.4122157,2.1582787,-1.1575568,-9.182229,3.383348,-0.80215156,-0.18149906,-0.037794247
-3.2003322,2.1845355,-0.13148618,-7.1402246e-06,-0.44280767,-1.9348224,-0.29672992,-6.096123,0.7687987,-1.4351213,-0.47917196,8.506949,2.4077246,1.2098588,-0.039777145,0.039390914
-1.3376952,3.4439077,-2.4230173,-7.796934,-0.7819789,-2.3180776,3.9092462,25.443987,-2.9135153,3.329601,0.82383204,-0.009515703,-3.7015915,4.1664305,-3.8556871,0.009788714
-0.8827485,1.74008,5.736449,24.968433,-0.92301524,0.3143081,0.19959433,-0.07398376,-3.4458268,2.0653987,3.4954467,-0.08586632,-0.1380702,0.25644043,-0.24632874,1.8632842
1.2120211,-2.66994,0.6970427,9.095749,2.600186,-0.8043521,0.32464814,5.8435955,-0.22272697,-1.3572896,0.055980563,0.024132308,-1.4299212,-1.7111586,-1.9900802,-2.7131515
-0.9602778,2.7637007,-5.8904057,-45.029076,0.3968559,1.2418756,-0.5332482,8.54353,3.177057,-2.9127052,-2.1237051,-0.025071174,2.9183695,-3.5171728,3.8457603,0.031468153
2.5950506,1.4948783,-0.0020856676,2.0045368e-06,-0.9175447,-1.1477236,0.4741242,-5.3564067,1.0252757,2.691874,-0.5296974,-10.470601,3.3624392,0.42820725,2.7073646,-0.013412893
-3.3143566,1.9196047,-0.0084342435,6.426467e-07,-0.75604403,-1.6717733,-0.26604724,-6.2876883,1.8968668,3.1320043,-2.455419,-9.3454895,1.8423805,0.9228223,-0.009062961,0.00763952
0.4298368,-0.73888695,-0.37342566,7.792751,0.7856597,-1.5343102,3.531658,20.069366,-2.235799,3.388071,0.7176671,0.003844806,-3.6745174,3.3603086,-1.1105598,-0.015508741
-2.0782263,2.2464786,0.7565966,-10.652323,-3.1285732,-0.79613614,-0.03979847,0.037606597,-1.698846,2.7818053,1.4553577,0.049539015,1.8061097,2.2489421,1.6650248,8.939896
0.16554876,0.4608239,-0.5036317,0.1206435,3.305442,2.9271138,-0.013969108,0.0021102503,-2.2731535,-0.8823395,-0.02145052,0.0062100473,-0.8606526,-0.53436303,-1.6955115,1.9506515
3.3743398,-0.89257336,1.0775636,-2.6301473e-07,0.66370416,-2.5141351,0.3436517,-5.667378,-3.2595315,-1.7327178,4.6952157,1.3696243,3.8479245,-3.6477427,3.6028588,-0.046106532
-1.203185,3.0151463,0.5008227,1.3653876e-06,-0.8985067,-1.7359003,-0.47232866,-4.4570274,1.2918653,-2.1680493,-0.6691654,6.6851654,2.3585067,0.30292606,0.002451744,0.026881926
-3.5166683,1.9858721,-0.011023024,5.4375323e-06,-1.2274994,2.652122,0.11103791,9.268728,1.8523394,2.394412,-2.0663533,-9.103383,-1.2557364,1.2840981,-0.035495065,-0.022506531
0.7211507,0.043238774,0.48518968,4.3968782,0.74084795,-3.5640388,1.5779012,-1.3508967,-1.3524022,-0.07559534,3.2294173,-0.73835707,-3.3798409,3.462387,-0.986109,0.031668723
-1.0384492,3.3478155,-0.5432403,-10.239257,-0.27029625,2.986326,2.1033797,20.531925,-2.4371095,1.218378,-0.048633303,0.06387163,0.07987708,0.85985905,0.09768033,5.210477
2.8770607,0.110418126,-0.5535824,1.460213,2.8136656,-2.9491813,-1.9735357,-5.4840193,3.2659678,-3.2268822,-3.4471107,0.0003187945,0.29523548,-3.280164,0.47790262,0.0051051285
2.1152794,-0.6151544,-0.07342802,-5.7669877e-06,-0.97822773,-1.2399304,0.14907765,-2.968355,-0.015812755,-2.475899,0.7318036,10.658098,3.427557,-3.3907168,-0.1751225,0.039372746
-2.0818722,2.9385917,0.06167958,-2.9228172e-06,0.7142776,-2.638625,-2.7261035,-10.457211,0.015334405,-2.2066445,-0.83646065,12.509049,1.5514588,0.42089856,-0.030320473,-0.011587009
1.6031029,-3.475293,1.621265,0.25727493,0.94141936,-0.08899221,4.0639224,0.31354904,-1.1428745,3.342115,2.2352886,-0.009053997,-3.5807247,3.348201,-2.7673182,-0.00044133514
-0.14984865,0.96979105,-0.007939935,-7.7761807,-3.381093,2.9389539,-0.012625281,0.013171919,-3.2440693,2.3684568,2.3207974,0.00081574917,-0.2021145,0.3213712,-0.52937794,1.8679426
-2.0589466,3.1904764,0.36892128,-2.0129452,3.4743783,-1.4807692,-3.0407608,-0.0416283,3.6658485,-3.4515138,-0.06500948,-0.03759581,-0.6284723,-3.7002397,-0.36546445,11.314907
3.4596925,-3.2563844,3.0620682,1.0376714e-06,-0.7428048,3.046325,1.9043472,1.9895061,-3.017781,-1.54794,4.179926,4.562147,3.8308928,-3.476684,3.4340386,-0.039346874
-1.2654537,3.1353626,-0.00048109842,4.726562e-07,0.67948633,-2.6217854,-1.3611529,-5.060995,-0.2438488,-2.7413502,0.37601715,12.417812,3.0414343,0.4016982,-0.023258857,-0.011109039
-2.6191401,-3.4621649,4.0164514,0.001367569,1.099601,-2.4074757,-0.86546624,-8.571315,1.8015593,-0.4428028,-4.799533,-0.049306326,-3.577584,1.2151461,-0.22161621,0.1294786
-2.3485389,2.7642167,-2.5448415,-27.695213,-2.9611661,-0.5231713,3.5043404,-0.035979412,-3.2592716,4.1632624,4.0205984,-0.018497769,-3.078819,3.613336,-3.7025955,0.007458711
0.72479886,0.54833853,0.18308473,-1.314195,0.2176537,1.626258,-0.007928103,0.006127066,-3.273892,1.3835233,-0.017835196,0.0018824916,-0.7772637,0.16167438,-0.81863123,3.0558524
-0.7493395,-0.7304393,-0.15508331,2.2419538,3.1809485,1.0028778,-3.4396896,-0.0064395266,3.2230153,-3.605625,-0.034808755,-0.014847811,0.054714072,0.39913815,-0.7020954,0.5253654
3.4096792,-3.297332,2.9608045,7.8990297e-07,-1.8504717,2.4539962,2.0249405,7.813833,-0.06234373,-1.3762547,2.595038,3.5067766,3.7832296,-3.6397722,3.4906037,-0.03907325
0.33058652,3.2374704,-0.00048680167,-6.188006e-07,-0.39350155,-1.5224445,-0.3288399,-4.608932,0.39831102,-2.2548451,-0.18223894,11.232752,1.9778392,0.5734649,-0.06858696,0.052043412
-3.4466717,2.4997325,0.25181827,-2.3529333e-06,-0.16543871,-1.9599044,-1.1704192,-5.7936754,1.2242609,2.4321961,-2.1258128,-8.169679,-3.6476052,1.0463145,-0.041041017,0.025820376
1.6416357,-0.005844444,1.3044376,3.6961024,-0.7365173,-3.4859643,-0.15986843,-0.008439064,-2.3887143,-0.31995153,4.591419,1.0801373,-2.0892646,3.9281082,-3.796501,0.051735736
-1.7805464,2.4069595,-0.57973164,-9.237864,-1.6556783,0.5645963,-0.13935253,0.011189535,-2.7199292,1.630974,2.5856104,0.04765275,1.0217439,0.50955874,-0.15725383,3.6556451
1.2732146,-2.7888184,0.852425,9.360147,2.483979,0.97240484,-1.9789412,-0.019653412,1.5695693,-2.5478091,0.11364186,-0.049575903,-1.4964664,-2.6334589,-2.221892,-5.8711696
1.60881,0.27743304,-4.8280754,-0.00046920776,3.0151467,-3.1046293,-2.077824,-4.908883,2.5629559,-3.3260574,-3.5055208,0.0059877187,3.2471886,-3.256701,1.1997434,-0.0066438317
1.7009376,1.7458405,-0.025289442,-2.3917164e-07,0.21985579,-2.5780373,-0.57244855,-5.8976774,-0.005473852,-2.2143097,1.0371823,13.293349,3.2166324,-0.3336597,3.4550545,0.04125998
-2.0940158,2.2067006,-0.00023255241,-5.2700716e-07,0.85828763,-2.373787,-1.4564931,-6.354048,-0.09860443,-3.0392027,-0.2980442,7.1326103,0.24691683,0.63993037,-0.094414175,0.013098601
-2.745653,-0.79456884,-3.4647708,-1.0927117e-05,2.6972618,-3.1020536,-0.5717125,-7.9603567,-1.8089778,-0.31101707,4.1837444,0.8830013,-4.1157866,2.4245288,0.047947884,0.034908857
0.44996563,0.7222674,1.3209127,-2.2735903,-3.3741806,1.3041813,-0.025689468,0.010596275,-3.4750638,3.785513,3.5686598,-0.00088608917,1.4202379,2.5421228,2.3272521,7.1897807
0.52540386,-2.427274,0.06973171,9.452311,3.6161041,0.5984299,-0.5984122,-0.032755774,-1.0504481,-1.4488369,0.044634335,-0.03870369,-0.6326404,-1.345475,-2.0403972,-1.3592793
2.0409963,-0.15087168,-0.37725177,-0.022421084,2.7177105,-3.1936529,-2.2435105,-4.3794775,3.3509326,-3.5242553,-3.4445105,-0.012292139,2.0670588,-3.467631,4.3781834,0.029985428
3.3530383,-3.2904868,2.4351578,4.461871e-06,-2.4566627,2.831811,2.463564,6.4106236,0.65451574,1.1018347,1.1814401,-7.8820233,3.4021447,-3.7131813,-0.21013968,-0.04606533
-1.1238097,3.2866533,0.07026099,5.310118e-07,-0.06830788,-1.7760141,-0.8078537,-3.8906007,-0.05570224,-3.4500618,0.539218,0.36090767,1.8682525,0.69726324,0.0008504279,0.0045164917
-3.2711027,-0.92944056,0.36599398,5.619184e-06,0.35594288,-2.656408,-1.3772048,-8.778147,0.9020841,2.9905155,-2.366823,-9.924135,-2.8156266,1.12716,0.008713293,0.025866676
-1.0708344,0.17578255,-0.49384645,-0.055972815,-0.26924223,-3.502202,0.24389607,-0.0032690642,0.56080925,2.0018477,-4.7023287,-0.006726444,-3.6288002,3.4248164,-2.9160984,0.062135067
0.8783791,-2.6767356,1.2937095,8.301855,0.027532816,0.4640094,-0.20928085,-0.03145075,-2.4735103,1.7730387,-0.16362654,-0.08155669,0.17229162,0.9856128,-0.80740964,4.3782253
2.799985,-2.8050184,3.1925602,2.0961134,2.0168698,-3.0089922,-1.9568508,-3.613243,3.4615028,-3.3991187,-0.27507055,-0.010822177,3.3907623,-2.7938643,3.4819617,0.016142964
3.2585285,1.1629895,-0.003968605,-6.873611e-07,-2.19094,2.574352,2.22546,7.7362843,0.24532577,-0.5191566,1.0168749,0.06418151,3.1831408,-2.8768744,2.065846,-0.018548667
-2.3781464,2.3246262,-0.015657,9.058349e-07,-0.7435725,-1.179002,-0.19218907,-4.7933683,2.370881,3.9000778,-3.553596,-10.827145,1.9035805,1.1173283,-0.15227892,0.0039896853
-0.41808885,-0.13488969,-0.68922186,3.303763,0.010064006,1.7783259,-0.86823356,6.877261,1.0469887,-0.49299878,-0.65144265,5.6121516,-3.2634768,3.3307724,-0.0029123037,-0.020554231
1.8812224,-1.389875,2.152606,3.320216,-2.8500156,1.687238,-0.058194637,-0.017915223,-3.2516553,3.525619,3.4702954,-0.023959557,-0.69693816,-0.1556369,-0.038852215,-0.37700963
-0.40150106,-2.6745062,0.06503916,9.316101,3.2526996,-1.1444147,-4.298861,-0.027276993,3.5070214,-2.946972,0.10823064,-0.0773837,0.62459594,1.1751337,-1.2664964,6.0673313
2.7833827,-0.14551893,-4.876378,-0.0016555786,2.406135,-3.2440512,-2.1754212,-5.720233,2.1411073,-1.906769,-3.5451086,0.053153396,3.5311637,-3.2911215,1.7669684,-0.049280796
-2.055027,1.7259715,-0.0017416254,-5.9846643e-06,-1.540035,2.2046738,0.5990316,10.206534,1.1210434,-2.29642,-0.6702196,11.98208,3.2411344,0.2872267,-0.026350677,0.008024678
-3.07729,-3.255249,-1.3544717,-2.5754747e-05,0.11742157,-1.2989571,1.330783,-9.790392,-0.19652808,-0.9734568,4.1611824,0.6756206,-3.4218905,3.340361,-0.03112669,-0.06043583
-1.6092683,-2.583253,-0.5687976,15.320164,-2.271827,-1.5015483,0.05824828,0.03750366,-3.5193627,4.2256393,4.0132113,-0.031286053,-2.3788104,3.1465461,-3.5227072,-0.017820515
0.9183503,-0.13373974,0.16888201,0.32769197,-0.07775341,0.8803401,-0.8644855,0.0021443854,-3.4628706,-0.83852583,-0.18650055,0.023509346,-1.4523652,-1.0627173,-0.9365843,-1.6453056
0.5629531,-1.5181441,0.65743166,3.34343,3.2727172,0.7859261,-3.3241587,-0.009317051,3.635204,-3.3902922,-2.6193173,-0.0057609025,-1.725956,-3.5047102,-2.593296,0.013117054
2.5318968,0.41568854,-0.015988275,6.265327e-06,-1.6890228,2.7028537,1.6445911,8.295506,0.38196757,-1.0163233,1.2510659,2.9772172,3.1700215,-2.8195996,-1.3178661,-0.022528147
-1.974697,2.8160725,0.024272824,-1.328965e-08,-1.1734186,2.4599154,0.0360903,10.80516,1.6702249,-2.5258713,-1.0189887,12.6831455,3.365218,0.9939737,-0.011416465,0.014217256
-2.7362392,-2.2965205,-3.5530229,-1.4100004e-05,-0.082548246,1.630273,0.21596745,0.8189465,0.27907518,-2.83276,0.041918814,11.342082,-3.6478927,2.570005,0.047832012,0.011167251
1.1290716,0.40219992,0.8901432,-1.0094153,-2.0599706,0.29628444,0.00254184,0.0046695713,-3.1921659,3.3873985,3.2756639,0.0051701004,-0.5895194,1.6224488,0.38994086,15.27251
0.6718935,-2.7156365,0.86941814,9.496715,3.353197,-0.26770502,-0.112703025,-0.029103497,-1.3073243,-1.5031296,-0.007554952,-0.049782395,-0.52318,-1.8752861,-1.5460925,-13.0483465
3.3056533,-2.6045868,3.7913666,2.9507559e-05,2.22224,-3.083959,-1.5249648,-6.0351167,2.966811,-2.3887284,-3.8417726,0.089132026,4.114867,-3.2692647,3.4019432,-0.04505699
1.6972452,0.55492836,0.0005200878,4.857445e-07,-0.67699116,-1.9284518,0.04627675,-8.823263,1.3999113,2.5589685,-1.008138,-10.378414,3.3488758,-0.44670427,-0.03877397,-0.019534905
-3.4078126,1.1299132,-0.055466548,-4.2102347e-06,1.4664037,-2.235871,-2.2267056,-3.4895763,-0.51415926,-2.2899184,-0.67238,10.225789,-3.5703604,0.6509994,0.11502123,0.030987192
-0.8787976,1.264906,-1.104053,-3.14446,0.25601432,-1.9442205,1.470176,0.38659573,-0.13140014,3.3128967,-2.2143986,0.028636374,-3.5057902,3.395351,-1.3165169,-0.022992775
0.87745947,-3.1181479,1.0330908,8.853355,0.47150767,-0.3741176,0.3246734,5.6450386,-2.2820039,1.9892906,0.21894957,-0.0021491759,-0.27886748,1.1249163,-0.17914087,2.8839417
0.08158386,-3.2182388,-0.3592105,10.457918,3.3456583,-0.46677816,-0.33909148,-0.037367348,-0.56645805,-1.8021053,0.089027405,-0.059605267,-1.4393651,0.9696054,-1.7784796,4.1108613
3.2141485,-0.09137507,3.4136007,6.8739328e-06,2.7545352,-2.6904495,-2.2109237,-4.577065,2.6414714,-3.6122184,-3.8622532,0.07893981,4.027771,-3.2660916,2.5685081,-0.06588507
1.2853216,3.2967536,-0.12746072,-9.056239e-07,-0.21967891,2.950911,0.51623577,10.516522,0.5454129,-1.7045029,-2.0753798,7.8561077,3.2048721,-1.037942,3.3073893,-0.017343521
-3.3633773,3.5243125,-0.0039778855,5.8297956e-06,-0.09147179,2.6427798,-1.654271,7.125122,1.3067771,0.03049928,-2.4615407,-1.72259,-1.758964,-0.107545644,-0.080202,-0.041418165
-0.11575675,-1.5605859,-0.100344956,0.7205125,2.2843924,-2.6276855,-3.8236504,0.004802023,0.6250285,-0.5504897,-0.1252073,0.7873721,-3.2485547,3.4508872,-0.16710523,0.0012875609
1.0325137,-0.24317706,3.1336854,-2.715806,-2.6301732,-0.2842304,3.8294735,-0.014366824,-3.077091,2.9268143,3.6341922,-0.0390796,2.2888527,1.4093728,2.7363095,-6.6903715
1.3966311,-3.0034828,0.32822955,0.27878433,3.324126,-1.6465098,-1.8228492,0.0051709474,-2.3961804,1.2378379,-0.03972841,0.014115585,-1.4252312,-0.7339729,-2.3351755,-10.197306
2.578154,-0.8898033,3.5648198,1.35051305e-05,1.4165891,-2.1991796,-1.6208578,-10.941093,3.068488,-3.7931497,-3.7207644,0.0019349866,3.2810423,-3.9884639,3.9152493,-0.008204173
3.3079748,3.354208,1.284568,1.0150252e-06,-0.46158782,-1.3853014,-0.64252466,-10.698713,2.3189073,-2.917386,-2.5567808,9.1441345,3.2912939,-4.171697,3.8519497,0.005763456
-0.4983469,3.5310295,-0.068988815,7.4993927e-06,-0.09497405,3.4350023,-0.34704402,-0.5410746,1.5525912,-1.0634315,-4.873081,0.45963156,-3.2542584,0.86917925,-0.3094234,-0.0037129465
-2.778642,-3.6138506,-3.53705,-8.982857e-06,0.025666181,-2.0732574,3.317757,-0.0047482327,-0.12618268,-0.73165834,0.64938927,-14.68904,-3.0701003,4.299402,-4.0096335,-0.009007983
1.0707798,-2.019777,2.0761933,-8.030542,-1.4672087,1.2245363,4.870792,9.367907,-2.5929003,4.497154,4.188366,0.035476852,-0.09720564,2.6432576,-0.019190788,-1.9854298
-2.0670557,-1.4695765,-5.392537,-0.0009021759,-2.7453053,-1.7663702,3.5804248,-0.057798386,-1.8622527,3.3601422,-0.006695926,0.0116324425,-0.38766506,0.72977006,-1.3118312,-5.6969256
1.71827,0.5323093,1.1391138,-20.108328,1.8111384,2.4384804,-3.3273563,-0.01727888,3.9945726,-2.114623,-2.4925056,-0.02987348,0.43574476,-0.1101951,-1.7212732,-15.355362
3.2799447,-0.38181192,3.4205241,1.1358385e-05,1.6814271,-1.0980291,-1.5780435,-9.700445,-1.216234,-2.8966386,1.7606543,1.2887572,3.89287,-3.328381,3.1340237,-0.018214412
-0.33898678,2.6855361,-0.05639715,-8.952338e-08,-0.8249294,3.1580107,-0.4820575,1.4813808,1.7447432,-1.6247301,-2.6572642,0.4516698,3.3814406,-3.956338,-0.3045665,-0.0085133165
-0.15436013,3.5829685,-0.06495017,5.2507326e-06,1.5085626,3.4156842,-0.9891579,-0.026917458,0.3289057,-2.2934597,-3.4706066,6.670275,-3.353061,-0.38823837,-0.17234445,-0.018216914
-2.4119074,-3.4631371,-3.4653084,-6.670889e-06,-0.3030641,-0.95259136,4.512734,-0.011288166,1.6674858,2.3967667,-4.660214,-0.0060222484,-3.9326787,3.558442,-3.4399786,0.007911533
0.6985867,-3.2211056,1.8451674,-4.4206295,-3.150776,-3.304997,3.2869296,0.007511848,-2.9993553,4.565212,4.247616,0.009112218,-0.2894107,3.2154016,-0.24483445,2.5650508
-1.1036026,-0.15217113,-2.0669355,-4.909428,-3.0259366,-4.1463227,3.9305654,-0.025993675,-2.1162543,3.0302973,0.06116446,-0.0067002606,1.6127284,1.3680743,0.88319445,-10.016889
-1.6960199,-0.105564475,-2.5523973,-8.499612,0.29241568,1.0798672,-3.561793,0.0077036414,3.4058,-3.8199484,-3.6243048,0.011784136,3.1795957,0.71274245,4.8786926,0.16581535
2.6925395,1.5983858,3.4493518,3.6282281e-06,1.0097468,2.7396939,-0.4768681,2.3739405,-1.4397235,-2.808825,1.8871355,-2.1160102,3.6382244,-3.6888871,3.487928,-0.0064494237
-0.44755223,1.0404946,-0.03764665,-6.0024206e-05,0.21824785,2.493918,-1.0215025,-1.6494843,0.4279292,-2.7111464,-1.6922922,0.5205954,2.1290982,-3.8475761,-0.24158904,-0.013773069
-3.2989802,3.141891,0.0007188164,2.0753788e-07,1.5438905,-0.43367887,-1.687646,0.41986915,0.23165612,-2.2599792,-3.2582524,5.845756,-3.3402972,-0.90553087,-0.07850203,0.012365917
-2.5891256,-4.026985,-3.7574341,-1.6917289e-05,-2.3604357,-2.5189474,3.3391728,0.020142142,-2.5869205,4.800889,4.6563444,-0.059887674,-3.2501407,4.431555,-4.193749,0.019544065
-1.724005,-0.9115399,-4.28576,-6.783614e-05,-0.5783527,-1.5569324,3.501216,35.934875,1.5258892,3.6070285,-0.0846626,-0.016015578,0.3121292,0.19850925,-0.66165924,-11.417656
-0.2006801,-2.0322905,-2.972234,4.535297,1.3875775,3.1888297,-0.79236674,3.7666035,2.9141397,-3.9244847,-3.6051924,-0.014825557,0.39213726,0.5155463,3.1975064,0.04440727
3.2939508,2.2645946,-1.3645539,-8.201576e-06,0.18187356,-0.9871516,0.3634656,0.55776787,0.61255264,-2.4274068,-1.3091961,0.37114775,3.468242,-4.0120063,3.845421,-0.06433692
0.99158317,3.5481563,0.6116308,1.7396404e-05,1.1183767,3.315281,-1.1379343,3.9380229,1.221097,-2.850371,-3.435773,5.837536,0.6047537,-3.4782782,-0.48124617,-0.03133964
-3.4519691,2.7561812,-0.006421387,-1.687603e-05,3.7824824,-3.3875778,-3.7465823,0.023706913,-1.2294768,-3.523256,-1.0090518,1.8006638,-3.3001063,2.9848378,-0.03757131,-0.012209147
-1.3915457,-3.7848144,-3.6111155,-1.4188265e-05,-2.5003264,-3.6728632,3.5156534,0.014820971,-3.382639,4.098249,3.9405494,-0.036065098,-2.0461094,3.2323174,-2.380833,2.5235898
0.47506,-2.5387301,0.30563313,-1.34984,-3.4878385,-1.0812532,4.049939,-0.0020503998,-2.2813933,4.33286,-0.05914861,-0.0016005798,-1.9085917,2.6857977,-2.6996708,4.4868274
-1.479565,-0.6513634,-3.2289493,-4.991463,-1.5980524,-3.3172538,-1.9650286,0.008882465,3.349143,0.64926225,-0.04252428,0.011953038,-0.88212115,1.4320829,-3.733941,0.7325758
2.273842,2.252312,3.3958492,6.589138e-06,0.19608182,1.4319105,-0.40214252,-4.211098,1.1328062,-3.655882,-0.9585943,3.1909285,3.4553502,-1.9140708,2.216152,-4.087167
2.1058683,0.4880634,0.2899871,8.104321,1.0303066,3.2818885,-2.0175323,3.6115294,1.3687404,-2.8583913,-3.066884,4.757209,1.529481,-4.220043,-0.22703497,0.009952825
0.8609272,3.5925725,-0.09661192,2.6321322e-06,0.6168055,3.3017185,1.0646911,0.031213695,-0.7234662,-2.9002514,-2.17576,6.4757524,-0.746972,-3.421921,-0.10867038,-0.005591832
-3.6379073,-1.6826568,-3.159122,1.8847668e-06,-0.023609191,-0.8543117,0.45648175,2.5802789,-3.018373,-0.8876772,5.056476,-0.10408121,-3.5036874,3.3652275,-0.06806741,0.00571708
3.1375136,-5.231376,5.0465975,-5.382486,-1.741965,-1.7072688,2.9224327,0.1048826,-0.1753219,3.7183268,0.6842334,-0.07188755,-1.9358071,3.2729812,-1.464499,1.7290208
1.9280896,-3.7398229,0.5711346,0.36045963,-0.87842536,0.7252064,4.3624773,14.284746,-2.9228697,4.414664,3.9722638,-0.00882164,-1.307808,1.0005827,-2.0547197,-3.7610536
0.31148306,-2.592826,4.212642,16.549294,-0.020606011,3.1857975,0.67788535,-2.5744016,3.4164875,-3.3906057,-3.290147,-0.032149993,-1.0187951,-0.043974817,-3.7637005,-0.20354533
3.2652671,-1.8274184,3.3236737,4.4981325e-06,2.59241,-1.3010046,-1.9346803,-7.7660475,1.6489937,-3.9571846,-3.9558015,0.020572878,3.4484975,-3.7331614,3.7011755,-0.020774327
1.0033822,4.3441324,-0.18360445,1.6838248e-05,1.6631397,3.6683164,-2.2357845,0.0048333406,-0.19605544,-2.1228611,-2.6207073,-0.553323,-2.776897,-0.68407804,-0.009313334,-0.06676133
-3.040228,-2.8080587,-3.4888754,-1.1696879e-05,-1.3774543,-1.494169,3.432242,-0.015304448,-2.87095,-1.1882145,4.4152327,-0.097087115,-2.9888318,3.992844,-3.7845685,-0.009615317
1.2084979,-2.4785738,1.3656785,-4.235175,-3.298832,-3.5328338,3.3902187,0.0013719541,-3.12483,4.2787695,4.0599937,-0.006876413,-0.27654862,2.420663,0.5923463,-1.8751819
2.7709036,-2.6169913,3.987651,6.163935e-05,0.24174501,-0.43688053,3.7648582,39.81671,-0.81513464,3.331073,-0.058683395,0.026736856,-1.4376993,2.070959,-1.9168965,-1.8433739
-1.1213048,-3.0146227,-2.3745952,-1.0028095,1.3731341,2.1436005,-3.514475,0.003692762,3.4845362,-3.6511369,-3.4924111,0.0040993784,-2.6619937,-1.8483727,-4.381865,0.0009338176
2.935503,1.1094258,3.4186711,7.992015e-06,-0.72409654,3.458283,0.59367055,-0.2842593,1.1346189,-2.3845403,-2.1241431,0.9345973,3.3384974,-4.10341,3.8479152,-0.01861791
3.1471658,2.278155,4.2701564,31.419533,2.585911,1.3335012,-1.8893912,-1.4313442,-0.9532469,-3.0677204,-2.1926122,4.493808,0.6600931,-4.2459946,-0.10942514,0.033222564
0.7974672,3.7230372,-0.02058151,9.275504e-06,1.5555335,2.9079862,-1.6093063,6.964375,0.5163163,-1.9538515,-3.177311,7.2617025,-3.1602595,-1.5191486,-0.16195977,-0.019134868
-3.0807827,-4.310028,-3.9207363,-2.4040273e-05,-0.8730607,-3.094797,3.3756318,0.022270745,1.7445898,2.8906786,-3.8343027,-0.089487664,-3.5914383,3.8550103,-3.5953536,0.022746408
-0.26812315,-1.8577554,-0.2923236,-3.2026687,-3.339206,-3.4276843,0.30725396,-0.030700136,-2.421666,4.6022706,4.3574333,0.0037944913,-0.9264551,1.4734255,-2.7675111,-16.749893
-0.30664688,-3.4958758,-0.9183365,0.5103493,0.10851833,-2.539872,-3.99216,0.0379467,-2.7841551,4.4638853,4.021962,-0.02327777,-1.339915,2.7856567,-3.3598251,7.828601
-2.1331482,-2.4909847,-3.9375873,7.514851,-3.048159,-2.2755296,2.9792652,10.198929,3.1576471,0.96412647,-0.02705624,-0.023189722,0.5823123,1.1791624,-0.36479867,0.48797673
1.3506689,3.8639543,3.7314517,1.9260897e-05,1.7772996,2.8375776,-1.3656201,9.265515,3.0956676,-3.9847515,-3.8258655,0.04365349,3.2459335,-4.3934255,4.2033386,-0.06230896
3.427793,2.7670696,3.179863,-5.5438904e-06,1.1252248,-1.0676787,-1.6542673,-7.811367,-0.30364442,-3.3595605,-0.55518794,6.6451144,2.6989317,-5.606749,-0.5270581,-0.028787613
0.17944457,3.827511,-0.008223835,1.1909402e-05,2.8785372,2.5318463,-3.5478625,4.062389,1.05057,-1.7096058,-5.292233,0.06169175,-3.5279105,-0.59886235,0.06961882,0.016261157
-3.1569958,-4.1013465,-3.8281782,-2.0539333e-05,-0.033509508,-3.1171105,3.5002375,0.018405367,-0.17715764,0.8920159,-0.7519684,-14.601004,-3.4091728,3.9713953,-3.7728195,0.0133084
1.3688822,-3.4329574,0.7919328,1.6425462,-0.43320382,-3.5263748,-2.8234136,0.002073288,-3.016215,4.665672,4.3025904,-0.0499456,-2.0534797,3.2169394,-1.947235,7.8751516
-1.0339006,0.34217787,-1.8543541,-10.182985,-0.25475243,-2.8822486,-3.4080832,-0.019959055,1.9008188,2.2130113,0.020667925,0.0037380238,1.5773315,0.30953145,-0.7107905,-10.569034
0.32623896,-3.0455809,4.6638722,13.42366,1.4104576,3.356282,-3.5201297,-0.0020215102,3.1222818,-4.3602223,-4.0627446,-0.023703242,3.238153,0.30305737,4.5041914,-0.013795376
3.3067982,0.9121013,3.3640976,1.0361708e-05,0.0118713975,3.659945,-0.15292007,3.2435114,0.5306121,-3.1431954,-0.6654251,3.2780342,3.8528223,-3.4864533,3.051928,-0.08308709
1.2423177,4.081593,-0.010815531,1.46907005e-05,0.41106278,0.8792628,0.07479143,-12.131082,-0.5722569,-0.7044679,-2.150191,-8.110924,-2.9163418,-1.4625456,0.01758356,-0.013168861
-3.400096,-1.7520121,3.3280044,8.00204e-06,0.23919481,-2.2876825,-2.10038,-8.110672,1.8728713,1.3075927,-5.2534814,-0.025802094,-3.8614144,3.253266,-2.8762243,0.039385602
-2.4085994,-3.4595575,-3.4219787,-9.0756e-06,-2.8462396,-3.168619,3.3591871,-0.0004704222,-3.227718,4.5271306,4.2575965,-0.01355232,-0.7352118,3.3401196,-0.4532705,1.8627291
-1.4917481,0.47023773,-1.6654811,-9.280362,-2.4028816,-3.473588,-3.8190215,-0.022175789,1.254022,3.322114,-0.1827606,-0.02472191,-0.9785622,2.1722689,-3.0054884,4.052359
-0.44383952,-2.2952087,3.3779502,2.6959733e-06,3.0154624,2.6620586,-0.34648156,0.00633604,3.440605,-3.743716,-3.4872463,0.004060935,3.0639393,0.38622814,3.9323113,2.6067476
3.2790189,0.017803635,3.330647,2.8862405e-06,0.10669243,1.6294014,-0.13377976,-4.568227,0.50134134,-2.865486,-0.66133726,1.2484944,3.4954226,-3.7469237,3.6273272,-0.005977315
2.67289,2.6441088,1.1772804,38.69444,1.4739541,3.1786628,-0.2004261,2.5270982,-0.5380067,-2.362923,-1.6174512,0.06358796,2.203841,-4.0928106,-0.015487827,0.04037101
-1.749208,2.370351,-4.297515,-8.922815e-05,2.511104,-0.24546844,-4.7722597,-0.07371569,2.6164682,0.78533614,-5.004339,0.04648509,-4.0620537,2.2000155,-0.15062818,0.011837222
-0.23820409,-2.8348317,-0.04508537,4.7959094,-2.4870872,-3.643597,3.4916236,0.015307233,-1.9840161,4.085704,3.863083,-0.025752425,-3.3059561,3.9863434,-3.771487,0.037159022
2.4685009,-3.380312,-0.5055383,3.4787905,1.5905993,-3.424184,-3.464662,0.04622817,-2.8100343,3.8469107,-0.26162326,-0.06004758,-2.6324582,0.90570366,-1.5134135,-4.5386505
-1.9492323,-0.627401,-3.3320954,-1.1722764,2.0323997,0.0037257522,-3.503055,0.0020554382,4.1683254,-0.6767581,-3.5129857,0.0022179545,3.1047883,0.6078197,0.2983029,0.0497908
2.2039845,1.2770771,3.51683,1.1774591e-05,1.9741874,-1.7537127,-1.7777548,-12.161553,-2.0989926,-2.8195224,2.7356763,-1.6490133,3.6687598,-3.3262935,1.8426318,0.019927464
0.75922173,4.08104,-0.07012473,1.3927774e-05,0.47767782,3.0880635,-0.9810468,-0.81760645,0.7318756,-1.3816326,-3.3364532,-2.1359591,-1.3196937,-2.83551,-0.12073347,-0.028458597
-3.566767,3.4218442,-0.0054072402,9.1169295e-06,2.9745984,1.754795,4.571256,0.034276962,-2.0290904,-0.9046714,-0.5803354,-7.7841134,-3.9236898,3.300955,-0.8514942,0.037448704
0.9476061,-3.734581,1.9059554,-1.1474495,-0.50056106,3.425889,2.5566978,-1.741085,-2.4809268,4.304022,4.0846767,-0.032323297,0.5620246,3.7022076,2.286926,-1.9685332
-1.432899,0.5542605,-1.7003162,-10.19255,-3.014129,-3.5142868,3.3750408,-0.013512962,3.0162928,2.2018795,-0.6320962,0.0064067952,0.729462,3.1358652,-0.66201055,0.16250263
1.189908,-0.8050601,-2.1793966,-6.2149944,2.0734024,1.3268002,-3.4134483,0.01610355,3.1755993,-4.003212,-3.774834,0.022103945,0.17308581,-1.0398693,-1.0658925,-20.469564
2.8084679,-0.6787988,0.0014692359,-3.1590462e-06,0.2259616,3.2435095,0.6432226,0.5665537,-0.6435647,-0.6916945,0.54510355,-10.947363,3.571944,-3.5498183,1.9486921,-0.0059367493
1.3670377,3.696213,-0.0009056963,7.958415e-06,0.62298805,3.439423,-1.038468,1.5146109,1.1702908,-2.9431062,-3.0272622,8.318764,1.0656273,-4.030813,-0.3465889,-0.029147986
-0.41706842,3.792133,-0.0018392801,1.2627194e-05,1.0437219,-1.2001263,-1.7529974,-10.548543,0.77544504,-2.0199919,-2.9238734,6.269486,-1.7470521,0.16490138,-0.008495064,0.036392175
-3.1843345,-3.801419,-3.6631346,-1.5809857e-05,-2.69412,-2.3649871,2.9147856,0.0065412484,-2.599248,0.10931015,5.7677555,-0.12096882,-2.7151062,4.186449,-3.9366088,0.013246333
2.4896588,-4.4429193,1.8598316,-2.6266136,-0.13118424,-3.632378,-2.4277186,0.050661087,-3.3327448,3.9095225,3.6432064,-0.029675603,-1.9472339,3.5317252,-1.6842698,7.5402484
1.4670597,-3.2716918,-2.2955017,9.384142,2.9562988,-2.3427014,2.7122514,0.04820347,-3.3037906,2.4206126,-0.29520753,-0.059086338,-1.3900373,0.39736104,0.078186035,-8.400412
-3.4220238,-0.19359487,4.4960337,6.824406e-05,1.1882672,1.1936381,-1.5599122,2.6128192,2.660915,-3.6452732,-3.691679,0.035948765,3.4099684,-1.0727875,4.316435,-0.017230034
3.406999,-2.3221061,2.8240921,6.0154816e-06,-0.17553937,1.4915595,0.05357957,-6.82934,0.14914286,-1.4916933,-1.1871763,-4.7138925,3.581595,-3.877752,3.7665195,-0.02677714
2.0518293,3.4258785,1.726017,-6.645918e-05,1.0289636,-0.051696658,-1.6072071,-7.1918306,-0.19965398,-2.13649,-1.5754504,2.4039955,2.1014533,-4.018396,-0.20456466,-0.012758357
-3.1435382,3.3374448,-0.6918405,35.354225,-0.86514795,0.1980483,-0.5438707,-12.117049,1.2769285,0.8031347,-3.5134952,-9.543073,-3.7031596,0.08703703,-1.2122177,-0.02107836
-3.2393742,-4.1794224,-3.8215811,-2.0391182e-05,0.40822774,-3.4689207,0.95304114,0.03500818,-1.0548143,0.34325117,1.3388927,-17.22358,-3.2136388,4.353876,-4.0013256,0.021162521
3.7652512,-5.3277454,9.394964,-6.524864,-3.499422,-3.873895,-0.22038674,0.19291878,-1.20103,5.2513127,4.1850944,0.029297085,0.92106473,4.0568213,1.8192666,4.376814
-0.29985353,2.7188568,-1.8899118,-10.492399,0.40617946,-3.1865463,-1.3665054,-0.006002862,2.385908,0.61287117,-0.008743495,0.024126902,-0.74570936,2.84599,-3.061923,5.0991383
2.7069068,-2.1833897,4.291086,0.17036247,0.3012539,2.05489,0.6842191,-0.9544064,2.5376031,-4.147774,-4.03082,0.03803292,2.2484586,-0.8330274,2.8542986,3.0117507
3.6236877,-1.4509002,0.53928566,0.00014090538,0.3768602,-0.93749106,-1.7114885,-7.8678493,0.30583972,-3.7352247,0.47534305,1.0854625,3.8673975,-3.84289,3.8082702,-0.110713266
2.5280504,3.9115214,3.6476083,1.884298e-05,0.008743718,3.7593913,-0.6501895,3.9404192,0.99651456,-3.0029078,-2.0830357,4.579112,0.96825856,-3.7672184,-0.30426234,-0.05534994
-3.4337056,4.0795975,-0.009868044,1.9565621e-05,0.7994828,0.5246986,-1.9975128,-7.1612206,-1.3204215,-0.13857639,-1.1233985,-13.604661,-2.4074285,3.8033078,-0.091997206,0.016556451
-3.27846,-3.931382,-3.6776233,-1.8573306e-05,-0.9805167,-4.051412,3.7436185,0.031454355,-3.4484138,0.72545886,6.80657,11.088058,-2.318344,3.1118577,-2.7871158,3.1314244
0.37815934,-3.0523221,-0.7244384,2.2338088,-2.067112,-3.4315825,-2.1911607,0.0071076155,-3.041753,4.456805,4.0486836,-0.017082706,-0.31144604,0.9396559,-1.0213774,-5.661554
-1.5612633,-1.782047,-4.8277597,-9.456789e-05,2.8222413,-0.90914834,-4.308114,-0.07879114,1.9201483,0.7509715,-0.1376201,-0.05995263,0.56817716,0.21263504,-1.6013174,-13.839949
3.0066593,2.4295316,3.3867667,2.5871768e-06,2.501771,-1.4838296,-2.5118418,-6.310022,2.6863606,-3.8113601,-3.8310094,0.03589636,3.7645543,-3.3002715,2.5211623,-0.22707619
2.6666322,3.5849047,-0.00082931016,5.996133e-06,1.0036118,-0.73008305,-1.6155179,-10.727133,0.128419,-1.8653448,-1.6220944,0.46356916,1.6175221,-3.7859838,-0.18000779,0.007804062
-1.8862052,4.3636317,-0.09678781,2.1418979e-05,0.77503157,2.2171805,-1.5924299,-0.9851729,0.882648,-1.212748,-3.5996587,0.038974054,-3.226006,1.1693918,-0.09843148,-0.035876393
-1.94671,-3.3728728,-3.337798,-5.987392e-06,-0.275757,-0.5233199,3.3452144,0.0024780873,0.64032745,3.4912581,-2.7570767,-0.011203,-0.6899522,1.322557,-0.855945,-9.904938
-0.90439224,0.13613653,-0.8850062,-8.552295,-3.364389,-3.2621682,0.5097672,-0.013548449,-2.7750196,4.5835385,4.3470907,-0.02030694,0.4016999,2.6710012,-0.9081665,0.30736044
0.99767864,-3.349354,1.8639894,0.1557106,-0.3829961,-0.92777795,1.4672736,33.810696,-1.9262124,3.0895157,-0.23996401,-1.9274652e-05,-1.7722646,2.3128798,-3.6781335,6.301726
0.2992127,-2.3556728,4.2771435,0.59995747,1.2427711,-2.035873,-1.8704144,29.320461,3.2667449,-2.953588,-0.08568788,0.025940806,-0.47054705,1.2028806,-0.35694045,0.79923224
2.4516056,-0.19889683,3.389297,1.5510668e-05,-1.8925018,5.8806534,2.6919932,-1.0184193,1.4816241,1.073952,-2.2647588,-16.82154,3.4833493,-3.9392242,3.8079982,-0.16066492
2.1678634,1.2106953,4.1654725,36.362305,0.24303317,1.0276239,0.39938045,-10.214787,0.87930775,-0.2380718,-2.6487894,-29.445438,1.8542414,-4.0751534,-0.10269943,0.06964009
-0.7406962,0.87727666,0.13193387,27.470474,0.5969971,2.320555,3.023262,-0.016183762,2.1592453,-0.95132923,-4.9483685,-0.011305064,-3.5854983,0.30179915,-0.1857504,0.06767989
-1.1339641,-3.2461226,0.83860415,0.59981036,-3.1678033,-3.085922,3.3301306,0.009015389,-1.3896345,3.7031507,3.8663917,-0.013798147,-3.134888,4.3082643,-4.0118284,3.1733885e-05
0.39902717,-0.005558938,-1.6471845,-4.777197,-3.3388758,-3.3478096,-0.97197145,0.0017936118,-1.7467009,4.164325,3.9296484,-0.009469518,-1.9051967,3.0200815,-1.7975861,4.999533
-1.6042255,0.0863138,-1.9018831,-16.475203,-0.131498,-2.1678305,-3.7627654,-0.010391876,3.5448737,-0.16377415,-0.17275584,-0.030539611,0.7126185,3.1459188,-2.0516727,0.07415506
1.4963406,1.4885207,3.340906,3.356763e-08,0.3131603,0.016171813,1.0067127,-9.128832,-2.8489943,-4.00901,4.9779024,-2.3731282,3.8022583,-3.4527779,3.270389,0.0024726288
3.009744,-0.06818998,4.3724914,0.00043201447,-0.34009546,0.12556493,-0.56455594,-9.153398,0.7001061,-1.8657601,-1.473284,0.21042371,2.9986017,-4.7879224,-0.455135,0.0195055
-0.8710879,3.3504906,0.13735591,-4.2520724e-06,1.7685652,3.0456092,-2.1287565,4.4855127,-0.5018926,-3.5131536,-1.0175695,1.132896,-3.2325294,-1.8177706,-0.03108862,-0.023343172
-3.4204872,1.8627694,-0.2876905,1.5389014e-06,2.3018718,-0.19982469,0.6594641,6.8400326,-1.6324121,-1.5523406,-0.93027496,1.816329,-3.6486857,2.6854453,-0.05833429,-0.026849115
1.582952,-3.8562827,2.2506564,-3.4356556,-0.12556328,-1.9961319,3.289907,0.04661498,0.43066067,3.5212204,-3.0863738,-0.045059074,-2.047684,3.0118198,-2.7258928,4.5301805
-0.11551076,-1.8747648,0.023287654,-5.3793015,-2.0099251,-3.2878063,2.070455,0.0014966708,-2.4447627,4.4363127,4.0585876,0.016377881,-0.3462192,2.623534,-1.2932684,1.8918748
0.57433784,-1.4603581,-1.4204714,-4.632681,2.5510035,-3.3333027,-0.8374902,0.0029315893,-0.6257831,2.3427358,-0.008092141,0.0070451135,-1.2241471,-0.3593051,-2.495734,-10.145892
3.2145662,0.29194897,3.3589902,1.0373124e-05,1.5275958,2.9928446,-0.2331681,7.4032784,1.7965674,-3.8822432,-3.774501,0.014751157,3.605373,-3.4843912,3.4087446,-0.05871527
2.9923067,3.5550678,-0.070438534,5.7152342e-06,0.8694609,1.4645218,0.1146667,-8.645992,0.20165136,-1.6629611,-3.2323732,0.17658669,-1.0611813,-2.0916624,-0.28654176,-0.0057892017
-3.6187758,1.8270537,-0.08956084,3.160298e-06,0.8544954,-0.50451237,-0.44092494,13.732967,-3.4667528,-3.5182142,3.6799746,-0.037631378,-3.9706316,3.100959,0.17579275,0.0310257
2.5516615,-4.975686,4.1951375,-5.37728,-1.3542018,-3.8767445,3.284243,0.13729337,-2.0115604,3.616789,2.9204583,-0.08400669,-1.8530059,3.606091,-1.9101186,4.53325
1.8444711,-3.6307373,-0.22676677,0.23319003,-1.9169179,-1.7002099,2.6800933,0.05937767,-2.958807,3.2391033,-0.043575175,-0.00031110272,-2.0041072,1.694331,-2.957828,0.9566407
-0.5886632,2.024026,-3.492914,-12.051749,2.4436007,-2.861357,-4.715312,0.024522781,3.5075788,0.7533874,-0.10090689,0.0124685615,0.14320967,1.273654,-0.3002647,0.024192713
3.2805698,1.6484984,3.3911831,1.16243955e-05,-0.39475894,3.5678906,1.309425,-1.335068,1.0214119,-1.5317886,-0.577909,-6.278784,3.7045712,-3.5540922,3.4899738,-0.042492025
2.4632587,4.664282,-0.022829533,3.6714286e-05,1.1961422,2.5123916,-1.955587,2.6855726,0.92558396,-1.6207805,-3.363096,2.6197443,-0.21884948,-4.038461,-0.53394526,-0.040108897
-2.2231855,4.235673,-0.08843936,1.5863356e-05,1.8286978,3.2691398,-1.7915847,1.4773246,-0.29283488,-3.5459664,-1.8632457,0.95551175,-3.2862556,2.2330482,-0.1259962,-0.04651422
-0.47151107,-3.4583988,-2.5741525,1.0616022e-05,0.70579994,-2.6235838,3.674707,0.034429498,-2.620941,0.07837689,1.6079648,-20.719501,-0.011259258,6.0371375,1.3887994,3.9284887
0.17720889,-3.0706387,0.24133718,-0.063782156,-2.4542084,-1.1902108,4.0942683,-0.00013923645,-2.9169319,4.5228586,4.106526,0.013619815,0.15454096,2.5174987,-1.2210284,0.84045106
1.198128,-3.66887,-0.3384558,1.0250081,0.5204589,-1.3228356,3.695203,31.844734,1.0417362,2.5111158,-0.24487141,-0.013795428,-2.0530932,0.72864926,-4.1322956,0.4854344
-2.1369042,0.9961622,-3.8504653,-3.5899342e-05,3.2132883,1.950848,-3.359445,-0.028389778,2.968455,-3.7427704,-3.5471435,-0.016039845,1.2104095,0.9837744,0.24605471,-16.465483
3.413371,-1.2703675,4.8642354,0.0013656616,-0.6388131,3.4153574,0.40146858,0.5842236,1.0832169,-1.409207,-1.9883518,-2.126721,3.750247,-3.7255144,3.6837385,-0.0536099
1.1810428,0.9529323,3.870883,33.728336,-0.66786826,3.5380774,0.69768393,1.3706529,0.51819414,-0.9960768,-1.9260598,-4.821966,3.2650402,-3.9763522,-0.18001316,-0.01898951
-3.0176497,2.295377,-3.608398,-0.000500679,-0.62805897,3.1664538,1.7861379,0.27612388,-4.459137,0.5315086,4.2251196,-17.289207,-1.5080373,-0.58324516,-0.16251129,-0.09192026
-3.1021757,-2.8764591,-3.396727,2.344791e-07,-1.2984087,-0.09272134,0.6027023,-16.555628,0.54576916,0.8943974,-1.8205423,-13.449902,-3.5623994,3.6317835,-3.3931537,0.036770783
0.9922501,-3.6528265,1.3648905,-1.9736716,-3.1922364,-2.217307,3.334159,0.043843172,-3.1557705,4.6606746,4.347539,-0.03073734,-0.24580428,3.0829496,-0.3020475,-0.7493914
-0.48127025,-1.3720388,-1.5057994,0.63264966,-3.4128292,-3.266489,2.5438228,0.007619649,0.39812896,3.8917525,-0.09827453,-0.024793811,-0.06437117,3.7743216,0.054786503,0.70334685
-0.87837654,-1.8373897,3.152883,10.640114,1.0561262,-2.6001513,0.55394524,-0.01962992,3.2266185,-2.473476,-0.13694614,-0.035291918,-0.508442,-0.36751014,3.1866896,0.18436372
3.1534393,0.45475692,3.4788482,8.3344785e-06,0.46246397,2.5047162,0.76439357,3.0107455,-1.2947979,-2.309242,1.879162,-0.8379195,3.4842126,-4.0455747,3.827677,-0.017512135
1.511844,3.3611875,-0.10548288,-3.5910202e-06,-0.629774,0.9288125,0.588722,-4.099848,-1.1269612,2.4171336,2.2128398,-25.685722,1.9780169,-3.808116,-0.21151763,-0.0040497137
-2.5651271,3.4298615,-0.028442383,2.2568352e-06,-0.82275695,2.3785067,0.98201174,-0.96808517,0.80384725,0.9746833,-1.7339555,-11.608953,-2.6502469,0.058249723,-0.096738115,-0.01460722
-2.6888578,-0.07054421,-3.504137,-8.228235e-06,3.556267,-3.3579297,-3.8481605,-0.0151052475,-1.0616367,1.1068518,4.219599,0.037385844,-3.1024356,3.3736706,-1.8168772,-0.028969448
-0.25129914,1.9332064,0.14300172,-14.032986,-3.283021,-2.7578313,-1.7711718,0.019041732,-3.1227636,4.119991,-0.61366534,0.028138714,-0.6806185,-1.270953,0.20395419,-9.782688
-0.47345912,-1.0077462,-0.40661758,0.8894417,-0.69754165,0.8467141,0.90535545,0.11581758,3.2219748,-2.8873131,-3.3380215,0.003397759,1.656144,-1.8376517,-0.019583344,0.5080664
3.3598297,0.029683799,-0.105994165,-5.0557446e-06,-2.3894198,1.1987807,1.8996265,0.6773291,1.392758,1.8168039,-0.0612756,-9.84395,3.6230893,-3.2622395,-0.24941617,-0.027283937
-0.5418695,1.2272851,0.01808381,2.5020405e-05,-0.82658833,-1.1502467,0.7020787,-6.9288716,1.5507301,2.9241211,-2.358214,-9.452574,2.9833536,0.9538828,-0.10590497,0.0155106485
-2.8623962,0.35456136,-3.5957756,-1.5036352e-05,0.12498373,1.9814624,-0.688249,7.4235725,0.9628171,2.890558,-1.8750902,-7.581382,-3.3522964,3.9445395,-0.045954823,-0.023406077
0.23007223,2.658639,0.34342715,-10.388156,-3.440163,3.374903,-0.019268278,0.0030840635,-3.6092858,3.7709754,3.6641898,-0.008080605,0.0429212,2.1436841,0.40414453,9.329267
2.8167305,-2.3194554,2.1991315,6.3970613,-0.1688179,3.4515011,0.011743557,-0.019227892,-3.031024,-0.7860195,-0.12215799,-0.009769885,-2.0258248,0.97777086,-0.92557186,7.5393643
0.8943082,-2.4660573,0.5415721,11.612827,3.449425,-1.4049611,-2.1940663,-0.051124413,3.7941859,-3.400372,-1.2152809,-0.016461827,-1.0509745,-3.4192853,-1.0253031,-12.655895
3.2895744,-3.3334274,2.446608,3.963379e-06,-2.3882275,1.9822667,3.106127,5.356595,1.9945533,2.52544,-1.0251341,-5.612796,3.348854,-3.6357472,-0.27342892,-0.00061184913
1.6214882,-3.3374739,-0.018235527,-8.194929e-06,0.74629974,-3.351609,-0.7975947,-3.5881548,0.569458,4.3210006,-1.5608761,-8.716869,2.3293834,-0.26857436,0.0683651,0.03326791
-2.3979895,0.10790921,-0.05667451,-4.841586e-06,-0.5121782,-3.0883698,-0.5425214,-6.579671,2.2881303,3.5391195,-2.7859173,-7.544911,0.45993546,1.6057414,0.05949475,-0.012863174
-3.652101,2.3309333,-0.022838414,-1.1174307e-06,-0.19997162,1.9564915,-0.34710795,8.809412,2.5227823,2.8063512,-4.3155994,-4.0601535,-4.0796013,2.5742548,0.05519405,0.028381824
-1.2078159,2.3961227,-1.1690161,-46.406975,-3.3761134,-0.0056791604,0.12666707,-0.15486202,-3.4698339,2.722004,3.4996402,-0.01897557,0.5520914,-3.5147815,1.1676198,-7.025856
0.8340752,-1.7856219,0.8313167,9.653958,-3.2544503,3.1904135,0.058845535,-0.017928943,-3.2483087,0.52910125,-0.12577783,-0.02414127,-1.3420236,1.5027044,0.10533053,6.4196606
-1.25581,2.075484,-0.9522023,-2.5380967,3.251559,0.53888845,-0.039200783,0.009543601,2.7790136,-1.5395633,-0.18569624,0.025106825,0.21113235,1.9460276,0.12160445,3.733954
1.0428282,1.9917078,-0.8176671,2.6670103,2.104259,-0.49841142,-0.380306,10.159496,3.2215767,-0.88156605,0.9314306,0.011528015,1.2548823,-3.7296627,3.6388495,0.0057146735
2.6965055,-1.2719319,-0.017016875,-1.2857618e-06,0.31019643,0.7495218,-0.26875243,10.044628,-0.37669256,-0.6282551,2.2483292,2.2722008,3.6377797,-1.1768603,0.0075025447,-0.014310554
-2.398928,2.723157,0.28761432,2.15215e-06,-0.09721255,-1.020313,-0.9347254,4.8183537,0.8938707,1.7512659,0.1591512,-0.32757616,0.35556537,0.69238573,0.028082814,-0.01636998
-3.3468676,2.0014117,-0.08670829,-9.751754e-06,0.019698013,1.6193082,-0.41578418,9.927567,0.87671834,-1.723609,-0.9953238,13.941708,-3.4529185,0.8304796,-0.06665903,0.037934463
0.29043812,-0.21471137,0.8909136,8.146189,-2.2085586,-3.6849291,3.847972,-0.022072425,-2.066436,1.7547671,2.25982,0.55105495,2.7364378,-0.9104303,4.580946,4.088945
1.2331741,-3.3016825,1.4070424,-0.671775,-2.8005614,3.3801823,-0.032810055,0.11878608,-3.3696573,1.1210636,-0.23078716,0.022661751,-1.0175211,1.0003061,1.42779,9.050615
-0.2216013,2.050229,-0.88090396,-4.4528995,3.0957031,-0.7507829,4.154931,-0.002046585,3.4447918,-1.336853,-0.012111187,0.020343296,-1.0816972,1.4172462,-1.0123141,2.6777089
2.649373,-0.14605808,-0.54797983,0.0008382797,2.0495543,-2.7746706,0.3568548,-6.130442,3.9199846,0.68933374,-3.7087333,0.071180955,4.1981936,-3.268553,3.160386,-0.033954315
2.0125043,-1.863029,-0.074616045,-9.294412e-06,0.7436868,-0.7941429,-1.1430625,6.6331162,-0.3196649,0.86799127,1.1890146,1.2124306,3.193277,-1.2111613,-0.08253738,-0.026184298
-0.40855968,0.40764424,-0.017054819,-4.8745705e-06,0.2621735,-2.9997003,-0.0010150075,-6.2510753,0.9033771,2.3625472,3.380397,2.067112,0.53521264,1.1356353,0.06852337,0.08467759
-3.415163,0.8191257,-0.098135054,-9.61589e-06,-0.44825017,2.3022294,0.5586713,9.645563,0.50678647,-1.0925266,-0.48123002,9.118335,-3.6671581,1.4852973,-0.09056054,0.03253961
-3.484806,2.2509189,-1.7930989,-42.839867,-1.2075332,-4.8065166,0.2651019,-0.123909816,-3.3654864,2.022061,2.07744,1.67297,-3.837104,3.4508536,-3.7244391,0.077587515
-2.2770875,2.9247558,-2.799061,-38.11599,-3.3903072,2.4561286,0.064905,-0.120745406,-3.52562,0.41174304,-0.18638703,-0.0089892,-0.48597717,0.9077506,-0.2966584,8.481039
-1.4298352,3.0280666,-0.99997234,-7.4452224,3.203601,1.5177346,1.5496929,0.009505272,1.9921823,-1.0009722,0.115736604,0.08375508,0.7475438,1.783579,0.86472464,5.1478424
2.0430324,0.28554034,-1.2612143,0.89867103,-1.857712,1.8728207,4.0347486,2.505772,-0.3243569,0.70188236,3.0004911,-1.6473556,4.66558,-3.24192,2.7908297,-0.09423621
3.3241313,-2.5053718,-0.04077451,-1.1151997e-06,0.7763966,-0.6483836,-0.5289655,10.559961,-1.7599237,-1.6576489,4.8330317,4.4238186,3.2865477,-1.8857765,-0.11722726,0.026014093
-2.7330458,1.7233381,-0.010546327,-3.1034637e-05,0.6629529,-1.3103977,-1.3802977,7.0592203,0.18484026,-1.6662482,-0.74667424,16.432053,-0.3258246,0.8504243,0.0130798,-0.052306868
-3.5875545,2.1408825,-0.57021415,9.283365e-06,0.3396013,-0.32324588,-0.65980345,3.249101,0.04560648,-0.25722396,-0.95304435,2.549765,-3.5946202,0.8602342,0.08259013,0.03019303
-1.8098066,3.6921678,-2.3453238,-4.9222126,-2.1602244,-1.281184,0.036403477,-0.016372398,-3.4214551,3.7528114,3.4381564,-0.030796885,2.287704,2.1607022,3.1820364,11.470772
0.0083762705,-2.2203279,1.2690916,17.972755,-0.2915182,0.64050764,-0.048660815,-0.04929574,-2.2109013,-0.6366037,-0.0017299354,-0.031944726,-0.42314965,0.29205024,0.18511698,5.8500085
-0.36848128,0.050441798,-0.11557986,0.7937477,3.3417416,-0.13622619,2.5707645,0.002156394,3.598742,-3.4761786,-0.05158378,0.019734949,-0.35819504,-2.5538027,-0.9478886,-6.6341896
3.3043797,-1.0954907,-0.028453112,-3.035157e-05,-0.7711999,1.9411955,1.9189771,8.5833,-0.86827964,-2.5966783,2.527687,11.95817,3.4340389,-3.8031328,3.4292297,-0.010925639
1.8846781,-2.1947086,-0.07536836,-4.613254e-06,0.23596397,1.1669093,-0.20833445,10.218426,-0.41992906,-1.7898735,0.42100894,11.080945,3.2165902,0.6160483,-0.10242295,0.032775063
-3.4621904,0.2648314,3.0674624,5.8828027e-06,-0.6908513,1.3798985,-0.17846113,10.375926,0.7383795,-0.98830146,-0.825926,9.686567,-3.4761038,1.3064336,0.046433687,0.015290839
-1.0055157,2.1673892,0.15611213,-6.760814,0.39212412,-2.2236466,-1.2568357,0.030080661,-0.24412307,0.3417259,0.61953735,2.3022006,-3.5617158,3.3946092,-1.1752473,-0.016374726
0.695787,-0.8336073,0.07776415,9.095505,-2.646058,2.4443302,-0.020498624,0.12305178,-2.9512346,4.0813384,-0.34952056,0.039015964,-0.17393962,1.5978448,0.24830869,10.830428
0.08666164,2.1466815,-0.46388113,-6.275848,-0.14531104,2.8200448,4.6282353,5.9090137,3.1604056,-0.64907575,-0.02996999,0.029146641,-0.9469522,-2.1679661,-1.6056738,-3.4596941
2.580594,1.4189003,-3.3948355,0.06264387,2.2597904,-2.9075828,-0.26471663,-7.6454697,3.3262148,-3.6834116,-3.425047,-0.01781078,0.96120596,-3.4158092,-3.353797,0.026366662
1.6839095,-2.791094,-0.0053239167,-1.653179e-05,-0.8031076,1.4644711,1.384489,7.939364,0.0955185,1.0210456,1.0352368,-0.3679499,3.308441,-1.5594867,-0.11309381,0.026417848
-1.7880119,1.2134387,0.027161904,-1.6591372e-06,-1.3489667,1.9339693,0.681252,11.018241,1.740494,-0.44290522,0.1465075,-2.38241,3.3838744,1.1820258,-0.13873535,0.023415985
-2.6690342,2.1626568,-0.025255173,-4.6689047e-06,-0.42075437,-1.8411456,0.118492365,-3.8920908,0.21445501,-1.7314224,-0.50873065,12.240988,-3.0117145,0.87853396,0.012771137,0.04500958
-2.4332414,3.2133448,-0.366767,-2.9864311,-1.921665,-4.4960003,3.2492747,10.414331,1.9393533,2.2956724,-1.5709238,-1.2251389,-3.5158,3.5643725,0.73838294,-0.052652255
1.003632,0.5712605,1.191318,0.71487653,-2.989098,2.621417,-0.06382151,0.0014889897,-3.3518798,3.627478,3.441212,-0.0013225509,0.23083949,-1.5324647,2.8129563,-6.176196
2.1140833,-1.3202425,2.4414036,4.925315,3.319236,0.33912814,-3.7915606,-0.044266313,-2.3267903,0.24877281,0.034491956,-0.019514851,-2.1570916,0.111693114,0.29368508,9.873595
1.2752516,1.1095,0.43749794,-1.9862125,2.4516757,-1.6235064,-0.62636656,0.0045321966,2.976871,-1.8684394,-3.5862844,0.008983327,2.555068,-3.6093018,3.567656,-0.010379194
3.426658,-3.3558128,1.7762781,1.39154145e-05,1.8224121,0.2966299,-0.7087077,11.765714,-2.975368,-1.7655969,3.5903199,8.7773,3.661543,-3.3864133,-0.20610219,0.021291055
-0.6027498,-0.022975555,0.019372303,-8.742465e-07,0.49974382,1.3450797,-0.44126818,8.156202,0.45538637,-0.8594738,-0.8181121,10.736996,1.3741943,1.5982094,-0.07916644,-0.004104711
-3.4223588,3.243932,-0.011034071,-1.7577122e-07,-1.4361243,2.4787312,2.1830847,2.9149466,3.040052,3.2675266,-4.2270484,-6.7216034,-3.4622514,2.5175622,-0.04679987,-0.021195158
2.658195,-1.3929553,2.8441193,6.056282,-3.337492,1.1488166,0.0066502616,-0.0044870246,-3.4231873,3.759264,3.6006892,-0.029573135,-0.106256396,-0.7788945,0.93480957,1.7496538
0.9163399,-1.831517,1.6904601,9.255764,-2.469059,1.7227834,-0.056108236,-0.025503155,-2.7590222,-0.82850474,-0.061316967,-0.005050674,-0.66422474,0.7770079,0.080822706,9.350595
0.2644216,-0.22902021,0.2021516,2.37508,3.318681,-0.71908516,-3.4905834,-0.0026446036,3.1799235,-3.3611517,-0.123693705,0.008739762,-1.3109261,1.3615727,-1.3350585,6.4058313
3.2550173,-2.3170507,3.5370378,1.5309415e-05,1.4351593,0.5054273,1.6513028,5.6844864,3.3027804,-0.09582186,-3.7499087,0.048182487,3.590612,-3.970054,3.866806,-0.038936876
1.0238048,0.153803,-0.04018306,-4.556429e-06,-1.1157337,-3.1310182,-0.14837214,-4.3372188,1.0975711,2.015473,0.5058824,-2.0491326,3.3048007,-0.36722708,-0.10926421,0.0152713265
-0.09594414,1.1271663,-0.047366798,-5.9580016e-06,0.7212994,-2.5750601,-0.48830482,-3.5328186,-0.6316261,-1.5570406,0.8770579,14.815369,0.688718,0.9443132,-0.020970266,0.023582615
-3.29162,0.7349269,-0.09090938,-3.874179e-06,-1.145717,1.6744344,0.41914985,8.214395,2.5409124,2.1070037,-2.5772252,0.16241893,-2.8215423,1.2900825,-0.06772643,0.004199371
0.86581075,-0.828817,3.9632883,-7.8152137,0.8674267,-2.3645337,-0.25795114,-4.574268,0.85694516,-0.3672204,-4.604993,0.03569608,-3.6107297,2.4218895,0.054155946,0.0064778933
-0.03736013,3.6233957,-0.9685953,-7.536159,-3.4230325,2.5358486,-0.16868411,-0.024127651,-3.251301,3.4736452,3.461065,0.043913353,-0.9965582,-2.974816,-1.2795086,-5.0703306
1.1930403,-3.343646,1.321315,4.0836916,0.9873356,0.58869576,-0.4891938,0.017728806,-2.1565514,-1.8094251,-0.21607956,0.00704325,-1.4482071,0.16964847,-0.37296122,4.4616218
-0.4654199,2.0106103,-0.45968992,-5.4706664,-0.3532171,-0.15028736,0.07379252,0.018074036,4.047411,-0.703593,-0.072301865,0.053923227,0.12240966,1.3928683,-0.4839684,8.874918
3.3785229,2.9483,-1.094309,3.2799435e-06,3.1305547,-3.0424435,-1.2183596,-0.010966666,2.0695448,-3.382227,3.33822,0.03507042,1.1081171,-3.4032288,-0.6803976,-0.020373315
3.5761595,-3.0376236,-0.10997075,5.0386034e-06,-2.2612567,0.5037272,2.303985,-1.88497,2.8844066,3.4020557,-3.4121542,-4.138419,3.0222707,-3.4982266,-0.14142561,-0.0072716773
-2.8104174,-0.59606117,-0.04097891,-6.5097585e-05,-0.8399304,2.1672204,0.96311927,-0.26855624,1.3910536,-0.3424972,0.01735425,7.5725193,3.1447895,0.46660748,-0.06659798,-0.014096186
-3.4495835,2.239284,-0.1664153,-1.1350021e-05,0.53917456,-0.44459692,-0.53808653,3.8294554,0.17408276,-1.7083399,-1.5008972,13.540178,-3.618759,1.2482284,-0.11147994,0.054870807
-0.21026808,-1.6298697,0.86688626,1.0477276,-2.231444,1.0143096,0.021012306,-0.002557017,-3.7440367,3.4592302,0.17228508,-0.025273994,-2.3755448,2.8648343,-3.667128,0.022886645
-0.66755927,-2.640315,0.41026425,12.220723,-3.2683764,3.5343707,-0.06472933,-0.003807664,-3.5669668,1.1199181,-0.33974338,-0.051895313,-0.23612532,-0.79146904,0.17036593,2.1319306
0.8144196,-2.125959,0.33787084,12.79789,3.3727634,0.31469345,-0.034006763,-0.05499833,3.2231474,-1.3199583,-0.04394847,-0.036236916,-0.6431883,0.7441886,0.2533455,6.7177954
0.74410546,0.90199924,0.37086612,0.8304507,0.60868746,-0.9928289,0.8975988,-0.45814192,3.3567688,-3.3920422,-0.7421431,-0.007642667,-1.0160239,-2.2413697,0.27868915,-4.852149
3.3733027,-3.126518,-0.11855826,-8.267792e-06,0.031460643,-3.009012,-0.33658436,-1.9305601,-1.2427611,-3.3731422,1.9344537,-9.902144,3.681313,-2.774951,-0.24827546,-0.019028626
-1.2772453,-0.6573202,-0.025125995,4.6078912e-07,-0.798455,1.5567788,0.018317282,10.658164,2.0714717,3.466779,-2.8756857,-6.945074,2.4065917,3.1100197,-0.08456416,-0.014187124
-3.3997564,2.7133734,-0.09002507,-1.2919838e-05,0.23987395,-2.9690435,-0.836352,-4.264865,0.072185755,2.818579,1.0694542,-8.073082,-3.7710016,1.1582617,-0.029924542,0.033365637
2.5694857,-3.343574,3.6817243,2.4059265,-2.5629704,3.5599954,-0.09541142,0.016912937,-3.2375436,3.5147593,0.72475463,-0.02095469,-2.4057748,1.3899741,-0.6814944,-0.0033509769
-0.3047017,1.9999207,0.257861,0.1796503,-3.1182692,3.4184277,-3.322268,-0.007521546,-1.0011188,0.18690132,-0.2830897,0.0021093395,-0.5634602,1.1874666,0.1276681,8.7088785
0.77480394,-0.30819744,-0.9483168,12.833401,3.3866982,3.3823621,1.1932951,-0.0539723,2.2135265,-3.514374,-0.55540144,-0.018815644,-0.92287225,0.45082623,0.6982727,9.021458
3.4244976,-3.1904178,-0.62248945,7.870313e-06,-0.2750975,-2.9782758,2.4919677,-5.4970856,3.0707855,3.3386495,-1.2631375,0.029186264,1.0895954,-3.5644078,-2.2251341,-0.013395891
2.144837,-3.331419,1.5127467,4.2579651e-07,0.029219985,-4.471182,-0.9856336,0.42599225,0.61758447,4.4570017,-1.5921222,-0.9097338,3.8875933,-0.44438785,-0.30629534,0.129667
2.8411918,-3.3048873,-1.2112947,2.5241125e-06,1.1317883,-4.267406,-1.1228173,-6.2369576,-1.2230278,-1.4063622,0.9111736,18.932734,1.5877361,0.468893,-0.15194981,0.06071145
-3.625446,2.6463552,3.3849185,-9.030423e-06,2.9184306,3.4955044,3.996297,13.94644,-0.4953631,-0.22890854,-1.4269319,16.837929,-3.9427967,3.3314226,-1.8638086,0.03869638
-3.4051392,4.289732,-2.6962764,12.236713,-2.6555877,3.6402998,-3.6853886,0.04547362,2.4715583,0.2910428,-0.065547615,0.056624487,3.8070512,0.9587194,3.8102727,13.976269
-1.4240179,2.638661,-0.15124321,-29.317635,-3.4622135,3.4731843,-3.4299586,-0.11353585,-2.3395061,-3.581513,-0.28528315,0.045440856,-0.36316812,-3.0471148,-0.8903096,1.941385
0.62979954,3.5757458,-1.0925483,1.3257618,-1.2159995,3.303104,-0.3545226,-0.021415532,2.0667348,-3.4088767,-1.3999403,0.020896032,-1.3758025,-3.323717,-1.8763919,2.2338705
2.7908669,-3.8571281,-0.04509425,-4.7005713e-05,3.4872875,-3.6004467,3.1768615,-0.07494699,3.639018,2.4965816,-3.7429338,0.08717128,1.186833,-2.9160504,3.4925103,-0.036840964
1.0773755,-1.3888135,-3.8329146,-1.2137694e-05,1.9399798,-3.7440722,-1.0584652,7.787731,-1.0908842,3.6235747,1.5749826,-3.602394,2.7698698,2.2008119,-4.2395062,-0.016672134
3.2598085,-3.4064934,0.3494799,1.0057591e-05,-1.3177946,-3.3794265,0.7081684,-4.21738,1.2905699,4.1100426,-2.0259743,-2.4884753,3.1446106,3.805738,-0.014672205,0.04260127
-3.6212995,2.3147087,-0.03881082,-2.459096e-05,3.3118591,-0.8146877,-0.47221982,-0.0024333,-2.1207826,-1.751446,1.1422065,19.082449,-3.7641907,3.4155185,0.9811111,0.03431247
-3.205971,2.6379895,-3.3758006,-1.4558491e-06,-3.2515032,3.4860027,0.24321732,-0.007985659,-1.5866768,-3.4699519,-0.051166475,-32.18844,-2.0827165,-3.2803633,-0.39558214,-11.023743
0.91289943,-0.47551018,-0.4822718,-3.212511,-2.7314253,3.344676,-2.7967634,0.10494972,-2.074655,-3.4625497,-0.25087517,0.06568737,-0.9327009,-0.61054087,1.6432008,8.863812
1.2703555,-0.9271339,-0.2522935,17.534014,1.9926426,3.5229292,1.6968571,-0.029083729,1.0299665,-3.2942913,-1.5016301,-0.011389034,-1.3594337,-0.34528774,0.018268168,9.080948
1.2200487,-2.5085454,-3.7861328,-4.6088593e-05,3.0365455,-3.380879,-2.0350199,-0.045035176,-2.809409,-0.2317242,5.7816024,8.649747,1.2988839,-3.295305,0.59598964,0.03267765
3.4165914,-3.3208492,0.1372525,9.13889e-06,2.6045165,-5.4530344,-2.6221042,3.5628312,-0.31386352,1.670727,-0.35630745,9.083143,2.4504335,1.392184,0.31940508,0.15809822
-3.078169,-2.9412234,-0.06117201,-9.231479e-05,-0.9741406,-2.1752214,-0.5963078,1.805391,1.1793003,-0.5660695,-0.9540068,14.314264,3.636191,1.498421,-0.15538412,-0.0038449466
-3.5986674,3.2194536,3.3243668,-1.0782987e-05,-0.30871296,1.6033145,0.16036612,2.949899,0.13704547,3.734338,-1.2284575,0.6051674,-3.8926177,3.347121,-2.713263,0.032097235
-3.687852,4.874769,-0.023721518,1.4913159e-05,-3.12141,3.8661838,-0.070111066,-0.066842996,0.5045804,0.8542279,-0.22901092,-1.2710562,-4.000008,-3.3257592,-1.8010749,0.14610435
0.6172428,1.210015,0.79745555,13.741933,-3.126758,3.4228206,-3.003276,-0.05409149,-1.9401869,-2.197577,0.20600703,-0.04324183,0.8056582,-0.07068694,1.1798179,10.301478
-1.7701619,3.490791,-2.4178076,7.623213,0.22215557,2.873645,3.3742707,0.119572714,3.8583055,-3.0222483,-0.7171397,0.031307995,0.82035536,-0.3497107,0.18337075,7.5015745
3.3624578,-3.2558808,-1.26851,2.1330321e-05,-0.38662753,-3.1320763,2.8246946,-2.3200154,-0.855304,3.0625064,1.4792951,0.23843801,1.935358,0.6782613,1.10637,-0.0033597946
3.432989,-3.3140943,1.4239075,2.9939351e-06,0.68813574,-3.585234,-0.044145722,1.6657674,1.2892182,-0.49494147,-2.1464036,14.98016,3.511105,2.7247248,-0.17912817,0.014567375
-1.6910166,-3.1701565,-0.6671054,-3.551661e-07,0.47099486,-4.129427,-0.8112423,-4.125589,-0.36259136,2.9407399,-0.97380334,1.3800989,-3.3691409,3.3970485,-0.22203417,0.09488493
-3.6028354,4.621017,-0.0193033,1.3258377e-05,-2.7216454,2.3494494,-0.055414736,-0.0608796,-1.3213418,2.7590744,4.1820793,-0.3776207,-4.003425,-3.3062835,-2.436671,0.08348852
-1.4040364,3.815527,-1.0397904,-2.6080413,-2.718461,2.7935154,-3.3785212,-0.09044102,-1.0270427,1.8400131,-0.26695612,0.05063752,-0.11689852,-3.5809615,-0.088796064,-4.008524
1.5095515,-1.7386227,0.48412088,2.108831,-2.6254854,3.2805524,-0.9412078,0.1179068,-1.0711569,-3.1515338,-1.4879844,0.067811064,-1.4453228,-0.27051592,-0.20613909,11.829733
3.4803765,-3.8587382,-0.008768722,-1.5726982e-06,0.3726356,-0.17725854,3.6519737,7.411144,4.0269604,-1.0520904,3.8209798,0.021577701,0.89038396,-3.3707418,0.48533902,-0.03130293
3.3100836,-3.3248243,-0.2474178,6.022721e-06,3.2472897,-2.4529006,-1.376706,12.309826,-1.3985779,0.09084284,4.633295,10.409885,3.2281427,1.967435,2.6472635,0.050560217
3.39606,-3.3580265,0.56185263,1.25059805e-05,-1.0285562,-3.1751142,-0.11965823,-2.6335852,0.9729854,3.2375216,-1.0864916,5.2768745,3.4326475,3.3611872,-2.8835902,-0.017925374
-3.420751,-3.0829031,2.7047102,-6.2797453e-06,1.2281076,-0.8586117,-2.2039332,11.876848,-1.8484482,3.226497,2.1487932,-4.208786,-3.6481962,3.0859628,-1.1178247,-8.282339
-3.6047077,4.441119,-0.06761971,3.0227882e-06,-3.147926,3.7802417,-0.074590236,-0.059295475,0.7185557,3.31251,0.08306229,2.5995035,-4.036402,-3.3693886,-3.0296884,0.13838877
-0.14020297,4.3364487,-0.124966964,0.5951928,-2.9110982,3.3219302,-2.391745,0.0918756,-2.7421625,-1.6216325,-0.15121599,0.096425295,3.306306,1.3072597,7.61735,7.3446455
-0.79519224,2.328711,-1.4031578,9.309288,-0.8905253,3.2389498,-0.16912808,0.11426978,3.7225692,-3.1378975,-2.6694856,0.02913587,-0.06261888,-0.08354592,-1.2763608,14.876224
3.3246527,-3.317267,-0.9239335,3.8375483e-06,1.601572,-3.8867526,1.9829836,-0.6960373,3.34024,3.4071164,1.6550874,-0.029028624,3.0847003,-3.3379507,4.5253263,0.07499409
3.327647,-3.2526832,1.5923256,1.4559338e-05,2.4713368,-4.844035,-1.9451023,1.0590873,-1.1230574,-0.7143874,-1.3005252,1.3923588,2.6176875,-0.03302723,-0.3715924,0.14039901
3.0819974,-3.2921398,1.7913408,5.885031e-07,-1.2739602,0.5917839,1.1451257,8.301792,0.77302414,3.123617,-0.61843324,-0.8967354,1.8823211,3.5328174,-0.06859152,-0.0043326486
-3.1357882,4.344855,-0.26659426,2.3876853,-3.6643622,3.5892637,-0.069081776,0.08735641,2.4894302,4.9725857,-1.0430284,3.7296972,-3.4020622,-3.225232,-3.0528054,0.021232076
-0.4663438,3.879967,-0.22440642,3.1095288,-3.0709746,3.378292,-3.3396664,0.021862924,-2.3463297,0.73896104,-0.077814415,0.06897377,0.0939852,-3.4551792,0.81713414,1.9109585
0.4953865,2.873571,0.23532474,2.148529,-3.1428647,3.345648,-0.381355,0.080212906,1.5969983,-3.2403622,-3.41825,0.030944292,-0.98890674,-3.7976232,-2.2247736,0.31873548
3.3640478,-3.5232959,-0.007114798,-1.33506255e-05,2.3870165,-3.3929155,3.3508003,-0.01978986,3.5151596,-0.5237924,4.9934545,0.00075244904,1.3562016,-2.3879814,-4.20818,0.02756834
3.2183218,-3.4100263,-1.1029849,1.8061357e-05,-0.71880835,-4.2058167,1.3844155,-3.742077,0.83899754,5.0260468,-1.9631894,1.8164022,1.9340502,2.4105897,4.3352337,0.65349007
3.227602,-3.3066654,0.49387974,3.6515098e-06,0.76616466,-4.094126,-0.73440206,1.167707,-1.252534,1.4127078,1.7432635,6.992255,3.527073,3.3636875,-0.4356228,0.057386857
-3.470238,1.9171295,3.2760146,-1.0947525e-05,3.0095742,-2.1702394,-1.0841136,-8.363345,-1.9685553,3.1683366,2.7105079,-0.78714037,-3.5001512,3.3651357,-2.1942246,0.056813672
-3.1997445,5.5141883,-3.1178315,0.0008277893,-2.461504,3.6838663,-0.20773317,-0.084857225,-2.6038911,1.369148,-0.19279099,0.11879418,-3.5183682,-1.8425177,-3.2759533,-0.027868733
0.84935224,-0.7977918,0.41214144,-10.0913315,-3.250021,3.8003168,-3.5742023,0.005834494,-3.4082172,-2.857223,-0.21386403,0.018052135,-1.4630218,-3.786474,-1.596964,-0.54540515
0.5460407,-1.6259232,-0.99680686,0.92682666,-0.5213564,3.2847915,1.451108,-0.00595966,0.23462704,-3.3350177,-1.9421,0.020829089,-2.118511,-0.4724363,-1.9057852,14.625029
2.9953053,-3.3078446,0.23021501,2.033472e-06,2.0831666,-3.311735,2.2918532,0.012932789,-0.5859084,-0.82483155,3.6294544,13.471668,1.7335294,-3.5016625,4.5707273,8.721464
3.4117656,-3.2970562,1.1059482,7.846858e-06,0.77967465,-3.4402533,-0.045265198,-1.7614021,0.6163998,1.8815701,-2.283662,7.7049356,3.8268895,2.7871573,-0.1275658,0.009799369
-3.5549288,-0.5472826,-4.52699,-0.00013711443,-0.78556705,-0.29942906,0.60223055,8.574971,0.93076843,0.06190145,-0.77542335,13.920286,0.2043214,4.3019185,-0.41126025,0.016524468
-3.7644877,4.899468,-0.055409342,1.4400961e-05,-3.101374,2.2232025,-0.13994497,-0.05935523,-1.0276785,5.0031567,2.030257,19.140608,-3.7329159,-1.538314,1.7999182,0.13033319
-3.3677611,4.439209,-0.05463215,2.116932e-05,-2.8670797,3.4599931,-2.2674415,-0.05765499,-1.8152204,1.4116733,-0.34023464,0.046743803,0.9595655,-0.106189996,2.3953068,10.109653
-1.0991143,1.2349894,-1.5251677,10.321646,-2.9226966,3.3501794,-1.8159472,-0.009798303,-1.9163469,-2.4631257,-0.6272384,-0.008447284,0.14125979,0.21657348,3.0398948,16.141512
0.15934053,-0.32327616,-3.4557483,0.055679858,3.16466,3.3052738,-0.23570909,0.011296675,2.3462532,-2.8934126,-2.277504,-1.0868187,-2.0559072,-3.0208268,-3.2337291,4.603484
1.6064904,-3.2613096,-3.662694,-3.836048e-05,3.2523694,-3.4951372,2.9175053,-0.036198817,1.8717498,1.0404271,0.55731446,8.711873,1.0227593,-1.5186336,3.435782,0.02242852
3.2378304,-3.31822,1.1004181,8.552659e-06,-0.51632416,-4.2736926,-0.53960073,-5.421447,1.6480849,3.2786202,-2.6378593,4.238673,3.5519612,1.8367639,-0.3446111,0.12523642
3.3138363,-3.2773,-1.8242593,1.1939374e-06,1.8741472,-3.6333272,0.55521226,-2.8947535,-1.1427343,1.2232018,0.97401613,4.0802307,3.5684552,3.0893848,-0.14238504,-0.014545105
-3.6593807,4.0094347,3.6950452,6.668613e-06,-2.6355345,1.5398455,-0.6136325,-0.02244854,-1.0896721,0.14024857,-0.5890636,2.1304758,-4.219683,3.1836452,-0.3286662,0.065572344
-3.3798075,4.437705,-0.011479612,1.932773e-05,-2.4222598,4.32992,-4.010257,-0.051677555,-1.4828916,0.78687364,-0.05299598,0.057164863,0.7552799,-3.7304509,-0.00028830767,-2.0189114
-2.072852,4.0531807,-1.1019053,-0.14348602,-3.519202,3.4327164,-3.4147658,-0.12151906,-0.11875038,-3.6203113,-3.046032,0.052127473,2.2638652,-2.7064755,1.484507,-1.4584378
0.41885263,-3.3089242,-0.41144466,-6.4020045e-05,3.3991764,-3.6956532,3.5165937,-0.08197041,3.5380077,-3.4654043,0.7448483,0.015878178,-2.3976536,-3.2768292,-2.0367208,-19.361748
3.4069421,-3.257782,-1.6630247,2.284273e-05,-0.51370096,-4.1613355,4.1695986,-10.107243,-1.2696118,0.9354228,2.4014277,7.579361,0.88519955,0.69926405,2.9910386,0.15325695
3.1466002,-2.1326647,3.4324484,1.2372297e-05,0.8822423,-2.6039207,-1.0993799,6.5672874,-1.3547323,2.1157153,1.2737129,5.0638447,3.2892487,3.2653067,-1.9057364,0.039197754
-3.5071082,0.9882761,-0.32681915,-1.47808205e-05,0.22550008,-0.6540593,-1.2175716,9.4680195,-0.07412486,3.6458137,0.21397632,-1.549727,-0.23026808,3.2931094,1.817999,0.052920636
-3.6419673,4.58895,-0.018504083,1.0859203e-05,-2.9959397,3.4545324,-0.0036183884,-0.052583493,-1.0739964,3.3153293,-0.15632187,0.36815998,-4.002672,-3.3361447,-1.7785733,0.05692766
-3.4545696,5.111584,-0.047221914,2.946757e-05,-1.4283562,3.4389825,-3.3065698,-0.06969708,-2.9962704,-1.0886226,-0.28250343,0.078833155,-0.08761454,-0.6511986,1.9057617,7.209963
2.15237,-1.5272152,0.37574327,17.225904,-2.6018698,3.3263512,-2.751937,0.13923685,-2.6374412,-3.274179,-0.35629243,0.044843543,-1.0893637,-2.493105,0.15556362,1.89271
0.67964506,-1.2777715,0.22507262,17.766184,3.588321,-3.6914349,3.6850328,-0.07520652,3.5743966,-3.4062827,-0.8696272,-0.0046337657,-1.0131553,-2.9745855,-0.95358706,3.3045352
3.5444713,-3.2873352,-0.43701476,3.5573146e-05,-1.6024549,-4.301508,4.6019077,-11.89878,-0.9129443,3.978395,1.3806831,-2.8220153,0.91109765,-3.7201433,-2.3890953,0.30941772
3.2794309,-3.3196175,-0.02459097,-1.198774e-06,1.0009604,-3.1131794,-0.9676527,1.248486,-0.36326554,0.8154917,-0.019553423,3.6744723,3.6777215,-1.4569126,-0.32313097,-0.03418437
-1.9036072,-2.547406,0.55966675,-24.463547,1.830949,-1.6235291,-0.927667,1.2983077,-1.3944447,0.891886,1.9684858,2.8881538,-2.1720243,3.2437503,-0.9064424,0.02005323
-3.5320234,4.3741283,-0.10821423,6.514874e-07,-2.819127,2.3679574,0.5219401,-0.06816216,-1.053477,3.8487406,2.450917,12.338148,-3.9955723,-3.2466102,-1.0225809,0.061133947
0.18706381,2.3227615,-2.3328922,-16.916262,-3.2506955,3.4389195,-2.6668723,0.039527368,-2.039955,1.9819753,-0.11566213,0.022178227,0.6198746,-3.9211514,0.90824217,-0.3858768
0.14318946,1.8038269,0.91030407,1.8337346,-2.9224494,3.3739974,-0.8243133,-0.008987278,-3.2361643,-3.47777,-0.25914586,-0.0011119694,0.68119025,-3.5036075,0.42341655,-2.1858747
1.6726325,0.5514829,1.3383237,8.529072,3.2483637,2.0340695,3.3504112,-0.041868538,3.1852639,-3.373953,-0.7564905,-0.023282737,-1.6343215,-0.9501002,-1.3218522,10.788726
3.2080188,-3.393191,0.44588318,4.8472057e-06,-2.3689787,-0.03027229,5.1475573,2.8328815,-0.24255781,3.8553,2.1995811,-5.974071,2.0271049,-2.7739716,3.3597167,0.0048168926
3.2273378,-3.2907887,-1.4064634,-1.34206475e-05,0.33717406,-3.3038065,0.701452,-5.4629946,-0.94266105,2.345271,0.31279987,-0.56743336,3.840085,2.959095,-0.15576309,0.049725927
-0.91049963,-2.997528,0.32514432,2.1657333e-06,-0.45328104,-1.305121,1.030566,0.44839072,1.4924908,3.4772286,-1.0552945,-6.63431,-0.72930884,3.3046203,-0.052418407,0.0117885545
-4.0244646,5.007961,-1.0475993,4.0271635,-3.6508589,3.2817376,-1.7468005,0.05672708,3.5927858,-0.44874823,-0.6527368,-28.589876,-3.1838367,-3.317098,-2.35662,0.10176585
-0.8801148,3.622862,0.42883414,4.6797686,-2.481876,3.2839599,-3.264019,0.05346824,-2.5668302,-0.6301975,-0.24525389,0.042241648,0.6168959,-1.2159454,1.826724,7.2395654
-0.58486176,3.8057177,-0.37108493,-1.1954594,-3.2804728,3.2523332,-0.6944776,-0.053522937,-0.8205551,-3.695116,-0.15312576,0.052401356,0.2999541,-0.7541675,0.3303172,8.240916
1.0485198,-3.4546423,-0.69910955,-0.0010070801,3.457701,-4.4781423,4.006219,-0.13844652,3.4432316,-0.32478705,3.9120436,0.0068259165,-0.48280132,-3.3247674,-3.671603,0.06637871
3.395874,-3.316955,-0.081254214,2.6226615e-05,-2.158517,-1.275414,4.4079523,-5.2988224,1.0175858,4.7392235,-1.2856784,-1.0677421,1.5004967,1.298621,-1.2633121,0.2193141
3.457565,-3.0589535,-0.11256978,-4.7815606e-06,3.045162,-4.347719,-0.9820867,-0.008907318,0.6509858,3.4779792,-1.7609552,-3.38775,3.742086,2.869041,-0.45963866,-0.048534565
-3.5819695,3.0416148,-0.2056467,-2.1406042e-05,-0.8309464,0.69975984,0.15324917,1.4315413,0.31965077,3.6102479,-0.24986613,-4.8541923,-3.574744,3.339313,-2.8117688,0.03059631
-4.084057,5.1860604,-1.5361207,3.2619376,-3.2805686,3.450471,-1.5326502,-0.04139497,3.986075,1.6850243,-0.29019913,-12.613078,-3.7417614,-3.4127681,-1.8089435,0.14063929
0.6793324,0.038786113,1.1123124,12.612043,-3.0439882,3.5995886,-3.1160352,-0.061074235,-3.4798717,0.94563067,-0.06287176,-0.03878523,-0.24087036,-1.1729057,0.90812373,8.471356
0.1318211,1.9180532,-0.77964187,9.054773,-2.4410834,3.3052847,-0.3606668,0.09914485,-0.024728537,-3.352893,-3.5571306,0.025996003,-0.77356476,-0.4219041,-1.030975,13.471598
3.3670382,-3.361395,-2.2463558,1.3349254e-06,2.2006845,-3.4834194,2.0443194,4.358078,3.9670534,3.9654055,3.7396483,0.03755389,0.49592358,-3.9000704,4.380751,-0.0017490387
3.1558022,-3.3910344,0.91415596,-1.2420369e-06,1.4366204,-3.4238071,-2.9139023,0.026293315,-0.118275404,1.3402836,2.348733,7.9221354,3.7017927,3.3063147,0.9285127,0.052924216
2.897531,-3.3346963,0.306422,3.967649e-06,-0.364295,-3.403344,0.12039102,-0.6706592,0.156576,3.5723705,0.09845322,-3.7541409,2.1576862,3.404328,-2.1849782,0.0247664
-3.6163237,3.8997285,3.6196883,-2.3399225e-06,-1.1380739,1.1249194,-0.046928406,-0.027585104,0.6383634,1.0026883,-1.1213175,-8.570442,-3.8754187,-2.7910805,-2.6296628,0.04124201
-3.1852417,4.352869,-1.2231005,4.4182982,-2.9835706,3.3190048,-0.016968884,0.05159611,0.17349565,1.8357539,-0.19140613,0.09604116,3.7149959,-1.7508222,2.7415576,2.456645
-2.9976494,4.0113454,-0.5231697,0.74683446,-2.8238277,3.29572,-1.0469141,-0.029869346,-1.1288995,-2.4319062,-0.12750769,0.044064112,0.9847897,0.064704776,0.5528238,15.233553
1.3901466,1.0257132,-2.174766,-0.5825299,3.4672086,1.2797077,1.8360032,-35.25894,2.850532,-3.2442186,-1.0211096,0.021419652,-2.2803752,-0.3483982,-1.4792298,10.955828
3.2233963,-3.3508518,-0.19604737,1.1453077e-05,0.23576441,-3.2501183,2.8863761,1.9497659,-2.3920133,2.9446588,5.1203465,-4.529546,2.3165827,-1.816047,4.5732346,11.255211
3.4049647,-3.3086724,1.2121129,1.3515111e-05,-1.0546886,0.35923982,-1.6091856,-37.93994,-0.0031268,0.23216152,-0.76206154,14.771355,3.6382043,2.7353308,2.1082468,0.054281857
-3.317729,-1.8402246,-4.6199503,-0.00016208785,-0.29687047,-2.276904,0.4705115,5.4502945,0.7767172,0.7578834,-0.32630062,9.574947,2.0427966,3.884828,-0.36196387,0.0141405985
-3.5449648,4.3642983,-0.009928962,1.0086104e-05,-3.003564,2.8538773,-0.00248456,-0.058096845,-0.71150154,2.1905487,-0.011315651,0.9108914,-4.144954,-3.0597847,-2.6102455,0.05686699
-0.19433327,1.7709494,-0.98664826,-1.4671376,-3.22317,3.373757,-3.1527128,0.04275284,-1.3300048,0.3485794,-0.18506223,0.023113158,1.4456306,0.3831839,3.2320392,12.314609
1.328927,2.3721037,-1.1378309,-12.816313,-3.2078166,3.3874247,-1.348047,0.0030300543,-2.3768365,-1.7632481,-0.21841529,0.024258753,-0.27800947,-3.7335825,-1.1357815,0.1046077
0.51838934,0.21064223,0.54664946,9.736069,3.6009355,-0.7755867,3.0203168,-0.0758909,3.684896,-3.0255072,0.39026415,0.019088525,-3.0031228,-3.0428205,-3.3476002,-24.504196
2.9995768,-3.17432,-1.7189696,-4.1522726e-06,-1.6987431,0.47572118,4.891551,4.2845745,0.22152424,-2.5569394,3.4102616,0.4671144,1.0858533,-3.3096087,-1.961497,-0.015449524
3.3496032,-3.3227897,2.3075178,1.3957501e-06,3.1170118,-3.208435,0.0023673773,0.010499058,-1.2627921,1.6395699,2.3193088,-0.05550289,3.7918992,1.7769256,-1.1039953,-0.033678923
-0.51396996,-3.273569,0.9850767,-1.3403221e-06,0.20613365,-1.1389886,-0.5523055,4.1247168,-0.09892364,0.85415876,0.8150535,0.18587899,-1.6656355,3.338684,-1.3778988,-0.014436774
-3.5468826,4.356693,-0.10617748,3.9388506e-06,-3.0205035,2.6664197,-0.022563249,-0.06149187,0.3544129,-1.3596592,-0.5140101,12.36245,-4.0224876,-3.2205827,-1.9933405,0.06741118
-1.9729737,4.9468265,-3.3512619,0.10710871,-2.3116887,4.0680246,-3.9147987,0.02508827,-1.5761946,0.8792376,-0.760579,0.070160374,0.7523649,-0.023055673,0.97778535,12.819418
1.2192943,1.1065294,-0.5647826,17.394457,-1.961583,3.7465389,-3.4565856,0.08020979,-1.8207397,-2.5862145,-0.045077562,0.0065166047,-0.9685842,0.4084477,3.0534537,9.664282
