ancorasir/BennettWheelLegRL/experiment_data/2024-02-08_05-19-47/joint_torque_env0.csv
Joint_1,Joint_2,Joint_3,Joint_4,Joint_5,Joint_6,Joint_7,Joint_8,Joint_9,Joint_10,Joint_11,Joint_12,Joint_13,Joint_14,Joint_15,Joint_16
0.0,0.0,0.0,0.0,0.0,0.0,0.0,0.0,0.0,0.0,0.0,0.0,0.0,0.0,0.0,0.0
0.090216994,-0.5649713,1.8470957,-1.8046776e-06,-0.26793277,-0.7126161,-1.8787569,0.005592729,-0.07304107,-0.63390845,1.7113492,0.016827459,-0.31133226,-0.32528794,-0.6528234,-0.028638203
0.090216994,-0.5649713,1.8470957,-1.8046776e-06,-0.26793277,-0.7126161,-1.8787569,0.005592729,-0.07304107,-0.63390845,1.7113492,0.016827459,-0.31133226,-0.32528794,-0.6528234,-0.028638203
3.531803,-5.0,4.5054965,-1.468882,2.0012784,-2.151236,-0.08058989,-3.8436728,3.3410082,-1.695945,2.2829623,0.4592887,-3.3068447,-0.75608087,3.4909964,0.062934615
-4.592771,-5.0,3.827034,-0.01209118,5.0,-2.3936481,-1.519526,-5.0,5.0,2.5586953,-0.5150411,-10.0,-2.4220371,0.8583404,0.89523613,5.0
-5.0,3.8213327,0.5886344,8.30122,0.38656884,-2.3897054,0.4966302,-5.0,2.9415393,-2.2184186,5.0,1.4801124,-5.0,-5.0,-2.1658926,5.0
-5.0,5.0,-5.0,10.0,0.0782302,-0.3810578,-0.5701581,0.036661882,-0.6710832,-1.9325521,3.6384826,-0.0075264275,-2.8927605,-5.0,-5.0,5.0
-5.0,5.0,-5.0,-8.248808,4.9606786,-1.3561677,-4.095592,5.0,3.0733395,-2.9940872,-0.925164,2.0135107,1.1140308,-5.0,0.45923662,3.1343083
4.9158926,-0.37985522,0.92759764,0.5257746,5.0,-3.5072663,-5.0,-5.0,3.5634947,5.0,-5.0,5.464654,3.3867054,-5.0,-0.07595849,-2.3038638
2.471108,-3.5636735,5.0,0.05824897,5.0,0.20955878,-4.080142,5.0,0.8138325,5.0,-5.0,-7.627686,0.4961971,3.845428,4.547985,-1.3449162
-1.9225036,-4.3463163,5.0,-0.14975728,5.0,-2.4927416,-5.0,5.0,5.0,5.0,-3.0073833,10.0,0.36565897,5.0,5.0,-1.2237957
-3.7016258,-0.5417963,0.004012704,2.4582047,5.0,-5.0,-5.0,-5.0,4.4158506,5.0,1.0072803,3.4796777,-2.2639527,5.0,3.7545247,-1.2173054
-5.0,3.8044457,-5.0,0.32624927,-1.2526056,-2.589075,1.7714258,2.8081784,-2.5725722,5.0,0.68671787,1.4188048,-5.0,1.8374751,-1.0223144,-0.61010814
-5.0,5.0,-5.0,-2.7116957,-3.578958,-0.15874311,0.025670648,-0.24675344,-5.0,3.9815438,4.286015,-0.10242812,-4.2160244,-5.0,-5.0,5.0
-5.0,5.0,-5.0,5.8359814,0.2086668,1.7543498,1.7878653,1.7832129,-1.9590049,-3.7128346,5.0,-0.3320656,-3.4857252,-5.0,-5.0,-1.6765547
-4.9430513,5.0,-5.0,8.752232,5.0,-2.1858625,-4.023931,0.59069836,1.7228544,-2.5058599,0.13819084,0.2209436,-0.4890603,-5.0,-2.0322416,-5.0
2.2399626,-0.5329779,0.19675404,10.0,5.0,-5.0,-5.0,-5.0,5.0,4.6392756,-5.0,1.2521673,5.0,-5.0,-0.20839739,-2.0866575
1.947222,-5.0,5.0,-0.65506285,5.0,-3.1658256,-5.0,-5.0,2.9376397,5.0,-5.0,-1.928817,5.0,3.0547185,5.0,-0.22191183
-0.8433832,-3.0916014,5.0,0.1806247,5.0,-5.0,-5.0,-5.0,5.0,5.0,-5.0,10.0,-1.1313838,5.0,5.0,0.087243564
-4.4701385,1.7051346,-1.0250468,0.32989898,5.0,-5.0,-4.330709,-5.0,5.0,5.0,0.80176383,-0.23768479,-2.7168484,5.0,4.337874,0.14326316
-5.0,4.7639055,-5.0,5.5378823,-3.1386552,1.5691406,1.4292874,-4.0267096,-3.313974,5.0,5.0,-3.1237078,-5.0,-2.4495301,-5.0,1.358166
-5.0,4.9223385,-5.0,10.0,-4.276553,4.284319,4.2425594,-0.20644884,-2.758197,-2.619728,5.0,-0.8809371,-5.0,-5.0,-5.0,-3.2601585
-5.0,5.0,-5.0,-3.0697231,1.9563519,-0.2889049,0.8158709,-0.16428769,-1.1509227,-5.0,5.0,-1.0287222,-5.0,-5.0,-5.0,0.106096506
-0.80704415,1.5699042,0.2830279,1.0661716,5.0,-5.0,-5.0,-2.4704437,5.0,-2.2537465,-2.335488,0.015791584,2.9594283,-5.0,1.3506513,1.8837832
3.7507148,-3.930487,0.37809527,-0.22017083,5.0,-5.0,-5.0,-5.0,5.0,4.110649,-5.0,2.67165,5.0,-5.0,0.9215882,0.0016399026
1.9282985,-3.8663123,5.0,0.18187264,5.0,-4.565384,-5.0,-4.319863,4.1266546,5.0,-5.0,10.0,5.0,2.153452,3.620202,0.007326752
-1.3018277,-2.9321713,5.0,-0.18501025,5.0,-3.9980693,-5.0,3.4082527,5.0,5.0,-2.0562541,10.0,0.86989063,5.0,5.0,-0.1111195
-3.9824376,-1.2873826,2.042834,1.0538214,5.0,-5.0,-5.0,5.0,5.0,5.0,-1.8844115,10.0,-1.84355,5.0,5.0,-0.31055754
-5.0,2.3400507,-5.0,1.6425159,3.516194,-5.0,1.6829957,5.0,2.567226,5.0,-2.3878043,-4.57245,-5.0,5.0,0.952057,0.6462864
-5.0,5.0,-5.0,-7.5956173,-3.487555,0.17961109,1.1851535,-0.37628013,-2.752462,2.0343838,3.011714,0.32938996,-5.0,-1.0932873,-5.0,-2.9998484
-5.0,5.0,-5.0,5.9455647,-0.6230048,3.3124292,3.6861117,-0.17092042,-2.9731953,-2.8255968,5.0,0.0323202,-5.0,-5.0,-5.0,-5.0
-5.0,5.0,-5.0,10.0,1.8726892,0.07662547,2.0138347,1.6605333,-0.34346616,-4.381197,4.241185,-1.1251638,-3.734919,-5.0,-2.0316298,-3.469583
2.501154,3.617412,-2.4336598,-1.538932,5.0,-3.962808,-5.0,5.0,5.0,3.0584311,-5.0,0.41886184,4.659679,-5.0,0.5676253,0.6833976
3.9024644,-1.7717793,1.7107308,8.141052,5.0,-3.52394,-5.0,4.5645866,5.0,5.0,-5.0,5.3812103,4.906569,-4.8784275,1.4474783,-0.37759238
3.1605396,-4.805989,5.0,-0.5010127,5.0,-1.8766693,-5.0,3.697873,3.1705816,5.0,-5.0,10.0,3.9912026,2.75252,3.6540961,-0.509082
-3.1130152,-2.128089,5.0,-3.9538133,5.0,-5.0,-5.0,0.5868187,5.0,5.0,-4.6164193,-10.0,-2.482088,5.0,5.0,-4.549729
-5.0,1.3209898,-5.0,2.9810874,4.6033864,-5.0,-2.8180895,-5.0,3.0021641,5.0,3.5473292,-4.0431786,-4.660149,5.0,0.65287143,-1.5670352
-5.0,3.0853174,-5.0,-0.5267518,-5.0,0.6071377,3.2614462,0.22006917,-1.5034643,5.0,2.69485,-0.019768585,-4.809004,-1.3763337,-3.5381124,0.19499099
-5.0,5.0,-5.0,-1.3144209,-2.63526,2.0676796,3.5473266,0.56263655,-3.8164597,-0.47717416,4.7782145,0.68966097,-5.0,-5.0,-5.0,1.6131115
-5.0,5.0,-5.0,-3.0258613,0.23304439,0.1258598,2.4701133,-3.9389265,-0.5085733,-5.0,5.0,0.06331331,-1.5072272,-5.0,-4.643323,-0.19436622
-4.9334254,4.947686,-5.0,-2.6392612,5.0,-5.0,-5.0,0.07604034,3.3920398,-5.0,2.2675862,-0.84578776,-0.24644965,-5.0,-2.281274,-5.0
4.5088415,-2.4947991,0.6943097,0.19927861,5.0,-5.0,-5.0,-5.0,4.2332854,5.0,-5.0,0.59021723,5.0,-5.0,1.9175335,0.6629062
2.842498,-3.8766174,4.501773,-0.6033357,5.0,0.19061571,-4.36902,5.0,4.741427,5.0,-5.0,-6.5155854,5.0,0.6791774,3.8771677,0.77137697
1.6519157,-5.0,5.0,-0.2926059,5.0,-3.172452,-5.0,-0.62070394,3.0987067,5.0,-5.0,-10.0,2.6346598,5.0,5.0,-0.5034817
-3.5074415,-0.73928124,0.6757452,-0.07013241,5.0,-5.0,-5.0,-2.9388323,5.0,5.0,-4.728218,-9.268816,-0.26464283,5.0,5.0,-0.90979016
-5.0,3.6511264,-4.480893,0.08612283,2.7064,-5.0,-0.7169082,-5.0,3.309449,5.0,-0.50041157,2.560009,-3.0739253,5.0,1.2583023,0.35335025
-5.0,5.0,-5.0,0.8956893,-4.143836,2.1124082,4.533737,0.41995415,-2.4385219,5.0,1.8487623,0.53154004,-5.0,-0.95989686,-5.0,-5.0
-5.0,5.0,-5.0,-4.9251556,-0.20891106,1.5771233,2.050783,1.6875172,-3.0645275,-2.4561954,5.0,-0.0942969,-5.0,-5.0,-5.0,5.0
-5.0,5.0,-5.0,10.0,3.0768409,-2.8491988,-1.7032915,0.35370448,1.5476105,-5.0,4.239626,-0.27207243,-4.7747846,-5.0,-1.9717137,3.359571
5.0,-2.4515831,1.4092171,0.96296066,5.0,-2.0049403,-5.0,5.0,5.0,4.7142687,-5.0,3.1466959,5.0,-5.0,0.3256687,1.1896657
2.5080078,-3.1582303,4.3316174,0.14873199,5.0,-2.4257927,-5.0,-5.0,4.1625857,5.0,-5.0,10.0,5.0,-0.35307452,1.747017,0.46714866
0.9759834,-5.0,5.0,-0.6291394,5.0,-4.2081666,-5.0,-5.0,5.0,5.0,-4.9619045,-9.0349655,5.0,5.0,4.219216,0.76110995
-0.8799641,-3.0144982,4.0826416,-0.7319475,5.0,-5.0,-5.0,2.151446,5.0,5.0,-3.4236114,-8.889261,0.8035063,5.0,5.0,-0.6065313
-5.0,4.002066,-5.0,-7.3366933,2.9997535,-5.0,0.6517465,-3.7134216,1.0498049,5.0,-2.7155437,-6.466854,-5.0,5.0,0.7973577,1.80659
-5.0,5.0,-4.2540555,-1.5390673,-4.537404,1.3930761,4.322889,-0.5451497,-4.0170765,3.3197737,1.4231179,-0.16462228,-5.0,-1.898446,-5.0,-2.2264078
-5.0,5.0,-5.0,-10.0,-1.426225,4.7508397,3.3293235,-0.81546855,-3.880834,-1.6770192,5.0,0.16399045,-5.0,-5.0,-5.0,-3.0519462
-5.0,3.8022318,-5.0,10.0,5.0,-4.3705826,-5.0,-1.8855498,3.5119526,-5.0,0.72083855,-3.4080348,-4.082525,-5.0,0.4498183,5.0
2.5516791,-0.0731464,0.78240824,10.0,5.0,-5.0,-5.0,-5.0,5.0,2.8487983,-5.0,-0.18381327,4.303966,-5.0,-2.0305665,-4.395824
2.762517,-3.5195713,2.8734875,0.25483382,5.0,-3.5449235,-5.0,-5.0,5.0,5.0,-5.0,-10.0,5.0,-1.1329381,1.3353949,0.30781123
1.0350244,-5.0,5.0,-0.5005057,5.0,-4.594524,-5.0,-5.0,5.0,5.0,-5.0,-8.904675,3.6506274,5.0,5.0,-0.43147022
-1.2430319,-1.3460032,2.451973,0.050955996,5.0,-5.0,-5.0,5.0,5.0,5.0,-1.4697044,10.0,-0.06370318,5.0,5.0,-0.59643734
-5.0,3.6859264,-5.0,0.18398598,5.0,-5.0,-1.6507368,-2.2890255,4.597069,5.0,-1.5122372,10.0,-3.1699224,5.0,2.886688,0.33069882
-5.0,3.8842328,-5.0,10.0,-5.0,3.1947653,1.5450037,-4.7313437,-4.7278333,4.668036,2.7312796,-10.0,-5.0,-4.646926,-4.575707,3.7034283
-5.0,5.0,-5.0,-1.504869,-2.924098,4.5303063,3.70235,-1.0276706,-5.0,-0.80937445,5.0,-0.2837505,-5.0,-5.0,-4.765132,-3.6407871
-5.0,5.0,-5.0,-5.965057,3.227973,0.33906174,1.4006295,2.409046,-1.4451047,-5.0,5.0,-0.1441923,-2.445077,-5.0,-3.1793664,5.0
4.648851,2.971525,-2.9828253,-10.0,5.0,-5.0,-4.861245,-0.10914573,5.0,3.9201155,-5.0,-1.8076675,5.0,-5.0,0.9084816,-0.84761584
4.1405363,-1.4835842,0.54980063,0.14705503,5.0,-5.0,-4.7760243,-5.0,5.0,5.0,-5.0,-2.4880776,4.3973246,-3.728258,2.1237435,-0.047604978
0.947014,-3.8439054,3.0150774,0.32005146,5.0,-5.0,-4.7704334,-5.0,3.0442626,5.0,-5.0,-6.6415396,4.3974366,3.481785,5.0,-0.23279636
-0.15166199,-3.7202349,4.3258224,-0.0044514015,5.0,-5.0,-5.0,-5.0,3.8662152,5.0,-5.0,-10.0,0.15592128,5.0,5.0,-0.536301
-5.0,1.3446705,-5.0,0.62983423,5.0,-5.0,-2.7955651,2.2339294,5.0,5.0,-3.109991,-9.642416,-4.8711786,5.0,4.947457,-0.20526575
-5.0,5.0,-5.0,2.38243,-1.2839111,-2.6907458,1.6388996,2.3757248,-1.8490269,5.0,0.6594231,0.1943499,-5.0,2.9177136,-1.9265386,0.56613725
-5.0,5.0,-4.4027615,-3.3981142,-2.6013947,1.4613937,2.6002162,0.68582827,-2.153037,0.15609723,2.4352794,0.38789365,-5.0,-5.0,-5.0,-5.0
-5.0,5.0,-5.0,-5.1801176,2.008859,-2.3770792,3.2821858,-5.0,-2.8146155,-5.0,5.0,-2.1910698,-5.0,-5.0,-5.0,4.122882
-3.5324275,5.0,-5.0,-6.7740993,5.0,-4.4083214,-3.3277516,0.3540007,2.1005073,-3.835298,1.7020262,0.09872012,-1.5190499,-5.0,0.7577127,5.0
4.209858,0.63113666,-0.70551735,-1.8626463,5.0,-5.0,-5.0,-5.0,4.2489223,4.061909,-4.0021267,-0.23775038,3.1829293,-5.0,0.43044436,-0.2573559
1.9682229,-1.9552228,4.2355394,0.41581723,5.0,-5.0,-4.5592904,-3.025554,2.852808,5.0,-5.0,-2.706027,5.0,3.1809459,5.0,0.38150904
0.7138449,-2.7036262,5.0,0.010300626,5.0,-4.423662,-5.0,-5.0,2.9320965,5.0,-2.323764,8.497356,-0.006846428,5.0,5.0,-0.25514394
-2.2429333,-1.0991018,0.83458805,2.803029,5.0,-5.0,-5.0,-5.0,4.6501846,5.0,-3.9566693,-10.0,0.08122051,5.0,5.0,-0.5730368
-5.0,5.0,-5.0,0.7899324,-2.6834776,-1.6913066,1.1670761,-0.2912816,-1.4766366,5.0,2.5830092,2.8607132,-4.2060122,5.0,-1.0605681,-0.43311894
-5.0,5.0,-5.0,-0.16691113,-5.0,0.9113746,1.3219215,-0.07241726,-3.5097694,0.11856258,3.850144,-0.26427028,-4.3946037,-5.0,-5.0,-5.0
-5.0,5.0,-5.0,10.0,-1.1059794,3.3656049,3.2841709,0.22544655,-3.1695628,-4.306181,5.0,-1.3811738,-3.436791,-5.0,-5.0,2.544194
-5.0,5.0,-5.0,1.5691166,4.419074,-1.5664413,-0.8467911,-1.5525869,0.4918158,-5.0,3.3756328,0.31736758,-1.4897445,-5.0,-1.2965298,5.0
-0.42599422,4.947973,-5.0,10.0,5.0,-4.930304,-5.0,-5.0,4.542508,-0.19613522,-0.8792269,-0.24085048,1.9718969,-5.0,-1.5687654,-3.1229372
2.8160148,-2.8457134,3.4724808,0.4723286,5.0,-0.9865155,-3.5794249,5.0,2.3943326,5.0,-5.0,10.0,5.0,0.11310303,3.2363186,0.84004915
0.8514463,-4.941791,5.0,0.011189926,5.0,-5.0,-5.0,-5.0,2.630137,5.0,-5.0,-7.5095167,3.2708702,5.0,5.0,-0.8189882
-1.106072,-2.786073,4.0277953,0.8226499,5.0,-5.0,-5.0,-3.4241757,5.0,5.0,-3.1719294,-10.0,-0.21842754,5.0,5.0,-1.2312529
-5.0,4.92949,-5.0,4.092831,-0.25251055,-5.0,2.383217,-0.7259203,-0.96607476,5.0,2.5393074,4.3584027,-5.0,5.0,-2.7734265,1.0253315
-5.0,5.0,-5.0,-1.9592825,-5.0,0.7873733,0.49293673,0.34549153,-3.0783334,0.60509264,2.549822,0.29873273,-5.0,-5.0,-5.0,0.99131715
-5.0,5.0,-5.0,-8.432941,-4.6243334,3.6246068,3.87272,0.091706164,-1.8968244,-5.0,5.0,-0.22487424,-4.092412,-5.0,-5.0,-2.6474109
-5.0,5.0,-5.0,-10.0,5.0,-0.8218299,-0.64119077,1.9740776,-0.027725775,-5.0,3.3563502,-4.7591257,-5.0,-5.0,0.21326011,1.7513974
-2.3472116,5.0,-5.0,5.650902,5.0,-5.0,-5.0,1.2327856,5.0,-0.4928956,-0.79785097,0.037559167,1.0493921,-5.0,-1.2884066,-1.7357144
2.0465403,-0.97212356,2.2976365,5.9563494,5.0,-0.59133935,-5.0,5.0,5.0,5.0,-5.0,2.2781982,5.0,-3.9998806,1.1836902,-0.55174845
1.5771654,-5.0,5.0,-0.30351096,5.0,-4.554376,-4.013373,5.0,2.3104036,5.0,-5.0,-6.9743786,3.0084774,4.7148714,5.0,-1.1526532
-0.62801576,-4.455157,5.0,0.1092594,5.0,-5.0,-3.7157753,-5.0,5.0,5.0,-4.4514604,-8.225771,0.43978295,5.0,5.0,-0.26180735
-5.0,3.5382285,-5.0,0.039183386,2.680198,-5.0,2.5304265,-0.12683204,5.0,5.0,-0.55064595,-2.227165,-2.4469223,5.0,0.58175886,-1.0214044
-5.0,4.6331177,-5.0,2.0136166,-3.1685538,0.066848665,1.6379188,0.020623878,-4.308915,5.0,2.0708318,0.18978032,-4.7114,0.097791135,-1.9546002,-0.2853588
-5.0,5.0,-5.0,-2.7231188,3.3866594,2.1528018,2.4007475,-1.8964404,-4.6745076,-4.7051926,5.0,-0.67173564,-5.0,-5.0,-5.0,5.0
-5.0,5.0,-5.0,-5.7262692,5.0,-3.7454786,-5.0,-5.0,1.4515932,-5.0,1.083528,0.81500834,-2.760679,-5.0,0.38129056,5.0
1.3719138,0.5211751,-0.21717846,-0.25478116,5.0,-5.0,-5.0,-5.0,5.0,2.2830281,-3.9122393,0.3126719,3.9340541,-5.0,2.7780871,2.6663404
1.7788305,-3.2932184,3.5867295,2.4050288,5.0,-3.7996378,-4.1826496,-5.0,5.0,5.0,-5.0,-4.129279,5.0,2.1184103,2.1351204,-0.3730765
-0.20409787,-3.3909798,4.5906615,0.33789945,5.0,-5.0,-4.7752433,-0.35976934,5.0,5.0,-4.1376576,1.1605442,1.2854544,5.0,5.0,-0.8338038
-4.0399303,0.4783579,-0.44987774,-0.22903465,5.0,-5.0,-4.6069713,-3.1691272,5.0,5.0,1.3872108,2.706259,-0.42013776,5.0,5.0,-0.09126067
-5.0,3.7622485,-5.0,10.0,-1.4959455,-0.59795785,1.6671686,-0.016184095,-1.1415223,5.0,0.8653201,-0.27415267,-5.0,3.6050854,-2.6491957,-0.66812813
-5.0,3.203537,-5.0,10.0,-5.0,0.74862874,3.0639687,0.1710729,-3.1966286,0.49899888,3.7529805,0.07815301,-5.0,-5.0,-4.3591847,5.0
-5.0,5.0,-5.0,6.788332,2.6569853,-0.69294816,1.7476534,-0.4763884,-1.4858587,-5.0,5.0,-0.9928148,-5.0,-5.0,-2.5277147,3.0031319
0.14825468,5.0,-5.0,10.0,5.0,-5.0,-5.0,-5.0,5.0,-2.6501544,-0.37145424,1.7997055,1.0732076,-5.0,2.8927965,-5.0
3.3338404,1.130068,-2.636607,-2.3712943,5.0,-5.0,-5.0,-5.0,5.0,3.9659846,-2.759173,-0.19397013,5.0,-5.0,0.32719612,0.5115878
0.64437807,-2.7239616,4.271965,-6.337435,5.0,-1.7153529,-5.0,5.0,4.663716,5.0,-5.0,10.0,5.0,4.7961984,3.574477,-0.4963559
-0.6450654,-4.369746,5.0,-0.31373778,5.0,-1.6031923,-5.0,5.0,5.0,5.0,-5.0,-8.031887,1.5916386,5.0,5.0,-0.7007333
-5.0,2.7063322,-5.0,1.2384229,5.0,-5.0,-3.9642248,-0.7710953,3.654513,5.0,0.47391576,7.6189723,-4.230419,5.0,4.9119406,-0.18466857
-5.0,5.0,-5.0,-10.0,-1.3673141,-0.8613992,2.1872475,2.306168,-1.086294,5.0,1.2888505,0.07932289,-5.0,1.7371011,-2.9688296,-0.76773685
-5.0,5.0,-5.0,4.89467,-5.0,3.2771044,4.125964,0.27622312,-4.2914143,-2.169003,4.102481,-1.0312189,-5.0,-4.158165,-5.0,5.0
-5.0,5.0,-5.0,-0.44232333,-1.537172,2.1028037,2.5391457,-2.75236,2.3014774,-5.0,5.0,-0.81657976,-4.480074,-5.0,-5.0,0.8211405
-5.0,5.0,-5.0,-3.0512502,5.0,-1.5463625,-0.054210007,-0.44032696,0.4762367,-5.0,3.1841965,0.17506264,-5.0,-5.0,-0.11283642,0.3233533
-3.5535917,4.321984,-4.0592127,1.5384073,5.0,-5.0,-5.0,-5.0,5.0,-0.7703922,-1.449715,0.08302788,2.5515609,-5.0,2.7782533,0.36211187
2.967111,-5.0,4.8700204,0.9496362,5.0,-3.5309114,-5.0,-5.0,5.0,5.0,-5.0,-6.4020042,5.0,0.19033778,0.008112669,0.07013913
0.58838594,-4.9687247,4.7394786,0.025385024,5.0,-5.0,-3.5309184,1.6358867,4.1688714,5.0,-5.0,10.0,5.0,5.0,5.0,-0.367873
-1.6436493,-2.763383,4.154183,0.4072723,5.0,-5.0,-5.0,-5.0,5.0,5.0,-3.5336995,-8.567241,1.6854689,5.0,5.0,-1.0289377
-5.0,4.360067,-5.0,3.4562678,5.0,-5.0,0.7060307,2.3151255,5.0,5.0,0.30299115,-5.1407313,-3.2556014,5.0,-0.42271644,0.3011639
-5.0,5.0,-5.0,-4.657994,-3.4940987,1.4702423,3.8932345,0.47043514,-3.16079,5.0,2.4120145,-0.24375668,-5.0,-0.92213947,-3.4114041,0.87065226
-5.0,5.0,-5.0,-4.8308434,-1.5339689,1.9167368,2.8811216,-0.1617325,-4.078014,-2.428484,5.0,0.81089175,-5.0,-5.0,-5.0,5.0
-5.0,5.0,-5.0,10.0,0.91547763,0.09375098,1.7778013,0.9149329,-0.9785308,-5.0,5.0,-0.56644535,-5.0,-5.0,-3.4059315,-3.0941498
2.0070705,3.5393481,-1.2767696,10.0,5.0,-5.0,-5.0,-5.0,4.837766,3.268744,-3.8798487,0.04827652,1.4641317,-5.0,-0.030350447,0.14452887
4.3441024,-1.0152491,1.4439721,0.6038793,5.0,-1.3446051,-4.753851,5.0,4.995735,5.0,-5.0,-7.3851748,4.1948247,-5.0,1.1163036,0.34500507
1.3506602,-3.2892296,2.9589415,0.48908162,5.0,-5.0,-4.9068317,-5.0,1.4164789,5.0,-5.0,-4.6571827,3.5017567,2.777061,5.0,-0.7548391
-1.4544392,-2.7659297,5.0,-0.39877847,5.0,-5.0,-5.0,-5.0,5.0,5.0,-5.0,-10.0,0.1337415,5.0,5.0,-1.3676599
-5.0,3.2429867,-3.8154683,-0.79768527,5.0,-5.0,-4.3214073,-5.0,5.0,5.0,2.220107,10.0,-1.7759045,5.0,2.6846116,0.17559841
-5.0,5.0,-5.0,2.0630805,-4.305663,0.5312227,1.9541265,-3.722185,-5.0,5.0,4.556783,-2.873224,-5.0,-1.9373814,-3.8945432,4.7981477
-5.0,5.0,-5.0,0.19590628,-3.367891,1.9976386,3.2022882,0.34322685,-3.9837868,-2.770851,4.440521,-1.0824156,-5.0,-5.0,-5.0,-5.0
-5.0,5.0,-5.0,-2.5473785,3.1115825,-0.6839902,-0.810649,-2.359342,-2.2825966,-5.0,5.0,-1.1594993,-4.0907707,-5.0,-5.0,-5.0
1.6263402,0.27860582,3.0190973,8.098441,5.0,-5.0,-5.0,-5.0,5.0,1.8015553,-5.0,0.5588559,5.0,-5.0,-0.10780668,-3.2356982
3.4222748,-2.9435787,3.772542,0.029278649,5.0,-2.6348836,-5.0,5.0,5.0,5.0,-5.0,-4.4677753,5.0,-0.4710077,0.76150525,-0.23433739
0.1353159,-4.120211,5.0,0.022826066,5.0,-1.7626014,-4.7072926,5.0,4.6995206,5.0,-5.0,-0.6467186,2.231601,5.0,5.0,-0.498081
-2.869143,0.08098984,0.1884655,-0.110140175,5.0,-5.0,-5.0,5.0,5.0,5.0,-1.7440141,-3.2015514,1.3214765,5.0,5.0,-0.12534142
-5.0,5.0,-5.0,0.95505255,-2.210535,-5.0,4.762099,4.4492235,-5.0,5.0,-1.5350362,-5.775982,-5.0,5.0,-3.2194154,3.0527477
-5.0,5.0,-5.0,-5.2830124,-4.4259315,1.780725,3.807826,-0.036020935,-4.9252205,0.46986705,2.4796019,-0.21924889,-5.0,-3.050157,-5.0,5.0
-5.0,5.0,-5.0,3.2547772,-1.7008067,1.6398479,1.5694005,2.1745973,-1.6729871,-5.0,5.0,-0.38598198,-4.5533757,-5.0,-5.0,-0.8363919
-5.0,4.446001,-5.0,6.861871,5.0,-4.429067,-5.0,3.2841582,5.0,-5.0,-0.85967606,-4.5882893,-0.8498398,-5.0,1.8520715,-5.0
3.6634383,-2.1203096,1.556057,3.4160542,5.0,-5.0,-5.0,-5.0,5.0,5.0,-5.0,0.9095835,5.0,-5.0,0.97675693,-0.3208836
3.1521494,-4.443655,3.600921,-0.54533565,5.0,-3.4008143,-5.0,-5.0,4.0883436,5.0,-5.0,-4.3701444,5.0,0.08401972,1.3766228,-2.594437
-0.29017818,-4.7823725,5.0,-0.344604,5.0,-5.0,-5.0,-5.0,3.9118133,5.0,-5.0,-5.366332,0.97768474,5.0,5.0,-0.33515868
-2.1684916,-1.0678923,2.8930178,0.4646934,5.0,-4.737289,-5.0,-0.6178609,5.0,5.0,-2.8842487,-10.0,0.51213455,5.0,5.0,0.34720755
-5.0,5.0,-5.0,4.4246087,-0.094102204,-2.261794,4.528317,4.580001,-1.3146365,5.0,1.6878376,-10.0,-5.0,5.0,-2.258456,4.6789494
-5.0,3.9521723,-5.0,2.3098536,-4.4734106,3.009798,4.4131804,-4.4778323,-5.0,3.4484391,4.2491446,-2.5775566,-5.0,-3.3119678,-4.191457,5.0
-5.0,5.0,-5.0,0.9402728,-2.372126,5.0,2.82716,-0.5153848,-3.0043678,-2.3047519,5.0,-0.90707165,-5.0,-5.0,-4.5725865,4.8084044
-5.0,5.0,-5.0,-4.735411,3.9142404,-0.029984593,0.82836866,2.9998708,-0.20733476,-5.0,5.0,0.036691863,-5.0,-5.0,-4.500005,0.22308594
1.040369,2.7140148,-1.3173289,-3.3112588,5.0,-5.0,-5.0,1.9934795,5.0,-0.9147005,-0.5721307,2.2852387,-0.22955328,-5.0,-0.33739543,0.6416311
4.455579,-1.7786843,1.9811088,-1.5025377,5.0,-4.2761135,-5.0,-5.0,5.0,4.8979664,-5.0,-0.8640244,5.0,-5.0,1.1711977,0.28524172
1.0768822,-4.8953857,4.464689,-1.3728648,5.0,-5.0,-3.138776,-3.156188,3.7466035,5.0,-5.0,-5.6514125,5.0,4.1794424,5.0,-1.0604227
-0.36810935,-4.1937723,3.804333,0.14190963,5.0,-5.0,-5.0,-5.0,5.0,5.0,-4.9386287,-8.468112,1.3832693,5.0,5.0,-0.3111508
-5.0,4.40369,-5.0,-1.9226823,5.0,-5.0,-0.9183138,5.0,4.7043233,5.0,0.8992747,10.0,-3.5659785,5.0,2.2514143,-4.733674
-5.0,3.1317143,-5.0,10.0,-4.2647715,-0.4941237,1.5904493,0.59924835,-2.5284824,5.0,0.86801624,0.5450093,-5.0,0.6504067,-1.3033562,-0.5059803
-5.0,5.0,-5.0,-1.438297,-1.2593449,2.3769503,2.0555935,-0.6639315,-4.463729,-1.6847258,4.4506283,0.73865855,-5.0,-5.0,-5.0,-3.5785527
-5.0,5.0,-5.0,-2.760714,5.0,-0.96421456,0.89859056,2.0426552,0.4784398,-5.0,4.0423746,-0.10123142,-5.0,-5.0,-0.47133505,5.0
-0.07422972,5.0,-5.0,-0.76650786,5.0,-5.0,-5.0,-5.0,5.0,1.401776,-3.3071358,-1.0652366,0.83930385,-5.0,-0.46582258,-2.5414627
2.881353,-3.4653587,3.8748696,-0.51999503,5.0,-0.44333375,-5.0,5.0,5.0,5.0,-5.0,10.0,5.0,-0.30219075,0.36876678,-0.008542687
0.97842336,-4.6643434,4.857109,-0.88401055,5.0,-5.0,-5.0,-3.2987146,3.856257,5.0,-5.0,-9.982398,2.0984726,5.0,4.685912,-0.16185941
-2.5566626,-0.23105288,1.3928356,0.36315757,5.0,-5.0,-5.0,-5.0,5.0,5.0,-0.36349142,10.0,-0.17875552,5.0,5.0,-0.24084806
-5.0,5.0,-5.0,0.41658518,2.159215,-5.0,-1.8707489,-5.0,3.1383777,5.0,-1.2782387,-0.006913688,-5.0,5.0,0.5252273,0.34558964
-5.0,5.0,-5.0,-4.0878224,-3.654871,2.6838987,3.1443248,-0.26312593,-4.7002077,-0.16201091,4.3526626,0.08152814,-5.0,-5.0,-5.0,-4.5894704
-5.0,5.0,-5.0,3.3105106,-0.4496814,1.6827649,1.8470527,1.8143516,-0.10990763,-5.0,5.0,-1.1343744,-3.1640882,-5.0,-5.0,-2.0744677
-5.0,5.0,-5.0,4.072499,5.0,-2.2108858,0.1505003,-0.23573263,1.474333,-4.6735363,0.98189604,0.031102408,-2.926968,-5.0,-0.7317492,-5.0
5.0,-2.1010647,2.1494277,4.4902883,5.0,-5.0,-5.0,-3.1568203,4.6123323,5.0,-5.0,-3.5963829,2.329596,-5.0,1.2738361,0.3443293
0.8022096,-1.6277128,4.497854,-0.8821022,5.0,-4.491784,-5.0,-5.0,0.9137016,5.0,-5.0,-3.837584,4.5713797,3.3274362,5.0,-0.15581433
0.26721054,-3.9864385,5.0,-0.120317206,5.0,-2.5897732,-5.0,5.0,4.316731,5.0,-5.0,-8.510956,1.6944598,5.0,5.0,-0.6514449
-0.9649813,-2.9188948,5.0,-0.86213976,5.0,-4.9062853,-5.0,5.0,5.0,5.0,-4.349803,-4.361354,0.6507102,5.0,5.0,-0.56993866
-3.31151,1.001751,-1.6075152,0.5849594,5.0,-5.0,-5.0,5.0,3.951655,5.0,-0.078234315,1.3982277,-2.2704022,5.0,4.634009,-0.6769819
-5.0,5.0,-5.0,-2.7897537,-3.1201298,-2.748704,1.0180737,-0.08185309,-1.6667318,5.0,4.8800755,2.669229,-4.1158056,2.859241,-1.9885919,-0.04468354
-5.0,5.0,-5.0,10.0,-0.05504313,1.095294,2.0963717,-0.34362647,-5.0,-3.4047227,5.0,-0.20505565,-5.0,-5.0,-5.0,5.0
-5.0,5.0,-5.0,-7.1472597,2.6457627,-0.080008954,0.902651,-0.16728272,-0.3778077,-5.0,4.44017,-0.6090709,-1.5290694,-5.0,-4.342129,3.7456255
4.7778187,-0.5203568,-1.0642315,8.823319,5.0,-5.0,-5.0,5.0,5.0,4.806321,-5.0,0.3243617,5.0,-5.0,-0.51780415,-1.5957476
4.604318,-2.7496488,1.4082822,-0.2372663,5.0,-2.758943,-5.0,5.0,3.4468527,5.0,-5.0,-8.614289,5.0,-5.0,-0.71030486,-0.39119726
1.7738034,-5.0,4.4161882,-0.08197584,5.0,-1.2733035,-5.0,5.0,3.2823067,5.0,-5.0,-10.0,5.0,3.533035,4.07248,-0.55190146
-1.5661783,-2.748702,5.0,-0.22355047,5.0,-5.0,-5.0,-1.9977823,5.0,5.0,-4.085503,-9.616638,-1.0140283,5.0,5.0,-0.28518987
-4.035232,2.9869206,-2.7864645,0.118126735,5.0,-5.0,-4.846074,-5.0,2.7520623,5.0,0.9786623,-1.3232434,-2.8580716,5.0,3.6577928,-0.5143357
-5.0,5.0,-5.0,-5.866349,-5.0,2.5549881,2.7408013,-3.2706141,-4.594779,1.0096614,5.0,-0.6854135,-5.0,0.53917396,-4.404782,1.7905393
-5.0,3.1762023,-5.0,10.0,-3.87754,1.9824196,3.0340183,-0.54941446,-3.528257,-4.9142365,5.0,1.155794,-4.3990374,-5.0,-5.0,5.0
-5.0,5.0,-5.0,-2.151654,2.9862807,-0.24041194,0.31109488,-0.1982237,-1.7589338,-5.0,4.5814795,-0.7004173,-2.1288881,-5.0,-3.6146626,-5.0
2.1601195,3.0751631,-1.6852522,-5.5203767,5.0,-5.0,-5.0,3.9885209,5.0,3.949865,-5.0,4.8178353,3.994299,-5.0,0.5814767,-5.0
5.0,-1.9195658,1.4721408,-0.206829,5.0,-4.542095,-5.0,-5.0,3.8473825,5.0,-5.0,10.0,5.0,-1.6131344,1.0096912,0.19331007
1.235542,-3.4954,5.0,0.22226258,5.0,-5.0,-5.0,-5.0,2.526627,5.0,-4.2784586,10.0,2.3573418,5.0,5.0,-0.8736672
-1.0679809,-3.7255588,5.0,-0.42171067,5.0,-5.0,-5.0,-5.0,5.0,5.0,-1.9311714,-8.153795,-0.13246357,5.0,4.9031515,-0.48094305
-5.0,3.4052155,-5.0,1.1114281,-0.24959922,-3.0903096,2.8139834,-1.482785,-0.4171844,5.0,2.9909992,2.8043706,-5.0,5.0,0.079187036,-0.07355922
-5.0,4.7146254,-5.0,1.4474928,-5.0,0.6864416,3.0785372,0.57203627,-3.9823942,2.0662067,5.0,0.20192584,-3.9235005,-5.0,-5.0,0.60304266
-5.0,5.0,-5.0,10.0,1.368119,2.4398558,3.7240503,0.43847352,-3.8994322,-5.0,5.0,-1.634224,-5.0,-5.0,-5.0,-2.5552795
-5.0,5.0,-5.0,3.047595,5.0,-2.2961318,-1.5774751,0.15086026,0.32249916,-5.0,2.9299831,0.27717045,-3.1279685,-5.0,-0.99749804,0.69812214
2.3615103,-1.0718565,1.7135477,6.4046755,5.0,-5.0,-5.0,-0.31697285,3.6613822,2.0235953,-4.732056,0.19398966,1.8699759,-5.0,0.103195906,0.77409256
0.7704395,-4.0572686,1.8830825,-3.8259804,5.0,-2.816711,-5.0,5.0,2.20514,5.0,-5.0,10.0,5.0,0.60739183,4.139356,1.7995961
0.5314233,-4.503862,4.8103414,0.22592604,5.0,-5.0,-5.0,-5.0,3.5107555,5.0,-5.0,-6.3995047,3.0804148,5.0,5.0,-0.73785186
-2.5583625,-2.5219595,5.0,0.2829724,5.0,-4.6081343,-5.0,5.0,5.0,5.0,-5.0,-3.392593,1.1796336,5.0,5.0,-0.23578236
-5.0,5.0,-5.0,-1.543808,4.0494595,-5.0,-2.4037042,-5.0,4.603014,5.0,1.8769745,3.6846032,-4.2635584,5.0,1.2794862,1.61182
-5.0,5.0,-5.0,-6.4789357,-3.470408,-0.10825589,1.6533512,-0.6517176,-1.4353387,2.6221733,2.642057,0.4178438,-5.0,-2.3482072,-4.7963057,0.30547333
-5.0,5.0,-5.0,-7.259128,-4.465791,4.3509607,4.7857504,0.07162496,-4.5592213,-2.368219,5.0,-0.25810522,-5.0,-5.0,-5.0,5.0
-5.0,5.0,-5.0,0.33095932,2.6867855,-1.3842461,2.350417,-0.5875598,0.36671138,-5.0,5.0,-2.0185046,-4.761489,-5.0,-3.141995,5.0
5.0,4.200922,-4.107294,-5.2318516,5.0,-5.0,-3.2877145,-1.5879811,5.0,5.0,-4.603984,3.8488727,5.0,-5.0,4.9961576,-2.712225
4.906784,0.65459883,0.9028195,-7.139688,5.0,-0.39537835,-5.0,4.29228,4.052349,5.0,-5.0,10.0,5.0,-2.1061513,3.4844806,-0.020361073
1.2649388,-3.6261752,4.2100534,-0.6665573,5.0,-5.0,-5.0,-5.0,3.1878781,5.0,-5.0,-8.846741,4.343709,3.6792815,5.0,-0.06867352
-1.6020908,-3.9959002,5.0,-1.0848931,5.0,-3.0870936,-5.0,5.0,5.0,5.0,-5.0,-10.0,1.0527153,5.0,5.0,-0.8658825
-5.0,2.0837834,-4.7593822,-1.0464716,3.5683515,-5.0,-3.3561528,-0.41807497,3.9853137,5.0,4.1292105,2.678307,-1.7033699,5.0,2.417124,0.24381384
-5.0,4.4529505,-5.0,-2.0520678,-4.0482306,-0.33306468,0.62253475,-0.34524757,-4.2539673,5.0,2.493312,-0.563092,-5.0,0.052830577,-3.4940677,0.04283394
-5.0,5.0,-5.0,-7.646758,-2.9299917,1.9348047,3.0037584,0.33248258,-5.0,-4.7429795,5.0,-1.0726862,-5.0,-5.0,-4.2100368,0.5403347
-5.0,5.0,-5.0,-8.584002,1.0538428,1.0264353,2.4745927,3.7726552,-0.77561796,-5.0,5.0,-0.28151542,-2.8367019,-5.0,-3.86721,-5.0
1.686036,0.7514771,0.0736115,7.0226226,5.0,-5.0,-5.0,-5.0,5.0,-0.60661924,-2.4170542,-0.48577353,2.3088017,-5.0,-0.2938106,0.5759069
4.2980556,-2.9138234,0.9443722,-0.5888279,5.0,-1.4865572,-5.0,5.0,5.0,5.0,-5.0,-4.4917784,5.0,-3.8780818,-0.48398864,0.16061454
1.9923437,-4.7819986,5.0,0.0050794543,5.0,-0.77983254,-4.1443386,5.0,5.0,5.0,-5.0,-9.751916,5.0,4.5398235,4.1069064,-0.24900241
-2.5161176,-3.7861338,4.5813966,-0.25169566,5.0,-5.0,-5.0,-1.5099801,5.0,5.0,-3.1960366,-8.299757,0.05124429,5.0,5.0,-0.3000426
-4.5659614,2.5745425,-1.721081,-0.0014727345,5.0,-5.0,-1.9163296,1.4643931,5.0,5.0,-1.3985903,-0.47431374,-2.3686507,5.0,4.6690946,-0.5520218
-5.0,5.0,-5.0,-3.0537295,-3.11538,-1.7323937,2.717598,-0.2623073,1.5700904,5.0,0.35848784,0.24195096,-4.918652,3.5111413,-0.9382589,-0.59133244
-5.0,4.6477337,-5.0,-6.6596785,-4.978986,2.354039,4.102592,0.24354242,-4.5601645,2.4566972,1.5969272,0.076991394,-5.0,-0.4857186,-2.9538884,5.0
-5.0,5.0,-5.0,2.8427649,2.0484047,0.4106772,0.9624189,2.852112,-2.1637707,-5.0,5.0,-0.39322865,-4.705823,-5.0,-5.0,0.028759003
-5.0,5.0,-5.0,10.0,3.9518552,-1.0247456,0.66318035,1.0715345,0.39203,-5.0,3.3548896,-0.3004272,-5.0,-5.0,-0.73789364,5.0
4.904142,-3.257217,3.1832,-0.097142376,5.0,-4.329026,-5.0,-5.0,5.0,3.0509603,-5.0,0.9663173,5.0,-5.0,-0.349025,-0.10786131
0.7918432,-5.0,4.822047,-2.1182313,5.0,-0.3479874,-5.0,5.0,5.0,5.0,-5.0,-4.597064,5.0,2.944638,1.4510068,-5.0
0.09057033,-5.0,5.0,-0.5158381,5.0,-3.3123682,-5.0,5.0,5.0,5.0,-5.0,0.7075981,1.6794758,5.0,5.0,-1.0337862
-2.6221132,-1.2909904,2.6874704,0.37658733,5.0,-5.0,-5.0,5.0,5.0,5.0,-3.053789,-8.628563,-0.088323474,5.0,5.0,-0.25893694
-5.0,3.58167,-5.0,-0.61905074,3.817703,-5.0,-0.4862677,5.0,2.0345843,5.0,-1.2077128,-2.2464273,-3.4277587,5.0,1.741744,-0.31786972
-5.0,5.0,-4.1016984,10.0,-5.0,2.19798,3.2850144,0.07024728,-3.119006,1.9752254,3.7855644,-0.5411046,-5.0,-5.0,-4.0099645,-0.9952285
-5.0,5.0,-5.0,-9.516259,-2.4700217,2.885321,2.3564231,0.7369708,-1.2686149,-5.0,5.0,0.36618894,-2.8650832,-5.0,-5.0,5.0
-5.0,5.0,-5.0,-4.0536947,-0.02229166,1.3063371,3.6858885,0.7689462,-0.4731456,-5.0,5.0,-0.5718563,-4.261607,-5.0,-2.8727179,-5.0
-5.0,5.0,-5.0,-3.5393548,5.0,-2.3363225,-0.46297622,-0.068329364,1.8397001,-5.0,2.3250556,-0.6329783,-0.6318938,-5.0,-0.9993713,-3.0950413
4.4899,-1.8305364,1.6236832,-0.44082534,5.0,-5.0,-1.4454441,2.839567,3.2731385,5.0,-5.0,3.5532646,5.0,-5.0,2.2654085,-5.0
1.2726543,-2.1589599,2.7622201,0.23019263,5.0,-0.41524643,-3.4676373,3.9921231,4.868916,5.0,-5.0,10.0,5.0,-0.03164184,1.0428895,0.5623309
0.40222508,-4.465691,5.0,0.024381408,5.0,-5.0,-3.82544,-0.1328845,4.187072,5.0,-5.0,10.0,-0.035824537,5.0,5.0,-0.039271478
-2.293133,-1.0454257,1.9952265,4.6517386,5.0,-5.0,-4.3128223,-5.0,5.0,5.0,-2.558992,10.0,-0.11001098,5.0,5.0,-0.16797379
-5.0,3.970282,-5.0,-0.49345657,5.0,-5.0,-1.5741608,-2.946499,3.3959756,5.0,-4.604044,-10.0,-1.2735859,5.0,2.3826816,-0.71717393
-5.0,5.0,-5.0,10.0,-4.077867,2.2890525,1.6766108,-3.1756124,-3.647336,4.6083403,5.0,-4.3102465,-2.1549792,-3.143625,-5.0,5.0
-5.0,5.0,-5.0,-7.6227603,-1.3161666,1.2252833,3.1901052,0.52743536,-4.127103,-1.471362,5.0,0.95084995,-5.0,-5.0,-5.0,5.0
-5.0,5.0,-5.0,-6.348193,0.44086576,-2.0882168,-0.5624971,-5.0,0.012528539,-5.0,5.0,-0.5202882,-5.0,-5.0,-0.5187002,-2.7376964
-1.5574397,5.0,-5.0,3.7923098,5.0,-5.0,-5.0,0.15993918,5.0,-4.177508,0.1417979,0.010308366,0.675916,-5.0,0.4533118,0.45441
3.735262,-3.427131,3.547903,-0.0038184454,5.0,0.32171565,-3.8990402,5.0,5.0,5.0,-5.0,-0.35967875,5.0,-2.8491457,2.3249474,0.5582776
0.43973717,-5.0,4.118135,0.05606407,5.0,-2.240841,-5.0,5.0,2.4006248,5.0,-5.0,-7.0867224,5.0,4.706849,5.0,-1.2271974
-1.7233859,-3.8448079,4.147747,-0.01244332,5.0,-5.0,-5.0,5.0,3.7787907,5.0,-5.0,-5.4534874,-0.8597332,5.0,5.0,-0.07068527
-5.0,1.4808605,-2.5860345,-0.12391057,5.0,-5.0,-5.0,5.0,4.331296,5.0,0.6903961,1.3087993,-2.0113664,5.0,1.6430974,0.5731023
-5.0,5.0,-5.0,-9.083422,-1.8924214,-0.5251434,0.9588485,-0.15183112,-0.79330254,5.0,1.0686756,0.3813424,-5.0,1.0372111,-3.917556,-0.19909097
-5.0,5.0,-5.0,-0.6332545,-4.8878555,0.25500077,2.4874198,0.06819048,-5.0,0.48619425,1.9694566,0.59285456,-5.0,-5.0,-5.0,-5.0
-5.0,5.0,-5.0,4.0405736,0.70512027,0.52583694,2.1223433,2.551275,-1.4034429,-5.0,4.998714,-0.023809515,-5.0,-5.0,-3.7598968,-1.9191129
0.7749482,5.0,-5.0,-2.3216662,5.0,-5.0,-5.0,5.0,5.0,-1.3197143,-3.5394764,-1.4457903,4.4759054,-5.0,4.3928003,1.1279769
5.0,-0.30270052,0.03922665,-0.11114571,5.0,-5.0,-5.0,-5.0,4.7323127,5.0,-5.0,9.075402,3.0117145,-4.923584,1.2526375,0.115432635
1.2012322,-3.7434127,3.9063475,-0.51803774,5.0,-5.0,-5.0,-5.0,1.40747,5.0,-5.0,10.0,5.0,3.7743678,5.0,-0.031027531
0.2965511,-4.774655,4.637013,-0.16244571,5.0,-3.1794958,-4.9334126,5.0,0.6995155,5.0,-5.0,8.934992,0.19219995,5.0,5.0,-0.50965244
-1.6951351,-1.3209633,2.6371698,-0.66386,5.0,-5.0,-5.0,5.0,5.0,5.0,-5.0,8.523585,-1.3040943,5.0,5.0,-1.4009422
-5.0,4.8361697,-4.543274,0.81180394,2.4535775,-5.0,-3.4889324,4.776372,5.0,5.0,-3.4132154,2.4953568,-3.1733482,5.0,2.4759529,0.41920108
-5.0,5.0,-5.0,-5.9348745,-5.0,0.8450513,2.758861,1.3276464,-3.7394247,1.2486918,3.9874258,-0.6360414,-5.0,-5.0,-5.0,-1.7593304
-5.0,5.0,-5.0,10.0,0.4041717,1.0261878,1.21453,0.15767889,-2.8201709,-5.0,5.0,-1.1759716,-5.0,-5.0,-5.0,-4.8936167
-4.2729287,5.0,-5.0,8.781478,5.0,-4.312531,-5.0,1.6029534,3.5052495,-4.4425344,-0.00765045,-2.2026544,0.47178492,-5.0,0.16367441,-0.54573894
2.6968322,0.82264566,-1.2562848,-0.11670045,5.0,-5.0,-5.0,-5.0,5.0,3.7650855,-5.0,0.98790216,5.0,-5.0,0.61168087,-0.25758773
2.147534,-0.9122584,5.0,-0.57519305,5.0,-2.4965096,-5.0,5.0,5.0,5.0,-5.0,-1.340677,5.0,2.7836282,0.57894945,-2.7097905
-0.37828767,-3.9535055,5.0,-0.27376673,5.0,-5.0,-5.0,-2.4045093,5.0,5.0,-4.9589977,-8.025098,1.0736855,5.0,5.0,1.1334372
-3.0794365,0.3038447,0.15849197,0.18501142,5.0,-5.0,-5.0,-0.49931931,4.2679815,5.0,-0.094697475,10.0,-2.0290182,5.0,4.171818,-0.1798107
-5.0,5.0,-5.0,-10.0,-2.157299,-4.4522753,0.5821481,0.5947554,-4.1786475,5.0,1.4687911,0.16401128,-5.0,3.1872067,-0.4196099,-0.28246406
-5.0,5.0,-5.0,-2.177281,-4.5948963,1.6978426,3.4672554,0.45920858,-3.7737837,-2.4696088,5.0,-0.0039890613,-4.3402014,-5.0,-5.0,1.6229
-5.0,5.0,-5.0,-6.8198695,1.7218947,-0.005379617,0.5322108,0.0588006,-0.40547287,-5.0,5.0,-0.34833995,-4.249695,-5.0,-4.5080004,2.2310069
-3.0661616,5.0,-5.0,4.3189855,5.0,-5.0,-5.0,0.22955848,3.8085737,-2.988002,-0.55840445,2.3396275,1.4428803,-5.0,1.7273706,-2.3653352
4.406758,-2.178143,-1.5299953,-6.455081,5.0,-3.9756432,-5.0,5.0,2.2234545,5.0,-5.0,10.0,5.0,-5.0,3.4815135,3.54609
3.2162733,-2.8508615,3.2360823,0.26884028,5.0,-3.2856276,-5.0,-5.0,2.687994,5.0,-5.0,-7.5604916,5.0,-0.8614466,2.107597,-0.1628809
-0.0693866,-1.4688654,3.2174358,-0.37141147,5.0,-5.0,-5.0,-5.0,2.4703915,5.0,-5.0,10.0,3.326542,5.0,5.0,-0.48099944
-2.152783,-0.11670983,1.2357283,0.26288766,5.0,-5.0,-5.0,-1.4831023,5.0,5.0,-3.175735,1.3472377,1.2175372,5.0,5.0,-0.18394771
-5.0,5.0,-5.0,-2.9154851,-0.080703825,-3.824347,2.9664965,1.5017672,-0.9879798,5.0,-0.73863673,-10.0,-5.0,5.0,-0.9827733,1.9074131
-5.0,5.0,-5.0,-4.262696,-3.1967316,0.10049111,2.4198318,1.3424883,-3.5852256,2.142743,2.8233733,0.069116,-5.0,-0.48025024,-5.0,1.3645463
-5.0,5.0,-5.0,-7.1404357,-2.0781531,3.741592,5.0,-0.2938125,-3.4263384,-4.4446173,5.0,-0.70079964,-5.0,-5.0,-3.6384983,-3.4681087
-5.0,5.0,-5.0,-1.2191647,5.0,-3.8293297,-3.9464557,-0.61236626,2.8596592,-3.059681,0.73481023,4.032496,-0.022761911,-5.0,0.6924359,-2.2932005
3.7861547,-0.78985906,1.0488012,0.14430182,5.0,-1.3270739,-5.0,3.2213502,4.391295,3.222844,-5.0,0.84637654,3.9691334,-5.0,0.18673468,-2.5993547
1.2357635,-4.252637,5.0,-0.6092717,5.0,-0.2526728,-5.0,5.0,5.0,5.0,-5.0,1.455932,5.0,1.3231419,2.7906995,0.046716336
0.26216662,-5.0,5.0,0.025592552,5.0,-3.5145526,-5.0,4.9373136,2.8213277,5.0,-5.0,-6.719845,0.2695867,5.0,5.0,-1.0887175
-3.9910522,0.29304838,-1.0430461,-0.12404715,5.0,-5.0,-5.0,-4.378272,5.0,5.0,0.07978058,4.5536394,-0.306018,5.0,5.0,-0.17390782
-5.0,5.0,-5.0,5.2774076,-4.397911,0.8306352,2.7160392,0.0027850708,-2.0148094,5.0,2.7683845,0.46736497,-5.0,1.1380198,-3.882011,0.14780188
-5.0,3.6305857,-5.0,10.0,-4.452644,1.2699503,3.1435273,-0.75404686,-3.4816566,-1.2172612,4.5624294,0.2782128,-5.0,-5.0,-5.0,-1.5622139
-5.0,5.0,-5.0,-0.7984624,0.5474015,0.31526452,2.760015,1.7593516,-1.9831394,-5.0,5.0,1.2251889,-3.8747604,-5.0,-5.0,1.4484618
-5.0,5.0,-5.0,6.266616,5.0,-4.3190384,-3.8275108,0.0019601695,1.0983974,-5.0,3.2618968,-0.22849736,-0.7050432,-5.0,1.419438,2.0846262
5.0,1.3474102,-1.4505055,-2.5052156,5.0,-0.24452984,-5.0,5.0,5.0,5.0,-5.0,4.8689513,4.702755,-5.0,1.5489643,0.6371236
3.205737,-1.9191883,3.2932155,-0.49269244,5.0,0.16030976,-4.8387804,3.5001485,2.8208826,5.0,-5.0,10.0,5.0,0.49070626,3.3340688,0.042496685
-1.1789763,-2.769344,5.0,-5.0809717,5.0,-1.4865216,-4.0644617,0.18812144,5.0,5.0,-5.0,-6.305852,1.6846459,5.0,5.0,-1.2126389
-1.9616326,-0.09490487,0.15932226,-0.19548167,5.0,-2.9901729,-1.4183116,-5.0,5.0,5.0,-1.1665335,10.0,-0.6986002,5.0,5.0,-0.913316
-5.0,1.9029472,-5.0,3.2746465,2.2079532,-5.0,-0.22473586,5.0,5.0,5.0,-0.009314299,-4.3193283,-3.736565,5.0,-1.1270828,3.1879447
-5.0,-1.2196046,-5.0,3.5915906,-2.3474498,-0.36243832,1.5965039,0.48294097,-4.987214,5.0,0.64238214,-4.369439,-5.0,3.099924,-2.9968672,0.79763746
-5.0,5.0,-5.0,-6.2665215,-0.7966746,-0.4683861,0.8601328,2.3336234,-4.7849464,0.5977099,4.980354,0.16628699,-5.0,-5.0,-5.0,3.8296247
-5.0,5.0,-5.0,-7.1609616,2.1743672,-5.0,-4.675404,-2.7989173,-0.15441854,-3.8986506,4.208672,-0.079823256,-5.0,-5.0,-1.5219625,-2.7257805
3.1162186,-2.2981694,-0.4132446,0.4583758,5.0,-4.649417,-5.0,-0.27959037,5.0,-0.3839414,-5.0,0.37632495,3.8069677,-5.0,0.22428137,-0.93675405
2.0480587,-2.0399344,2.107635,0.05097719,5.0,-2.8764658,-5.0,-5.0,5.0,3.1710663,-5.0,6.9467783,5.0,-3.6596014,1.2155178,0.13602881
0.12935656,-1.639068,5.0,0.107489385,5.0,-3.009275,-5.0,-5.0,4.9596405,5.0,-2.4950185,10.0,1.8741173,5.0,5.0,0.43028048
-0.71803594,0.09475958,3.2644713,0.23844871,5.0,-3.7137432,-5.0,-5.0,4.535993,5.0,0.11594188,10.0,-1.2030554,5.0,5.0,0.17978753
-5.0,2.7896302,-5.0,0.6165363,4.6280828,-5.0,-2.5473688,-5.0,0.31774807,5.0,3.6796093,3.592345,-3.6945653,5.0,0.4112525,-0.285412
-5.0,-1.5678741,-5.0,10.0,-2.735599,-1.0320224,2.234905,0.57921404,-2.5575237,2.7627797,5.0,-0.33097392,-5.0,3.7566864,-3.3388698,-0.46638128
-5.0,-1.7238894,-5.0,10.0,0.1270299,0.60682154,1.4565985,4.5192957,-5.0,0.13096762,5.0,0.08490842,-5.0,-4.6658115,-5.0,-3.481096
-5.0,1.6853633,-5.0,10.0,3.1162848,-4.11517,-2.5967007,0.65503526,-3.0064428,-4.849676,4.6537294,-0.73134327,-5.0,-5.0,-2.5746293,-5.0
4.792622,-1.0547779,-0.56737685,-1.3080927,5.0,-3.7600226,-5.0,-3.2877204,5.0,-1.2171395,-5.0,10.0,5.0,-5.0,1.7844487,0.8426285
4.3443274,-3.5658855,0.68067443,-0.020857628,5.0,0.48878866,-5.0,1.0866115,5.0,-0.10854888,-5.0,-3.268378,5.0,-5.0,1.0350903,-0.37216622
-0.68387556,-0.49126458,5.0,-2.9409964,5.0,1.6193454,-3.7417927,5.0,5.0,5.0,-5.0,5.3638244,4.01347,4.459608,4.8704348,0.06727274
0.09006739,-2.1295474,5.0,-0.5573692,5.0,-3.0296464,-5.0,0.10711706,4.64978,5.0,-2.456912,0.7170442,-0.25124264,5.0,5.0,-0.18191224
-1.8448848,0.20837712,0.82306314,-0.102394104,5.0,-4.479721,-4.337497,-5.0,4.6405606,5.0,0.62671596,5.2263336,-3.042869,5.0,5.0,0.044175882
-5.0,1.1760671,-5.0,0.76279193,-3.661317,-0.24742818,4.2858715,1.072586,-3.1451273,5.0,5.0,10.0,-5.0,5.0,-5.0,5.0
-5.0,1.2334285,-5.0,-8.118945,-2.497019,-1.2110862,1.5998925,0.43548173,-5.0,4.151325,5.0,0.56084484,-5.0,-2.7623286,-4.800217,-1.7162106
-5.0,4.2517223,-5.0,-8.09725,-0.29519713,-1.8328153,-0.23668706,0.19201167,-3.2401862,-3.0472713,5.0,-0.056131303,-5.0,-5.0,-2.91372,-5.0
-5.0,5.0,-5.0,-9.274649,5.0,-3.6696086,-3.2954798,1.0897098,1.3766922,-2.800796,-0.2212593,-3.6486738,-2.1843903,-5.0,-1.0967308,-5.0
5.0,-1.4666407,1.6168679,-0.31993452,5.0,2.6352787,-5.0,3.3039207,4.8750715,3.6850963,-5.0,0.2555639,5.0,-5.0,0.3109858,-1.3866737
2.2966986,-2.2496421,2.5930042,-0.72137254,5.0,-0.010662556,-5.0,-5.0,3.0787957,5.0,-5.0,-5.5875196,4.243719,-0.18824089,0.8520241,0.23784275
1.6032746,-2.486713,5.0,-0.22680229,5.0,2.9642768,-5.0,3.4083183,0.83517957,5.0,-5.0,-8.338022,0.99580455,4.1209617,5.0,-0.83486307
-1.4027135,-0.26476026,5.0,0.034563787,5.0,-1.5159883,-5.0,4.89276,4.675509,5.0,-2.1283755,10.0,-1.4584079,5.0,5.0,-0.31805432
-5.0,0.85642123,-5.0,6.830936,-3.2816477,-3.3223624,4.186876,-4.3933926,-2.5211666,5.0,5.0,-6.1246104,-5.0,5.0,-5.0,5.0
-5.0,-4.1159096,-5.0,10.0,-3.487917,-2.6456676,3.500383,-2.641309,-5.0,4.4983873,5.0,-0.32921982,-5.0,1.4113911,-5.0,-1.3607244
-5.0,0.56602,-5.0,10.0,0.6293663,-0.29349184,2.6647527,2.8825014,-5.0,2.0159326,5.0,-0.28973547,-5.0,-5.0,-5.0,1.7708012
-5.0,5.0,-5.0,-0.5756359,5.0,0.18248606,-2.0394325,-5.0,0.77428114,-5.0,4.5284886,1.1239175,-3.0816617,-5.0,-2.3524594,-5.0
-1.4022591,5.0,-5.0,2.4100223,5.0,-4.6330776,-5.0,-3.0022607,3.4788666,-1.9731721,-1.7964566,-0.3210069,0.4433204,-5.0,-1.4611756,-5.0
4.3708987,1.2274612,-1.8699853,-2.5733976,5.0,-4.067615,-5.0,-5.0,4.8557577,0.50407207,-5.0,-0.42122054,5.0,-5.0,0.16218781,0.62864935
1.8764329,0.49848866,3.417225,-4.5414844,5.0,1.4901357,-3.267938,-5.0,3.225443,5.0,-5.0,-6.569951,3.5836782,-2.792187,2.6438327,0.461354
1.6337916,-0.16623485,5.0,0.4086251,5.0,-0.82061434,-4.231006,-5.0,1.3441235,5.0,-4.252275,-7.604555,-0.041578174,1.6399524,5.0,-0.35130456
-1.2908995,1.498318,-0.0028842688,-0.025128769,5.0,0.09125742,-3.6720586,-1.819658,5.0,5.0,-4.2285438,1.4038934,-0.9648433,5.0,4.7784414,0.04711754
-5.0,1.7574899,-5.0,0.1156261,-0.5036717,-3.2253017,0.5981778,0.38962713,1.0107591,5.0,0.18849528,-0.050248288,-4.4100227,5.0,0.029387712,-0.13138236
-5.0,2.5142133,-5.0,-6.367482,-5.0,-0.23881909,1.1440837,0.3321217,-3.2301245,3.2572453,4.293308,0.8147334,-5.0,4.160756,-5.0,-3.27009
-5.0,2.1983075,-5.0,-2.7565029,-1.6611495,-1.1255764,1.8894583,4.1524315,-2.990427,-1.0320623,5.0,-0.88873136,-2.9950354,-5.0,-5.0,-3.5671074
-5.0,4.872534,-5.0,-8.980948,4.57412,-5.0,-5.0,0.4856891,3.48729,-5.0,-0.4418112,-1.5481391,-0.034314185,-5.0,0.91812235,-1.8762189
3.885573,-3.2513871,0.5006583,0.4459273,5.0,-3.665936,-5.0,-5.0,4.456312,-0.89087534,-5.0,0.047599964,5.0,-5.0,0.99505067,0.5073535
2.0995784,-1.2035079,1.7926533,-2.3870327,5.0,0.8902091,-5.0,-5.0,2.6858218,2.126391,-5.0,1.3550546,5.0,-5.0,1.1199942,-0.45759133
1.074714,-1.6590626,4.7239923,-0.22059062,5.0,-1.7526829,-4.6147723,2.708159,2.4648848,5.0,-5.0,0.080636024,0.34181178,0.7211748,5.0,-0.009056181
-0.31075642,-0.9477259,5.0,0.28293818,5.0,1.2359257,-3.6446538,5.0,3.5715024,5.0,-5.0,-6.2234464,1.2245642,5.0,5.0,-0.09319784
-5.0,1.20575,-3.7520652,0.93509233,4.8939896,-4.272998,0.7000541,-5.0,5.0,5.0,-0.27285329,10.0,-3.9206996,5.0,0.8150476,-0.6004733
-5.0,-0.014086008,-5.0,0.44130698,-3.8536072,-2.5753367,2.8157382,0.41844434,-1.6335715,5.0,5.0,-0.024281707,-3.854328,5.0,-4.793171,-0.52221215
-5.0,-2.0479178,-5.0,-7.5017323,-1.7632474,0.11667049,1.4895878,3.22749,-5.0,1.4940969,3.437747,-0.342389,-5.0,5.0,-5.0,-5.0
-5.0,0.7619505,-5.0,6.116586,1.1349704,-2.0985372,-1.6516298,1.3050292,-3.6288264,0.33044732,5.0,0.4001463,-4.064654,-3.7364883,-5.0,-2.9347115
-5.0,1.8191438,-5.0,1.0500181,1.2448275,-3.282349,-0.80336106,5.0,0.22108805,-4.1524568,2.7112503,0.36579007,-0.50562775,-5.0,-0.6388869,4.243745
2.337634,2.6139894,-5.0,10.0,5.0,-4.154151,-5.0,-5.0,5.0,-1.0641935,-5.0,-0.5976328,5.0,-5.0,-0.22408694,-0.45367214
4.859849,0.97154707,1.9468727,1.9001738,5.0,2.2010329,-4.643605,5.0,-0.06140697,2.9016647,-5.0,10.0,5.0,-5.0,4.905201,-3.325491
2.0954685,-0.8123502,3.7785633,0.60090077,5.0,0.77573633,-3.1912134,-5.0,2.4216096,5.0,-5.0,-1.9932865,2.9722555,0.14274049,5.0,-0.14796923
-0.11952311,-1.1524775,4.767504,-0.80347073,5.0,-1.9422104,-0.83822614,5.0,2.5216181,5.0,-5.0,-6.203388,0.8281701,5.0,5.0,-0.24989054
-4.38939,0.45323586,-0.34674692,0.18507034,5.0,-3.6074982,-1.6238128,-4.6523414,5.0,5.0,1.5432502,-0.97373205,-2.0238113,5.0,3.1459827,0.57812643
-5.0,1.162489,-5.0,-1.887279,-0.9197522,-1.1799756,3.3048944,0.35661718,3.9700873,5.0,-0.29752016,-3.4678445,-4.2149634,5.0,-4.440878,-0.28064114
-5.0,-0.75899744,-5.0,9.354561,-4.3638353,0.9833784,4.003646,2.592146,-3.1208062,5.0,5.0,0.19191876,-4.88739,5.0,-5.0,0.27054906
-5.0,3.4092565,-5.0,6.0366964,0.32673967,-2.0602162,1.8391958,3.6210508,-2.7340426,2.1118498,5.0,0.47470567,-5.0,-5.0,-4.4746556,3.5820515
-5.0,4.396389,-5.0,-1.1785151,2.5751023,-3.142613,-4.1831737,5.0,0.9209902,-5.0,2.6242056,-2.9347858,1.5071192,-5.0,-0.928982,4.805159
3.3426652,3.890053,0.33236122,10.0,5.0,-3.0335412,-5.0,-5.0,5.0,-1.646402,-5.0,-0.10253331,5.0,-5.0,0.8442936,-0.033899456
5.0,-0.52216554,-0.41698813,-0.22464283,5.0,1.6809629,-5.0,5.0,3.6858225,1.0977013,-5.0,3.2826734,4.0936627,-5.0,2.4684525,0.32182127
4.2890444,1.7917784,5.0,0.13099709,5.0,0.5696242,-5.0,0.49304748,0.38589436,5.0,-5.0,4.1168118,-0.20324278,0.36187577,4.410469,0.392907
0.4206776,0.9568455,5.0,-0.41299337,5.0,2.3475726,-3.517483,5.0,4.2662044,5.0,-5.0,-8.082624,0.8274229,5.0,5.0,-0.089637056
-5.0,-1.7768935,-5.0,1.5828079,2.8245695,-4.2184668,3.4621253,5.0,2.5430164,5.0,1.6972609,0.71977234,-5.0,5.0,0.39149553,1.480326
-5.0,0.5603852,-5.0,0.32400447,-2.2362354,-1.4357849,0.45155704,-0.6810271,-2.444878,5.0,4.764553,0.5443961,-2.1367884,5.0,-3.9951925,-0.32142416
-5.0,-0.9637395,-5.0,-7.6549773,-1.0316241,-1.476948,0.34787953,-5.0,-3.3068542,1.9352717,5.0,-0.014683668,-5.0,0.8813052,-5.0,1.3607335
-5.0,0.29521084,-5.0,-9.281361,-0.64103395,-3.3061504,0.1916399,-0.59773374,-1.4340878,-2.4638987,5.0,-0.42787892,-5.0,-5.0,-5.0,3.5792756
-5.0,2.252884,-5.0,-8.907445,-0.7772028,-0.9518608,0.45264423,1.3861902,0.80438066,-5.0,5.0,-0.24435662,-3.65165,-5.0,-4.0782013,-2.718104
-4.560831,-1.1838503,-1.114347,10.0,3.813533,-4.487212,-5.0,-0.43236184,4.0327516,-5.0,-2.3738182,-0.6423272,0.9514178,-5.0,1.7934864,1.0712771
3.0283382,-1.1721642,-1.5068319,0.3221484,5.0,5.0,-5.0,3.3483863,5.0,-5.0,-5.0,-0.4250461,5.0,-5.0,0.052603364,0.40036017
1.4923905,0.23957941,1.794706,0.12172037,4.9692,3.4147716,-3.845761,2.0653887,5.0,-1.1178081,-5.0,2.4621902,5.0,-5.0,2.4002328,0.5273064
2.135573,2.1095889,3.4947927,5.3532734,5.0,1.7688837,-1.1006081,-3.0868993,4.9006205,3.8215141,-4.8523493,-8.423082,5.0,-1.3852527,3.7510242,-0.14473158
0.8467135,1.9424837,2.537347,5.3021727,5.0,-1.6062261,-0.9365581,5.0,5.0,5.0,-2.7544448,10.0,0.12380334,4.670842,5.0,-0.44173962
-5.0,0.2932949,-2.774472,1.0476112,0.09243518,-3.6354842,0.86345756,-5.0,4.472018,5.0,-2.3302078,0.980176,-5.0,5.0,0.06685543,0.7622194
-5.0,-1.5896937,-5.0,-3.2038803,-4.524586,-0.7862307,4.4937263,-1.6269809,-4.5303683,5.0,5.0,-10.0,-5.0,5.0,-5.0,5.0
-5.0,-2.0873637,-5.0,0.93050027,-4.9637775,-2.5957413,1.3944502,0.03480397,-4.9128747,5.0,5.0,-3.4621854,-2.9360414,5.0,-3.1437871,5.0
-5.0,3.5781865,-5.0,0.08084798,0.2982656,-2.4462824,-2.1912923,-5.0,-0.63842773,4.8490424,5.0,0.5031984,-1.8549874,5.0,-5.0,-5.0
-5.0,1.1601585,-5.0,2.320271,-2.0180483,-1.4721731,0.4154659,-0.22034553,0.1293906,-0.31133592,5.0,0.15557389,-4.3730726,-1.72712,-3.7445352,5.0
-5.0,4.8746653,-3.943912,5.3436594,-0.124721885,-1.787709,1.2631564,0.36879072,-0.0051515102,-2.838364,5.0,0.36813235,0.5423626,-5.0,-1.4441893,-4.658328
3.9386427,-1.6417146,3.278459,-1.2650596,5.0,2.4364438,-5.0,-0.33717036,5.0,-5.0,-5.0,-0.08923907,5.0,-5.0,1.0931375,-5.0
3.6473575,-1.684201,2.4086633,2.1504312,5.0,2.049272,-5.0,4.169693,2.750044,-4.089077,-5.0,-0.9077834,5.0,-5.0,3.7172024,2.304739
0.6459049,1.074789,1.1145115,-1.9774648,5.0,-1.801944,-5.0,2.9872994,1.738162,-0.6165389,-5.0,3.629078,4.876575,-5.0,2.0178618,-0.5123432
1.2309039,2.901147,3.5574126,-3.270998,5.0,-3.213855,-5.0,-2.1783042,-1.6082263,3.4865277,-5.0,10.0,-0.15890229,-4.7330217,4.511067,-0.10724394
-0.6876055,5.0,5.0,-10.0,5.0,-0.55740905,-4.4883275,5.0,1.9001477,5.0,-2.018861,10.0,-1.0031679,5.0,4.39083,-1.4937657
-5.0,0.36933824,-1.2401685,-0.5377197,0.5173473,-3.2957404,-1.2251885,-5.0,0.32898748,5.0,-0.68998116,-10.0,-3.6537402,5.0,-0.16323411,0.6311566
-5.0,-0.99691826,-3.699473,2.6794443,-3.0292437,-1.5728499,1.3350172,-2.5552585,-5.0,5.0,5.0,-1.2465091,-0.29440415,5.0,-4.894164,-0.55395865
-5.0,1.5800459,-4.149343,-10.0,-2.2265253,-3.8948128,1.7453954,5.0,-3.564153,5.0,5.0,0.8681203,-1.5028043,4.487315,-5.0,-4.9731464
-5.0,-1.7904768,-1.2550325,10.0,0.38467875,-3.8387384,2.0680666,2.1945639,-3.1233604,1.8114728,5.0,-3.9633632,-4.5997343,-1.9021904,-5.0,-5.0
-5.0,0.49114627,-1.7777125,3.3970118,2.8929834,-5.0,-4.7631574,1.2535515,3.5734496,-5.0,2.2127748,8.513734,1.1100106,-5.0,-5.0,-5.0
4.2977133,-3.6247625,1.2589465,1.3592782,5.0,1.8836441,-5.0,2.2934222,5.0,-5.0,-5.0,-0.5950022,2.433947,-5.0,-0.07119012,0.5010332
3.880831,-2.1460233,0.7746701,0.48649827,5.0,0.2973228,-5.0,2.934095,0.82229626,-2.9927697,-5.0,-0.31481284,3.3947825,-5.0,1.7436426,0.35714898
0.7985985,3.6099784,3.1863675,-0.18513861,5.0,1.1876991,-5.0,5.0,0.86085236,3.0627403,-5.0,-7.046295,1.1510468,-2.1669652,3.0883582,2.857393
-2.6549578,4.6790686,5.0,-0.8480461,5.0,-1.5952338,-1.5891118,5.0,4.6950808,5.0,-0.24573255,3.2052872,-3.0489473,5.0,1.8331336,-0.53586763
-5.0,-3.320183,-5.0,0.068584874,-5.0,-1.2606905,2.2701867,-1.2541945,-4.355135,5.0,5.0,4.6589026,-5.0,5.0,-5.0,0.25774074
-5.0,0.8407519,-5.0,5.53016,-2.2565248,-2.1120694,2.8901026,0.89066267,-2.424693,5.0,5.0,-0.73511636,-1.0234686,0.53919744,-5.0,-1.7966046
-5.0,0.65082204,-1.8539104,9.086349,-0.44868785,-2.8533773,-0.065986395,-5.0,0.042545736,-0.6385269,5.0,0.10228737,-3.1026335,-5.0,-4.5085297,5.0
-5.0,-1.2513155,0.70451516,10.0,0.31132567,-2.1623254,0.1934365,-0.22692798,1.5243145,-3.067788,4.3108435,0.07662932,-3.0463014,-5.0,1.1223028,-5.0
2.6487164,0.43906975,3.1129105,0.5799149,5.0,4.2167907,-5.0,-2.5647564,5.0,0.42928123,-5.0,-1.5345118,5.0,-5.0,1.3604832,0.21629548
2.4644284,-0.15569246,-2.2702036,-3.5625625,5.0,-0.44447374,-5.0,-5.0,1.3245406,-1.4362637,-5.0,-2.6034906,4.077077,-5.0,3.0089617,0.5712857
0.87455654,1.7292061,-0.16101897,-2.055189,5.0,-1.1939464,-5.0,-4.842488,-0.19106829,2.3088565,-5.0,-2.9170854,0.6363071,-5.0,3.3669932,0.8325788
1.1981333,5.0,5.0,4.5047336,5.0,-0.9829951,-2.2283158,2.547139,1.2216663,5.0,-5.0,-5.360156,-1.5547936,-3.2146883,5.0,-2.7018797
-0.014782667,1.311246,3.3843358,0.36135355,5.0,-2.3717265,-0.27707577,-5.0,5.0,5.0,-4.9656987,-10.0,-0.9400611,4.3485937,5.0,-0.070221946
-5.0,1.5274671,-3.4264007,0.28727782,-2.6761467,-0.8654187,5.0,1.8587819,1.5269058,5.0,4.703436,-3.7403178,-3.1367674,5.0,0.12068404,1.2294614
-5.0,0.9983012,-5.0,-2.5730724,-5.0,1.7620084,4.0379944,0.0010092482,-2.02743,5.0,5.0,10.0,-2.6047635,5.0,-5.0,-0.43815607
-5.0,-0.6447309,-4.3312044,-8.939724,-5.0,-2.7236466,-0.4313389,-3.080128,-2.0334845,5.0,5.0,-3.5619535,-1.29323,2.2226453,-4.815192,-5.0
-5.0,1.4044082,-0.6440811,-1.7792463,-1.0951195,-3.1456993,1.2930421,3.575698,-0.014911152,1.2348717,5.0,-4.216879,-1.9632082,-5.0,-5.0,4.6766734
-5.0,-1.1871845,0.20152569,4.751546,0.36927888,-3.682923,-0.40250993,5.0,2.4965928,-5.0,2.0559108,5.6281695,-1.8886676,-5.0,0.5670054,-5.0
0.36755276,0.63575685,0.7050619,-3.5629134,5.0,3.291061,-5.0,-5.0,5.0,-0.75758386,-5.0,0.34813863,5.0,-5.0,0.4462341,5.0
1.827557,0.48959935,-0.6676173,-1.4207605,5.0,2.3118625,-5.0,0.9909773,0.51799136,0.7095463,-5.0,0.09569979,5.0,-5.0,3.694069,-3.453144
0.08392459,0.6724112,2.2836804,3.6614184,5.0,1.4965124,-5.0,5.0,2.5131838,4.254989,-5.0,-9.837069,3.5441675,-5.0,2.6914196,-0.29459846
0.23838389,5.0,5.0,-2.6818502,5.0,-0.8269206,-1.0399637,-2.2309604,5.0,5.0,-5.0,-2.195465,-1.375784,2.8471105,5.0,-1.5695956
-4.1348505,1.5574758,3.18536,0.225601,4.449586,0.22924066,1.4272921,5.0,3.5820043,5.0,-0.39607573,0.6266781,-3.1503432,5.0,0.8008617,-0.68693525
-5.0,-1.0889239,-4.0776153,0.37955552,-4.7717466,0.5401195,4.313391,0.5103209,-3.2976394,5.0,5.0,-10.0,-2.4254632,5.0,-5.0,5.0
-5.0,-1.1288441,-5.0,-6.719959,-5.0,-2.6167436,1.6396284,1.9806168,-3.3032608,5.0,5.0,0.13158754,-3.0002189,4.1360893,-5.0,-3.89469
-5.0,-1.0164645,-5.0,7.059765,-1.5866125,-3.012382,2.3797219,1.6059496,-1.560894,2.780114,5.0,0.283904,-2.4140122,-4.658883,-5.0,-5.0
-5.0,0.5076108,-4.301679,5.058152,-1.3275564,-3.6158206,-1.0018139,0.33957133,2.3339999,-3.2188556,0.2837361,0.023929358,-5.0,-5.0,-1.3398422,5.0
1.3168217,-1.6282872,0.93146586,-0.15563107,5.0,-0.113640785,-5.0,-5.0,4.720148,-3.1784117,-5.0,-0.13542385,2.9642677,-5.0,3.754852,-5.0
2.7916572,1.2190886,0.5632893,-3.221765,5.0,3.2288163,-5.0,-1.2644784,1.8740426,-0.57391584,-5.0,1.69351,5.0,-5.0,1.3674409,-4.3282113
-0.12012923,1.2177951,-0.61434686,-3.7735572,5.0,-1.2380759,-5.0,-3.5571728,1.3971934,1.5018518,-5.0,-6.9186463,2.9462764,-5.0,2.9494376,-2.0956507
-0.302356,4.8559847,5.0,-10.0,5.0,1.103444,-1.424434,-0.35072505,3.1981082,5.0,-5.0,-6.2583885,-0.35551882,2.2263212,5.0,-2.2974167
-2.3164449,2.3397,3.856098,-0.18755105,5.0,-1.8606092,0.8207959,-5.0,1.1762335,5.0,-0.75960326,10.0,-1.8052465,5.0,2.7705026,0.23804152
-5.0,-2.1441593,-5.0,-0.41069862,-5.0,-3.4822128,5.0,-0.25149804,-2.1518803,5.0,5.0,-1.4756676,-4.448411,5.0,-1.7842398,0.43627453
-5.0,2.5677059,-5.0,-2.6312232,-2.4554136,-0.7489819,0.8443701,0.17565136,-1.0192256,5.0,5.0,-10.0,-2.8233047,5.0,-5.0,2.9215403
-5.0,0.44988394,-5.0,-1.1680052,-3.0300713,-3.331179,3.0302188,1.9352816,-0.29111212,1.2292852,5.0,-0.27655667,-4.9504833,-0.71446174,-5.0,5.0
-5.0,0.812752,-3.7330506,-7.4796796,-1.9822721,-5.0,2.3858008,-5.0,1.355335,-4.8269296,5.0,9.139299,-3.6612785,-5.0,-1.5264289,-5.0
-5.0,0.11735606,0.79848814,4.883525,0.4535861,-2.0449736,-0.95168877,-5.0,1.8237016,-5.0,2.718784,0.045596432,-2.1366546,-5.0,-0.2677006,5.0
4.920527,-1.2428412,3.0379868,-2.3547356,5.0,4.252401,-4.7928734,-0.07938538,1.0590312,-3.5685902,-5.0,0.11798483,5.0,-5.0,2.1277032,0.8568674
4.48065,-0.45224297,0.59460175,0.49753267,5.0,1.2789766,-5.0,0.7692149,-0.41389763,-3.2696872,-5.0,7.284644,3.7619586,-5.0,1.1951939,-1.0917647
2.4503403,0.12368381,3.7245755,4.000064,5.0,-2.8413332,-5.0,-4.2896547,-1.3316382,5.0,-5.0,8.447454,-1.1771208,-5.0,5.0,-0.56167316
0.6008823,2.8875737,-0.21430063,-4.6362386,5.0,-2.1587014,-4.488085,-5.0,1.8443937,5.0,-5.0,8.19046,-0.025156349,-1.963151,4.694343,0.552414
0.528414,2.9476955,3.7814713,-10.0,5.0,-2.761478,0.015119076,-3.7309194,3.2488327,5.0,-5.0,-10.0,-1.529048,4.7144227,5.0,-0.21675304
-5.0,1.3011783,-2.095583,-0.36745253,-1.2029115,-0.57801366,1.5875163,-0.14256786,1.6287677,5.0,-0.7059412,-10.0,-2.4699156,5.0,-0.7922301,-0.48122182
-5.0,-1.1602137,-5.0,-3.005599e-05,-4.4254484,-0.2109884,2.4710972,-1.7538418,-3.406025,5.0,5.0,-0.60332745,-1.7834213,5.0,-4.6332793,0.42967656
-5.0,2.9896286,-5.0,-4.256318,-1.624759,-2.1997833,-0.054308414,-2.2967243,-2.7683978,5.0,5.0,-0.025417648,-0.75484025,5.0,-5.0,0.80046296
-5.0,3.5248694,-5.0,-7.301797,-0.23466384,-1.6297708,1.1898816,2.1053193,-1.8303051,5.0,5.0,-4.70693,-2.8175573,2.187932,-5.0,-5.0
-5.0,1.846765,-3.3509603,7.8872523,-0.41012228,-4.42748,0.2599268,2.5014086,-0.41271633,-1.7717242,5.0,-0.101132974,-0.74327236,-5.0,-4.088146,-2.4387872
-5.0,1.2218484,-0.71411896,5.1898375,2.1270509,-0.2880749,-1.2428446,0.04518633,3.1961288,-5.0,-1.6717894,-2.1055512,3.327079,-5.0,-0.53363377,5.0
5.0,-2.9104028,1.8853725,0.5912766,5.0,5.0,-5.0,5.0,2.7563672,-5.0,-5.0,-0.6788317,5.0,-5.0,1.8716543,4.005314
4.048665,-1.9458184,2.1050878,-0.53626573,5.0,5.0,-5.0,5.0,1.1823336,-2.2751698,-5.0,-7.5775123,5.0,-5.0,1.8706975,0.68504304
5.0,-0.43658197,5.0,-0.52160764,5.0,-5.0,1.1857834,2.0053709,1.5383947,5.0,-4.407421,-9.493294,2.2169008,-5.0,0.8127699,-3.1570132
1.8938255,-0.89889604,5.0,-0.03421623,3.282098,-4.924803,-4.314352,-3.1859407,-2.7706797,5.0,-2.7995024,-1.1774347,-3.8909185,0.96503484,2.628509,0.20973366
-5.0,0.27547622,5.0,0.29882282,-1.73376,-1.8592981,-1.488164,-3.9187407,0.40476555,5.0,-1.0069854,4.4964423,-3.5944352,0.7027798,-0.43124914,0.8625238
-5.0,0.8499539,-0.3790115,0.3184478,-3.4114723,0.686098,2.2531776,-0.09057733,1.4343988,5.0,5.0,3.7033024,-1.2132149,-5.0,-5.0,5.0
-5.0,5.0,-5.0,2.7316704,-1.3236296,-2.2024539,1.0992241,3.2066188,0.18232758,-1.3464589,5.0,-0.9451095,-3.8066635,-5.0,-5.0,2.5439236
-4.2134295,5.0,-3.9389448,-7.493121,3.506752,-2.241387,-5.0,5.0,2.0174942,-2.282661,0.17397185,-0.06690585,1.7494099,-5.0,-2.4533386,-0.73553157
4.3079247,-3.8648798,2.504696,0.48971573,5.0,-1.9182587,-5.0,-5.0,2.817339,5.0,-5.0,-4.8439484,5.0,-5.0,0.43406773,0.44005895
1.3187984,-5.0,5.0,-0.14087151,5.0,-1.4767225,-3.4350111,2.2499392,2.0705254,5.0,-5.0,1.9355865,5.0,1.8159809,2.7663999,-0.0075952746
-0.9070444,-2.8367858,5.0,-0.7459978,5.0,-5.0,-2.6110876,0.855844,4.8313923,5.0,-5.0,7.3508124,1.7601236,5.0,5.0,0.008070141
-3.4076295,1.5077641,-0.6563324,0.51806134,5.0,-4.443536,-3.1639507,5.0,3.607058,5.0,0.7843666,0.943512,-1.5795815,5.0,3.9481595,-0.9438952
-5.0,5.0,-5.0,1.3510664,-0.41941178,-2.1631804,1.0370086,3.187073,0.34557092,5.0,0.46847153,-3.6602526,-4.668602,3.8645403,-0.48388994,-0.6278407
-5.0,5.0,-5.0,8.610202,-5.0,4.5453005,3.5820646,0.9047318,-5.0,4.683906,3.9053144,-0.8024725,-5.0,-5.0,-5.0,0.30499554
-5.0,5.0,-5.0,-6.940543,-1.6781294,2.1782336,3.3966298,0.7335269,-2.0231943,-3.9588609,5.0,0.9253915,-5.0,-5.0,-5.0,-5.0
-4.157959,5.0,-4.3541737,10.0,4.7875023,-2.5919578,-2.181962,0.5613186,1.5181684,-5.0,2.9528193,-0.045001633,-5.0,-5.0,-0.33447546,-2.9065516
2.86582,-0.24354199,0.8517499,0.46075803,5.0,-4.71964,-5.0,5.0,3.9805768,2.9870248,-4.4136105,0.3301744,1.6763943,-5.0,-0.18426704,-5.0
0.8559207,-2.3218465,4.1269965,0.39998272,5.0,-0.5781714,-3.3109298,5.0,3.3436964,5.0,-5.0,10.0,5.0,-0.90310574,2.0204508,-0.35462567
0.5813123,-3.7258484,3.940006,0.44057724,5.0,-4.696508,-4.509091,5.0,2.1274219,5.0,-5.0,-5.459054,2.0703838,5.0,5.0,-1.4928064
-3.049633,-0.19173574,2.0736365,4.284884,5.0,-5.0,-5.0,-3.666126,2.959997,5.0,-5.0,3.8118823,-1.4049877,5.0,5.0,-0.41599086
-5.0,5.0,-5.0,10.0,-1.6264974,0.47568667,1.7596819,0.2392039,-3.1563344,5.0,1.0675313,-2.1171172,-5.0,1.790396,-3.8326833,-0.15638444
-5.0,5.0,-5.0,-5.3265944,-5.0,3.9107552,4.3250146,-0.067279354,-2.6918657,0.80894566,1.7297378,0.07094647,-5.0,-5.0,-5.0,5.0
-5.0,5.0,-5.0,10.0,-1.5409383,4.5686607,3.7121894,-0.8203529,-0.56663543,-5.0,5.0,0.71955866,-4.236442,-5.0,-3.8275154,5.0
-5.0,5.0,-5.0,-9.982519,3.5170784,0.41019756,2.5479207,3.8065906,0.8143674,-5.0,4.082662,-0.44586933,-4.832407,-5.0,-0.17900412,-4.761673
1.5170064,5.0,-3.5035932,-6.107184,5.0,-4.506215,-3.2259302,0.45387566,4.4401135,2.3509483,-2.3076355,-0.078221634,4.230311,-5.0,0.75364983,0.430982
3.6634064,-1.1514689,0.5375962,-0.23519005,5.0,-3.8532794,-2.8714652,5.0,2.9738746,5.0,-5.0,-7.706501,3.809412,-1.3038883,2.9332929,-0.8456113
0.4475736,-3.4082246,3.250962,-4.511282,5.0,-5.0,-3.294809,5.0,3.1415377,5.0,-5.0,10.0,2.6177356,5.0,4.291134,-3.6728652
0.16440189,-4.5333095,3.01945,0.31531212,5.0,-5.0,-3.5123403,0.7911202,2.1555219,5.0,-5.0,-3.3019469,0.5058489,5.0,5.0,-1.0190367
-0.8781929,-4.492837,3.4854124,0.04756936,5.0,-5.0,-5.0,-2.496276,4.5802855,5.0,-5.0,-6.461723,0.10773432,5.0,4.4291716,-1.0019033
-5.0,5.0,-4.488047,6.5463448,-5.0,4.209324,1.3021579,-5.0,-3.4878564,5.0,0.57828844,8.907569,-5.0,-3.1135666,-3.573809,1.1767565
-5.0,5.0,-0.5635295,10.0,-5.0,5.0,-1.3997351,-5.0,-1.3546557,1.379283,4.967351,-9.652104,-5.0,-5.0,-4.800756,5.0
-5.0,5.0,-1.3570976,10.0,-5.0,5.0,0.24984503,1.1334215,-0.43108422,-2.839006,3.6374931,0.012791999,-5.0,-5.0,-4.640849,5.0
-5.0,5.0,-1.2255625,-10.0,-3.504047,5.0,0.3654834,-0.2295588,1.7280343,-5.0,1.8639474,-0.219525,-5.0,-5.0,-2.9456477,3.4424577
3.7756872,-4.201852,0.2096557,10.0,5.0,-1.339449,3.9117515,-5.0,5.0,-2.9738286,0.34673363,-9.169325,-2.726136,-5.0,-1.1763015,-5.0
5.0,-5.0,-0.72127855,0.70707625,5.0,-3.8057241,1.7286991,0.4363488,3.2890334,5.0,0.15523124,-0.5503887,0.38947475,-3.9930243,1.3741506,-0.2937199
5.0,-5.0,-2.318531,-1.1795764,5.0,-4.9955926,2.8216262,-5.0,1.4077396,5.0,-4.961859,-10.0,1.9146488,0.41672763,0.53264344,5.0
5.0,-5.0,0.24980378,-0.54535717,5.0,-2.110623,3.735423,2.6373663,1.8912431,5.0,-4.6513705,-8.51748,2.8883786,1.399358,-0.14857265,4.2033587
5.0,-5.0,2.1372893,-5.500728,5.0,-3.0353868,0.114459634,5.0,3.275679,5.0,-5.0,0.14763641,0.38736224,5.0,0.06802839,2.0118427
-2.1175702,0.72260237,1.953421,0.0561592,-0.016258895,-0.16117035,0.5222837,-0.79710376,2.3312652,5.0,-5.0,-6.89793,-5.0,3.9917052,0.4949652,0.30477715
-5.0,5.0,1.839206,0.6571935,-5.0,5.0,1.4115187,0.20991136,1.3653991,5.0,-0.9638305,0.97643197,-5.0,-2.8549087,1.6941302,1.8355875
-5.0,5.0,2.136931,-4.5516224,-5.0,5.0,-0.64998144,0.22470438,-0.20174608,-3.9103284,3.7685626,-0.63200223,-5.0,-5.0,-3.7900634,-5.0
-5.0,5.0,2.6462646,1.3136405,-5.0,5.0,0.14639115,0.034852184,0.027603954,-5.0,1.6573813,-0.60826194,-5.0,-5.0,-2.0954633,5.0
-5.0,5.0,-4.548485,2.7113419,-1.8682137,5.0,2.0037138,-5.0,2.5458317,-5.0,0.8219327,-4.5509653,-5.0,-5.0,-5.0,5.0
5.0,-5.0,0.54375863,-2.499128,5.0,-3.4207227,0.4481362,-0.56257224,5.0,-0.71629393,0.9208007,0.18908891,-5.0,-5.0,-2.8555043,0.042254925
5.0,-5.0,0.090261936,1.5610074,5.0,-5.0,-0.08968425,5.0,3.2018557,5.0,-5.0,-4.2740417,0.5820737,-1.9655546,-1.3323824,-4.4439144
5.0,-5.0,-0.18566096,0.7038786,5.0,-5.0,3.8034983,-0.26501444,2.0020347,5.0,-5.0,10.0,4.773333,0.89268374,0.2952918,1.8587129
1.3393562,-4.7637014,0.38476443,-0.7676265,5.0,-2.680305,-1.0196278,5.0,4.6830783,5.0,-3.883171,10.0,2.31431,3.3143592,0.82727623,2.075229
-5.0,5.0,4.793954,-3.855986,-1.0799391,0.7898011,-0.40840226,5.0,2.8693857,5.0,-3.3086586,10.0,-5.0,0.45080984,1.808741,-0.5734761
-5.0,5.0,3.2559679,0.50349456,-5.0,5.0,0.78906804,0.5665746,0.9503569,4.964155,0.41450906,4.673053,-5.0,-5.0,0.22545335,-0.7250734
-5.0,5.0,3.4818926,5.9076653,-5.0,5.0,0.47920525,2.4655879,-0.8179049,-3.913815,2.9960935,0.22050278,-5.0,-5.0,-1.7184343,1.9188786
-5.0,5.0,0.4409843,10.0,-5.0,5.0,-0.6040524,-0.28248417,-1.0595572,-5.0,1.4413824,-0.5268595,-5.0,-5.0,-4.5297956,5.0
-5.0,5.0,-1.6913388,-4.6393776,-2.0025938,4.824793,-1.0227466,0.19763029,2.2023923,-5.0,-0.56207514,-1.311822,-5.0,-5.0,-4.6997995,5.0
5.0,-5.0,-2.4067883,-10.0,5.0,-5.0,0.3994944,1.5915277,5.0,2.4832077,4.5754523,2.415775,-2.4395802,-5.0,-0.13768688,5.0
5.0,-5.0,0.9493408,-0.09111053,5.0,-5.0,-0.41454852,5.0,1.8073761,5.0,-5.0,-8.363345,1.9859465,-0.10965446,0.5575981,-0.18793708
4.496846,-5.0,0.31342697,-0.5133481,5.0,-5.0,2.0563865,2.6164503,2.3424184,5.0,-5.0,6.845751,4.9687214,1.9772067,2.3808737,0.6337298
1.8008561,-3.7467537,-0.14272651,-0.24592517,5.0,-4.0396066,1.232577,-1.1769805,3.106599,5.0,-5.0,-10.0,2.192652,4.663771,1.2081714,0.43301788
-5.0,4.4847136,0.9823592,0.59545934,-1.1751633,0.57477176,1.0489986,1.1055305,-0.04015374,5.0,-3.8428736,10.0,-5.0,1.267335,1.43107,-0.014323972
-5.0,5.0,5.0,-4.0457335,-5.0,5.0,-0.29108942,-0.06078911,-2.5730522,4.8494997,1.8864133,10.0,-5.0,-5.0,0.56309813,-0.60168445
-5.0,5.0,2.8801246,-0.3110602,-5.0,5.0,-1.144143,-1.4162582,-0.9475496,-1.7090113,1.1470866,0.38840377,-5.0,-5.0,-3.249578,-5.0
-5.0,5.0,-0.5711349,10.0,-5.0,5.0,-0.07860899,0.83936924,-0.17920995,-2.3225212,-0.63165367,-4.18174,-5.0,-5.0,-3.5497239,5.0
0.7661501,-2.3400657,-0.275167,10.0,5.0,-5.0,2.021735,-5.0,5.0,-1.2658105,1.9095423,-10.0,-5.0,-5.0,-2.0036075,5.0
5.0,-5.0,-0.6241105,-0.13021104,5.0,-5.0,0.9039769,0.24304676,2.019684,5.0,1.5427207,-0.18504652,-1.6012784,-4.961551,0.66598976,1.6353815
5.0,-5.0,0.58979386,-3.5399306,5.0,-5.0,1.8154882,1.6135974,1.4962226,5.0,-5.0,5.3996572,4.851478,3.3925242,1.3463666,-2.565267
5.0,-5.0,0.6450361,-0.16036159,5.0,-3.6284282,4.0255713,1.503739,1.7650473,5.0,-3.6664562,10.0,4.7828665,0.42251718,0.5358741,0.30107677
2.3919854,-2.5591416,0.39252782,0.40128288,5.0,-2.2674215,-1.1548795,5.0,2.3179562,5.0,-5.0,10.0,0.621305,1.240246,1.3344561,4.391577
-2.2492433,1.167031,0.8949983,0.10838597,0.5845705,-1.5311276,-0.0127334,-1.7814016,4.140067,5.0,-5.0,3.1481092,-4.17118,0.83195686,-1.1362089,-2.5799406
-5.0,5.0,3.3242908,0.36044875,-5.0,5.0,-0.15977934,1.3567886,-1.0026879,3.8986092,2.5609832,10.0,-5.0,-5.0,-1.9928938,-0.13211419
-5.0,5.0,3.7682629,-10.0,-5.0,5.0,-0.539785,0.36667696,-0.7182908,-2.0415459,4.0858994,0.3013039,-5.0,-5.0,-2.8162303,-5.0
-5.0,5.0,1.5670049,7.670562,-5.0,5.0,-0.5437707,-0.4079621,-1.2207506,-1.8419493,1.376059,-0.4977543,-5.0,-5.0,-4.6725574,5.0
-5.0,4.406164,-0.60133076,-6.4744124,-1.9159609,5.0,1.1533786,0.17090699,3.0922592,-4.995425,-1.2348228,1.0167885,-5.0,-5.0,-4.782659,5.0
5.0,-5.0,0.3521949,-0.18455754,5.0,-4.891655,1.1307517,0.7301473,4.161561,3.643628,1.0744152,2.0138752,-3.5115697,-5.0,0.48465824,0.6213326
5.0,-5.0,0.5768027,-0.40859625,5.0,-4.221183,2.0564542,2.2318285,3.7705884,5.0,-5.0,6.949404,1.0986795,-0.49446905,-0.48462218,-0.009328261
5.0,-5.0,-0.28064167,0.42721915,5.0,-4.05513,2.4483714,2.3769553,2.2239056,5.0,-4.0313654,10.0,4.5549536,0.53896165,0.38014984,3.777358
3.6080594,-4.964106,-0.7857554,0.23994674,5.0,-2.9967794,1.3104978,3.103046,2.6361554,5.0,-5.0,7.0527487,1.7731459,3.3955896,1.2525305,0.39215344
-4.17214,0.9179392,1.5971286,0.306882,1.0762315,-1.1844599,0.053123236,5.0,2.6027195,5.0,-5.0,10.0,-5.0,1.8497236,0.9576173,-0.39816433
-5.0,5.0,3.7650852,-0.28545716,-5.0,5.0,1.5680878,-0.8755165,0.27886954,5.0,-0.06247884,1.295609,-5.0,-5.0,0.74565184,-0.58950937
-5.0,5.0,3.7690797,0.6350062,-5.0,5.0,-0.045736194,-0.41957968,-0.7852699,-2.6346123,3.0187964,0.36286458,-5.0,-5.0,-2.9868994,5.0
-5.0,5.0,0.70949036,2.95595,-5.0,5.0,-0.70189834,0.008858278,-0.8515698,-3.1632085,1.9217403,-0.6621057,-5.0,-5.0,-3.35185,-2.5168781
-5.0,5.0,-0.23051298,10.0,-1.754639,5.0,3.5396197,-5.0,2.852089,-5.0,1.6732943,0.86888456,-5.0,-5.0,-5.0,-2.043253
5.0,-5.0,-0.11188352,-2.2505174,5.0,-3.4756768,1.976524,0.12502712,4.9133615,1.1982448,1.743802,-0.3712673,-2.9785209,-5.0,-0.38386196,-2.492384
5.0,-5.0,-1.7800498,-6.4878974,5.0,-4.2043324,1.3099115,-2.1613715,1.6210345,5.0,-5.0,10.0,1.3099264,2.8611655,3.8999116,0.023391247
5.0,-4.7631664,0.48149267,0.12777133,5.0,-2.801763,2.891459,2.1343355,2.6663187,5.0,-4.739211,2.2568274,4.733151,0.563485,-0.21960676,-0.13252796
4.7725224,-2.4794953,-0.11810315,0.5119144,5.0,-2.1338387,1.1127937,-5.0,3.2240977,5.0,-3.4507108,-7.423482,3.3136477,1.3635975,0.15980232,-3.494994
-0.08012402,-0.045262218,-0.21729195,-0.013332058,2.2316535,-4.4402604,-1.0723071,5.0,3.0397894,5.0,-5.0,10.0,-2.6847162,3.9399958,-0.47633025,-1.5760744
-5.0,5.0,2.511615,-0.3855511,-5.0,3.8038301,1.5802945,0.29385966,-1.705874,5.0,-2.2553167,1.3431656,-5.0,-1.5489508,-2.2729757,-2.793828
-5.0,5.0,4.752866,0.32671413,-5.0,5.0,-1.4611351,-0.26186228,-0.8023963,-0.7624572,5.0,-0.10164915,-5.0,-5.0,-5.0,3.5470576
-5.0,5.0,1.6224766,7.565851,-5.0,5.0,-0.5046258,0.29128513,-0.55068874,-4.3076577,2.9185166,0.9181546,-5.0,-5.0,-4.3777266,5.0
-5.0,5.0,-2.022349,10.0,-5.0,5.0,2.1976292,-2.4359622,3.744577,-5.0,0.14504838,-5.37063,-5.0,-5.0,-5.0,2.116763
-4.76579,2.8928695,-1.4163531,-10.0,2.8236246,-1.0190657,1.6433244,0.26575306,2.8958707,-3.5154452,0.830488,0.14302723,-5.0,-5.0,-5.0,-3.2754545
5.0,-5.0,-0.83454144,-7.056487,5.0,-5.0,0.05890441,5.0,1.7780371,5.0,-5.0,10.0,1.8262528,1.1714337,2.8961911,-2.8385391
5.0,-5.0,0.17232591,-0.15102664,5.0,-5.0,2.2960305,2.9790902,0.6749182,5.0,-4.548199,-10.0,2.3536747,-0.14428616,0.05215773,-5.0
5.0,-5.0,0.05803716,0.51486605,5.0,-3.3690994,1.6425478,-0.9523251,1.5719411,5.0,-5.0,-8.490414,3.7799954,2.2077327,1.4325,0.62362623
3.8814747,-5.0,0.4941383,-0.32361174,5.0,-5.0,-1.1904066,5.0,2.350682,5.0,-5.0,-10.0,0.56696993,3.1245916,0.9929987,0.51700455
-5.0,4.4023366,3.8536267,0.47197598,-2.0150228,1.9490458,2.0564327,-2.4619493,0.088929534,5.0,-1.7994456,10.0,-5.0,0.03363186,-0.35763416,2.3530836
-5.0,5.0,2.616041,0.31716314,-5.0,5.0,0.065424085,0.31551644,-0.28144595,5.0,2.7390306,-10.0,-5.0,-5.0,0.4067769,0.45414633
-5.0,5.0,3.9111166,10.0,-5.0,5.0,-0.5107021,0.74764895,-0.8246316,-0.7090421,3.6857605,0.3764614,-5.0,-5.0,-3.4542432,-5.0
-5.0,5.0,2.7797236,4.500866,-5.0,5.0,-0.5043739,0.65947044,-1.0785382,-3.3750472,3.3212726,0.6695186,-5.0,-5.0,-4.9242086,5.0
-5.0,5.0,-1.1441704,10.0,-5.0,5.0,1.4077573,-0.055832192,3.7162786,-5.0,-0.34120557,0.4145163,-5.0,-5.0,-5.0,4.973075
-3.2888074,-1.0297579,-0.11655116,10.0,3.9166732,-0.5563123,1.1476377,0.09238952,4.103568,-1.3461896,-0.18976924,-1.4275885,-5.0,-5.0,-3.2156336,-1.0345145
5.0,-5.0,-2.348115,-1.4138627,5.0,-5.0,-2.7553003,5.0,0.6922187,5.0,-5.0,10.0,1.7480402,-0.75515985,-0.66374135,-4.797368
5.0,-5.0,0.1093725,0.16436005,5.0,-5.0,2.8733044,0.2849337,0.7378694,5.0,-5.0,6.2226176,3.1018324,0.9033308,1.384921,-0.49597424
1.9869659,-5.0,1.0643945,-10.0,5.0,-3.824855,1.1816477,5.0,2.851579,5.0,-3.288023,10.0,2.4174337,5.0,-0.7523104,-5.0
-0.8239695,-0.5375149,-0.6181569,-3.0308657,5.0,-2.4390767,0.10189062,4.433591,5.0,5.0,-5.0,6.847433,-0.10417616,3.8669963,0.23998132,0.30730847
-5.0,4.8251743,-4.1954956,0.538615,1.7520282,-2.389928,-2.8794188,-5.0,5.0,2.382259,-4.121866,9.802328,-5.0,0.38574725,0.07685447,2.2642124
-5.0,5.0,-5.0,-0.19714023,3.5068617,4.0124655,-0.62768817,5.0,2.4269834,0.7539994,-2.9987884,-4.1452584,-4.225414,-0.3531345,-0.7261684,0.022339933
-5.0,5.0,-5.0,-6.582724,-0.6628625,0.90248555,0.2556523,-5.0,0.9849716,0.25678527,-3.2964907,-4.058297,-3.036563,-3.3955956,-0.18568134,-1.0873368
-5.0,5.0,-4.8285966,-4.6558185,1.3838716,1.8254902,-0.09407908,5.0,2.2948198,2.0607002,0.48671114,0.9919461,0.79288995,-5.0,-0.82123435,1.0167102
-3.005,5.0,-0.68237126,-0.9253472,2.7083519,0.79820055,-0.66401833,5.0,2.5833845,0.2464881,-2.2370324,10.0,1.7496884,-5.0,1.7921368,-5.0
1.4931817,-0.6957195,3.9276972,4.8552685,5.0,-3.915638,-5.0,-0.028959751,2.825642,5.0,-5.0,5.008315,4.4345837,2.1983275,4.753564,0.020330742
-0.91030896,2.129979,5.0,0.37068418,4.8233356,-5.0,-5.0,-0.4442743,0.3118381,5.0,-5.0,-4.807282,0.27907324,3.5307755,4.3093843,-0.7133842
-4.7901,1.7039446,4.2583113,10.0,2.7099955,-5.0,-5.0,-5.0,-0.14601207,5.0,-3.8434076,1.0400472,-0.32895994,3.0904286,1.4640521,0.17906138
-5.0,5.0,-2.2046137,1.1753539,-2.5912466,1.8995807,0.6832258,5.0,-0.23643148,5.0,0.7259457,-10.0,-0.38139004,-1.4554238,-5.0,-0.27111834
-5.0,5.0,-5.0,-7.839966,-5.0,0.66956866,3.2591522,1.3316607,-5.0,2.6370454,5.0,0.23228751,-3.3474503,-5.0,-5.0,-5.0
-5.0,5.0,-5.0,1.0383315,-3.1011863,-0.61685073,1.3724471,2.7478862,-1.358314,-2.474702,5.0,0.08857539,-2.5207636,-5.0,-5.0,-5.0
5.0,-0.46852115,1.6994662,7.152211,5.0,-5.0,-5.0,-5.0,3.5519106,1.0548952,-5.0,0.029759228,4.1145377,-5.0,0.24580467,0.28767186
5.0,-3.4234402,2.8602734,-0.2929671,5.0,-5.0,-5.0,-5.0,2.0220132,5.0,-5.0,-7.3539386,3.9352958,-5.0,0.17663598,0.15469714
2.630144,-3.3602672,5.0,-0.2504907,5.0,-4.27475,-5.0,-5.0,0.36501837,5.0,-5.0,-6.6808786,3.5867064,-1.7218455,4.607534,0.15955208
0.6944256,-2.8784142,5.0,0.08748524,5.0,-5.0,-5.0,-5.0,5.0,5.0,-2.8311577,10.0,-0.08613682,5.0,3.9309983,-0.7418033
-2.8944669,0.013825953,0.29410183,0.3170419,5.0,-5.0,-5.0,-5.0,5.0,5.0,-1.6527326,-5.2528143,-1.3040454,5.0,4.438459,-0.23078723
-5.0,5.0,-5.0,4.4712486,-5.0,-0.15546235,-0.1896882,-5.0,-5.0,5.0,2.3061104,-0.95264053,-5.0,1.5158534,-4.2130527,2.8974383
-5.0,4.962602,-5.0,-6.2034264,-5.0,1.6701579,3.3363454,0.027764404,-5.0,-0.54840374,3.7884655,-0.94516855,-5.0,-5.0,-5.0,-3.7508788
-5.0,5.0,-5.0,-6.182079,-4.3442855,3.8419957,4.2325964,-0.9342273,-2.7812238,-4.633729,5.0,-0.83774227,-5.0,-5.0,-5.0,-1.0004334
-5.0,5.0,-5.0,0.5810149,5.0,-2.8295999,-3.4545963,0.20151113,4.6947107,-4.719706,1.6606469,0.68583655,-0.38768882,-5.0,-0.115834296,-5.0
2.118709,3.7856746,-3.957658,-3.5674303,5.0,-5.0,-5.0,-5.0,5.0,5.0,-5.0,0.16859877,3.8678174,-5.0,0.559417,0.20585167
0.3187449,-1.4401248,3.3145056,-2.0907407,5.0,-2.594263,-2.7638192,5.0,4.0150013,5.0,-5.0,10.0,5.0,1.8329136,5.0,-0.56497204
-1.1926568,-2.6527848,5.0,-2.923388,5.0,-1.4425882,-3.5539207,5.0,3.3264346,5.0,-5.0,10.0,0.8773576,5.0,5.0,-0.9367711
-2.3552873,-1.0840911,2.342599,-0.5137222,5.0,-2.8390887,-1.4196806,-0.99020076,5.0,5.0,-3.7938504,10.0,-0.20845413,5.0,5.0,-0.5729609
-5.0,5.0,-5.0,0.82819825,0.78796136,-0.6846311,1.4798961,0.44574517,-1.1522791,5.0,3.0355585,10.0,-5.0,5.0,0.9003767,0.1415497
-5.0,5.0,-5.0,-0.08372784,-5.0,5.0,2.4212716,0.5806552,-2.674004,3.0155354,2.3847117,3.2029777,-5.0,3.037692,-0.9312304,-4.606458
-5.0,4.722899,-5.0,10.0,-5.0,5.0,-0.05791057,0.5489262,-0.33789867,-2.3019342,5.0,-0.6481269,-5.0,-2.1087298,-4.4069147,0.66418266
-5.0,5.0,-5.0,-1.4179837,-2.0943973,3.547998,-0.030575573,0.4509869,3.5372968,-3.4687738,5.0,-0.4925667,-5.0,-5.0,-1.7594137,1.8494072
-5.0,5.0,-5.0,-0.82324064,5.0,1.4936658,-1.1336282,0.10444347,5.0,-4.1257577,2.8108451,-1.0707549,-5.0,-5.0,-1.2264146,-5.0
-5.0,5.0,-5.0,0.1768527,5.0,-0.50669014,-1.6158996,-1.2121705,5.0,-1.9851332,-4.3563156,-2.7440348,2.3538966,-5.0,0.45108426,-0.46332237
1.1638792,-1.3135765,0.70302844,10.0,5.0,0.91641665,2.6316638,2.5125558,-1.5179663,5.0,-5.0,-5.3008137,5.0,-0.6106961,1.0665926,-0.06899388
2.1386652,-5.0,1.1697544,0.22481827,5.0,-4.283368,-2.3744206,-3.5664787,-5.0,5.0,-5.0,-5.783761,5.0,1.9560213,1.5097412,-0.012962997
0.2980842,-5.0,1.4850304,0.22934715,5.0,-3.7835412,-1.0152413,1.7637489,-2.3206596,5.0,-5.0,-8.175125,5.0,5.0,-0.6255292,-0.31251803
-2.146066,-5.0,4.595936,-0.21800934,5.0,-2.5409412,2.2393913,1.4053044,2.6996436,5.0,-5.0,2.5059426,0.4698577,5.0,-0.48280215,2.7051773
-5.0,-5.0,5.0,0.66300213,-5.0,2.8317327,0.05702102,-0.6677756,5.0,5.0,-0.6420684,-0.30574256,-5.0,0.20704144,-0.227844,-0.61661494
-5.0,2.9315863,-1.7372141,-1.0897634,-5.0,5.0,0.26805627,-1.5070304,5.0,-0.46829128,4.7324734,0.45660353,-5.0,-5.0,1.4863367,-3.031466
-3.7792456,5.0,-4.7142267,-1.337213,-5.0,5.0,-0.7738416,-0.5528159,5.0,-2.9069455,5.0,0.87914217,-5.0,-4.985614,-2.6562302,2.998505
-3.3747902,5.0,-3.569817,1.5404127,-5.0,0.8054851,-0.8353946,-1.8263253,5.0,-5.0,4.168619,-0.09674292,-5.0,-5.0,-3.0787678,5.0
-2.5644708,5.0,-2.789865,10.0,2.5042386,-0.3422674,0.0146417245,0.23484373,5.0,-4.767383,0.9582552,0.09665613,-2.5245087,-5.0,-2.3111331,-5.0
0.22254038,0.3985036,-1.7740738,-0.52963334,5.0,-0.8371694,1.601672,-0.08374856,-2.262743,3.487523,-5.0,-4.029711,5.0,-4.3295565,0.76509607,0.3459632
1.2547147,-5.0,1.3839179,0.2845917,5.0,-4.584052,0.667512,0.08521843,-5.0,5.0,-5.0,10.0,5.0,2.6243749,-0.7921537,0.0006156862
-0.6689737,-5.0,3.854888,-1.0189811,5.0,-4.8210034,2.697494,5.0,-0.3383423,5.0,-5.0,9.089542,1.8015038,4.1381226,-1.247462,-2.65774
-5.0,-5.0,5.0,-0.3057832,-5.0,0.78951836,1.0053823,-0.31157127,5.0,5.0,-3.486012,1.7291431,-5.0,-1.5086447,0.206985,-0.4608534
-5.0,5.0,-3.6815133,2.9539914,-5.0,1.973935,-2.5567918,2.1120071,5.0,-3.5827436,5.0,3.1528654,-5.0,-5.0,-2.2309055,5.0
-1.4008749,5.0,-2.7239385,5.122301,-5.0,1.7633245,-0.81681824,0.33586213,5.0,-5.0,5.0,-3.4384167,-5.0,-5.0,-2.8484998,5.0
-2.53321,5.0,-5.0,-10.0,-3.3042748,-0.51668304,-1.3468568,-0.06989654,5.0,-4.226768,4.2824187,-0.8125847,-5.0,-5.0,0.6704501,5.0
1.8469459,-0.23436901,-0.9739132,1.8868874,5.0,-1.27587,3.7614877,-1.095931,-3.7093742,3.7307057,-5.0,-4.5469475,5.0,-5.0,1.2218227,-5.0
2.2988286,-5.0,1.8820161,-0.030039674,5.0,-5.0,-1.00227,-4.9590807,-5.0,4.9633203,-5.0,3.6745176,5.0,-4.591944,-0.5403336,3.8128507
0.22507256,-5.0,-0.14010155,-0.35125214,5.0,-5.0,-0.4095028,0.7017342,-5.0,5.0,-5.0,-0.82295537,5.0,0.14378692,0.72302693,-0.37486798
-5.0,-4.599758,5.0,0.059568375,-5.0,-3.977964,1.4204732,-1.8642284,5.0,5.0,-5.0,-10.0,-3.1330876,1.9930375,-0.30629587,2.8301172
-5.0,2.903998,5.0,0.4174103,-5.0,1.9338987,1.0366985,1.5264074,5.0,1.4562905,2.7652118,-4.345427,-5.0,-5.0,-1.0827398,-5.0
-5.0,5.0,-4.489489,-2.825767,-5.0,-0.33176064,-1.3570027,0.118573375,5.0,-3.3153925,5.0,-0.60015243,-5.0,-5.0,-1.6746682,4.732596
-1.8719554,5.0,-3.3813522,2.122894,-5.0,2.5597372,0.06762147,4.7522025,5.0,-5.0,5.0,0.6143331,-5.0,-5.0,-2.3199089,1.7773385
-3.175198,5.0,-5.0,-3.6055894,5.0,-0.03942263,0.33932817,-0.021097109,5.0,-3.6862998,-2.2419605,-0.38487124,3.585896,-5.0,0.5517926,-1.8175219
2.4124632,-0.89119774,2.6825364,-0.3597193,5.0,-0.9409249,1.4547808,-0.06203361,-2.8614907,5.0,-5.0,0.10181305,5.0,-5.0,0.03253579,-1.7238113
1.3872364,-5.0,1.784101,0.20051429,5.0,-4.8257685,-0.86530775,-1.6213815,-3.1030428,5.0,-5.0,-10.0,5.0,3.018746,-0.72150147,1.0799474
-3.4859605,-5.0,5.0,0.20110148,0.41068518,-5.0,1.8296344,2.794549,3.6477313,5.0,-5.0,-10.0,-0.49549198,2.5772357,-2.9760725,0.40875235
-5.0,4.438156,0.4898914,2.2161024,-5.0,3.4924836,-2.5495796,5.0,5.0,-0.23224883,3.9892728,4.3054013,-5.0,-5.0,0.64339435,5.0
-4.5476937,5.0,-1.6308136,-5.810433,-5.0,1.4694093,-2.0406783,-1.5986909,5.0,-3.3131988,5.0,1.1176403,-5.0,-5.0,-1.4546716,5.0
-2.2679346,5.0,-2.4646213,-3.7232723,-5.0,-1.3382888,-2.8377614,-1.6639502,5.0,-4.6227536,5.0,-2.2254596,-5.0,-5.0,-0.4043734,-0.22789383
-2.3512266,5.0,-5.0,1.0303602,4.4363337,-0.8923991,0.6169581,1.1096863,5.0,-4.5504885,3.544917,-0.34536755,-1.2855643,-5.0,0.5062262,-2.6819134
-2.8612943,5.0,-4.7387533,10.0,5.0,-0.70446646,2.5754046,1.5856975,1.1904006,-5.0,-3.2533367,10.0,5.0,-5.0,1.5414445,2.8612878
3.3200808,-5.0,5.0,3.6809936,5.0,-5.0,-4.684643,-5.0,-5.0,5.0,-5.0,-1.6407586,5.0,-2.0400658,0.5152466,4.174746
0.9200059,-5.0,1.9640797,0.26791474,5.0,-5.0,-3.1662834,5.0,-4.14275,5.0,-5.0,2.9216483,5.0,0.039390326,-0.57029736,-1.8814554
2.328763,-1.3802612,4.2113614,0.4656499,5.0,-5.0,-2.1421957,5.0,-1.2535828,5.0,-5.0,10.0,5.0,1.3039335,-0.21821281,-0.4121872
-0.16800761,-1.6571026,5.0,-0.7184154,5.0,-5.0,0.03890747,-0.7305641,1.4915812,5.0,-2.3407764,10.0,-0.056716442,1.7240362,0.6639471,0.39345506
-5.0,1.4106798,3.7435098,-0.42456558,-5.0,0.24548268,-1.2087709,-0.6471754,5.0,5.0,3.0798302,-10.0,-5.0,-3.1495137,1.2797729,1.6107216
-5.0,5.0,-1.5992519,-1.0986977,-5.0,1.2471085,0.7035301,-0.13674375,5.0,-2.6055186,5.0,-1.3117964,-5.0,-3.3327308,3.2259912,5.0
-5.0,5.0,-0.3864615,1.4527225,-5.0,1.5012221,-1.9421071,-2.99553,5.0,-1.641985,5.0,-0.4405656,-5.0,-0.29088616,-0.7869234,4.468981
-5.0,5.0,-1.9291375,0.46727607,-5.0,0.44532847,-1.5518782,-0.27219084,5.0,-3.5576556,5.0,-0.4357208,-5.0,-3.7178383,0.50668335,-5.0
-3.7119112,5.0,-4.129774,1.6835802,5.0,-1.765741,-2.2547112,-1.2091167,5.0,-3.9857235,-1.0726812,10.0,3.4025662,-2.377469,2.380534,5.0
1.3668988,-1.721995,2.8798666,1.1412381,5.0,-1.3635863,0.11882877,-0.4503033,-1.8943928,4.8209257,-5.0,0.8036942,5.0,-1.8639178,-0.53264475,-3.9246833
4.4065475,-5.0,5.0,-0.6646197,5.0,-3.0004025,-0.6488508,4.2808514,-3.834091,5.0,-5.0,-5.376737,5.0,2.3053029,-2.5625305,-2.6412845
-0.9705821,-5.0,3.3287508,-1.1645472,3.4890034,-5.0,1.5677592,-4.0011015,0.6362066,5.0,-5.0,-10.0,1.3407105,3.8823888,-0.4967482,3.1850553
-5.0,2.529643,2.9742975,-8.730349,-5.0,3.3233914,0.6703516,5.0,5.0,2.325321,3.224185,-1.5717807,-5.0,-4.244195,0.47704434,5.0
-5.0,5.0,-3.2341075,-10.0,-5.0,0.9356619,-0.3170776,0.5164839,5.0,-3.3197622,5.0,-0.67211324,-5.0,-3.9881954,-0.66692376,1.4570352
-3.7099748,5.0,-1.2299232,-3.2029896,-5.0,-0.53344333,-1.8624274,-1.7856206,5.0,-4.4693847,5.0,-0.3024143,-5.0,-4.788657,-1.9747827,5.0
-3.844199,5.0,-5.0,-6.238417,3.9706714,0.58743566,2.2229886,1.7421746,5.0,-4.6007957,0.05205992,2.5458815,-0.3779592,-5.0,-1.950675,-1.8310349
0.41093218,1.9722798,1.8443955,-0.25790596,5.0,-2.2187343,2.7056055,1.1703608,-1.6378059,0.92372185,-5.0,2.523938,5.0,-3.779258,3.6720498,2.2125235
-0.41347408,-5.0,5.0,-4.4692993,5.0,-5.0,-2.534386,-4.040819,-3.2671964,5.0,-5.0,-7.0306525,5.0,-0.20385528,-3.438463,-2.6658218
-2.3386602,-3.8291547,4.1946936,-1.1019647,5.0,-5.0,2.917238,5.0,-0.74138737,5.0,-5.0,8.848999,4.02627,5.0,-1.9260641,1.4711381
-5.0,-1.6973159,5.0,-0.014777961,-5.0,-0.89826787,-2.8248057,-2.3621387,5.0,5.0,1.1629295,5.5567665,-5.0,-1.7069445,-5.0,5.0
-5.0,5.0,-2.04293,10.0,-5.0,1.4439627,-1.3668797,-0.3603276,5.0,-1.9435196,5.0,-0.20697191,-5.0,-3.7239232,1.9116861,1.9489331
-2.766079,5.0,-2.7217374,10.0,-5.0,2.7078552,-0.16640818,3.4023225,5.0,-2.7029767,5.0,0.34309512,-5.0,-5.0,-3.5858688,5.0
-3.4030473,5.0,-5.0,3.98985,2.7827744,-1.7764983,-2.7601023,-5.0,5.0,-3.6286678,0.6131912,0.50171167,-2.832835,-5.0,0.689631,-0.75710297
-0.39777112,5.0,-2.9867773,1.0046685,5.0,-0.89191663,1.838811,0.34687898,3.7984705,-0.41666353,-5.0,-2.2685018,5.0,-5.0,0.5519458,0.06628886
3.7166252,-5.0,5.0,0.33487627,5.0,-4.775145,-0.9533752,3.768731,-5.0,5.0,-5.0,2.2908578,5.0,3.5762043,0.25266194,1.498219
0.5439949,-5.0,1.3926251,-0.20916544,5.0,-5.0,-0.6666051,-3.924602,-3.5945263,5.0,-5.0,4.5323086,5.0,4.1024733,-0.9524077,-2.322799
-5.0,-5.0,5.0,-1.03901,-3.0854516,-3.919113,2.781941,-1.5057805,4.6403546,5.0,-5.0,-10.0,-2.280931,2.0903873,-3.6699414,-0.49651563
-5.0,-1.2498425,5.0,0.22427468,-5.0,1.0426042,0.19166213,-2.3486598,5.0,4.0848274,0.1900028,-6.968811,-5.0,-5.0,0.5019386,-0.02595377
-5.0,5.0,-4.6445312,10.0,-5.0,3.1311893,2.1948671,1.9809917,5.0,-4.263378,5.0,10.0,-5.0,-5.0,0.4443538,-0.85272837
-0.77385116,5.0,-5.0,-7.8751616,-5.0,-0.51435924,-1.0587211,0.637463,5.0,-4.874913,5.0,-0.12161946,-5.0,-5.0,0.017950296,-3.7944162
-2.0351496,5.0,-5.0,0.550782,4.407749,-2.3650396,-2.9387002,-3.6189618,5.0,-4.0468035,2.7908244,-0.8753027,-2.023097,-5.0,-0.39779854,-5.0
4.8953304,-5.0,4.4752417,-0.6965246,5.0,-2.9984806,1.861242,1.463975,-2.1194572,5.0,-5.0,1.5581644,5.0,-4.2756796,0.6591197,1.6432366
2.798767,-5.0,1.3019515,-0.98863244,5.0,-4.469829,-4.958251,-4.0591187,-3.610618,5.0,-5.0,9.7027645,5.0,0.073060036,-4.866637,2.5191188
1.0907542,-4.8718386,2.7295666,-0.5092373,5.0,-5.0,-2.0805306,-2.8762321,-1.1002938,5.0,-5.0,10.0,5.0,0.6766361,0.49528295,-3.1712809
-0.01217556,-3.1148472,5.0,0.86388046,5.0,-5.0,1.0874089,-5.0,3.80492,5.0,-4.993935,0.22057962,1.8497198,3.061986,-1.8443322,2.7226784
-5.0,-0.76922405,5.0,-0.009228112,-5.0,0.76117295,0.3614093,-1.5871668,5.0,3.0430512,1.4139503,-10.0,-5.0,-4.244507,-2.8372855,1.782188
-5.0,5.0,-4.088095,10.0,-5.0,2.4743242,0.13049066,1.5055048,5.0,-4.297513,5.0,0.019367695,-5.0,-5.0,-0.5029195,-5.0
-0.8581158,5.0,-3.8195896,-10.0,-5.0,0.61202663,-0.18616009,0.43801716,5.0,-4.6816015,5.0,-0.96273017,-5.0,-5.0,-0.2692222,-2.101168
-3.656622,5.0,-5.0,-0.24686855,-3.6950843,0.13336205,1.9816058,0.4185138,5.0,-4.3866935,5.0,-0.97586507,-5.0,-5.0,-0.037603617,-3.9518123
0.5889795,1.8526835,-0.54175985,0.2878187,5.0,-0.82495767,-0.054128885,-0.7181728,-0.08343387,3.9661133,-5.0,0.37583596,5.0,-5.0,0.8944032,-1.8019463
3.3460739,-5.0,5.0,-0.86807406,5.0,-0.5587635,1.3827884,1.7257667,-1.858938,5.0,-5.0,4.4807057,5.0,-1.2682939,-0.7228816,-0.2576235
1.4871047,-3.9726796,0.825994,0.5277827,5.0,-5.0,-2.3184319,-5.0,-4.5225143,5.0,-5.0,10.0,5.0,0.98869205,0.5755345,1.7835587
-5.0,-3.1080303,5.0,0.8323544,-5.0,-5.0,0.06166458,5.0,5.0,5.0,-5.0,-10.0,-5.0,1.3993196,-5.0,4.8566027
-5.0,5.0,0.6201713,10.0,-5.0,2.231075,-0.4383191,1.5811944,5.0,-1.1565353,5.0,-1.2722046,-5.0,-5.0,-0.5810673,-4.582673
-2.5029862,5.0,-2.9455142,10.0,-5.0,1.2644694,-0.83363116,-3.5564651,5.0,-4.7115703,5.0,-0.4557691,-5.0,-3.351875,-0.81730855,-5.0
-4.1118016,5.0,-2.211078,-10.0,-0.76040894,1.0153632,1.606484,0.08707212,5.0,-5.0,3.1118662,-5.402443,-5.0,-5.0,-3.3828106,5.0
-4.9099903,5.0,-3.4682324,2.784202,5.0,-1.5913093,-0.57525694,-0.31945807,5.0,-3.265635,-2.1363592,-6.4864335,0.74799323,-5.0,0.032848954,0.30181378
2.2853127,-3.6252425,3.8306072,-2.5372264,5.0,-1.1837251,1.9512626,-4.397786,-5.0,2.3583245,-5.0,3.4544978,5.0,-3.8352075,-3.1282654,-3.4494185
1.2651247,-5.0,0.080084324,0.59059364,5.0,-5.0,-0.58798957,-1.2348945,-5.0,5.0,-5.0,-2.094065,5.0,-0.45560485,0.27934688,-5.0
0.35696608,-1.1083206,0.69407046,-0.21849717,5.0,-5.0,-0.59613097,-0.20704734,-2.700975,5.0,-5.0,10.0,5.0,1.1194065,-0.2253139,2.4085093
-5.0,2.823565,5.0,-0.07623511,-5.0,-4.065911,0.12103081,-5.0,5.0,5.0,-5.0,-10.0,-5.0,-0.4093238,-5.0,-1.6285853
-5.0,5.0,0.75057745,0.41357914,-5.0,1.2377818,0.33386695,1.821382,5.0,-0.4568057,2.2722156,-3.3771706,-5.0,-5.0,1.5485642,-2.5906816
-5.0,5.0,-3.879511,-1.5009224,-5.0,4.1021476,-0.70389575,0.40170535,5.0,-1.1828952,5.0,1.584836,-5.0,-1.7302291,-2.9214644,5.0
-1.5642465,5.0,-3.965784,8.177156,-5.0,0.9099214,1.3812757,0.997397,5.0,-3.8579688,5.0,0.30278063,-5.0,-4.1777825,-1.9272516,-5.0
0.09744942,5.0,-5.0,8.219194,4.1274996,-2.2593195,-2.8454468,-5.0,5.0,-3.1513696,1.9150848,-2.1169038,-2.1578937,-5.0,0.1505549,-0.6697579
-2.9529696,5.0,-2.810681,0.5818755,5.0,-2.6795545,0.30099797,0.67287385,2.0788915,0.5886729,-5.0,-4.3913074,5.0,-4.9574866,1.4698133,-0.75149584
1.225071,-5.0,3.780267,-0.45168918,5.0,-5.0,-1.1718179,-5.0,-4.1480665,5.0,-5.0,3.190783,5.0,-0.7901176,-2.9721608,-3.5461721
0.63578403,-1.6403031,1.0903188,0.35892877,5.0,-5.0,-0.6020295,-5.0,-1.6434461,5.0,-5.0,10.0,3.8650851,4.101007,-0.09986043,-1.3961226
-5.0,5.0,5.0,1.0022987,-5.0,-1.1166984,-3.5087771,-1.277843,5.0,5.0,3.0417256,-10.0,-5.0,-4.7039995,-1.8826313,3.264681
-5.0,5.0,-0.1714288,-5.643631,-5.0,3.3147955,-0.61872673,1.8590285,5.0,-2.7856853,5.0,-0.09736782,-5.0,-2.772792,-3.0474977,-5.0
-3.5373733,5.0,-1.4617348,-10.0,-5.0,1.294393,1.5455985,1.8465714,5.0,-5.0,5.0,-0.33397895,-5.0,-5.0,-2.1816118,-5.0
-4.126513,5.0,-3.0035229,-1.438137,1.357271,-0.8229747,-3.148664,-4.772939,5.0,-4.694769,5.0,0.30265903,-5.0,-5.0,-1.1195668,2.68711
1.6680067,3.1079586,3.8722973,2.6607497,5.0,-0.32494783,2.9624527,-5.0,-3.1485624,3.6713204,-5.0,-10.0,5.0,-2.816333,-0.37100244,-3.6039357
-1.236431,-2.9479365,5.0,4.788411,5.0,-0.7619751,-1.6222104,-1.453865,-4.005869,5.0,-5.0,-4.656481,5.0,1.3686116,0.73905206,0.024439223
-0.6795752,-5.0,1.8113817,-0.0090824915,5.0,-2.5788078,1.9488792,0.9624804,-5.0,4.642598,-5.0,10.0,5.0,1.0653577,0.11056352,0.3622354
0.024639845,-5.0,2.8588903,-1.4464475,5.0,-5.0,0.28990644,-2.7776,-1.562721,5.0,-5.0,-4.9618716,5.0,2.8924844,-2.24332,-4.7138886
-3.60146,-5.0,5.0,-1.7296747,-0.14831746,-4.5714116,-0.48236883,-5.0,1.7744148,5.0,-5.0,10.0,-1.2109851,2.3749285,-1.6879218,4.998345
-5.0,1.0982878,5.0,0.017331982,-5.0,5.0,1.5830477,-0.41425666,5.0,2.3901882,0.9149478,1.526793,-5.0,-2.1874766,-0.88269764,-2.5321739
-5.0,5.0,-5.0,4.115717,-5.0,3.31009,0.54778385,-0.30923477,5.0,-2.3555875,4.8454194,1.881998,-5.0,-5.0,-0.3412516,5.0
-2.201497,5.0,-5.0,-10.0,-5.0,1.8125339,-0.5643158,0.6292408,5.0,-0.882281,5.0,2.1535137,-5.0,-3.7483785,-1.2938886,0.6840811
-2.1705625,5.0,-5.0,7.718341,-5.0,1.4002777,1.6110386,-0.29562923,5.0,-4.7929597,5.0,-0.0025468469,-5.0,-5.0,0.44366312,1.7047582
-2.5345283,5.0,-5.0,10.0,5.0,-2.3808987,-1.1090664,-0.26898497,5.0,-3.6465976,-2.5790768,2.8195097,5.0,-5.0,4.8121104,5.0
-0.20361449,0.56636107,-1.2809155,0.34900546,5.0,-0.7811469,0.8373585,0.80378985,-3.2725072,3.5643663,-5.0,2.638358,5.0,-5.0,-0.010382056,-0.16906577
1.306946,-5.0,4.853329,0.39004898,5.0,-5.0,-1.4501438,-3.006641,-2.6396134,5.0,-5.0,-9.253997,5.0,-2.0233183,0.2105619,0.35784614
-3.4440753,-5.0,5.0,-1.0444585,1.8194652,-5.0,0.56469536,-5.0,1.2829921,5.0,-5.0,-8.049353,0.67037314,5.0,-3.8700225,-0.39654142
-5.0,-2.1564684,5.0,-0.31511062,-5.0,2.0389683,1.4409691,1.7721131,5.0,5.0,0.58995116,-10.0,-5.0,-5.0,-1.6827956,-2.6378326
-5.0,5.0,-3.9266381,10.0,-5.0,3.9814785,0.559669,-0.45173854,5.0,-1.7507346,5.0,-0.39206323,-5.0,-5.0,-1.8735487,-1.6671736
-2.4242964,5.0,-4.564593,-1.0331526,-5.0,-0.7707809,-2.6272979,0.6795213,5.0,-4.570021,5.0,-0.102097064,-5.0,-5.0,-1.0617913,0.31095445
0.9336698,5.0,-5.0,0.38458923,5.0,0.5732596,1.7268339,-0.4938705,5.0,-1.6568786,-3.0592706,-0.9262841,1.2400738,-5.0,-0.27583098,0.33524325
-1.6158929,-4.6146197,5.0,-10.0,5.0,-2.9604335,-1.0442705,-5.0,-4.132828,5.0,-5.0,8.528405,5.0,0.59655654,-1.5566392,1.2901827
0.2684458,-5.0,1.3737595,0.30352524,5.0,-3.4027371,0.45135668,-3.782989,-1.843426,5.0,-5.0,0.02501607,5.0,3.8400261,-1.0494401,-0.21523313
-5.0,-0.062840044,5.0,-3.3028688,-5.0,4.6352806,1.7888474,5.0,5.0,5.0,-1.7840949,-7.7411356,-5.0,-3.7795672,3.6572993,3.6710072
-5.0,5.0,0.014119387,-2.6597872,-5.0,3.4089518,1.0998824,1.3897235,5.0,-2.2943945,5.0,-2.1091383,-5.0,-5.0,-0.053823948,5.0
-2.6877909,5.0,-0.8248873,0.08635812,-5.0,1.0620157,-1.9227595,-2.2496486,5.0,-2.1082926,5.0,0.43031287,-5.0,-5.0,-0.99221927,5.0
-1.3772932,5.0,-5.0,2.4393241,-3.519771,1.8687658,0.52911687,-2.4409904,5.0,-5.0,5.0,2.6189413,-5.0,-5.0,0.53932935,5.0
-1.7543266,5.0,-3.3371692,1.3059462,5.0,-2.0120378,1.4548862,0.3229736,5.0,-1.4270461,-4.6095324,-5.1486883,5.0,-5.0,1.8225646,0.4748378
1.4055858,-5.0,5.0,-2.3294575,5.0,-5.0,-1.9109766,-5.0,-4.943194,5.0,-5.0,10.0,5.0,2.329946,-0.9512569,5.0
1.6260202,-5.0,5.0,-1.581559,5.0,-5.0,-0.045707047,-0.18115687,-0.49858856,5.0,-5.0,-10.0,5.0,4.708704,0.06317806,-4.8213882
-5.0,0.5776541,5.0,7.0857368,-5.0,0.0992893,-2.7795858,0.9744277,5.0,3.3116884,1.3079643,-1.0245204,-5.0,-2.4767141,-1.5408287,1.7858624
-5.0,5.0,-1.0442102,2.8221443,-5.0,5.0,-0.9568057,-1.6010606,5.0,-1.1700995,5.0,-0.65401703,-5.0,-3.6752422,-1.8638957,-4.5666904
-1.3470936,5.0,-5.0,-1.3648014,-5.0,3.3350601,-0.5235944,0.6450868,5.0,-4.3908725,5.0,-1.0261538,-5.0,-3.2846458,-2.9977236,-0.5501547
1.4910114,5.0,-5.0,1.0797739,5.0,-1.9786454,-1.285644,-1.001937,0.044073343,-3.5867412,-3.6958756,-0.6031285,4.554824,-5.0,1.0783181,4.610875
2.8191862,-4.3776965,5.0,-10.0,5.0,-0.6777085,0.58359814,0.45008096,-3.6935587,4.6166677,-5.0,-5.198798,5.0,-3.064345,-1.2789271,-0.2993359
-0.6043081,-5.0,2.9344807,9.897671,5.0,-5.0,-2.3768132,-5.0,4.3300233,4.446383,-5.0,-6.1660547,-3.263661,2.5488446,2.132685,2.7448027
-5.0,0.16123152,4.844754,-0.9360414,-5.0,-5.0,5.0,-1.9174232,5.0,0.22321814,0.89448667,-7.4405155,-5.0,-5.0,-5.0,5.0
-5.0,-1.9184572,3.3242235,-0.9069087,-5.0,-5.0,3.8620481,4.9626203,3.213975,-4.4587474,4.51996,0.23777789,0.6732221,-5.0,-5.0,-3.2798834
-5.0,1.113824,3.0966573,0.182274,-5.0,-5.0,4.2806664,-0.18410566,1.8999709,-5.0,5.0,0.80698943,-0.37169266,-5.0,-5.0,-5.0
-5.0,3.6481085,-0.42094082,-1.3991129,-1.0972252,-5.0,0.04453045,0.23170444,-0.13590288,-2.9545965,3.3037972,0.6620299,-0.8863481,-5.0,-5.0,5.0
5.0,-1.443366,2.5417287,-0.6941215,5.0,-5.0,-5.0,-5.0,0.20138717,5.0,-5.0,0.17901048,4.274012,-5.0,1.6945319,3.9182107
5.0,-3.6063595,4.171572,-0.8975324,5.0,-5.0,-5.0,-5.0,-5.0,5.0,-5.0,-6.447496,2.5397983,-5.0,1.8459507,0.58550787
5.0,-4.6160116,4.8560896,-0.8260699,5.0,-4.5274224,-3.8737469,-5.0,-2.0971327,5.0,-5.0,10.0,1.0399269,-1.0277514,3.1705985,-0.5559692
-1.4696233,-0.52468896,5.0,-0.105944335,5.0,-2.0689094,-0.3890249,-1.4237683,0.6772125,5.0,-1.3752261,-4.8774204,-3.2628348,3.5691075,1.1269791,0.17862485
-5.0,0.5091723,-0.16816878,0.32825628,-2.3687582,-1.1105294,-0.32358187,5.0,-0.08710194,5.0,3.360122,10.0,-4.075169,-4.748424,-5.0,-4.4111996
-4.9803452,4.526856,-4.0754414,0.4505499,-4.7161055,0.16624117,3.0122104,4.063398,-3.37096,5.0,3.5245419,-0.060644053,-1.2673318,-5.0,-5.0,-4.510107
-5.0,5.0,-5.0,0.34897137,1.4104803,-0.95202094,-3.5507255,-3.6287777,-0.95335376,-0.9665854,1.5121167,1.7582926,-3.0408216,-5.0,-2.8433888,-5.0
2.3257833,4.8771343,-3.3767872,-2.9564652,5.0,-1.6597333,-5.0,5.0,3.876165,1.7587234,-3.1846921,0.6432177,1.7811449,-5.0,-2.2880015,-2.8399017
5.0,-3.4473987,1.7315118,0.6562708,5.0,-1.8261265,-5.0,5.0,3.1349976,5.0,-5.0,-3.5934198,4.1641874,-5.0,-0.40718913,-1.8356471
1.060467,-3.605292,4.563442,0.011956602,5.0,-2.7989721,-5.0,-5.0,3.591239,5.0,-5.0,-0.5024693,3.145207,4.8432364,4.658987,-0.11343283
-3.3775327,1.0728061,-0.9346113,-0.44625688,5.0,-5.0,-5.0,5.0,5.0,5.0,-0.82437533,10.0,-1.3821371,5.0,4.0074015,0.84475243
-5.0,2.8241637,-5.0,5.1394506,-2.5448005,-0.8400043,1.953911,-0.38998637,-1.277758,5.0,2.1573248,2.6922567,-5.0,4.67051,-0.73511314,-0.35238066
-5.0,3.134572,-5.0,10.0,-5.0,3.6005201,3.9780343,-0.44588524,-3.8641186,-1.7392178,5.0,-0.045250013,-5.0,-5.0,-5.0,5.0
-5.0,3.654586,-5.0,10.0,-1.0246971,2.774574,3.482604,0.6422938,-4.3601265,-5.0,5.0,-0.16074176,-5.0,-5.0,-5.0,-5.0
-5.0,5.0,-5.0,-8.052414,1.7758306,-0.07051254,1.2202607,0.10095754,-0.5302298,-5.0,4.9370027,-1.2768795,-5.0,-5.0,-3.558775,2.6879983
-5.0,5.0,-5.0,0.6801927,5.0,-3.7867172,-2.106631,-0.011083247,2.2279248,-4.5531607,0.67555994,-0.08008489,-0.8525597,-5.0,3.2346864,2.3154316
2.8142147,-2.7352948,-0.42517185,-0.8209615,5.0,-0.56914973,-5.0,5.0,5.0,5.0,-5.0,-4.993025,5.0,-4.3423777,-0.32890987,-0.21578434
0.51366365,-2.1340966,2.5121293,0.5292301,5.0,-4.801882,-4.279257,3.7628298,2.5830317,5.0,-5.0,10.0,5.0,1.498976,4.889355,-0.80846584
-1.8298566,-3.6549835,4.409895,0.055268344,5.0,-5.0,-5.0,5.0,4.0221744,5.0,-4.6806264,-0.7888425,0.35694432,5.0,5.0,-1.2025881
-5.0,5.0,-5.0,-8.117022,-0.92983496,-5.0,3.1720648,3.440921,0.1746751,5.0,-1.0020835,0.015544757,-5.0,5.0,0.020240784,1.9729168
-5.0,3.9836974,-5.0,10.0,-2.0841744,1.316893,0.8829949,0.65434456,-4.927461,3.352052,2.343992,0.4784316,-5.0,-1.1086096,-4.3248644,-0.19047959
-5.0,5.0,-5.0,9.412534,-3.5106902,2.8784792,4.64462,-0.5143459,-2.9937255,-2.7973077,5.0,1.0100791,-5.0,-5.0,-5.0,-5.0
-5.0,5.0,-5.0,1.1738236,1.8573546,0.8248682,2.8210692,0.4629162,-0.7081423,-5.0,4.492007,0.067177095,-4.681754,-5.0,-2.9135535,-2.4054124
1.67475,-0.19384718,1.1927934,1.9018855,5.0,-5.0,-5.0,-5.0,5.0,2.108685,-3.6798286,0.9911395,4.3711042,-5.0,1.490236,-0.60705924
3.0736613,-1.3315321,2.5699298,-0.4805139,5.0,-5.0,-5.0,-5.0,5.0,5.0,-5.0,10.0,5.0,-5.0,0.65348804,0.7224475
0.07622862,-2.1550639,2.600841,-0.57599896,5.0,-2.269222,-2.8122983,5.0,1.9939661,5.0,-5.0,10.0,3.5078042,3.4777427,5.0,0.47918472
-0.31977296,-2.7224746,4.753017,0.016861184,5.0,-5.0,-5.0,-2.6996233,5.0,5.0,-5.0,-4.9851313,0.22199345,5.0,5.0,-0.45157373
-5.0,1.4840312,-5.0,3.0431213,5.0,-5.0,-2.9858115,5.0,2.6565368,5.0,-1.8335606,-5.0152464,-5.0,5.0,0.5178317,-3.503792
-5.0,5.0,-2.9347653,-6.8050647,-2.6236234,-0.8259715,1.2315731,2.3366902,-1.2218584,5.0,0.9571916,2.1874099,-5.0,0.29970586,-2.3018672,-0.66677904
-5.0,5.0,-5.0,10.0,1.6877184,-0.0015085936,1.3746763,-5.0,-4.6377716,-1.8354586,5.0,-4.148195,-5.0,-5.0,-4.9239783,5.0
-5.0,5.0,-5.0,10.0,5.0,0.40097553,0.39156407,1.911721,1.0143884,-5.0,3.936722,-5.5948052,-4.151394,-5.0,-3.4072185,5.0
1.7639681,-1.2110125,-1.1541598,1.5230527,5.0,-5.0,-5.0,-3.365305,5.0,-2.5705376,-3.644095,0.98377776,2.4366589,-5.0,1.0019333,5.0
5.0,-5.0,4.02385,-0.6678779,5.0,-4.1700816,-5.0,-5.0,5.0,1.4064541,-3.7663393,-0.29511803,4.165533,-5.0,2.2068822,-2.0836592
4.0642524,-5.0,4.020296,-1.3176749,5.0,-4.9457846,-5.0,0.84176064,5.0,2.5251453,-3.5905242,-1.4355154,0.55808353,3.4696665,1.3376248,-0.51637745
2.7458124,-5.0,3.6384037,-0.27668926,5.0,-3.921761,-5.0,3.3851545,5.0,-1.6697696,-4.1032934,10.0,-2.2889116,4.952638,5.0,-0.17968273
0.59030694,-5.0,2.9589677,0.30495885,5.0,-3.016685,-5.0,5.0,5.0,3.137578,-3.2574377,0.49535054,-3.4517505,4.7806373,5.0,-0.45071048
-1.6355076,-2.3733244,1.9195162,1.1709702,5.0,-2.1452446,-5.0,5.0,5.0,0.094367266,-0.5716598,-10.0,-2.1044593,5.0,5.0,-0.36538175
-5.0,-1.9844402,-1.120023,-2.3476534,5.0,-5.0,-4.212156,-5.0,2.9441457,-0.91503525,3.574855,-6.0718975,-3.9430602,1.3146828,-2.2275002,-1.7194744
-5.0,2.1434333,-2.6095252,6.112684,-1.1026481,3.69248,5.0,2.3903801,-5.0,-5.0,5.0,-6.1091213,2.968337,-5.0,-5.0,0.21140935
-5.0,4.672858,-5.0,-2.3475456,-2.8399668,5.0,5.0,0.00019896682,-5.0,-5.0,0.4368546,0.61734414,2.4429178,-5.0,-5.0,1.9194874
-5.0,4.649495,-2.896476,10.0,1.5901365,5.0,5.0,-3.203913,-5.0,-5.0,-0.70134336,0.14047083,-0.22920454,-5.0,-5.0,-2.626941
-5.0,5.0,-1.6585107,-5.0640163,1.156598,3.6209972,5.0,-4.483445e-05,-5.0,-1.3381889,0.039415836,3.21572,-1.2913831,-5.0,-5.0,-5.0
1.3788577,0.0024421215,-1.4975264,-9.740332,3.1265855,0.80744624,1.983984,1.3167423,0.31947356,3.2962108,-0.49214947,0.4939206,-0.07787055,-5.0,-1.2821107,-4.2278147
5.0,-5.0,0.2554689,0.5475087,5.0,-5.0,-5.0,-5.0,5.0,5.0,-2.8898926,3.8661046,-3.556127,-5.0,2.7617726,0.29360422
5.0,-1.3434839,-0.64222676,-1.1067086,5.0,-5.0,-5.0,0.487813,5.0,5.0,-3.103302,3.5625477,-5.0,-1.3033766,2.2892175,-0.19999357
5.0,-0.53440547,0.7591208,0.29682058,5.0,-5.0,-5.0,5.0,3.7939892,5.0,-5.0,6.2674384,-5.0,3.0340514,5.0,0.7117749
4.2059627,1.3177012,1.0412958,2.349492,5.0,-5.0,-5.0,-3.589038,3.7384417,5.0,-4.8440866,4.87022,-5.0,4.9764843,5.0,0.14010553
-5.0,5.0,-0.25252813,-10.0,2.6292744,-2.2981753,1.3574177,-1.0580621,-2.1324482,5.0,2.5461872,6.9172573,0.44803202,5.0,-3.5022924,-0.108841494
-5.0,2.981073,-1.7255054,4.912794,-2.0189638,5.0,5.0,1.3984102,-5.0,-1.8304752,0.49058294,-0.045041487,2.3625019,-2.419023,-5.0,5.0
-5.0,5.0,-4.826033,-2.8229513,-1.147562,5.0,5.0,0.1138618,-5.0,-2.9054575,1.9730735,-0.22415672,4.056404,-5.0,-5.0,5.0
-5.0,5.0,-3.0171926,-4.389226,-1.6820593,4.649018,5.0,-1.2017981,-5.0,-0.10545707,-0.6574435,-2.6548753,1.3862884,-5.0,-5.0,5.0
4.923478,-4.1995745,1.7134488,0.55614513,3.5126448,-1.6128664,-5.0,5.0,5.0,5.0,-2.068699,-0.4481017,0.43594307,-5.0,2.7694304,-4.993901
5.0,-2.608071,0.67993015,0.41080517,4.902998,-5.0,-5.0,5.0,5.0,5.0,-1.2606819,-2.7956252,-4.268869,-5.0,2.6399364,-0.35427612
5.0,0.98355293,-2.7342565,-2.042063,5.0,-5.0,-5.0,5.0,5.0,5.0,-2.5059247,-2.121043,-5.0,1.5968734,3.8636591,0.4228899
5.0,1.1380043,0.44665653,-0.32770184,5.0,-5.0,-5.0,4.1699314,4.0663915,5.0,-2.733305,-2.116874,-4.667735,5.0,5.0,1.3025471
0.11738849,3.3195338,1.1110194,2.0939689,5.0,-5.0,-5.0,0.97652066,2.6364584,5.0,0.7351076,4.5327606,-1.8337072,5.0,5.0,0.41387114
-5.0,1.1944661,2.0568013,-2.0111666,4.26035,-1.9506938,5.0,-5.0,-4.112126,4.1085963,3.0184555,-10.0,1.5993485,4.424518,-5.0,-0.41243777
-5.0,3.7874267,-1.4544076,-2.938506,-3.221542,5.0,5.0,1.1887491,-5.0,-4.404497,2.4235902,-0.18911579,5.0,-4.624418,-5.0,2.3072135
-5.0,4.907388,-4.8616166,10.0,0.50775456,5.0,5.0,0.041756384,-5.0,-2.596589,0.6944816,0.2154856,1.5480356,-5.0,-5.0,5.0
-5.0,4.0753646,-1.5555534,0.22634876,-2.7879887,5.0,5.0,-1.4902508,-5.0,-1.5484897,1.3934314,0.21138501,2.8325636,-5.0,-5.0,-0.18766057
-0.6439905,-0.121154755,0.6679499,-7.150219,3.8744674,1.409808,1.346572,0.65391433,1.4549134,4.3930492,-5.0,-1.4226741,-0.46892762,-5.0,-2.3036776,-5.0
5.0,-4.598941,-0.46694338,0.5312192,5.0,-4.9632754,-5.0,-2.7155607,5.0,5.0,0.30495584,-0.2218948,-2.1371293,-5.0,1.7641814,2.5882688
5.0,-0.14235735,-0.53692746,-2.2861323,5.0,-2.8984582,-5.0,5.0,5.0,5.0,-3.2978225,10.0,-3.2223327,-0.7483679,0.06294048,-0.08474259
5.0,1.1495279,-1.9150114,-2.0041864,5.0,-5.0,-5.0,-1.4463787,5.0,5.0,-2.445033,-1.497817,-4.1886015,3.15516,5.0,-0.035460908
3.4301808,1.6886239,1.4476138,2.8147047,5.0,-5.0,-5.0,-4.113267,4.1536922,5.0,-2.5647242,-0.47154754,-1.7804732,5.0,5.0,0.6513349
-5.0,-2.6834946,1.7590038,10.0,5.0,-5.0,-4.4572186,5.0,2.4446988,5.0,-1.2181218,-6.5950346,-3.085981,5.0,-1.1684355,-0.3871327
-5.0,-0.6482943,1.5062797,3.164156,3.709485,2.2921402,5.0,1.51544,-5.0,2.680533,5.0,10.0,2.5986848,1.4079249,-5.0,0.6002772
-5.0,0.9172087,-0.93534803,10.0,-2.4167833,5.0,5.0,-1.3361385,-5.0,-2.4258485,0.022649646,0.55685323,1.9942584,-5.0,-5.0,3.084684
-5.0,4.5296645,-2.039468,0.7813323,-1.1756854,5.0,5.0,-0.21709085,-5.0,-1.2155893,1.5903057,0.5334162,1.8014967,-5.0,-5.0,-5.0
-5.0,2.5529532,-3.59291,10.0,0.35073245,4.8210664,5.0,0.08921081,-4.360339,-0.15247506,0.006444514,0.5368098,-0.22465038,-5.0,-5.0,5.0
5.0,-5.0,2.242009,0.18326482,3.257448,-4.2257233,-5.0,5.0,5.0,5.0,-0.38140142,0.5708376,-0.9158964,-5.0,0.8950274,1.9220948
5.0,-0.55784583,-0.7015281,-2.186426,5.0,-3.7957919,-5.0,-0.7886586,5.0,5.0,-1.0908326,1.730994,-3.584872,-5.0,1.5383399,0.73570585
5.0,2.4329805,-2.7262805,-10.0,5.0,-5.0,-5.0,-1.5288115,5.0,5.0,-0.17144048,-4.244475,-4.882314,1.4245799,5.0,0.2237711
0.2419138,1.6788654,-0.051873595,-0.17470562,5.0,-5.0,-5.0,5.0,4.918416,5.0,1.8534359,9.841276,-4.2836256,5.0,4.9312363,0.10031515
-5.0,-0.17295003,1.3868008,-0.3804368,5.0,-4.717592,-1.9231771,-1.838571,1.0234545,5.0,1.3567386,-6.851824,-0.47911835,5.0,-1.1015028,0.14970568
-5.0,-0.91594553,2.5395193,-4.0838113,1.5106915,5.0,5.0,-0.7438198,-5.0,-0.4136737,1.9125942,-0.94813406,-0.27241588,1.1754161,-5.0,4.0209117
-5.0,4.990615,-1.2656139,-0.082282946,2.504504,5.0,4.582912,0.046358727,-5.0,-2.237348,0.6097441,0.659702,3.6044633,-5.0,-5.0,5.0
-5.0,3.815134,-3.0151546,-10.0,-0.37616956,4.6287985,4.257274,0.16574652,-4.855083,0.59895515,-2.504192,-3.8013191,-0.21166182,-5.0,-5.0,-5.0
5.0,-5.0,1.799246,-2.407054,0.63803804,-5.0,-5.0,-5.0,5.0,5.0,0.1924392,-0.681253,-0.012699604,-5.0,4.8051457,-5.0
5.0,-2.4924545,-0.14033079,-2.2950296,4.6126137,-5.0,-5.0,-5.0,5.0,5.0,-4.2299623,-4.6725807,-3.0450778,-5.0,1.6217954,0.91473913
5.0,-0.013790846,1.6935639,0.17612715,5.0,-5.0,-5.0,-0.93865967,5.0,5.0,-0.55316305,-5.615433,-2.2054734,0.683887,3.7624514,-0.093588226
1.935917,0.38279724,-0.7892381,0.26991868,4.7180567,-5.0,-5.0,-0.37202168,4.3826075,5.0,-0.9851731,10.0,-3.9075751,3.8945098,5.0,-0.7920531
-5.0,0.97454464,-1.2489829,0.015490349,4.8606377,-5.0,-4.056367,-4.2706056,0.9470544,5.0,0.85347915,-10.0,-1.8116549,5.0,-1.8376416,-0.13891228
-5.0,-0.010298729,1.9552494,-3.1420894,-2.0043452,2.4067326,5.0,-3.9548721,-5.0,-5.0,1.5493895,3.5694225,-0.16196203,-5.0,-5.0,4.9397507
-5.0,5.0,-2.4594078,10.0,0.31111848,5.0,5.0,-1.0386975,-5.0,-4.0837345,1.226993,-0.36622256,3.0895796,-5.0,-5.0,3.0752373
-5.0,5.0,-2.2323632,0.6803616,2.088622,3.723368,3.665769,-5.0,-5.0,1.0855488,-1.0892425,2.9280777,-0.7649039,-5.0,-5.0,-2.5015185
