ancorasir/BennettWheelLegRL/experiment_data/2024-02-08_05-19-47/joint_vel_env0.csv
Joint_1,Joint_2,Joint_3,Joint_4,Joint_5,Joint_6,Joint_7,Joint_8,Joint_9,Joint_10,Joint_11,Joint_12,Joint_13,Joint_14,Joint_15,Joint_16
0.0,0.0,0.0,0.0,0.0,0.0,0.0,0.0,0.0,0.0,0.0,0.0,0.0,0.0,0.0,0.0
0.055160873,-1.4472207,3.2962327,1.9842464e-06,-0.4025009,-1.4201214,-3.2855706,0.0013229472,-1.6189573,-1.5140305,3.2687254,-6.484793e-05,-2.030758,-1.35677,-3.0233498,-0.0010956107
0.055160873,-1.4472207,3.2962327,1.9842464e-06,-0.4025009,-1.4201214,-3.2855706,0.0013229472,-1.6189573,-1.5140305,3.2687254,-6.484793e-05,-2.030758,-1.35677,-3.0233498,-0.0010956107
-3.713938,1.8884194,3.5909395,1.8324288e-06,-3.3251104,-3.223733,6.296587,-17.784737,-1.5325723,-0.30383438,1.426316,-3.1005535,-1.8627143,-2.8602219,3.240236,0.056268
-3.5237267,0.07558651,2.667963,-2.6020916e-06,0.5241816,2.9242578,1.9050374,2.891953,0.5714285,-1.5059905,4.486744,2.3968115,-1.4988872,-1.0320909,0.20833379,-10.647417
-0.76321965,0.86001873,-1.4631515,0.04000038,1.5281284,-3.4706151,-2.2804217,0.058591843,2.8357959,-0.45962617,3.4815538,0.009446226,-0.80476093,1.6250277,0.14737904,6.562297
1.7258695,-2.9066353,-0.13070339,8.979776,1.3264799,-0.74455583,-0.9462378,-0.011728227,0.8122353,-1.3900063,-0.17991841,-0.041016214,-2.3546503,1.2746663,-1.8160503,5.573742
-2.0253203,3.097618,-3.6467683,-26.332104,3.0134392,1.164515,0.14921436,-0.04621481,3.2374022,-3.4352913,-2.5319638,-0.030087292,0.31198928,1.2485358,-0.19648123,-0.03659849
3.4272401,-1.2011833,3.2639759,1.8920018e-06,-0.9716756,-2.2866192,0.2628925,-9.643287,0.9450401,-1.4430889,-0.3163252,8.250431,3.7642403,-3.3586154,1.1987952,-0.0009456356
-0.2979142,2.9290652,-0.012042291,1.3810086e-06,-1.8809395,3.0233047,1.308128,7.5148573,1.7568688,2.620989,-1.9418472,-8.1448555,2.8956087,0.34424633,-0.03551721,-0.03345757
-3.2875955,2.471312,-0.00020996109,-6.2473846e-06,-0.71679425,-0.3722375,-0.038352728,-2.5026522,1.022224,2.7013361,-2.6249313,-9.54904,-0.7658767,0.58754694,-0.017497286,0.012818765
-3.068654,0.39483413,-3.7341506,-2.2250926e-05,0.6325106,1.3551632,-0.9206301,5.617309,1.9922242,-0.26495123,-5.0166893,0.0029179957,-3.8352082,2.7932346,1.3314984,0.021313146
-1.5550519,-2.6256976,-3.542561,-1.28396605e-05,-3.4542289,-1.8311541,2.9416955,26.47228,-3.7309928,3.1981158,2.457469,-0.028857037,0.084756374,2.705576,1.9107964,4.5304317
1.730293,1.0598311,1.9061896,-7.7111583,-3.3706315,0.4500373,2.2261662,0.032850847,-3.3066843,4.21787,3.8833148,0.01908423,0.05827701,3.0798182,1.8188051,6.3491015
1.908366,-2.6528115,1.4450535,6.0927033,3.4517527,1.0766629,-0.5758259,-0.023271084,-3.1735415,-0.3028075,0.013992898,-0.0069416855,-1.4099023,-0.83948886,-0.830421,-3.003057
0.47848046,-1.5896208,0.31873155,3.2324686,0.24489233,0.68134034,-0.28126955,2.9307175,2.8517568,-3.5364697,-0.028809227,0.020981312,-1.2663971,-2.557,-4.0850296,-0.015045583
2.9904108,-1.9133718,4.3955092,0.00010701781,1.8752394,-2.9566078,-4.121854,-20.629978,3.0583622,-1.7283318,-3.8320804,0.14396554,4.1036634,-3.3285124,1.4751269,-0.099480554
0.16268702,1.6445158,0.2618777,4.1454823e-06,-0.46725285,-1.787176,-0.23620057,-4.536251,0.0360986,0.4320178,1.1781468,-2.1779037,3.5450475,-1.1607202,-0.051713377,-0.01899913
-3.312576,1.7477582,0.0064219497,-7.1189934e-06,-2.3135278,2.3427074,1.6828574,8.347794,3.1575108,2.4197993,-2.2937315,-10.598126,1.6245937,1.52937,0.024538636,-0.109913
-3.3615007,1.989485,-3.2646458,-1.5674686e-06,1.1246135,-2.71146,-1.7943329,-14.362204,0.4145396,0.9851104,-0.86132705,-2.3742628,-3.658554,2.298155,0.06465845,-0.023108281
-0.08521342,-1.8215712,0.037950575,13.327734,-2.1516223,-2.0463622,0.561862,-0.0150496885,-3.3525097,4.139893,3.8192613,-0.023435026,-2.99184,3.0846887,-3.511634,-0.0025962722
-2.275426,2.3765483,-3.8734293,-52.71263,-2.4350822,-0.9511933,0.114215374,-0.042047694,-3.5568194,2.0538554,-0.19629341,-0.06678691,0.22887245,2.31768,0.47659492,8.890202
0.45938307,1.9000367,0.44685435,-9.634293,3.3303864,0.39445528,0.37354785,0.021560095,-1.0861124,-1.1719288,-0.020180814,0.032444082,-0.9733418,-0.27985328,-1.7357991,1.2071626
0.11725144,1.9843733,-2.9927921,0.8439152,0.29637665,1.3254426,0.49157774,5.273756,3.2286515,-3.9213302,-3.653318,0.007431579,2.7921782,-3.443764,-1.1441629,-0.001671752
3.3122673,-3.2950578,2.856187,1.9499003e-06,-0.72040606,-2.3022463,0.8596022,-8.400569,-0.9808991,-1.8736825,2.225775,5.5203834,3.5797703,-3.2715023,3.0966976,0.004073575
0.9238911,2.4181051,-0.025214262,-2.1223823e-06,-0.49585688,-2.1745274,-0.25305384,-5.842403,0.49644494,-2.2577803,-0.10818347,12.162184,3.4965074,0.17417397,-0.11220172,0.028313112
-3.6220496,3.0303793,-0.022196352,2.0061401e-05,-1.2595624,1.5918465,-0.08860025,6.613138,1.3137989,-2.780366,-1.2051708,10.977519,1.6511029,0.8636664,-0.082922295,0.0054197684
-3.5369406,0.5157599,-0.31988835,-1.1938155e-05,-0.5203434,1.6528184,-0.4210124,7.8782024,0.21536282,-3.2427566,-0.5182827,7.904735,-3.9312403,1.3234456,-0.04491324,-0.009116754
0.024452254,0.3518137,-0.13030523,1.5095252,0.39528,-0.38361192,0.42160857,4.1836085,0.7496277,2.0794473,-1.2159905,-25.812244,-3.5846968,3.386589,0.008704327,0.023313858
0.47269094,4.9553437,3.1581612,5.3521347,-2.1453302,1.8097503,3.4410381,-0.13887209,-3.4057717,3.553275,3.5621192,-0.06292876,-0.51243156,-1.8960476,0.14743075,-6.3130255
1.3046477,-2.0642931,1.1714048,4.7957773,1.8174531,0.36224914,-0.003576234,-0.02586383,-3.3334632,0.4566479,-0.08464578,-0.027999101,-2.314476,-2.5609546,-2.8762217,-3.8134816
0.35542393,-2.6600416,0.51031566,8.277233,3.502345,-1.8034868,-0.09432608,-0.033115387,1.3764023,-2.281388,-0.022176176,-0.014897119,-1.2429157,-1.6578128,-1.9575114,-3.8754294
2.877732,1.2463081,-1.6861019,-0.6074296,1.4649571,1.5913743,-0.75157106,11.949692,2.7689404,-2.4215963,-3.4812968,0.0224835,3.0266335,-3.5696151,3.4722342,-0.0230935
3.2230313,-2.5908527,4.473733,0.00065135956,-2.6825008,2.122601,2.586444,14.34379,0.49774233,-1.8147182,1.496824,5.9403095,4.0792675,-3.588026,3.5330865,-0.028390365
1.193534,1.9108375,0.11136934,-3.185775e-06,-1.567673,2.099533,0.87458205,7.4363904,1.1707286,-2.147698,-0.26615524,11.602219,3.5213819,0.7357667,-0.11246081,0.017705515
-3.1652079,2.6236763,-0.00035902113,-1.0477343e-05,-0.65308654,0.59901094,-0.08130345,0.4149657,1.3205305,2.5244505,-2.8657665,-9.0398655,-3.2188246,1.4821072,0.0065464526,-0.016656827
-3.1287987,-1.8834795,-2.6178422,-9.072634e-06,1.274197,-1.8250138,1.9560757,19.337034,0.3534365,1.9577124,-0.86491233,-11.202972,-3.216764,3.8674583,0.015796427,-0.05889427
-1.2061642,2.293099,-1.3598908,-0.32084024,-2.8827195,-1.9138175,-0.08056581,0.008572929,-3.1788266,4.2378473,3.9862745,0.0073177703,-3.178791,1.7902088,-3.5399585,-0.014163021
0.3560179,0.5436673,-0.22258502,-1.5185802,-1.64313,-0.07793495,-0.063914835,0.006337015,-3.3131292,3.120329,-0.2539363,0.005889092,-0.5814278,0.21667281,-0.6670942,3.6037583
0.25065526,1.6914582,0.5550176,-9.584108,1.9912125,-0.50886595,-0.04063368,0.020227112,-0.8046338,-0.99576086,-0.223465,0.008743033,-1.0770421,-0.027197301,-1.9316437,1.9634103
-0.16190167,1.114236,0.17545605,-7.3852873,3.142553,2.072672,-3.4860523,0.01353072,3.6152713,-3.3240192,0.43368518,0.009938814,-0.082390204,-1.5445166,-0.40173116,-7.1339607
3.2808154,-1.9634782,3.3090222,1.9308109e-06,-0.3124041,-2.4060504,1.1008738,-6.805132,-3.3720624,-0.9624029,4.694197,-0.42987537,3.5346622,-3.8366463,3.6505089,-0.041282363
1.9914091,1.4227337,-0.015574992,5.439899e-06,-2.4041088,3.218453,2.2172718,7.269286,1.4231573,2.31399,-0.107112825,-9.978823,3.3369703,-1.1616272,-0.377178,-0.051369105
-0.54634976,1.5845747,-0.008980978,-2.3794018e-07,-2.080426,1.1981156,0.78050244,1.5931494,2.500563,3.1454217,-2.1127076,-10.985508,3.1784158,0.9827736,-0.11670627,-0.016536007
-3.3933263,-0.79868215,-0.006484757,1.2050377e-06,-0.07332924,-1.0190537,-0.5939483,-5.04218,1.625581,3.052866,-4.1746387,-27.178799,-3.5897923,1.2672994,0.25946563,0.04493461
0.76354,-0.8631573,0.23244184,2.8359253,1.4291174,-2.6843574,-0.91656554,-9.420948,-0.5946117,-1.1476052,0.28683385,2.9362214,-3.3190656,3.4433262,-0.0031569302,0.040544897
2.966739,-0.9416398,1.7236146,0.45858443,-1.511163,-1.4214442,-0.07148099,-0.0023034522,-3.2290614,3.7293656,3.568923,-0.003562436,-3.3148239,-2.4076192,-2.5953655,-4.864038
-0.62498504,2.0539367,-1.0536984,-6.811979,0.97337955,0.29842955,-0.74298215,0.016605616,-3.4410877,1.0018815,0.022784293,0.044140786,-0.11508566,0.70168394,-2.3391228,7.8291864
0.19940901,-2.7562733,0.017937183,10.083588,3.3697624,-0.5573454,-3.2435842,-0.032430775,3.5131779,-2.361733,0.27791804,-0.049943574,-0.6344579,0.4153737,-1.7620122,1.120213
2.9576616,0.14828986,3.566742,1.856491e-05,1.5108659,-3.0447412,-0.7148536,-5.0553036,1.6614307,-3.3422403,1.2761809,0.014102258,3.79263,-3.4414566,2.8994682,-0.01010377
2.4353225,1.7054558,-0.018841155,-2.4508663e-06,-0.16887607,-2.1181626,-0.2796418,-5.2687693,-0.56388223,-2.502373,1.1589859,10.645681,3.304658,-1.5920967,3.2984383,0.01298558
-0.74883854,1.5916286,0.007009864,1.5392863e-05,-0.7381395,-2.2462869,-0.12915036,-10.064614,1.8382643,3.1901464,-3.0754664,-9.453585,2.9231284,1.7052565,-0.20357257,0.026224397
-3.4112077,1.5923725,-0.022079535,5.26823e-06,-1.3420489,0.36191225,0.3170722,-0.15128076,1.8763008,2.935684,-2.8473988,-9.795697,0.85541016,1.4834983,0.045279972,-0.0056786984
1.4704936,-2.334964,1.3787107,8.655575,1.2577059,1.0276501,-1.1180391,1.607264,-0.73518014,-2.4889946,1.256441,8.732867,-3.203459,3.9359803,-0.050471067,0.010972673
-0.18544945,2.5522318,-0.9829799,-2.0361176,-2.3445582,-1.6243201,0.30482066,0.008022105,-3.539203,3.3735802,3.0680997,0.008237288,0.8212468,-1.7214032,1.5220517,-5.068878
-0.6018488,3.2934444,3.8930135,10.338566,0.36228088,1.6567695,0.09293887,-0.07693859,-3.6260777,2.6175635,-0.17215446,-0.10058553,-1.2451987,-1.7064928,-1.1855041,-2.79868
-0.62617266,-1.3703258,-0.6331248,9.897591,3.188271,-0.47976482,-3.470572,-0.064833626,3.0867746,-4.021965,0.004293978,-0.07511444,-0.37055862,-0.25024787,1.5746255,1.0751882
3.0292726,-2.3334668,4.203377,0.002556933,1.9394886,-2.9821541,-1.5075202,-4.6183925,3.700243,-1.708888,-3.66204,0.07311487,3.912142,-3.105892,-3.3650002,-0.03741426
3.2697213,-1.6720408,-0.039373137,-3.545314e-06,-1.5926278,-1.2106503,1.0838513,-5.562369,0.6413493,2.463478,-0.14052619,-11.641325,3.3141067,-3.3471165,3.3699899,-0.030900791
-1.5092903,1.7906653,0.0010868609,6.9549137e-06,-1.6442057,-1.4718083,-0.04716885,-7.1070905,2.527606,2.8555627,-2.6275105,-12.706927,3.2427714,0.88158536,-0.043728545,0.0019912142
-3.367799,-0.331592,-0.012875579,3.1475156e-07,-0.688432,-1.0295405,-0.49211967,-4.676686,1.7536901,3.4338713,-3.2691197,-10.712791,-3.5428557,1.1343442,0.12725633,0.028857362
0.016232997,-0.33110926,0.087406695,2.6703439,0.072098374,-3.5463538,-0.07376808,-1.7418461,-1.0387472,-3.1590889,2.7238083,1.4332602,-3.4356585,2.2746894,-0.014890432,-0.01678279
1.6998852,-2.6913073,2.2864132,5.924096,0.31698292,0.47465864,-0.028856277,0.0030249655,-3.608891,3.6305776,-1.5002027,0.0026287436,0.39996135,1.0680773,1.7615025,3.9132898
0.23530722,0.81461537,-0.23962581,-1.8685876,-0.60024047,1.054733,0.14935407,0.0070465365,-3.50585,2.869623,-0.13105151,0.009594799,-1.2856623,-2.3600712,-1.3815038,-4.640877
-2.0336714,3.2167497,0.2564075,-0.27655792,3.875279,1.9950548,0.7954564,-0.034685135,-0.16654393,-0.6381768,0.048627764,0.023410426,0.89376104,1.1677616,-0.14375408,0.19571526
4.0309496,1.3264472,-4.7771025,-0.00034999847,0.4634811,0.58013994,0.817907,2.5593073,2.7248874,-0.83244693,-3.604413,0.024591513,2.8924272,-3.5669932,3.4484189,-0.0295785
3.381909,-2.513599,3.2584672,-1.4297152e-06,-2.6827018,2.7624233,2.6963832,7.5167303,-0.14091052,-3.2033463,2.2932603,2.139367,3.5995986,-3.8788667,3.670401,-0.03777808
0.7506224,-0.78286576,-0.04623194,-1.9341842e-06,-1.2288756,-2.372375,0.1705373,-9.284312,1.6462361,2.741836,-0.5956626,-9.960354,3.283321,-0.17364153,-0.040635914,-0.022039505
-2.7103937,1.607365,-0.006010323,-2.135334e-06,-0.69095784,-1.3314534,-0.35320628,-5.0887017,2.5219297,3.6838295,-4.2971897,-21.520348,0.10221643,1.1918784,0.0043684505,-0.0030150265
-2.8993526,-2.1893668,-3.4713986,-8.493342e-06,0.42285898,1.6010184,-0.3919959,8.123533,2.47051,0.6183009,-4.837236,0.005195803,-4.3048487,1.5110521,-0.04183376,0.04676284
0.16750978,0.27154407,0.35529202,2.0730295,-3.2912583,-3.5418732,4.057738,26.23251,-3.2104235,3.505706,3.4577477,-0.0122076385,-3.5231888,3.7397084,-3.6199853,0.010500051
1.3507121,0.8667958,3.425525,-14.486732,-2.635405,0.8114904,-0.14017552,0.017660003,-3.227332,1.1094549,3.3271103,0.026143534,-1.682354,-2.1378927,-1.4547632,-4.104435
-1.8128735,1.6035557,-1.1673021,-13.316479,2.8931463,-0.18000937,-0.02659285,0.00027872622,-2.3176572,-0.53000486,-0.047681537,-0.018135108,0.984872,0.83127517,-0.53735375,7.5524225
-1.5105057,2.8126392,1.0328794,1.7934971,-0.43737364,-0.55914295,-0.9151484,2.155532,3.278165,-3.34364,0.33990973,-0.06224172,0.32595247,-1.4456794,3.481749,0.48888704
3.4479103,3.1158106,-3.9455347,-0.0006465912,2.516247,-3.0035284,-1.4422338,-4.0547004,3.153173,-1.2232752,-3.8398142,0.08719739,3.9193044,-3.2261422,3.3775182,-0.056087624
1.6758028,1.6312904,-0.027568694,1.1947286e-06,-1.668575,-0.9005514,0.5522888,-4.4960237,1.932884,1.6307344,-1.2587997,-5.29698,3.49609,-0.94534844,-0.21424451,-0.013090296
-1.1508931,3.37621,-0.0028794734,1.9090114e-06,0.5868152,-2.1180592,-1.4435954,-2.9945962,0.66032946,-1.7787576,-1.5797925,7.498333,0.6639724,0.6922917,0.0023760796,0.008964814
-3.552988,-2.6090188,1.3960494,4.470167,-0.10873556,-1.6980604,-1.2676644,-5.5061274,2.2981954,3.0121691,-3.7505827,-32.760437,-3.261673,1.1120176,0.046168037,0.09902713
-1.4839689,-1.2603854,-3.513373,-1.296178e-05,-2.9763207,-3.3760567,3.3554964,-0.0142020155,-3.1417327,3.3863952,0.7306192,-0.0053100316,-3.6315315,3.6996064,-3.523736,0.0054317787
2.7410603,-1.0322316,2.4952414,0.32574046,-3.2943196,2.2711792,0.00034269085,0.004194921,-3.2972221,2.5345798,3.4037127,-0.0013664216,-2.0540538,-2.2346225,-1.1238387,-6.1307516
0.44423074,-1.692678,1.0495019,3.7947693,1.0493218,0.7608294,-0.080148324,-0.035988055,-3.2496202,-0.35864863,0.046313204,-0.039422,-0.495015,0.5168896,-0.60642254,6.6204805
-1.9863522,2.1645238,2.480155,6.8341465,3.4319549,-0.8684273,-1.3231972,-0.054670773,3.6021152,-2.8332543,0.0856448,-0.06204751,-0.43155167,-2.071326,-1.6543685,-5.574567
1.2610745,-0.44912407,-1.3344879,7.2045374,2.2125683,-2.8886414,-2.1865058,-4.2824492,3.518363,-1.1862555,-3.1033814,-0.036993846,1.8546956,-3.4153748,-2.9965267,0.051668987
2.5892591,-0.010992587,-0.20269305,-1.00762845e-05,-0.9125723,-2.1609936,0.043089032,-6.7601194,1.170454,2.024589,-0.25517783,-8.008675,3.3409827,-2.672289,1.9387858,-0.020287417
-0.730346,2.095605,-0.0065680286,-3.0329193e-07,-0.4270087,-1.474558,-0.79707074,-4.9211817,2.2553983,3.229547,-3.0860085,-8.929852,2.9248097,0.6947402,0.009799,-0.0019564554
-3.2423553,0.9534024,-0.12399557,-8.21281e-06,-0.92710376,-1.7562218,-1.0785573,-5.6829486,3.0425475,2.806952,-3.004714,-25.85073,-0.020484135,0.9686827,-0.035093717,0.026072513
-1.2103503,-2.3518634,-2.48326,1.4708999e-05,1.8767813,-3.362699,3.3259797,-0.0017236283,-2.8575637,2.1154733,4.749394,10.92791,-3.518164,3.649615,-3.4633977,0.03226929
1.404128,0.37991714,1.3802685,-0.6908656,-3.3528001,3.2673838,3.126922,0.000738014,-3.4752204,2.6522374,3.36342,-0.015702505,0.4835543,0.29451293,1.221866,0.94537735
-1.3971648,2.266655,-3.449852,-34.65784,-2.0521836,-0.1708685,0.11091891,-0.0046105534,-3.2747805,-0.7009326,-0.23815249,-0.04713519,-1.0501075,-1.1185539,-1.1087525,-2.2195263
-1.872412,2.1988964,-0.87980884,-11.889224,3.3043318,-1.7202014,-0.7072847,0.010194376,1.4630793,-2.1825736,-0.020495012,0.021675348,0.094971016,-0.677574,-1.1143669,-0.8982148
1.3516495,-1.6371741,0.7974279,6.243118,2.6774583,2.4149568,-3.3487284,-0.07663241,3.2477846,-1.7356653,-3.0833077,-0.045429964,1.1964567,-3.3563464,-2.6053758,0.046007797
3.253821,-2.586971,4.881242,0.0015354156,-1.7889695,2.746739,1.8773466,8.352132,0.29187056,-1.0459812,0.6612408,2.5475104,3.652162,-3.4158275,3.044253,-0.01704374
-0.4967864,1.6321388,-0.008907769,5.80716e-07,-1.9109579,2.8896604,0.8383295,-0.20552826,2.4001145,2.475528,-2.1070051,-8.678027,3.3543584,1.0120174,-0.040973026,-0.01744779
-3.3209107,2.1333547,-0.018666282,2.8821103e-07,-0.61610377,-1.6751763,-0.82513726,-5.3334136,1.5384109,2.7905073,-2.4267178,-9.665464,0.25854018,0.6671181,-0.009468026,0.013979483
-2.1624475,-2.1177187,-3.5323458,-1.2381555e-05,1.0601159,-1.6870486,-0.8413124,-4.62767,-0.10762024,2.2555306,1.2626643,14.8718815,-3.5629287,3.4734561,-0.028386567,0.05048145
1.9520578,-0.81586814,2.4166436,2.1517088,-1.6941211,0.6061871,3.2939978,-0.001513324,-3.876036,3.454904,3.116601,-0.0025427972,2.1136937,2.2579322,6.110177,-1.9426333
-0.3167099,2.0721445,-0.24824333,-7.6286163,1.2963715,1.3010414,-0.020861387,0.02242968,-3.2852395,1.4536322,-0.019642785,0.024813935,-0.3434748,2.6772103,0.1909452,2.5421038
-1.139777,3.019588,-1.9405082,-8.3245945,1.1132896,-2.814312,-1.6792803,-6.615478,3.310668,-3.6343417,-0.0718506,0.023083009,-0.61982644,-1.405521,3.3704185,0.01519911
3.4330883,2.4552586,-3.3138654,-6.3197076e-06,2.1635695,-3.01866,-1.8474984,-3.8143926,2.7932973,-2.1653817,-3.662405,0.03506976,3.5833604,-3.4147377,4.0243535,-0.011721611
1.824968,0.17731857,-0.28587472,4.0322426e-05,-1.0871202,-1.3778406,0.3024118,-6.2820983,1.1868348,1.6801679,-0.9086468,-7.0783052,3.2939146,0.51233983,2.309482,0.0151131
-3.2692811,2.1674786,-0.04975061,-2.5087843e-06,-1.3190167,0.5443265,0.1339572,1.7377563,1.7622516,0.40056056,-2.0029795,0.3202542,2.030952,0.88982034,-0.012846196,-0.007618008
-3.3140361,2.2198431,-3.2006974,-1.80077e-06,1.2800546,-2.6729019,-1.8741305,-6.9632716,-0.123434365,-0.9932566,-0.4604677,6.132105,-2.925914,0.83987457,-0.033148177,0.016122106
-2.5614538,3.6585648,0.43922788,-2.7750015,-2.3448381,-2.0795407,3.3720436,-0.0603584,-2.9263942,3.5459888,3.5468128,-0.048555233,-3.5402443,4.138748,-3.9680607,0.04489986
0.6475661,-2.4557927,1.7361465,7.958865,-3.3957708,-0.3398442,-0.06554583,-0.039677378,-3.2253728,2.913203,3.5106626,-0.06943816,1.3504646,2.9449134,1.9035016,6.6476526
0.43144196,-2.2898395,0.7727989,8.34886,3.317152,0.10411915,2.4808135,-0.031690568,-0.9911692,-1.2219852,0.23552065,-0.03855559,-0.201554,0.44471526,-0.8668737,4.651866
3.2555768,-3.0460825,3.44242,0.098450445,2.9849434,-3.201645,-2.3242533,-3.2526093,3.7283423,-3.4037502,-3.0412972,0.028415948,-2.6027188,-3.404482,-2.1657214,2.0393696
3.5203247,2.0289392,-4.1167955,-0.00049877167,2.3945758,-3.0240989,-0.9587982,-4.400604,-4.2223067,-0.97650874,4.245663,-0.85765433,3.878575,-3.2250154,2.9416544,-0.05880061
0.25698864,0.22751877,-0.007883787,-1.3837009e-05,-2.453443,2.9024827,1.9971364,7.3588676,1.2643853,-2.739785,0.030843854,8.564166,3.1794913,-0.1978839,-0.10316056,-0.022540342
-3.345803,2.1793146,-0.012314998,4.49708e-06,-1.6664735,2.2073789,0.42417604,8.230449,2.3300233,2.7570612,-2.906348,-7.868223,1.5630467,0.9130733,-0.042481642,-0.030581739
-3.231451,-1.7162478,-3.3937023,-1.1162092e-05,-0.5156593,2.4081082,1.7543815,5.8229465,1.9912901,3.0256112,-2.7339706,-7.7840767,-3.5832477,1.9591321,0.1705415,0.0063034557
0.22939065,-1.66218,-0.019319117,15.101809,-1.7758347,-3.49547,-1.4547533,-0.027927399,-3.2233813,3.8799603,3.788392,-0.06723857,-3.0039008,3.8226848,-3.7379558,0.06336732
1.9278481,-2.2949948,1.7801305,7.7068796,-2.825937,-0.38570994,0.009442925,-0.0015266687,-3.225718,0.92593205,3.346018,-0.027848767,-0.909825,1.8758966,-0.04037881,9.265897
0.53724474,0.1778108,-0.22386238,0.40263274,0.9574004,0.48496568,-0.004404187,-0.0014996391,-0.22860931,-1.681669,-0.041955397,-0.009980634,-0.34574187,-0.61753154,0.0042752475,-1.2718854
-1.6095316,2.3438442,-2.3733416,-14.391584,3.4061496,-2.924341,-2.800709,0.0015415922,3.5476365,-3.195263,-0.07052132,0.012979247,-0.34721476,-0.59776807,-0.048965156,-0.65393984
0.06641677,0.1241281,-2.0804474,5.6256337,1.5113436,-2.5250468,-0.576632,-7.5958133,3.1155882,-3.143132,-3.31179,-0.020544667,-0.24368519,-2.7720442,0.82784176,12.124113
2.417328,0.44156438,-0.13984993,-9.011674e-06,-1.7513849,-2.2412894,0.4617659,-9.576326,1.5902402,2.4491744,-0.40644965,-8.877022,3.3461058,-2.4463599,2.0996284,-0.0066612917
-3.3650432,1.3702967,-0.029276803,1.7869934e-06,-2.066111,2.069351,0.6616622,6.5342565,2.5905142,2.7053936,-2.3242903,-8.998888,3.152915,0.47598526,-0.110073335,-0.033825934
-3.4119658,1.5197825,-0.06284666,-2.8525326e-06,-0.9862882,-2.1121874,-0.5209904,-8.128176,1.2934258,2.5941563,-2.0247815,-11.76462,0.73539776,0.66441226,-0.033255994,0.00775161
1.188049,-1.483418,0.3570938,7.1318164,1.4318247,-1.4605979,-0.5009749,2.1851418,-0.52328265,3.3944626,0.84508216,-11.058727,-3.551115,3.5490162,-0.059133165,0.0550121
-2.1469874,2.4786193,-0.6855162,-27.329926,-2.0404356,-1.5732367,3.5622048,-0.05729338,-3.4573953,3.8082528,3.6886477,-0.009971665,-3.23774,2.1286187,-3.5835238,0.019202156
-0.8394904,2.3708475,-1.8279543,-5.702201,-1.0697044,0.22375634,0.019374458,0.004631825,-3.3846571,2.0336342,-0.22319788,-0.0004446581,-0.33937976,2.2369864,-0.74336976,10.263608
2.3188696,-3.5114634,1.2870555,0.16861618,3.9569874,0.27885282,-0.354357,0.02538462,-2.5130532,-1.5519767,0.013849675,0.052253045,-3.0228825,-2.0487642,-3.0581603,-2.6548133
1.9704654,1.4229022,-2.9344645,-7.5914903,-0.052955404,1.8695804,0.56035817,8.799824,2.8812797,-1.9553037,-3.501923,-0.011741258,2.586816,-3.46615,3.4064093,0.007066317
3.4224925,-1.7144847,3.3519657,1.2875427e-05,-3.1166203,3.1237812,2.8256488,6.934333,1.816638,2.3797581,-0.35820937,-10.127001,3.3271933,-3.6588514,3.3837402,-0.027197823
1.5805404,-0.52600276,-0.07279734,-4.9750315e-06,-0.39575326,-1.9677885,-0.635792,-4.465289,0.628926,2.073286,-0.20339665,-7.6223583,3.3375504,-0.9691747,0.013806596,-0.011202242
-3.3964443,3.0012913,-0.013064809,2.3743378e-06,-0.36244988,-1.0063527,-0.27381635,-4.857692,1.6435773,3.6216986,-3.9715154,-12.069344,-3.4089053,1.162945,0.059429474,0.02053729
-2.3272328,-1.0313103,-3.4917808,-1.6744867e-05,2.1604228,-2.573429,-4.2819915,-25.049644,-0.89666265,0.0023917854,3.4013553,0.55567825,-3.4757829,3.14669,-0.06771079,-0.07485078
0.5849425,-0.638031,0.9593177,2.5267506,-2.616492,-1.2317274,0.8837031,-0.013714636,-3.4608037,4.078332,3.750668,-0.017230958,-2.4767222,3.3512201,-1.5603718,-0.0054962207
1.6950314,-1.2878668,1.5370758,0.30185175,-1.7914476,0.17224386,-0.022611797,0.0014104107,-3.4119258,-0.21506244,-0.014083097,0.001378325,-2.3679638,-0.9513447,-1.5953742,-3.7459588
-0.5940014,1.6703821,0.13326955,-7.852647,3.4231722,-1.2602372,-4.0000644,0.022157669,-0.51315176,-1.1063007,0.26443353,0.03127444,-0.35481787,-2.7739108,-2.27243,-4.358604
3.2210062,-1.2287343,5.387829,0.0018501282,1.2686391,-2.4818783,-0.6190113,-6.589418,3.4544303,-2.174554,-3.6014342,-0.0030976776,3.6996768,-3.3648598,0.847634,0.015357463
3.3156264,0.54154634,-0.006730235,8.874613e-07,-2.573939,2.3868194,1.8331605,6.916019,1.4396144,1.5342122,0.19123733,-6.978504,3.2471573,-3.4783225,-0.031174839,-0.039379876
-3.274094,2.5279934,-0.003266687,2.0669588e-06,-2.608064,3.2696004,1.6561587,8.349846,2.5801976,0.43798465,-2.265738,1.5792824,3.1408923,1.2613314,-0.04595147,-0.014080308
-3.292323,1.0456104,0.056078993,-1.9202619e-06,-0.39614964,1.5844276,0.24003887,4.005737,0.37065884,1.3875892,-1.603767,-7.0131087,-1.697888,1.58367,0.0102006495,-0.03497501
0.15735471,0.393325,-0.6222284,-0.4132648,-1.6484793,-1.121268,4.134757,-0.100812435,-1.3284829,3.1620667,-3.6205826,0.008231567,-3.708362,3.393014,-1.8747144,-0.0008675754
-1.7362013,2.183068,-2.238485,-17.09655,-2.9524543,-1.0873954,0.036440317,-0.008734912,-3.385645,-0.05978498,3.163971,-0.016818352,1.6103272,2.1621625,3.086713,7.015294
2.3929865,-1.9839852,2.2034287,3.054726,-0.337976,1.2903125,-0.26764572,-0.014606476,-3.416289,-1.2799743,-0.036518946,0.0043521076,-1.9266403,-0.6919513,-1.0163355,-1.2667109
0.08567792,-1.0221448,-1.0512656,7.006994,3.3628907,1.4039612,-1.9414606,-0.033236418,3.3436644,-4.2179446,-1.2424266,-0.029836044,-1.4691906,-2.99751,-0.9608849,-17.958858
3.6800718,0.7836111,-4.250611,-0.0005941391,0.70730036,1.8424875,0.5213244,11.163274,2.8314874,-1.093303,-3.6221972,0.08101351,3.668582,-3.3795903,0.7943108,-0.07696905
2.7338436,-0.4872699,0.057404265,-1.7133266e-06,-1.5350567,-0.99768543,1.0494455,-6.5049944,1.6997291,2.4693828,-0.7495109,-9.445912,3.698156,0.5863304,0.0045645237,-0.008974381
-3.3652155,2.0976365,-0.024700057,1.975579e-06,-1.2090216,-1.8147621,-0.5660363,-5.8467693,2.1053867,2.670726,-1.9615631,-8.792301,2.452846,0.945906,-0.062254515,-0.01381617
-3.355787,0.5025681,-0.07084775,-1.9652648e-06,-0.47747582,0.137027,-0.66191447,0.34961247,1.2778988,3.6045985,-2.7400038,-2.2532947,-2.5044625,1.5037777,-0.03573233,-0.013068776
-1.7443795,-1.1287282,-3.4955919,-7.896535e-06,1.704956,-2.7753391,-0.99890625,-13.28126,-0.73890203,-3.047596,1.0827624,8.629559,-3.384028,3.2721605,-0.041975487,0.06608109
1.0214702,-0.9805614,1.2262026,3.7057667,-2.2665727,-0.87094945,0.008314453,-0.00666429,-3.440336,3.7619555,3.4943023,-0.008704626,0.014502585,2.266334,0.5716051,8.955928
1.7009301,-0.36506945,1.2868686,-1.7682227,0.24414852,2.7221441,0.26475316,0.008253394,-3.3923995,1.1744103,-0.025300685,0.010594709,-2.2142603,0.31525546,-2.026915,5.9617496
-0.8646209,3.0744426,0.87674344,-13.584124,3.5245266,2.917146,1.8870444,-0.030040741,1.861986,-1.119213,-0.012901798,0.0073253512,0.035654157,-0.22483552,-1.9682646,0.07874471
3.0632014,3.0827696,-4.4214463,-0.0012054443,1.3540088,-0.07975802,-0.47049528,2.3070471,3.436691,-3.4114623,-1.2290989,0.037462983,0.25906053,-3.352004,1.7081776,-0.019380763
3.4533916,-0.4824721,-0.001320526,2.4236651e-06,-1.0400426,-2.0430245,0.8443012,-8.33705,-0.61645496,-0.6691311,2.112934,0.17394379,3.615105,-3.2845714,1.0621455,-0.012422554
-0.5622968,0.9282077,0.7972487,-5.973032e-06,-0.8248665,-2.1042025,-0.011485949,-7.8708644,1.3911574,2.714228,-0.8412857,-9.166657,2.80958,-0.6613261,-0.0032779574,-0.0024150163
-3.232312,0.3415504,-0.024694428,-2.169568e-06,-0.28057957,-2.3020177,-0.8948087,-6.140131,1.997874,3.4831176,-3.4138634,-8.82312,0.86949015,0.8901875,-0.008595478,0.003070794
-2.9281173,0.57629704,-3.644422,-2.4284967e-05,0.70811665,0.32851368,0.7463068,1.2795372,-0.4579435,-3.009643,0.88747627,9.895809,-3.3070228,3.0023897,-0.04488486,0.0030334136
-1.7438327,2.2311373,-1.5039933,-9.792374,-3.3720093,-2.8785114,3.370902,-0.0032385439,-3.5673206,3.6909983,3.6850166,-0.04169011,-3.5026774,2.0021017,-3.437759,0.027295692
0.77984375,0.23761609,0.6661626,-2.4582715,-0.45945534,1.9902987,0.1558115,0.008396684,-3.4503257,1.5971515,-0.21783143,0.009576949,-1.5343215,-1.2261076,-1.4242127,-3.0894625
-1.3083088,1.7740581,-0.4187194,-7.9250097,3.2497566,-0.4400205,1.0895268,0.02506036,2.749404,-2.4143028,-0.027192876,0.03251344,-0.23586132,-0.5562642,0.6324052,1.0148427
1.2750267,0.9649924,-3.3061948,0.7177934,3.0174363,-3.434211,-2.518812,-3.2009344,2.8273838,-2.2351615,-3.5322783,0.0051067597,1.8869262,-3.3080614,-1.0584232,0.003447188
2.86739,0.32457548,0.19146025,-1.4313157e-06,-1.6537745,2.5773847,1.3838005,8.293743,0.32604873,-2.6153321,0.81543136,10.220332,3.3961022,-1.0135893,2.761059,0.0145411715
-1.2021226,1.9827105,0.018232703,3.074278e-05,-1.4259304,-1.2657962,-0.12952852,-5.5880456,2.6546812,2.9302392,-3.0679328,-15.963383,2.9157782,1.5108312,-0.0888983,0.008109387
-3.3346553,-0.68398553,-0.05329609,-4.4658095e-06,1.2405562,-2.9741719,-2.1695745,-6.3204145,-1.0588667,-3.395104,1.0696725,4.4049892,-3.30781,0.83137506,-0.04853353,0.028031647
1.1359248,-0.5021413,0.9797338,1.2036902,2.6684282,-3.2057772,-3.6020513,0.010469506,0.23749271,2.0505214,-3.4637556,0.0141068995,-3.3397584,3.5082455,0.49567214,0.024041653
-0.4741621,1.574674,0.44746053,-18.39297,-2.6145396,1.340778,0.2302379,0.017397262,-3.0808012,2.6153812,3.4189901,0.021147752,-0.60915697,-2.089221,-0.49525994,-7.24306
1.6776994,-1.8003476,1.3466662,3.354575,2.5825984,1.0646918,-0.532203,-0.01676941,-2.0402853,-1.2629678,0.051111948,-0.00108747,-2.0241256,-0.94140065,-1.9821427,-0.3933469
0.46664226,-1.2099526,-0.14666414,4.1381454,3.4521773,-1.5681005,-1.528571,-0.022179514,3.721128,-3.4000182,-0.07049571,0.004987702,-3.2223418,-3.3131998,-3.4536076,-0.006292224
3.2915146,-2.8690817,4.1229815,0.0005159378,-1.6840127,-1.6602781,0.98923934,-7.1396174,1.9959495,1.7535806,-0.42398566,-5.0032554,3.8182585,-3.5536683,3.586737,-0.027294405
1.2338972,0.92331815,0.18479557,3.2162816e-06,-1.4830245,2.8729067,1.3191617,8.050268,0.69296825,-2.1429913,0.44596744,10.006799,3.5265753,-0.64253044,-0.007755583,0.025233667
-3.041315,2.5124698,-0.0057914183,5.060947e-06,-2.417242,2.7483962,1.5492808,6.484475,2.6232858,2.820262,-2.950468,-8.639219,2.8336961,1.1701789,-0.10637084,-0.049753733
-3.4667807,3.0852573,-0.00030690432,1.6236489e-05,-1.327966,2.6266503,1.0819209,10.558744,2.043858,1.9649012,-2.7814271,-4.3333316,-0.32724625,1.1778133,-0.007209163,0.0036784187
-3.246488,0.43652266,-3.3273563,-1.865294e-06,-0.5962312,1.3303037,-0.81206685,5.6692395,1.7673749,0.3486122,-1.30285,2.2888696,-3.4354196,2.7044523,0.38668853,-0.013742984
-0.32343572,2.178471,-0.77302736,-0.8232672,-3.3391168,-3.4320834,3.3624208,-0.0032207407,-2.7996018,3.8614879,4.1852455,-0.033264983,-3.3602016,3.7133558,-3.679148,0.0344941
-1.3610792,2.2894769,-3.2678442,-34.877388,0.2910269,0.9957582,-0.008552184,0.00095101446,-2.2552195,1.7926223,3.533816,-0.0141514465,-0.65681785,0.12301907,-0.59290683,2.1844735
-1.917717,3.6628602,-0.68203056,-5.7276344,3.3768106,0.050202176,0.35043815,-0.04780548,1.1523161,-1.4867468,0.018763036,-0.0017450042,1.0171348,1.583188,-0.80942196,8.329271
3.3410532,-1.6055205,3.0737152,-1.2638629e-06,2.127979,-2.8084855,-1.0662127,-6.510708,2.5561442,-1.8052144,-1.9991348,0.021125002,3.6213636,-3.378431,3.432193,-0.011671491
3.3245373,-1.5002296,-0.023569847,1.796263e-06,-2.2802358,2.7882247,2.302153,6.4615226,1.4120489,2.270695,-0.47193944,-9.779835,3.6736321,-3.433739,-1.1333276,-0.047043867
0.72950023,0.18821357,-0.004109498,4.098685e-06,-3.1069906,5.2518716,3.8988276,3.9045734,1.5704031,2.7951083,-2.2299464,-10.28496,3.299146,1.0026486,-0.083431125,-0.0162911
-3.7154534,2.234627,-0.020087361,2.6388443e-05,-0.20304093,-0.8607553,-0.98495686,-1.4818883,2.6477015,3.4193585,-4.886928,-29.655518,-3.7861793,1.0801995,-0.16950676,0.06016756
-3.112814,0.12009324,-3.4409056,-7.680939e-06,1.1535938,-1.504138,-1.3261044,-5.0705285,1.0416145,3.0765054,-1.3871489,-4.433118,-3.6303148,3.1795077,0.5621613,0.010271966
0.5408453,2.1486588,0.9798094,-7.6786547,-3.2052608,-0.8284579,1.3228384,0.0070762336,-2.4189322,3.9028957,3.795503,0.013077997,-2.6365275,3.1245785,-3.3931098,-0.017560603
1.3398606,-3.1107278,1.160006,10.539909,-2.3564494,0.12673706,-0.005462519,0.047138587,-3.605378,0.20989758,-0.7189714,-0.049341895,-0.9443029,1.5788794,0.111558676,9.210858
0.39715612,0.91086555,-0.476062,-2.744491,3.437307,-0.95340705,0.17264646,0.0015683058,-0.9487722,-1.4421642,-0.019670434,0.02132525,-0.31536758,-1.3184165,-0.9985162,-4.9877386
0.34612143,3.887267,-6.466313,-49.048622,-0.32417673,2.2754135,1.6600306,6.2189093,1.6213312,-3.1554208,-0.86036706,-0.044767365,1.8742709,-3.5237067,0.05311489,0.053714946
3.3810468,-1.7705543,3.1908412,-5.941465e-07,-1.1861379,-2.3425694,0.8504262,-7.196788,-0.12297398,-3.1248536,1.4900043,9.036766,3.7010899,-3.4741569,3.436034,0.011409976
-1.042042,3.20096,-0.030798785,-2.2774293e-06,0.09474325,-2.396486,-0.70040965,-6.8576517,0.9812238,-2.5878897,-1.6654274,11.245717,2.7627413,0.44616935,0.0016020536,0.0126745105
-3.419172,2.4707263,-0.008583961,3.963005e-06,-0.0006054044,-2.3847737,-1.187807,-6.7574306,1.4070172,3.1310024,-2.3834727,-9.515689,-1.996654,1.0830578,-0.0032263696,-0.020017423
-2.2206717,-1.5476766,-3.5165267,-1.42038225e-05,0.5260607,-3.3452365,3.16887,-0.013908925,-2.6738195,0.56619674,4.4684706,6.2534103,-3.646681,3.4223511,0.6832092,0.03360907
3.2719002,-1.4249614,3.1961777,-0.90860355,-3.3541422,-0.44591346,-0.088744715,0.0018427534,-2.835472,3.9669518,3.7451458,0.0075451946,-2.0676038,0.34259486,-0.5913627,1.1018384
1.5928715,-3.6297116,1.0123322,1.9440811,3.3458827,0.028128326,-0.07921374,0.035142735,-2.8901846,-0.8543333,0.08623403,-0.010270998,-0.8367657,-1.2842915,0.10675484,-4.657117
0.08073811,-2.125096,0.14769334,5.5466356,3.3563402,0.19632795,-3.1473157,-0.016272629,3.2483459,-3.4483767,-0.03328935,-0.009577269,-0.6618459,-0.47996247,-1.4226972,-2.1574848
3.3027925,-2.439592,4.7877507,0.0013370514,1.3923328,0.15644415,0.36235768,0.7222707,3.3635476,-2.493596,-3.639132,0.016630026,3.5645618,-3.258336,1.9434012,-0.0025822707
1.8827302,-1.4637803,-0.012364686,-1.9383966e-05,-1.6517202,2.6683445,1.3599548,7.4581623,0.99582934,-2.5064125,-0.21875265,11.8853445,3.4384532,-2.7213507,-0.84557104,-0.0016841218
-0.5125609,2.0506802,-0.03718409,-4.066714e-06,-0.08178264,-1.7628815,-0.8362179,-4.8918643,0.8042774,1.2140051,3.324,10.790385,2.2103589,0.9203248,-0.0013204273,0.0765514
-3.3841066,3.204552,-0.04354503,-2.3877556e-06,0.13395286,1.7572569,0.14901638,7.201996,0.0037275553,1.0047307,2.3404713,7.8051157,-0.40572065,1.0769287,-0.053229973,0.008769877
0.26198328,-2.6298785,1.72265,6.1031437,0.3621745,-3.201972,1.999836,25.417534,1.3824079,3.3288546,-1.9447737,-3.8342032,-2.5614088,3.8779316,0.06029427,-0.039658055
-2.639817,1.022222,2.300178,13.436393,-2.828672,-0.57066256,3.2920148,-0.036859512,-3.201138,3.845459,3.7795908,-0.028137948,-3.034024,2.3306334,-3.7326057,0.027508408
-2.8205044,1.9971268,-3.4718122,-43.066383,-1.8014569,-0.6581052,0.20405516,-0.013418831,-3.6186051,1.5361854,-0.3242209,-0.031011503,0.5928194,2.2313776,0.50651425,8.74713
-0.2479187,0.0026440024,-0.76582336,2.5844529,3.3385441,-0.03258375,0.15974915,-0.005622646,-1.6427586,-0.9555589,-0.03227394,0.00040149223,-0.5299901,1.5987092,-1.098568,0.1871954
0.53677857,-2.2748344,0.714973,7.4749126,2.8345585,2.4649796,-3.418811,-0.023161072,3.4029136,-3.4938524,-3.393521,-0.034437146,0.61619174,-3.396426,-1.4528254,0.03704807
3.0573363,2.1610727,-4.0426035,-3.691716e-05,-2.149438,2.516061,2.0651007,8.0838175,0.8490077,-2.913589,1.3202283,10.779055,3.179451,-3.7660413,3.4841683,-0.002557464
0.78557765,1.5906166,0.017638803,2.3955181e-05,0.27961725,-2.3033419,-0.80275,-5.8910937,2.2175784,3.8604012,-4.1436987,-14.871559,2.6997128,-0.1621337,-0.016017944,-0.000954628
-3.4028141,2.0793552,-0.025259376,5.1245406e-06,-0.94840467,2.5147796,0.55795133,8.532487,2.0364246,3.4186432,-3.952999,-8.330442,0.17000312,1.0495154,0.054006122,-0.029552132
-1.6490755,-1.868939,-3.5262372,-1.44768655e-05,1.6208616,-0.607372,-1.2513297,-1.0919591,1.7287717,2.0283258,2.7497356,1.8426828,-3.4235642,3.2495801,-0.032381177,0.011322978
-0.91153723,2.4113998,0.12909745,-3.3258834,-2.9811063,-1.6401006,0.76377416,0.0011491366,-3.8511062,3.8662043,3.8721745,-0.03158416,-3.174912,2.5850244,-3.6545663,0.030080019
-0.7880502,1.50141,-0.47111553,-21.534508,-2.2586317,0.1443481,-0.011340439,-0.0067685395,-3.4351358,0.23545122,0.00015225448,-0.01136855,-0.35164937,0.05627334,-0.34954086,2.7352006
-0.6444242,1.2857361,4.3796988,18.821491,3.1680136,2.1959457,3.6720047,2.8810043,-0.79948467,-1.1490173,0.04873874,-0.038754344,-1.7253138,-1.4018623,-1.455096,-13.385067
3.013553,1.4711688,-4.191704,-0.00044631958,-0.18039718,1.8822492,2.0330336,4.3004885,3.145944,-3.0524504,-3.3958347,0.009640902,2.9412296,-3.3210166,3.0962627,-0.009215616
3.3823035,-3.2471151,3.1336846,4.8026345e-06,-2.7603958,2.9503686,2.5537257,6.3572435,1.3299296,1.4166527,0.15326089,-8.6555805,3.790143,-3.4463568,-0.8787952,-0.072379485
0.66625196,1.555091,-0.0056179645,2.8153318e-06,-2.0305438,3.0394402,1.3189646,6.4195886,2.5548837,2.7659729,-2.2665138,-10.327331,3.0607817,1.443463,-0.15241814,-0.05070608
-3.554975,1.735657,-0.024197068,4.373862e-06,-0.52314806,0.1752561,-0.85749996,1.629578,1.51226,3.0182543,-2.5719175,-10.090448,-0.7330941,1.1664882,-0.0013846606,-0.013229519
-3.2683854,1.176085,-3.3484728,-3.6785268e-06,0.50047827,-0.3320477,-1.2696679,1.4021566,-0.04329273,0.68872166,-0.19454601,-4.3335285,-3.5540314,1.6423247,0.75714874,-0.01043317
-0.028865784,1.498508,1.6391555,-4.998086,-2.7345848,-3.9135478,3.6856785,0.0054103658,-1.5778669,3.2866156,3.2611442,-0.008285254,-3.4775624,3.691073,-3.5331159,0.04698842
0.004667878,0.7144109,1.0246301,-13.113991,-3.3974218,-0.96269923,-0.05425926,0.0069111437,-3.6490774,3.4146662,3.400893,-0.011242881,-0.6304638,2.211713,-0.20142914,9.737649
0.9257635,-1.4983099,0.28598368,5.544445,3.1840367,2.1840394,2.9609585,6.330353,-2.221315,-0.25770998,-0.0012267828,-0.009228222,-1.2127154,0.057756066,-1.669337,4.568439
0.36330074,-2.7932227,0.25502467,9.296649,3.3002963,0.06258546,0.62952685,-0.027453246,3.0830257,-2.9620802,0.07129109,-0.058432914,-0.8761187,0.37658072,-1.4188673,-0.16012776
3.3270314,-0.18767005,3.3728817,6.8118097e-06,1.6081759,-2.7687488,-0.50290084,-7.3600097,3.3816552,-1.2794744,-3.515542,0.030767484,3.7462661,-3.347338,0.39011675,-0.019229226
2.1141448,0.89822805,-0.11986485,-1.2916957e-05,-0.56005985,-2.3731625,0.25661743,-7.054055,-0.35263965,-2.508731,1.1022916,10.744911,3.368596,-3.2868788,3.2520158,0.020964812
-3.2924566,1.4674824,0.15726708,-2.306307e-06,-2.190607,2.877054,0.81449145,9.032578,2.4069748,1.1678505,-1.9387374,-1.4503843,2.9327097,1.2050625,0.009328453,-0.028547637
-3.0609088,0.18665753,-0.063472636,-3.829242e-06,-0.5612702,2.854805,1.2806244,12.978821,4.112626,2.6114748,-7.948867,-87.200935,-3.3053722,1.3483561,-0.030906029,0.014569327
0.2936378,-0.30838987,-0.03938581,0.4335218,0.94682145,1.066724,-1.167294,3.423952,1.1765776,2.3112607,-0.74360424,-2.7653217,-3.4524689,3.3300867,0.09735118,-0.021555172
-0.89666563,-0.44389558,0.34131265,7.883626,-2.5440516,-0.5849445,-0.021914959,-0.045859627,-3.026411,2.7210903,3.5798311,-0.03457307,-1.5525719,-0.47106028,-3.712818,0.030893665
-1.7661152,1.1302516,-3.0694647,-62.532104,-1.5413842,2.007226,0.07827592,-0.0051983595,-2.3615406,-0.8689648,-0.39245495,-0.047867514,-0.5689527,1.8883915,-0.44998103,8.766315
-0.747996,1.5871443,-0.97594976,-14.573074,3.257672,-1.0868071,-0.024463966,0.008307032,-2.7432237,-1.2145811,0.062269814,0.008015314,-0.43473625,-1.3683044,-0.09957445,-5.1311007
-1.8020849,1.7138352,-2.0635493,-6.6303625,3.449946,-0.84644073,-3.1286418,-0.002027616,3.7763174,-3.3322084,0.29799566,0.019796371,-0.32751274,-3.4100373,-2.9313054,-0.023101658
3.3622975,-1.1307584,3.2353618,1.6039437e-06,-0.2848903,0.6019386,-0.6739145,-0.010574459,3.1695118,-1.6954546,-3.3144693,0.028174438,3.7149081,-3.5036998,2.328233,-0.026225775
2.5333307,-0.57936573,-0.030348174,9.913663e-08,-1.6217178,2.8694148,1.4956057,7.150256,0.70437205,-2.2695038,0.50865245,9.3924885,3.3657856,-0.5355965,-0.2191087,0.013342163
-2.5843992,2.0440428,-3.294088e-05,-1.2859891e-07,-1.9477428,3.2551796,1.0032312,1.807201,2.3775005,2.8109262,-1.7686418,-8.522348,2.7798183,0.75972295,0.010492578,-0.02817833
-2.946687,-1.4883921,1.4239628,0.001619339,1.5076619,-2.9456959,-3.6729546,-13.846939,-1.2306216,-2.924971,2.4462168,0.92850965,-2.7664075,0.41290653,0.046944864,0.032835916
-0.92267895,-0.9227805,-0.1200664,-0.033117354,-0.8993547,-0.704829,0.19111168,-6.5379004,3.0941093,1.7394755,-1.4172707,-9.843856,-2.6978104,3.5471458,0.0042597614,-0.016284565
-0.45187902,-0.83269346,0.24929094,10.908987,-2.393734,-0.4234203,1.4733527,-0.06432468,-3.1957533,3.9621518,3.7537112,-0.05010026,-0.5932542,3.2751722,-0.7866706,0.03620415
-0.025350213,2.901798,4.309745,16.491333,-0.31462651,-0.37108803,0.074799925,-0.07264505,-3.681297,1.643903,-0.28439814,-0.08163203,0.24966145,0.8500511,0.04960406,4.588739
-0.48394227,4.621646,2.4796224,8.366299,2.9888914,-2.1072624,-0.5979364,-0.0799675,1.2588373,-1.136914,-0.004554406,-0.13123149,-1.2056383,-2.703394,-1.9535977,-9.568229
0.22257,-2.2760181,0.48540017,7.36337,0.1363845,0.28803176,-0.333169,5.262621,3.5296593,-3.3879843,-0.84413,-0.006644845,0.8043248,-3.360054,2.1956394,0.017908573
3.2430913,0.055984203,-0.020554509,-1.179842e-06,-2.0544262,2.5278883,2.3254738,8.280709,-0.029483043,-0.09050418,1.3212744,-0.9443123,3.4404283,-3.7860184,3.5679085,-0.02529952
-1.0829943,-0.1251205,-0.010308424,3.3325296e-07,-1.0986925,2.4262447,1.5186036,7.046372,1.6355029,2.369545,-1.5887946,-7.1685014,3.2810333,0.70744777,0.0047483686,-0.031304713
-2.77762,1.6193477,-0.0011178628,1.0386662e-05,-0.023811564,0.15569529,-0.46666482,0.67388976,1.1541942,-0.9993725,-2.050465,7.551594,-3.2870796,1.6657618,-0.01958485,0.018728498
0.962208,-0.63665736,0.48707038,-1.1679478,0.8271444,2.189056,-0.56416345,6.5111895,3.5011714,3.4720829,-1.257283,0.36772728,-3.4538872,3.414686,-0.009172358,-0.029562395
-2.9626303,2.8186955,-4.459426,-45.271782,-2.9997308,-1.4766293,3.3825428,-0.04667659,-2.391912,3.558585,3.5218868,-0.033156164,-3.3709888,3.6238875,-3.7040377,0.059871852
1.375186,-0.70775837,1.2380272,1.822545,-3.3401477,0.87066907,-0.005247742,-0.004251629,-3.5340505,1.441853,3.2955115,-0.019336564,-0.9545281,-2.2938945,-0.7611934,-8.68825
1.7535771,-2.2988665,1.3649415,6.7488623,3.6696937,0.8430568,0.0598858,12.150295,-2.722291,-1.4355277,-0.19341195,0.024796065,-1.3239949,-1.5715868,-1.4061434,-4.0923443
0.21878588,0.35677224,-1.9780049,-4.4150305,2.139577,3.2677374,-1.1983677,0.0048097763,3.1995766,-2.693396,-3.4937074,-0.014764905,1.1765603,-3.722693,3.616607,0.02067199
3.456256,-1.8244035,1.8116696,-7.739841e-07,-1.617566,-1.6392096,0.811165,-5.897435,0.1248132,-2.242102,1.4719009,9.12127,3.7069843,-3.657432,3.61327,0.010963127
0.55448776,1.0415503,-0.0014260826,-3.1363884e-06,0.26614302,-2.4654992,-1.6488953,-3.65519,0.19458354,-1.9748225,0.2886443,12.677398,3.4036455,-0.3977875,-0.05613801,0.048458274
-2.192617,2.127988,0.025582153,-1.0415824e-06,-0.2219767,0.7082375,-0.23072231,6.041465,-0.21712899,-2.899194,1.1704128,0.13771835,2.4229882,1.4022917,0.020232297,-0.031112064
-3.3666553,0.539501,0.22527516,-3.8957523e-06,0.051005483,1.2091227,-0.5540185,4.8232627,0.68573713,-1.3582274,-3.084262,14.20521,-3.585392,1.2790947,0.33628374,0.016636461
-1.8040394,-1.037647,-3.4915152,-9.779746e-06,-0.46230215,2.5394588,0.55578125,4.7858934,-0.53187025,-0.9429248,-1.595855,0.012795071,-3.5215635,3.3146355,0.56252307,-0.027632687
-0.17714062,2.256038,-0.097818494,-5.9006424,-2.602716,0.03205329,-0.36099645,-0.004978597,-3.3588586,3.548066,3.475807,-0.00843063,1.0815312,-0.12687737,1.4082959,-1.7443203
-0.40688407,-0.3030937,-1.2192435,9.615554,2.135504,2.3768814,-0.042925045,-0.089777015,-1.4158779,-0.95486933,0.11617325,-0.072991446,-0.8581028,-2.4122176,-1.8871711,-5.641099
-0.42172545,-1.1548411,-1.9050279,6.980882,3.3346112,3.211789,-3.2973557,-0.012180507,3.6298215,-3.315635,-2.4730282,-0.005456917,-0.11273934,-2.865375,-2.1142893,-0.20262712
3.4796233,2.153937,-3.3264604,-4.4727285e-06,2.1961994,-2.3780794,-1.1844304,-2.488075,2.7000833,-2.288211,-3.7408752,0.050681382,3.88736,-3.2059338,3.260922,-0.017547617
2.5649438,0.42346808,0.24166748,-2.2903575e-06,-2.1893277,2.799714,2.1135933,5.9411993,1.503237,0.10992712,-0.67869854,-0.20209333,3.3881824,1.1465347,0.6093681,-0.031250454
-2.8436778,2.2047486,-0.0124033205,1.6738577e-06,-0.70942414,-1.9239618,-1.0221643,-3.9077857,2.9137437,3.795252,-3.4863372,-10.794731,1.3242352,1.0337932,-0.21320242,0.0002214238
-3.4230115,2.8569362,-2.3672342,-1.1716581e-07,0.3017627,-0.15304871,-0.6254736,0.44572616,-1.1170573,-1.6960192,4.1540804,0.26391056,-3.5928304,2.1675732,0.06574,-0.0035461932
-2.0465782,4.2435274,-3.741685,-19.04409,-3.5001771,-3.1876884,1.6468953,-0.021612912,-3.7391415,3.6341007,3.663882,-0.11595275,-3.8480825,3.4667754,-3.4596002,0.09515309
2.34405,-1.4115415,2.480553,1.2846942,-2.6196444,-0.6871758,0.0005136132,-0.006057107,-2.8541908,2.3531055,2.7610202,-0.010226646,-1.3256767,2.0638309,-0.31213996,8.02153
-0.026304603,-2.5365562,1.5753214,8.191537,3.5257607,-1.2461764,-2.0249302,-0.12281241,2.367491,-0.9164422,0.26568112,-0.08748564,0.2691343,2.3192015,-0.4363822,0.17641097
0.3652567,-2.3042598,0.2910065,6.924088,-0.48747927,1.1358598,0.60983557,2.3431602,3.0585437,-3.4567044,-2.534296,-0.034072403,-0.08913247,-2.9225423,-1.0345628,-6.551257
3.1460454,-0.14149457,-4.425907,-0.0007753372,-1.2059915,2.2349591,1.6256208,11.94048,-1.4568322,-2.9660716,3.3738444,9.577509,3.1354125,-4.2759113,4.6779785,-0.017479897
3.3060658,-0.22792307,-0.04104156,-1.6171921e-06,-0.9958961,-1.4356483,0.53881025,-6.4900646,0.7274567,2.1133575,-0.06805426,-9.941025,3.5392702,-3.013104,-0.08653566,-0.015382644
-1.8484938,1.4995018,0.025276436,-6.192622e-07,1.2437073,-2.928616,-3.8372092,-14.102968,-0.14507915,-3.1797318,0.09161097,5.893902,1.4562047,0.6097988,-0.019544259,-0.037824333
-3.3097641,0.85914093,-0.039298788,-2.4465176e-06,0.057638958,-0.022123858,-0.47135836,-0.6812512,0.35459998,-0.008870728,-1.5838786,-0.06219355,-1.9938538,1.1472225,-0.022243984,0.0031982372
-0.49514318,-1.249981,-0.20316839,3.9881887,0.6069011,-3.2323658,1.9779873,-0.05199717,-1.7022663,2.1411052,4.8797946,11.613663,-3.2175007,4.0437503,-4.0526767,0.038667765
3.0847547,-2.199756,3.0609596,6.964205,1.1296251,0.895548,0.008091122,-0.027944833,-3.7706175,3.6300573,3.4291737,-0.028675586,1.8390377,1.7438545,3.2337914,-1.3304095
2.1494684,3.3853145,5.4281917,20.98511,1.0916312,-1.9609945,0.19175678,-0.08523783,-3.5719652,-0.22043663,-0.0571931,-0.10887534,-2.023805,-2.4223096,-1.8242954,-7.326382
-0.69177425,0.6357006,-0.81562114,-0.83250535,3.1281488,2.0163395,-3.4382665,-0.0027828747,3.497687,-3.4746022,0.49160263,-0.0067720413,-0.024844734,-3.385474,0.41159502,0.038356215
3.3762302,-2.7378488,3.2630773,1.6141876e-06,-0.9615467,1.89324,1.1037623,7.7555804,-1.6345681,-2.1342297,3.407945,2.9748416,3.7902367,-3.4478002,0.78682154,-0.046250664
-0.15761012,2.5665433,0.01007098,1.481779e-05,-1.2679441,2.7852693,2.5074139,2.9606333,2.0095675,0.37749296,-1.1438309,0.5313848,3.5675833,0.85944885,-0.16282925,-0.016123328
-2.4217765,2.3095753,-0.010052861,-2.569539e-06,-0.2028884,1.1523516,0.12957716,3.3087368,0.9387039,-0.19205277,2.766306,11.259308,0.47713608,1.0389986,-0.09135661,0.047991127
-3.5430887,-0.038039133,-3.274896,-1.4643078e-06,-0.042245507,-2.341464,1.4249287,4.6818123,-0.8141861,-1.7631488,2.2099624,1.0408522,-2.403564,0.851143,-0.12615323,-0.079344794
0.084876984,-1.3419037,0.7145399,8.543333,-2.9022472,-0.10777305,3.501461,-0.025039881,-3.114992,4.081712,3.928969,-0.03395417,-3.3212657,3.3169365,-3.5824509,0.016916582
1.0613706,-2.1402013,0.7815025,-16.059368,-3.318168,-0.23796415,-0.008740798,-0.041690066,-2.390793,2.9871156,3.615967,-0.06882166,-0.47191346,1.9926939,-0.18200135,8.89686
0.076735705,-0.03512144,0.15853393,-0.7492044,3.4860349,-0.38987795,-0.5673217,0.0071668625,-3.1256092,-0.76024187,-0.25906926,0.034875847,-0.47401428,-0.31228232,-1.3260338,1.5033749
0.07131675,-1.1469296,-1.2703377,4.1599774,3.1648505,1.8641831,-3.3486774,-0.020997437,3.3342032,-2.7541757,0.19721523,-0.033309337,-0.05140853,0.55846214,-0.09038496,19.236582
3.480071,3.2069705,-3.8290873,-0.00055503845,-2.3768177,2.6777763,2.0088005,8.401582,-0.03277117,-1.5579023,1.9250247,3.3630428,3.5372605,-3.8279717,3.6504288,-0.06968731
3.26018,1.028766,0.11287777,-1.9538847e-06,-1.3701055,1.9909163,0.12748563,7.8996696,0.76497483,-2.6640835,0.76045704,10.589995,3.5215545,-1.821734,-0.23596662,0.020899545
-2.798374,2.224805,-0.0005373098,1.4917605e-06,-1.2503604,1.4767618,0.20099431,2.1791034,1.3731527,2.0349984,-1.4044578,-10.939005,2.0901482,0.16274916,0.011795223,-0.051108137
-3.2601323,0.6022969,-0.89960617,-1.1372886e-06,2.4756522,-2.7996178,-3.2877307,-36.3071,0.13043123,-1.2184229,-1.7156091,7.7286396,-2.7373128,-0.48688227,0.05733313,-0.018834837
0.06326395,-2.2703505,0.7204462,5.0480185,-0.4535436,0.58045435,1.1343935,0.2946154,0.9917424,1.3456123,-0.75399536,-8.415649,-3.3769507,3.4297981,-1.4803299,-0.010214537
0.058691412,-2.4533443,0.9663866,9.2073555,-1.6834747,-0.9707678,3.348979,-0.018606288,-3.7011096,3.489595,-0.19924635,-0.02609683,3.0355828,3.2564268,3.9932606,3.4061406
-1.3581045,2.775336,-1.3550488,-9.820158,-0.3601542,-0.23342857,-0.14460067,30.516087,-2.5506277,4.5000396,0.5420816,0.04477963,1.1517411,2.2825732,1.4700739,6.815346
-1.0882959,3.3279486,-2.8409753,-9.066809,2.1262906,-1.830916,-1.9613823,-6.018779,1.2090124,-1.3365844,0.0059754457,-0.027138866,-2.2127266,-2.1050172,-3.3401427,-4.650986
3.4297705,-3.2546036,2.2182722,3.6316605e-06,1.1850181,-0.23878899,-0.9665158,2.1131427,3.3248158,-3.6194777,-3.7020836,0.05440325,3.7458153,-3.3666985,1.0783701,-0.04411917
2.7830994,-0.9493012,-0.008486409,-3.4640225e-06,0.06903052,-1.8605009,-0.27594912,-4.4543495,-1.3383468,-3.023458,2.0182555,9.374171,3.3592,-3.622217,3.4768085,0.024788305
-1.5829477,2.7718077,0.001259692,-9.09439e-06,-0.66691065,2.9410377,2.1077666,7.5198255,2.4525237,1.660967,-3.1990154,-26.422684,1.1221921,0.9021108,-0.59154963,-0.03632358
-3.2896798,3.2246394,-0.03390283,-2.637962e-06,0.041046977,-1.696928,-1.7510288,-12.654346,0.95920044,-1.5015726,-0.48537868,0.50787294,-3.2934682,0.6719117,-0.053265706,-0.06547276
-1.9479433,-2.112642,-3.5237365,-1.1316693e-05,2.25746,-2.4896977,-2.445319,-11.905888,-1.2521981,1.0574458,4.4834633,25.405521,-3.5808465,3.414764,0.24746011,0.0017792508
0.30340156,-2.795988,1.4783256,12.218719,-3.0243633,-3.2992573,3.384741,-0.0073488727,-1.5489972,4.313757,4.1626987,-0.05766637,-2.666794,4.1143837,-3.9787433,0.031873964
-2.1578555,3.4388475,-1.7798791,-11.396008,-2.6306453,-1.1756034,-0.6672451,-0.061937332,-1.9625105,3.5894513,3.5851336,-0.02518695,2.1440735,2.3502727,0.4714284,6.5657425
1.1560907,-3.1814914,0.02452287,9.130557,3.1403193,1.0722611,-3.3068807,0.015601009,-0.9004487,-1.1983492,-0.02414453,-0.052093998,-2.1772087,-2.2215152,-3.2650418,-4.2404323
3.2995927,-1.128498,0.36470208,-1.3096724e-07,2.4090502,-2.1788201,-1.9918715,-4.795471,2.651738,-3.4738853,0.3391211,0.0161959,3.6441362,-3.5345724,3.4704103,-0.020948162
3.3519235,-3.3072033,3.150468,1.6820325e-06,-1.475472,2.620019,2.225382,1.9391631,-0.06787261,-1.1014165,0.80664986,-3.445518,3.7800734,-3.3609252,1.0161482,-0.029492298
-1.2130897,2.8015587,0.00028651208,-9.342257e-06,-1.1820905,3.388677,0.9401429,0.7370806,1.0558558,-1.3686593,-2.7840466,11.221903,2.9606078,-1.9668497,-0.14741254,0.0021415055
-3.336301,3.4681447,0.14256975,1.03349375e-05,-1.0632378,1.4887486,-0.048396055,-0.34794492,2.0499287,-0.05060175,-2.6735032,0.6425282,0.16890135,0.5933238,-0.058834583,0.010968215
-3.4153488,2.618738,0.05200575,8.210927e-07,0.50952184,-1.8164097,-2.4320974,-5.4516554,2.021688,-0.73800075,-3.1984463,0.7726065,-3.6569214,0.6864623,0.102438286,0.020068057
-2.483695,-3.3493385,-3.562063,-1.3847974e-05,-1.4717637,-2.500433,3.602861,-0.018084716,-2.7975101,3.4022918,6.812343,18.00179,-3.3076355,3.8654776,-3.7234511,0.03481233
-0.63201934,1.993077,-0.29334295,-11.718386,-3.148996,-2.6369863,2.8441756,0.00517115,-2.247918,4.4355145,4.2007413,0.004481178,0.94351053,1.3659724,0.92084974,-0.73379636
-0.03452277,1.7524279,-0.85530674,-11.115227,0.99756134,-2.4183047,-3.1580648,0.0031918734,-1.6850822,0.9681208,0.010248333,0.01634802,-0.78911847,-1.3766848,-2.0770724,-6.38031
-1.1591983,1.775766,-1.2357109,-12.664906,2.124774,2.355814,-3.2793815,-0.013403013,3.1319273,-3.6286805,-2.212662,0.018585205,-2.502329,-2.9629135,-3.851614,-0.030348182
3.279666,0.37249297,3.3692238,3.0220076e-06,2.74368,-2.5888946,-1.9361846,-4.320137,2.4890258,-1.7508594,-3.838595,0.07968838,3.6481159,-4.021596,4.0882936,-0.066074416
3.1222022,-0.50892276,0.11280972,1.7119954e-05,1.2072823,-1.800699,-1.0034199,-5.936755,-1.2140691,0.43506268,1.5550375,-9.655746,3.4527419,-2.1122556,3.2336266,-0.016359437
-1.0710629,3.3545015,0.0017945915,7.783353e-06,-1.1306514,3.2638826,1.3246987,5.225446,0.22212505,2.1004639,-0.4452256,-14.356045,2.9495928,-0.6587707,-0.08681053,-0.0592535
-3.3835046,3.5496671,-0.0063724676,9.569829e-06,-0.7695598,3.6033826,0.48098642,0.67356366,1.157361,-2.362584,-1.6056495,1.7946136,-3.5306017,0.48936254,-0.068398386,-0.012161616
-1.8833461,-3.4305782,-2.0149064,1.6121194e-05,1.0193291,-1.9986652,-0.10714073,0.027342469,-2.1524372,3.2714481,3.1356142,-7.6768107,-3.6371355,3.637024,-3.3082561,-0.012104254
2.9152174,-4.926064,3.916019,-11.936281,-1.5860126,-3.5310607,2.0037231,0.10972929,-3.0524166,4.2115574,3.9310367,-0.05812031,-0.4166203,2.5774863,1.6200068,2.01269
1.3194368,-3.3756485,3.3042133,0.019277437,1.7962302,1.2431439,4.3424025,12.624046,-2.665522,4.629347,0.0065226555,0.012536984,0.10103747,2.6077778,0.5140091,1.7467248
-0.17583257,-2.045758,0.5571389,-4.306119,2.6084676,-1.3670936,-4.4104652,0.027692795,0.39688402,-0.77218825,-0.07491249,0.009101801,-1.2134641,-0.5241709,-1.9829311,-7.8385897
0.48545963,-2.151453,-1.2347875,4.7174993,2.1361456,-0.23015124,-2.265403,-3.5236301,3.2650924,-3.6372905,-3.5198312,-0.017518029,-0.0046764016,-2.8402224,-3.9384522,0.009131163
3.508766,2.196729,-4.180616,-0.0005617142,2.093305,-1.6824422,-1.8871129,-5.289926,-2.3895926,-2.9103575,3.5416327,3.3309083,3.8553128,-3.2755682,2.475113,-0.047325514
2.602086,3.596612,0.09950662,0.0013103485,1.0024351,2.8483105,0.9600655,9.104222,-0.2546262,-2.8802347,-0.64976895,9.810126,3.3375776,-4.2709365,3.9349966,0.061691675
0.26499534,3.433846,-0.06257582,2.5196637e-06,0.5800206,-0.04334271,-0.83116496,-5.443838,-0.54124385,1.3423259,-0.92440677,-12.670038,1.1868238,-2.4284778,-0.076129064,-0.04892554
-3.2508106,3.2991695,-0.2914909,3.7898968e-07,0.471318,0.2409364,-1.5269406,-2.3726852,0.1821444,-0.7583116,-3.4276915,0.0049928734,-3.4262042,0.29850322,-0.05013384,0.0067043165
-2.6128497,-3.5769467,-3.5936003,-1.1476306e-05,-1.7916671,-3.0972078,2.4507728,-0.018894173,-0.7101333,3.2286797,3.2815888,-0.0035606457,-3.7394197,3.4232357,-1.7064728,-0.0015363465
-0.5126265,1.5063946,0.7519008,-10.723401,-3.0658987,0.8306502,3.3201585,0.0053427815,-3.1450615,3.6127474,3.543685,0.010200039,2.8702948,2.2834582,5.07132,-4.911028
0.5029864,-0.18712968,1.0741735,-6.352166,-3.116772,-1.295679,4.081788,19.324564,-3.237598,2.2560732,-0.046130303,0.031226287,0.0020254552,-0.039317727,1.0584478,-6.3333874
-1.419704,1.6182123,-1.0622661,-13.256627,1.9557078,1.8557498,-3.5696344,0.002642259,3.573053,-3.5352018,-2.8979933,0.013313338,1.2778577,-1.8317306,-0.6787423,-10.966263
3.3868928,-3.3164802,0.4375552,3.0364401e-06,2.0156078,-2.4049158,-1.8055232,-7.808071,-2.5522974,-2.74589,3.449241,4.930964,3.9307358,-3.3344903,3.2656667,-0.040585652
2.954253,0.58149636,-0.015366316,-1.5836791e-05,0.71636623,-1.7352402,-1.2161839,-9.265111,-0.27942693,-1.5510015,0.91490936,0.53787583,3.2823868,-3.6130857,3.4192204,0.0052224547
-0.51770294,3.4012995,0.0029931664,8.871197e-06,-1.082416,2.648306,-0.09543255,6.5034614,1.4604082,-0.7964363,-0.4756211,-0.7106104,3.001345,-2.4877176,-0.19085142,-0.030846879
-3.2665117,3.3773708,-0.040853076,5.096591e-06,-1.9462842,4.2292514,0.34448552,-6.944593,2.2184656,0.9736769,-2.533104,-8.493573,0.53671336,-0.02092626,-0.13555759,-0.02363347
-3.2450185,-1.0052339,-3.419278,-1.1040645e-05,0.8437959,-2.1013389,-1.3973786,-11.186264,-2.509436,-3.1923754,3.340316,0.009294234,-3.672496,3.44366,-0.008181766,0.018424116
-2.2863696,-3.8693364,-3.6710038,-1.3252122e-05,-1.8786249,-4.124414,3.7988071,0.014625117,-2.988291,4.6318274,4.3599076,-0.035855804,-3.4704852,4.1881185,-3.9630067,0.055513445
4.413555,4.644377,9.983003,11.772591,-1.707593,3.2201867,3.979434,2.8269424,-3.3885841,2.942485,3.4042645,-0.1353311,-0.966898,0.28624463,-2.0538967,-3.100957
1.3940381,-3.565623,1.9761956,0.2693056,1.9806058,1.7305117,-0.8056509,3.3535306,-3.1807303,2.186817,-0.10692668,-0.004703507,-2.8751702,-0.91340494,-2.8648622,-2.0667064
-0.3749088,-1.5347345,-0.54758656,1.1765163,0.15169391,2.9121368,-0.7826234,0.31100032,3.293812,-3.148172,-0.03384608,-0.0011824574,0.52224976,-0.8255494,0.49234116,-0.001718224
0.250413,-2.148656,-2.9691956,14.28103,2.3661845,-2.767441,-3.3760498,1.1952095,2.6184065,-4.094682,-3.821626,-0.063044794,3.331441,-3.3295758,0.55270237,0.040162586
3.3975444,-2.2703376,3.7617092,0.00022912025,-1.6958431,3.0765193,0.8932451,8.057117,0.5694884,-2.5374646,0.74950683,3.1780868,3.8078878,-4.3082595,4.081506,-0.10747408
1.8612343,2.6119308,-0.08808565,-5.041732e-06,-0.643336,-2.9880617,0.8173878,-4.3163376,-0.5589975,-0.8878212,0.31268495,-3.8737707,3.3598309,-3.226028,-0.12129849,-0.058305617
-3.2786589,3.252189,0.5145979,2.682079e-06,-0.91678417,3.1650074,-0.165878,6.727785,1.1470993,1.527395,-1.291079,-12.400221,1.9015405,-0.71619654,-0.076117784,-0.04784891
-3.3378143,1.803935,-1.863009,8.9670675e-07,0.8949376,2.5549932,-2.0508306,7.599643,2.1123266,-0.19240928,-5.1671453,-0.00533415,-3.887042,2.2819927,-0.022905298,0.079314
-2.4067245,0.110491276,-1.2952274,-3.791666,-0.542158,-2.6009715,3.3787944,0.0007774257,1.8415341,3.403964,-2.5453782,0.0005286727,-3.2250965,4.324014,-3.9683456,-0.0011344701
-0.5132787,-0.12275773,0.14601827,-2.1101792,2.4659986,-2.3510618,-2.3865356,-0.00063253124,-3.8879442,3.820227,3.4613447,0.0009177588,2.1053493,3.7868493,5.5631638,-0.6288481
-0.2545496,-2.8761046,-0.08399439,8.387028,2.8380697,-0.09041171,3.8551385,29.41672,-3.2642877,3.6638,-0.21915948,-0.02112396,0.56092095,2.107269,0.51183265,3.6148534
-0.21448818,-2.006592,-0.37680474,-0.42329538,2.497997,-0.7446533,-3.8965921,0.0009854012,3.954671,-1.1622794,-2.5533786,-0.008063614,-0.6957797,-1.176918,-2.706771,-7.420923
3.0888898,-1.2456155,4.414933,5.731359e-05,1.7251422,-1.9283592,-2.0860054,-6.8622627,3.7622182,-3.7257948,-4.069251,0.15414508,4.2360463,-3.3076549,3.7703185,-0.16960168
3.433749,-2.7683868,0.9864435,4.778227e-06,-0.95399934,3.005025,1.2107067,6.8780828,-0.69992936,-3.01857,2.0409575,3.0793762,3.6112394,-3.9627917,3.7579422,-0.07582377
2.617396,3.6240935,-0.020050641,6.3036728e-06,-0.7177366,2.9174557,0.72205275,2.6245863,1.2315692,-2.1442263,-1.4877387,5.0243673,1.2471898,-2.2190669,-0.273466,-0.020680638
-1.7750001,3.6244156,0.0010992289,1.5253845e-05,-1.1276958,4.1316333,0.20075268,-5.8926373,0.49969,1.549866,-1.6164153,-11.126643,0.32817954,-0.21698351,-0.13810298,-0.009927604
-3.4793286,-0.16074163,-3.0412507,1.0470552e-06,0.6466747,-0.36561185,4.7381477,5.1833477,0.10252094,0.622997,-1.5553261,-1.2473807,-4.0013914,2.963495,-0.26920682,-0.028875943
-1.9737066,-3.7010903,-3.589914,-1.0358626e-05,-2.812763,-2.7462459,2.6333888,0.0036589429,-3.093683,4.594665,4.3266835,-0.02455184,-3.0392942,4.6392636,-4.328034,0.0062259473
0.40226585,-3.4430816,1.2834837,0.22285034,-1.8962938,-2.511321,-0.10565519,11.575174,-2.562814,5.031642,1.1222506,-0.012026366,-0.45686266,3.146628,1.2923855,2.2253883
-2.0105534,2.3019521,-4.841404,-51.14338,-0.25662583,-2.6615055,-3.2710876,-0.024064176,-0.5520395,1.5163448,0.19524579,-0.07107485,1.0994978,1.8271171,-0.40848553,0.5008011
-1.1347401,0.55776936,-2.525621,-18.261707,0.6790122,-1.1936007,-2.4717603,32.039524,2.806166,-0.5702663,0.10000397,-0.024450816,-0.2764688,0.8297324,-2.4326801,-0.1306305
0.3534819,-3.4991164,1.0035406,0.0570253,0.065106414,2.5629325,1.1801882,-2.0425491,3.251988,-3.4683883,-3.4096432,-0.02130472,0.7442212,-2.6976216,1.2250993,-0.012492677
3.3883033,-1.2790809,-1.6987569,9.679019e-06,1.6631975,3.2258198,-0.6141298,5.10644,2.938828,-4.504221,-4.192652,0.044589926,3.7966955,-3.472017,2.2210336,-0.09618622
2.617855,-0.028477237,3.3483362,3.5176727e-06,1.7886493,3.2238183,-0.5747761,5.121458,-2.180364,-3.3076737,0.8411795,0.31290674,3.293322,-4.1145415,3.812815,-0.033689346
2.6816492,1.3930681,2.8115265,33.84684,1.2774093,1.3847947,-1.5409142,-3.4531994,-2.7339954,0.07160223,1.9012758,2.3273163,2.2911448,-3.4031305,0.26806554,0.02266348
3.0088887,1.0342185,4.3816895,27.993828,0.010681964,3.442263,2.75744,-0.014707157,-1.8901448,-3.4342313,-0.4863756,0.011431187,-1.7955121,-1.3706207,0.008216877,0.026069008
-3.3645196,-0.65799135,-3.3472838,-4.9989285e-06,-0.41116923,-0.5361429,0.478418,-16.304651,0.54439473,-0.74256355,-2.6838868,-3.7769163,-3.9713807,3.5322938,0.36372322,0.053897366
-3.686595,-2.5619762,-2.365318,6.043157,0.2912563,-3.3977244,1.8105434,0.009021137,-2.4347372,2.1985564,7.0650735,17.411217,-2.6351712,3.8402534,-3.6026924,0.074384525
-2.415157,-2.38916,-1.9259135,-0.3308074,-2.965114,-3.2675498,3.2663398,-0.0023444127,-3.4610357,3.9208138,3.6413143,-0.0012545157,-2.725818,3.7619283,-3.3974195,-0.0079378635
2.542729,-3.2194607,1.5798845,-3.5511937,1.8108186,-2.5482247,-4.750571,0.02478981,-1.706736,4.8665686,-0.10340576,-0.02491952,-1.4497466,2.0740218,1.0699799,7.8194113
-0.32466578,-2.3449936,-1.1139774,-1.9395673,-1.8967655,-3.3372624,0.56682605,0.07846251,1.978616,2.5484934,-0.15974009,0.0045697466,-0.26008028,3.4009657,-1.6454498,-0.04333292
0.22893083,-2.0916066,-3.1757424,5.1753054,1.7700777,-2.153766,0.5912843,0.04252425,1.7672129,0.9946269,-0.045050263,-0.033419654,-0.8740219,-1.2594249,-1.6896038,-18.43816
0.9564682,0.26720288,3.4077177,1.1830545e-05,1.774574,3.70587,-3.6776862,0.00736178,3.6607711,-3.5630739,-3.1603234,0.00937123,3.0072417,-3.3900967,6.213778,-0.0134010315
1.5904725,-0.574326,-0.25371748,1.1546072e-05,-1.140913,3.4657383,1.5735183,-1.5999334,0.68419933,-2.9771616,-0.09438175,-0.22786808,3.5277157,-3.533769,0.47293586,-0.011707775
2.6147022,2.963592,1.0047659,-0.00027132034,0.031026699,3.0629077,-1.2776015,4.543433,0.83803326,-3.4880881,-1.5070812,1.8631543,3.3918915,-3.9139695,3.6716895,-0.02505457
1.2808567,3.2797096,-0.008282602,-9.43878e-06,0.5585972,0.6091622,-1.6015298,-4.9495306,-0.06358823,-3.6968699,-0.532192,1.1307603,-1.0588623,-3.78094,-0.19745791,-0.0062081516
-1.5480411,2.3976004,-0.031596303,-1.9657891e-05,0.410649,2.6948342,-3.8538427,5.765639,-1.326767,-3.5059004,1.2078258,-0.0626179,-2.641697,0.35702336,-0.07179609,-0.04349421
-3.423443,0.27254492,-3.2304382,7.943163e-08,0.07532048,-3.184785,-4.418163,0.020234108,0.38518494,0.5649495,-2.1637592,-16.594048,-3.6682062,3.562262,-2.7645645,0.033664234
-2.2349021,-3.292047,-2.0983427,-7.9334086e-07,-0.6721455,-3.4044771,1.2686714,0.008137887,-2.8656535,4.632842,4.3298163,0.0041042306,-1.8672984,4.8055115,-4.449912,0.03664584
-0.94041204,-0.68917036,-1.1478047,-9.575576,-3.1074796,1.3312894,3.539637,0.50596017,-1.4973556,4.3400273,4.12159,0.020134404,0.72542596,2.470284,-0.47576052,-3.2882967
2.5511212,-2.420003,4.2974653,5.910732e-05,1.32427,-2.1187217,1.3064791,14.708052,-3.1572266,2.9899585,-0.109719336,0.03351608,-1.1717391,0.89537644,-2.180812,-7.3235974
0.33084974,-3.1684418,-2.735461,4.443083,0.91982925,3.7836728,1.4769433,-4.491223,4.1696143,0.6778983,-3.3470852,-0.0031890357,-1.65112,-0.24209166,-3.4788995,-8.902696
2.7007208,-0.9615016,3.5347676,1.551296e-05,2.023866,1.4281738,-3.509371,0.21776155,3.2812228,-4.6329074,-4.2523756,0.010208357,2.9002535,-3.3073454,1.3008869,-0.045221094
3.2209527,-1.9908603,3.305102,3.7210775e-06,1.9907594,2.8050942,-1.542306,5.766416,-2.5604296,-4.4532046,2.8046517,2.6237247,3.5311944,-3.8547218,3.7017426,-0.038286522
0.9458632,4.1060534,3.7619953,2.4557772e-05,-0.48119897,3.5905497,-1.4229598,5.4345355,0.7571603,-0.049391508,-1.2356986,-12.823992,2.3829203,-2.9018414,4.333818,20.778963
-3.5356226,4.644347,-0.01650986,3.112656e-05,1.4502946,2.0715678,-2.3130198,-0.09823485,1.1291589,-1.3163087,-4.3384714,1.9245131,-3.6490026,2.9278286,-0.045062892,0.009130562
-3.1630728,-4.1595316,-3.8350625,-2.2881668e-05,-2.752987,-2.3583293,3.228566,0.02384203,-3.397391,0.7175996,5.5572414,-11.748646,0.5694442,4.014278,1.3391321,3.3679621
2.243722,-4.1878147,0.63661706,2.5748696,-0.67078674,-3.203316,3.363882,0.08020437,-2.9762235,4.729952,4.3995976,-0.07268848,-1.8572901,2.1833673,-1.5622075,-0.84663785
-0.08680242,-3.2995377,-3.415126,6.9829707,1.5350133,-2.6808634,-0.44267815,-6.9618225e-05,0.1575894,2.6375434,-0.3327324,-0.06516184,-2.5894926,3.1483462,-3.6992464,4.0735426
3.0159774,-2.5193021,3.9885283,0.9081172,1.9113147,-2.9630878,-2.9305415,0.04197671,2.8277369,0.9030001,-0.147854,0.06711829,-1.6696218,0.40256852,-2.8276882,-9.744373
2.1874886,1.9085108,3.4918501,1.2974509e-05,0.73999166,1.9703197,-1.3729789,-1.0000768,0.5494844,-2.2902088,-0.31668583,-0.49544188,3.6321077,-3.4777458,3.4055674,-0.0033036068
2.4147375,2.21617,-4.9026327,-0.65859795,1.0206299,0.65008974,-1.3696425,-8.396797,0.5024221,-1.8406458,-1.2671478,-1.1884173,3.3385482,-4.064879,3.8744586,-0.020072786
1.9864659,3.4960563,-0.8589215,-0.23425865,0.36615527,0.7202966,-1.2927741,-8.570854,1.0927222,-1.5564442,-2.284062,-1.2478857,1.6983243,-3.918333,-0.31890824,-0.0111676175
1.5820782,4.4131093,5.159435,12.592859,1.1666307,3.2079396,-3.036612,5.6440563,0.1625986,-1.1964508,-2.507392,-6.1328535,-1.0621105,-3.346944,0.23679651,-0.023258459
-3.321527,3.4969046,-0.055312,3.2029961e-06,2.0437388,2.1944458,-0.72649014,11.001442,-4.883459,0.30870005,3.2041068,4.6184826,-2.3062143,-0.6015553,-0.021863624,-0.058266595
-3.1489894,-1.6383873,-3.3976743,-5.6037616e-06,-0.7967989,-1.4876767,3.7450948,-0.009423915,0.941138,0.1686672,-3.566295,-9.144585,-3.4047005,3.281953,0.2961307,0.013467066
-1.2763256,-0.9246688,-0.8122924,-4.194639,-1.5663328,-2.237625,3.4489055,0.001909893,-2.9233763,-0.31224865,6.042024,-0.11714935,-1.7820338,4.4715414,-4.195298,0.027471969
-1.0654293,0.45771146,-2.2538142,-10.355129,-3.4242706,-3.402269,-0.86689425,-0.030246876,-1.3709323,3.9173093,3.7934246,-0.02196749,0.60018635,1.7807527,2.523326,16.262897
-3.20946,1.5609193,-3.659635,-3.0781375e-05,-2.411951,-2.4474711,1.7919608,7.178135,1.060003,2.126888,0.009373441,-0.0336017,-0.45562208,3.017241,-3.331166,3.8494973
0.51358634,-3.300446,0.36732078,1.344735,-1.146945,0.6240665,3.4740505,0.021551307,3.841322,0.022193432,-2.9281802,-0.015908536,-0.83405924,0.3070345,-3.416002,-12.5054455
0.45860648,3.4257648,-0.8793451,-0.00042963028,3.3389754,-0.8776778,-2.0203881,0.05853021,2.1284719,-3.5559633,-3.7023206,0.07592359,3.658904,-0.8597392,4.2966623,-0.06406999
2.9066162,0.6890836,-1.1347332,-12.360019,-0.08534688,3.3668256,-0.02893056,0.361376,1.2443026,-2.3774953,-1.9288946,2.6801414,3.4712062,-3.8499932,3.6351447,-0.034644417
0.6083,1.4532107,4.2568207,28.384073,0.6337154,3.6452413,-2.1377285,6.5646877,-1.2187427,2.0437188,0.2504878,10.873968,3.248607,-3.878479,-0.114811614,-0.04355631
-0.07015233,3.473141,0.64810795,-6.308038e-06,-3.5930653,1.6889317,3.7109067,-10.474119,0.69205964,-1.5864493,-3.994428,-2.5551755,-3.2844565,-1.0439141,-9.2066824e-05,-0.074464515
-3.5527568,3.748451,-0.034645706,1.2677416e-05,1.3719296,2.705754,1.8524125,1.0469074,-0.78168905,-1.2170467,-2.6977317,-0.56230617,-3.8265035,3.324595,-0.096394464,0.027276102
-2.7991703,-4.236187,-3.9225302,-2.6529495e-05,-0.07445683,-2.6010778,0.91303176,0.023365363,-3.2908566,2.6123686,6.4509783,17.061775,-0.587554,1.6258533,0.5615509,-7.4904003
-0.050354123,-0.70398474,-0.23223281,-10.440612,-3.3730252,-3.5322807,3.6493113,0.00032019615,-2.937098,4.5201063,4.4191427,-0.03996512,0.024951674,1.7426682,-0.59417033,-2.775557
2.495533,-3.532486,-0.17845649,0.14437264,-1.5454451,-2.025359,4.16517,5.0023575,-1.452953,5.285231,0.24902368,0.0010203216,-1.5034881,0.71628815,-2.3646307,-8.589973
3.1691105,-3.3473308,-0.55047023,3.571895e-06,0.9439544,-2.1752765,-3.2752433,0.016628977,1.3954991,-3.5072174,-0.05862078,-0.006782554,-2.545955,1.341039,-2.8630977,-0.23808703
0.78304636,0.03206934,3.2756422,3.4525092e-06,3.5090368,-1.3969772,-2.1707315,-10.104263,3.3874032,-4.1089497,-3.9964592,0.044402674,0.6977156,-2.8379245,2.0471416,-2.8645315
2.2622066,3.3543825,-1.9126639,9.0058893e-07,-0.0033625085,2.836457,-0.7817279,1.1885389,1.2775891,-2.8988156,-1.8064157,5.382106,3.405199,-3.4868755,2.0887294,-0.0040168613
-1.1265925,3.517401,-3.9003992,-0.7578335,-0.6521364,0.774547,-1.4655266,-8.326098,0.8748981,-0.81550574,-1.5175465,-8.725222,3.5122695,-3.4039764,0.10858542,-0.023961112
1.8111885,5.5034604,0.13624382,34.145256,2.140847,2.2632887,-2.680397,0.42224288,-0.42130277,-3.068328,-2.5365303,1.4435804,-3.0988305,-2.987637,-1.6351192,0.060797706
-3.3434923,3.7769878,-0.005445067,1.0907925e-05,-0.14736006,0.32700372,-1.7257031,-12.624729,-2.682332,-1.0239522,4.73316,-0.0041071475,-2.8930087,1.5655261,-0.23294416,-0.009790106
-3.0058928,-4.081377,-3.8260982,-2.1842054e-05,-1.2424891,-4.623161,4.15455,0.011800688,-1.9965984,3.5214667,3.5212693,-0.034504604,-3.6085274,3.820867,-3.646902,0.08024248
0.35574573,-1.4140455,0.11676359,-8.803028,-1.355907,-0.74205184,2.8506448,0.02962996,-0.8383303,3.6212723,0.80761147,0.033244666,-0.19734484,3.8108099,-0.25280774,3.774436
-0.61080575,-2.9026675,-1.6620555,1.6303439,-1.4592482,-5.1587663,-0.29292786,-0.0025911331,-1.612559,3.419176,-0.19243218,-0.026783137,-1.9606761,2.8602889,-3.864871,6.23172
-1.2928102,0.83136237,-2.2043784,-14.874662,-2.7623022,-2.8897634,-0.08818877,0.032374226,3.7943006,2.8450913,-4.400106,0.02321165,4.9818897,1.3609204,3.0322309,-12.760752
-0.832554,-0.95742494,-3.4370012,3.7712708,2.432664,-3.1174676,-4.092987,-0.035102844,3.2770176,-1.6779016,-0.21807605,-0.0897289,-1.2173041,2.04759,-1.4727929,0.003524769
0.73224235,0.7926997,3.449938,2.1558743,2.2683663,4.8615694,-4.3189106,0.0044450555,2.575386,-4.449354,-4.115516,-0.0011454262,3.521272,-4.2943788,4.4157133,-0.16471557
3.4292858,-1.4948436,3.0813172,9.155441e-06,0.06723796,3.4739287,0.55315375,-0.7926073,-0.08476418,-3.9136596,0.2682963,0.2799656,3.7479136,-3.7107623,3.6091633,-0.050182164
3.0795667,-0.06080693,4.867278,0.0013065338,1.3956273,-0.26840186,-1.8335514,-7.63877,1.262261,-2.8719842,-3.1276662,6.1104,-2.0896776,-3.9068775,-0.015840888,0.05388146
0.7197447,3.5621264,-2.4817975,-0.0007753372,0.56437933,-1.740782,-1.1567906,-4.9056993,0.16838293,-2.5157874,-2.4936059,-0.7294487,-1.1723447,-3.5429723,-0.3074093,-0.053244777
-1.1378338,1.5360415,-0.03605795,-4.499196e-05,-4.377374,0.25527182,2.5682745,-13.222484,-0.6286199,-0.69551766,-0.6467743,-14.733915,-3.936781,0.19298103,-0.4116699,0.072968796
-3.0496259,0.11990164,-3.3337305,-2.9981707e-06,-0.6426544,-0.6784453,3.209675,-0.005691248,1.897891,2.203676,-4.7654057,0.0007015555,-3.5715218,3.476634,-3.3158023,0.010492418
0.59926444,-3.6581397,2.6170216,-3.012102,-1.5829304,-2.2386231,1.7291712,0.07684832,-2.9210248,4.786697,4.43833,-0.053769175,-1.7909956,4.415896,-4.026538,-0.007022283
0.25530177,-1.3299545,-0.10061824,-7.0954866,-1.7907165,-3.4865813,-1.0222809,0.0022964478,-2.9436612,4.4352827,4.0931945,-0.0027881078,-0.47093943,3.0611026,-0.10507417,1.125809
-1.7323651,-1.2150594,-4.643174,-6.3936226e-05,2.195188,-2.9826972,-0.41047546,37.49877,-2.1936371,2.9160035,0.041617185,-0.02506084,-2.7202816,1.4669206,-2.1509752,-0.9273672
-1.955944,-1.9899423,-4.3689938,0.041734353,-1.6326656,-3.432616,1.8349161,-0.054455448,2.7181692,1.2798432,-0.16309175,-0.04495086,-0.7698809,3.2371752,-3.2033525,2.3489308
-1.9925046,-2.7501254,-6.5270514,-0.0011825562,3.4944026,-1.1699694,-2.9129176,-0.04652803,2.780769,-2.7701924,-1.8166059,0.019955013,-0.8797148,0.2536819,-0.4158045,-13.088005
1.9322851,0.22415671,3.4334192,1.2489043e-05,0.25024146,3.191955,0.7816349,6.873191,2.7475965,-4.542185,-4.0855794,-0.008117588,2.069951,-0.8438196,3.974085,0.15191078
3.1727853,-0.40876976,3.3954992,1.13343085e-05,0.082895696,3.6874027,0.31510574,3.5830736,0.25099194,1.1779077,-2.9150681,-15.781364,3.3260427,-4.044796,3.7894025,-0.06537977
1.086066,3.5046191,3.4985423,1.8786566e-05,-0.6847632,-0.85263777,-0.08415523,0.21270269,0.75644356,-0.37922692,-0.4429698,-8.048639,3.3886504,-3.4132261,1.5448222,-0.01233042
0.37887114,3.4940827,-0.0011188406,5.9318836e-06,0.78542185,-1.2772167,0.121347636,-10.198968,-0.5715005,-0.6075375,1.0420141,-2.4195426,-1.8498262,0.82827485,-0.22611964,0.0015379135
-3.3329244,3.4987798,-0.044153295,-2.0562723e-06,-0.4569667,-3.295054,-4.355876,-0.004014969,-2.0288527,-3.0297399,2.004563,3.9449794,1.048309,2.8812578,5.5352535,-1.1047502
-3.291989,2.8655825,-2.1312647,-2.99248e-06,-2.2371898,0.5666762,3.2476315,0.0033610715,-1.6095121,4.4445534,5.03119,0.4913826,-2.2393234,3.2279382,-0.4160915,5.413083
0.80989844,-1.0294574,1.1289463,-0.18246365,-0.71512115,-1.869412,-4.292485,0.039066315,0.31800446,1.3209527,-0.029930785,0.012817763,-1.3494389,-0.1091859,-1.1542939,0.19410214
-1.8855853,2.597751,-2.4989343,-5.637326,-1.1168835,2.7716582,1.1951756,7.3072577,3.3305967,-3.620895,-0.03664261,0.054340854,0.27320832,-0.54984415,-1.6314577,-0.49936965
3.3281155,-1.4654623,-0.020694073,-3.1607065e-06,-0.35937458,-2.2781188,-0.35438526,-8.546137,1.0980016,2.1216958,-0.5074445,-7.4349775,3.732942,-3.3183117,-0.37656522,-0.028940246
0.5636288,1.6070133,-0.004551625,1.5817759e-06,0.3095932,1.6321123,0.8941102,12.678377,0.18711022,-0.96748936,-0.10398455,5.4627523,3.4649775,0.63223416,-0.2678336,0.015207831
-3.3088312,2.9849827,0.60683376,-4.053778e-06,-0.23995537,0.7483183,-0.85681784,4.8951197,-0.36153835,0.5928557,1.7576352,-6.211572,2.1096141,0.501565,0.00045435876,-0.013806492
-3.3474271,1.8129058,-3.2118294,-3.058697e-06,-0.74592036,2.0917552,0.18341064,7.167019,0.41141796,-0.62395763,-0.17143679,1.148675,-3.098229,2.1624892,-0.07598921,-0.050130077
-0.11670024,-0.8720898,1.3312452,0.43318027,-2.411736,-2.0691607,4.211349,17.521305,1.1946043,3.4424062,0.041591734,0.018059986,-3.5616376,3.4183543,-3.3082354,-0.020197578
-0.20064229,2.2518458,0.8354273,-8.493866,-2.633827,1.3963542,-0.15246698,0.025234759,-3.3315248,4.2067137,3.8152144,0.029632099,0.80894065,1.8165423,2.2041104,6.469637
-0.7879524,0.9901238,0.7382996,-22.320824,0.08091017,-0.29699862,-0.058472097,0.00023753941,-3.0514872,-0.6858805,-0.14779076,-0.007007517,-1.6508017,-2.5139632,-2.4437058,-8.093134
-0.30896243,-0.9286109,-2.6803195,13.279406,3.3738835,1.086209,-3.0519612,-0.033602428,3.3726301,-3.2393532,0.028353527,-0.03015048,-1.002329,-2.5985699,-1.4031924,-7.911483
3.3864331,-1.4863923,2.4971044,2.8996346e-06,0.09164825,2.348464,1.0212147,9.665882,3.3178248,-1.7700437,-3.5606298,0.047028683,2.967026,-3.4636724,-1.3563205,-0.0389776
1.3679073,1.2469686,-0.0018212311,2.1753658e-07,-0.78809714,-1.8706443,-0.14205289,-4.4648886,0.64307344,1.1655939,0.30984163,-3.6380436,3.2125468,-3.5312462,3.4643984,0.002411846
-0.63144326,1.1157144,-0.06491442,-6.220694e-06,-0.37875384,-1.0305022,-0.3880762,-2.7465029,0.61385655,-1.1614084,-0.048853695,6.483101,3.229486,0.7636555,-0.019064369,0.028616903
-3.2203946,-1.4910469,4.6244698,0.0015830994,0.7821947,-2.0714426,-1.1751561,-7.890421,-0.04135859,-0.8950991,-2.424739,2.9284625,-3.4832177,1.2074709,0.111611456,0.072569735
-0.82042474,-2.0091445,-0.26409993,13.124439,-2.5738068,-1.6634071,0.013732284,-0.028993972,-3.505898,3.4869473,2.9903936,-0.02941268,-2.7548146,3.8522067,-3.6708455,0.015425779
-0.09733574,2.2699547,0.04940243,-7.342852,-2.3805976,-0.3554605,0.04624924,0.009488478,-3.1210577,3.2012782,-0.05247973,0.014751088,0.35475957,1.8231745,0.94942456,8.325673
1.6849992,-2.5463305,0.6918205,11.027984,2.8711421,0.70310163,0.02714514,-0.009185955,-2.7949781,-1.025981,-0.41457468,-0.033652816,-2.597662,0.9791436,-1.2029605,12.71558
-1.249262,4.1554375,-3.6551247,-16.680618,3.402064,1.8555987,4.7749243,-0.02976036,3.0052912,-2.2139661,-0.07592872,-0.027132764,-1.5080398,-2.9577322,-1.0736291,-9.833323
1.8094959,1.1753894,-4.2774205,-6.979471e-05,2.803074,0.82505924,-3.4457092,-0.05869627,2.9671593,-0.80237067,-3.37397,-0.011352606,3.0808825,-3.5928335,3.402837,0.002707187
3.4059372,-3.2808502,2.0746922,4.8054417e-06,-3.2083476,2.7177796,2.9950466,7.776879,1.5986701,2.5673678,0.43210512,-9.145049,3.2959023,-3.5222008,3.386823,-0.026166279
0.40623915,-1.2945946,-0.0008588752,-1.9375398e-06,-1.1556581,-1.9124242,0.47999716,-4.064666,0.5757982,1.9124485,0.52317286,-4.272156,3.342093,0.4499061,0.0075259916,0.021630473
-1.1204727,-1.2897742,-0.04750646,-2.3291773e-06,-1.0988965,-0.12657532,0.46609864,0.8293738,1.2646197,2.8346343,-0.3020252,-8.346025,-0.6533384,1.5440186,0.20638125,-0.03820181
-3.3133044,-0.55802,-0.007137526,2.3046978e-06,-0.3454876,-1.6358123,0.049346685,-6.2791796,1.6846794,3.1090758,-1.7792599,-11.211903,-2.8238668,1.9642812,-0.011157274,-0.015895102
0.306845,0.92239666,-0.547937,7.3157544,-3.642481,1.3874757,-0.0054909587,0.02789654,-2.645688,3.2997975,4.5208006,-0.048937164,-2.3134594,0.044544205,-3.3958929,0.025957122
0.77458143,-0.77409875,-0.1860025,1.7804472,-1.6012368,3.4538012,-2.9947755,0.004921481,-3.7210262,1.4538434,-0.025137305,0.015760407,-0.6805937,1.0339811,-0.9471084,11.4049635
0.41623712,-1.7801307,-1.0796235,0.67217135,-3.2001448,3.3592215,-2.5265038,-0.007806137,-1.9309661,-1.3629787,-0.13549823,0.016867533,-0.8486994,1.267123,0.28898284,7.601941
-1.8755136,3.6447122,-1.2050276,-6.5319195,-2.799725,3.2506306,-1.3513889,-0.07165678,2.5071802,-3.668942,-0.08156803,0.029729843,-0.17724401,0.10068232,-0.6667894,9.042724
-0.57766056,-1.3974831,-2.7113457,20.295374,4.0472608,-0.20462967,0.2841382,-0.054989353,4.291289,-1.8924346,-4.2864857,0.09694088,-0.022338733,-2.628762,-0.9757148,0.5776112
3.2393506,-3.3266914,-1.7814591,3.596433e-07,3.2539544,-3.880901,3.6293314,0.013400553,2.7033129,2.3582625,0.25958014,1.2166233,3.213716,-3.6656432,3.5664349,0.032435518
3.0543664,-3.288215,1.1628668,1.48090185e-05,-1.5863507,-0.7828909,1.8646259,4.2298107,-0.31194064,-2.1535373,1.9743568,15.313076,3.6151862,-0.6640231,-0.39027262,0.10969913
3.3476667,-3.406223,0.39379036,8.782099e-07,3.402654,-4.3417044,-1.1767715,0.021028519,1.402183,3.4606447,-2.966289,-13.175327,3.106707,2.477771,-0.44348192,0.012288094
-3.1237855,-2.2737494,-4.547365,-9.167567e-05,-0.0072481334,-3.7222056,-1.5993838,1.5176775,-1.8713285,-1.839809,2.355132,17.66026,3.03859,3.9267833,-0.3178295,0.03518129
-3.6062307,2.0871787,3.4002488,-4.879101e-06,-0.6068013,0.19198945,-0.44539243,-0.24866772,0.9594283,3.5103195,-2.80013,5.7598343,-3.8364487,3.3517544,-0.14152287,0.050605103
-3.8872283,5.225796,0.0023682117,5.887229e-05,-3.0579062,3.2971709,-0.0036554113,-0.023628507,-3.5129821,2.124372,-1.2159528,0.01225226,-3.7584238,-3.0550237,1.9004713,0.06150334
-3.3199053,5.809442,-3.3323286,2.4704928,-3.4359083,3.3325045,-2.428964,-0.0063842386,1.3521674,-1.1485567,3.1937418,0.16383514,3.2122993,-4.3640537,1.699635,-3.8409562
-3.0655727,3.84975,0.005709529,0.42104357,-3.1488407,3.3384702,-1.085923,0.024607206,-0.68847406,-3.0829875,-0.26326323,0.021761041,1.4256616,0.26027,2.0014913,5.8108106
0.33219188,2.280618,-1.0217276,7.4553394,3.2150714,1.8582344,-3.438781,0.050911278,2.9323127,-3.0650733,-3.5108552,0.0243612,-0.67358136,0.3381049,-0.2960783,3.684054
3.5222416,-3.8214767,-0.0070928186,3.463967e-06,3.1447632,-3.3601851,2.5979803,0.002459176,3.9482794,-1.7274686,3.2416599,0.046979345,-0.41759712,-1.706886,0.67351705,2.3657637
3.2760181,-3.3531916,-0.90774703,6.029004e-06,-0.5639247,-0.17505139,4.5677958,2.6179924,-0.6482178,3.3806882,1.6070983,-0.054184973,1.8118348,-2.7133172,-4.4219756,-0.02611351
3.425369,-3.314834,2.352249,5.2680834e-06,3.3120294,-4.3231554,-0.04762893,0.021874156,-0.508152,0.8107077,0.6047312,6.642021,3.6490722,2.230338,-1.0947974,-0.0069150925
2.2227588,-3.3069537,1.0131221,-1.4676692e-07,0.72407633,-3.0459511,-0.5891285,1.5868118,-1.1034098,-1.6207412,1.1009597,16.791756,2.5087147,3.2799556,-0.35062155,0.02062058
-3.7751496,3.40753,2.9800105,-3.9251492e-05,0.6696947,1.5331107,-0.59194934,18.033527,-1.7776468,-1.7193557,1.4314008,16.868595,-4.555503,1.8397634,3.1270573,0.08133447
-3.5804918,4.120398,-0.08050236,-2.2294143e-06,-3.2063255,3.6897144,-0.06635308,-0.046838406,0.04163769,0.6266557,2.651967,-1.4846067,-3.9996667,-3.371543,-1.8935107,0.12784898
-1.9807936,2.0572999,-2.7789922,4.9075236,-3.173495,3.4467483,1.0768934,-0.000113146845,-2.0831845,-0.76304334,-0.0028505921,0.00776165,1.4672489,-1.9603298,2.6838422,4.884859
-0.18173173,0.19011456,-0.7672881,-0.95601386,-2.8909004,3.4933841,-3.3664706,0.015507977,-1.1109818,-3.4213424,-0.14723861,0.020727552,-0.7068884,0.14584541,0.513731,10.887541
-1.6200467,5.235486,-1.7776251,-1.9123417,-3.4032674,3.241208,-0.8507825,0.014429696,3.5762074,-3.3029623,-2.867222,0.15506282,1.3151706,0.23570633,-0.21204317,13.565508
2.1823924,-3.409026,-1.1864873,-8.502067e-05,2.9237127,-3.4010954,2.5051217,-0.055940673,3.7362375,2.112332,3.9863186,-0.008316942,1.3633964,-0.12218565,2.606264,10.633787
3.2540703,-3.372395,0.83623886,1.104923e-05,1.4710171,-3.2534337,0.71246225,7.0093713,-1.2301974,4.2576904,2.3757792,-0.60342216,2.4674318,0.38255405,3.1806226,0.047500785
3.3551352,-3.2867308,0.3464065,6.091006e-06,0.28085583,-3.5311384,0.11963469,-1.241767,-1.7104769,1.9530679,1.3210392,2.6386547,3.6895537,1.2374382,-0.34148198,0.018211503
2.6347115,-3.3682961,0.13083613,4.5708575e-06,0.20587546,-3.1592107,0.32697403,-2.0243404,-0.4656682,2.8434076,1.1031406,-2.8449657,3.5844238,3.7883515,-0.20004497,0.014865503
-3.793387,4.5192194,1.7342514,5.9212733e-05,-0.9307281,1.4301027,1.7040615,8.456941,-2.2093863,-2.3252158,2.2054157,5.711669,-3.9908895,2.9288495,3.2899857,0.069682755
-3.5295227,3.3526392,-0.0096820295,-1.9075349e-05,-3.0688326,3.4891045,-0.036600664,-0.011453286,1.2375594,0.06641908,-0.79498017,-11.396351,-3.9377158,-3.3778727,-1.9088345,0.13525909
2.131052,2.1186519,1.4698768,1.1115322,-3.171343,3.4289732,-3.4374135,0.1049716,-2.7579181,-0.78961766,-0.4598137,0.050092462,-0.78471124,-3.6854124,-0.79390514,-1.8066304
-1.8058548,4.3402658,-1.4723356,-2.283152,-3.3223865,3.3506453,-3.0200539,-0.15023465,-1.2228854,-3.783809,0.37172323,0.08460808,0.84063274,-3.3974757,0.1341015,-1.4700754
-1.2908902,0.3177396,-3.3105326,21.857471,4.171268,-3.2658277,-2.2510774,-0.063970074,4.1313004,-0.074278,-4.738365,0.11919244,0.68808013,-0.79024494,2.1998658,-0.05668612
3.2401235,-3.336469,-2.213285,1.4657799e-06,2.9080763,-3.628498,3.4599454,0.016377512,-1.1733236,2.1354768,5.6981077,-1.9208724,1.613774,-2.3837337,4.0091505,2.357914
1.4293474,-2.1817894,-2.4090993,9.434269e-06,1.8041099,-4.8551846,-1.4389415,4.82765,-2.0066707,1.0199896,2.7254844,4.785892,3.0838006,1.7889735,0.3329237,0.16931592
3.3529198,-3.2932858,3.0592773,-7.0441274e-08,3.5032172,-4.9896784,-0.68772787,0.005499931,-0.5657307,0.7616836,0.71437454,6.9878864,3.7135935,1.5103154,-0.37315857,0.0039756256
2.8227634,-3.2981591,1.3859768,8.277628e-06,-0.0034439564,-2.0683117,-0.11442578,3.28539,-0.038643062,-0.80199635,-0.8883096,18.481592,2.6648717,3.3862135,3.5271149,1.6077728
-3.5248861,1.7642859,3.278231,-1.0503148e-05,0.9019188,-3.223753,-1.6387842,1.3283911,0.2744975,1.4731958,-1.1117069,8.03306,-4.074769,2.2456026,-1.4987829,-2.4935818
-3.6966047,4.127418,0.05072391,4.0139188e-05,-3.2133453,4.200472,-0.03924936,0.03417474,-1.2231497,4.2649956,0.8218682,-7.901787,-3.5294292,-2.1983542,-2.2836144,0.016049638
-3.373725,4.4661617,-0.71780396,-5.937659,-3.6096475,3.6541424,-3.4385784,-0.19056824,-0.5481907,1.3933485,0.0547252,0.09212409,2.3508513,-3.4433901,1.711336,-9.717007
0.4509622,-1.4342477,-0.099845886,0.05114834,-2.6444688,3.4599802,-3.3596776,0.025711583,-3.1872404,-2.5504591,-0.23537242,0.010805087,-0.1325193,0.43657553,-0.38152993,13.588953
-0.85337484,3.1313834,-3.195632,11.485468,2.388991,1.9656289,1.57441,0.039120704,3.5464463,-2.6554515,-0.16673283,-0.0039911717,-0.4815296,-2.8762445,-0.5796406,3.3046234
3.3046727,-3.334331,-0.54771376,2.1929736e-06,3.1835892,-3.768882,3.5525675,0.011115611,3.736517,3.6302168,3.5670962,0.015103612,1.1037439,-3.2635903,2.9765253,0.03207167
2.886236,-3.306379,-1.4612345,4.0352347e-06,2.627137,-5.153777,-1.5743892,-0.32447028,-2.3032258,2.7565467,2.1125817,-1.3099508,2.7730927,3.3746397,1.4492513,0.18879785
3.4564462,-2.997104,-0.033252157,2.759658e-06,0.28629994,-2.6942258,-0.9584813,-0.8416567,0.37916225,-0.6835335,-0.5391891,12.83351,3.4695077,2.530288,0.5638623,-0.0014972687
3.1776707,-3.303065,0.17072865,3.5940775e-06,1.2659727,-2.8812733,-0.86193955,5.3436003,-0.40310198,-0.71565443,0.2104863,-0.025101367,1.7446675,2.5025752,-0.27286184,0.0120684765
-3.6267993,3.0059934,3.3876743,-7.789413e-06,0.32864353,1.9401503,0.87502277,15.701255,-0.57150745,-1.5297778,0.5178523,16.304445,-3.9803429,3.2600307,0.40995386,0.058723856
-3.567619,4.389077,-0.0033549927,1.1567067e-05,-2.9737518,3.196131,0.53515697,-0.051446646,-0.6548116,2.3523276,0.3783189,-0.09687281,-3.9717968,-3.3418343,-1.6265628,0.0650214
1.821232,2.953537,-0.1258319,-5.438192,-2.1884272,3.4077425,-3.3512993,-0.015025668,-3.1096745,-1.1918633,-0.22825903,0.027278244,-0.2662444,-0.9902775,1.407304,7.747298
-1.4087222,2.1066618,1.0558801,-0.30778646,-3.1549878,3.4417925,-3.3445444,-0.014099264,-3.483156,-3.0099525,-0.18736416,0.003981025,-0.11601812,-3.0191193,0.45005906,0.24695706
0.78061354,0.11858225,0.43881303,15.783889,3.3755426,1.2027103,-1.2320237,0.09743605,1.9948628,-3.0251622,2.1510642,0.076447904,-2.0852346,-3.5559764,-2.6334596,3.1323678
3.5370634,-4.017785,-0.012929887,-2.1911517e-05,3.3271227,-3.977762,3.7033484,0.0024853647,3.9316268,2.8137522,3.1222973,0.056903236,-0.07314896,-3.3292522,-1.166184,-0.016591415
1.7965765,-2.4691398,-4.1784277,-9.420188e-05,-2.560204,-2.5659933,5.049017,-6.5830326,0.3480991,-1.5558836,2.2213898,15.368673,2.0753431,0.40052584,3.2907243,0.118230194
3.43963,-3.32882,-0.028017342,1.2117257e-06,1.4442945,-3.3206475,0.23023817,-1.4635831,0.21393478,-1.2281668,-0.74948645,4.959252,3.6181762,2.7657413,2.8947878,-0.008377412
3.467961,-3.3342445,-0.08465019,-8.138832e-06,-0.045182347,-3.5452707,0.09239423,-3.5030107,0.07611728,3.7881134,-0.11843404,-4.71429,3.9569366,3.4553554,-0.4855008,-0.014533997
-3.2531893,-0.58663017,1.8153623,4.072568e-06,1.4431508,-0.5515213,-2.960411,3.2890916,-1.2476226,-0.21741226,2.291761,5.769409,-3.5902689,3.2468545,-0.38465068,0.024380483
-3.7926006,4.88709,-0.031502523,1.351539e-05,-3.0727832,3.337805,-0.017970398,-0.074613005,0.22659369,2.2715497,-1.3703903,1.1994643,-4.145719,-2.38269,-4.2715397,0.1278458
-3.5898015,5.081911,-0.04088565,3.0961055e-05,-2.8552396,4.0372815,-3.6715338,-0.067690656,-1.3382095,2.7649062,-0.21087313,0.045836102,2.096351,-0.042242527,2.4959314,9.929016
0.52161837,0.5589886,-0.5075124,-10.157643,-3.01653,3.5534348,-3.4892886,0.110909075,-2.643752,-1.6459116,-0.551036,0.054008435,0.15854482,0.35323393,0.46724832,13.890649
1.3464044,-1.239815,-2.3154085,0.09197576,1.956672,3.252088,0.24869333,-0.00053702295,0.22645605,-3.3452938,-3.7201111,-0.0005690083,-3.1023357,-1.7913871,-2.2250085,7.070175
-2.5990884,2.725934,-1.4760303,5.0119944,3.5400295,-2.6111774,3.3103244,-0.04683795,3.5732944,-3.4229572,-0.9246394,0.052837476,1.309129,-3.48551,0.7968112,-3.704529
0.9713745,-1.9907966,-4.2889647,-4.022848e-05,-0.32407635,-1.5668631,3.4360807,2.064702,-0.079625666,-0.780744,2.1482959,18.442493,1.5818654,-1.0179396,2.8088737,0.0008432269
3.263884,-3.4046469,-1.429703,1.4620563e-05,-0.24195784,-0.83120704,0.51989853,4.9806194,0.7790561,4.4481683,-2.7443507,-1.6728344,3.37368,2.130025,-1.3895985,0.080631256
3.3930643,-3.3557618,0.97274745,2.0130119e-05,0.25777817,-3.4607592,0.55208975,-3.8599095,-0.50153476,4.133591,-0.5199043,-4.900139,3.353006,2.6349077,-0.29105842,0.046594843
3.0967844,-3.3959236,-0.7648563,9.538436e-06,-0.9884877,-1.6995835,0.8119401,1.9275382,0.6763942,3.1494198,-0.53496194,-3.641259,1.9902582,3.4723322,-0.22646862,0.06587092
-3.6713154,4.4189043,3.967749,1.1621461e-05,-1.77534,0.6641836,-0.014057934,-0.046861276,-2.8483558,-1.3502874,2.1416862,4.048085,-3.7968755,1.6609156,1.8152698,0.02452425
-3.5150907,3.7765412,-0.050821766,-1.445162e-07,-3.2220461,3.896086,-0.028906994,-0.01873083,0.45315328,4.580922,-0.8329516,-5.291076,-4.0630536,-3.3032258,-2.8935387,0.08314125
-0.48483264,0.05110717,-0.22986817,17.794563,-2.461959,3.5383778,-0.04048486,-0.040896602,-2.2305086,0.9996067,-0.29294938,-0.031034146,0.36171633,-3.6536198,0.78106976,-2.4883258
-1.3100077,1.101963,-1.9173303,-11.829132,-3.1324768,3.225386,-3.189579,0.04893872,-1.4238003,-0.72137785,-0.33442283,0.048795186,1.5737466,0.38509345,0.9432168,14.768628
2.7810473,-0.7981554,-0.25145957,-1.5423973,2.486226,2.3534484,-2.0196006,0.11393957,-1.4060757,-3.2256618,0.46509618,0.055640377,-3.0876386,-3.1826859,-1.9070245,4.7176867
0.015696585,-1.8258913,-0.1924074,19.424105,3.631642,-1.5812314,3.4767668,-0.048784003,3.8509,-3.1705046,-2.3544984,0.022313595,-0.99419343,-3.4717507,-1.2337902,1.7252433
3.1178823,-2.7075458,-3.2672915,1.0331802e-05,0.9424216,-2.0239394,2.200808,5.996047,-1.2881771,-1.0457894,3.6581407,22.073599,0.3307024,-2.1933799,-2.8807828,0.08612251
3.2722735,-3.3170676,0.8470892,1.1217967e-06,-0.7106719,-3.301283,-0.09375563,-2.1817489,0.44769526,0.6805124,-2.0770838,8.148861,3.7641752,2.119445,-0.12730163,0.042217135
-3.0842655,-2.9856377,-0.049026728,-6.758352e-05,1.1503333,-4.578641,-1.2827594,0.281919,1.1128278,-1.5588185,-0.03473867,0.3403365,3.3005047,4.026448,-0.27200413,0.026705146
-3.8215544,-0.5581263,-1.5631512,-11.776112,2.3714266,-4.8117795,-1.9820027,1.6777046,-2.2649708,-0.16444826,0.91835,12.738235,-4.6646585,2.521415,1.0533704,0.24931903
-3.2148004,0.40603155,-3.427774,-1.33797475e-05,3.1075492,-2.026417,-4.5889363,-0.007966995,-1.464613,-0.57788485,0.40137947,10.090336,-3.38659,1.8417525,1.6185532,0.025280684
1.8021241,-1.7767404,3.931941,3.1434224,-0.87466383,1.4181417,1.3681743,7.7587833,2.6952713,0.7135924,-5.109531,0.03497696,-3.2765925,-1.1576905,-2.9816794,-0.056431115
-2.4986792,2.9844499,0.5697223,-2.5757377,-0.6593218,-3.1094575,0.05206728,16.270899,1.0292052,0.93066806,-5.3270445,-3.3968563,-3.1107285,-2.5240872,-3.607786,0.01937361
-3.1648152,2.623787,-0.7838528,-3.5906215,-1.2685437,1.5277215,1.5992503,4.028311,0.9654722,0.75175744,-1.8858284,0.83728933,1.8979294,-0.49227998,2.4984143,0.23623124
-1.8054177,2.7523465,-1.4300752,0.38157082,1.186806,1.8971778,1.9294559,3.2599509,0.0021301508,-2.6443284,1.9790698,10.6041355,0.994501,-3.1220317,1.8345022,-9.051723
0.49102527,1.501422,0.07594538,0.0015163422,-0.10346693,-0.35886303,0.572494,-0.3202145,0.08054751,-0.58822626,-0.36647868,5.2260504,1.0357568,-0.83836347,3.702292,0.06922616
-2.4573429,2.6541471,-0.011770248,-3.625569e-05,1.6565201,-1.6820523,-2.277094,-0.48549497,0.052712582,-3.1871536,1.621533,4.7733,-2.956982,0.28439665,-1.1788304,0.0075543746
-3.5161886,3.8914082,-1.7331064,0.14622498,0.7611936,-3.219973,-0.31792146,-2.4323635,0.81303334,1.1556094,-1.9770205,0.77820987,-2.586417,3.267768,0.4441054,-0.0024680258
-2.0369585,1.6146872,-3.2014718,-3.393143e-06,-2.6295648,2.0400996,2.9064956,0.02665615,0.49945796,3.0257869,-3.9017572,-0.026849918,-0.86109746,1.9505072,-3.6122842,0.006020069
0.5950327,1.8839937,0.8414502,-9.266087,-2.4086776,2.2693505,3.4690814,0.0020840317,-3.6055684,3.8097389,3.6137094,0.007428862,1.3094182,0.82044315,4.2900844,-6.756809
0.13679361,1.7457814,-0.939728,-5.731259,-2.685159,-1.1291974,2.9728346,11.143564,-2.6355975,0.9847134,-0.10631603,0.08418675,-0.5389751,-2.3101707,-0.9970186,-7.1321564
2.8591886,1.2845943,-1.9557049,-0.9004563,0.5065259,2.223497,0.28700542,7.8209887,3.3332915,-0.77642673,-3.1076267,0.015993893,3.3310478,-3.426523,3.2477584,-0.010129377
3.3694239,-1.0945048,0.24515645,8.458487e-07,0.10197407,-2.341443,0.30674213,-8.393018,-0.27592355,2.3315797,1.3584213,-12.646624,3.6122348,-3.2590513,2.20095,-0.027879024
1.7571305,2.6195009,-0.0037400164,1.2088349e-06,0.7070847,-2.479445,-0.51421803,-6.7384863,-0.2922063,2.403308,0.39217,-10.952377,3.4935663,-3.2648203,-0.15690768,-0.020086829
-1.6839925,2.4880812,-0.037180346,6.032471e-06,-2.1324372,3.7508984,4.4196396,9.907016,2.2356615,2.901339,-3.2619293,-19.991636,0.9283061,2.1223178,-0.12323488,-0.04073192
-3.3687613,1.0979476,0.26579732,3.8102717e-06,1.1634743,-2.6187873,-1.6820465,-8.523922,0.21980393,1.9207389,-0.72786856,-7.3086667,-3.5694978,1.9095312,0.098057106,0.04191202
-0.9872586,-2.2810757,-1.8058805,5.3962945e-06,-3.2097042,-2.9507875,-1.8020873,-0.0003991127,-3.548513,3.6390834,3.4883459,-0.008659653,-3.1387033,3.37425,-2.9636757,-0.012761835
-0.02203244,1.3703189,0.14064074,-7.741288,-3.3433392,-0.8654784,-0.014331264,0.0049178936,-3.236084,3.1175969,0.0033872128,-0.0028468594,-0.5810824,-1.0832261,-0.045523047,-3.012439
-0.6381457,1.1806791,-0.37150228,-16.142998,-0.92659885,-0.6309219,0.12209628,-0.009739861,-3.4294503,-0.45508114,-0.0026695859,-0.016973332,-0.86582273,-0.9264616,-0.7124947,-1.4746028
1.0583452,-1.0335314,0.4390212,1.2830656,3.3203835,2.5233614,-3.3359346,-0.00538389,3.7126627,-3.2964723,0.05893497,0.002242636,-2.5196211,-3.3007755,-3.5396252,0.0037070364
3.6257188,1.5926948,-3.9058948,-3.6997604e-05,0.7831066,-2.5639205,0.40361446,-5.6464653,1.6523166,-1.1135211,-3.5058215,0.009178768,3.098084,-3.243414,3.2396822,-0.0076737106
0.9898795,-0.26075748,1.9446263,-5.6256413e-06,-1.9941748,3.1384387,1.5728576,0.12466137,1.2790674,-2.453865,0.75339043,12.717223,3.3792734,-0.6086963,-0.15401816,0.037546545
-2.2260218,2.5554364,-0.0008940473,-1.3142024e-05,-1.3001388,2.3913283,0.65645164,9.290862,1.0498422,-2.2566357,-0.29095232,11.13695,2.844526,0.55103576,-0.011800826,0.015137948
-3.2884293,0.05235887,0.16109319,-1.6351416e-06,0.9905762,-1.6434116,-1.3131922,-0.96337557,0.18484238,-1.6584449,-2.7240462,14.622983,-3.3567438,-0.39926016,-0.02228992,0.031066611
-1.5941643,-0.9115294,-3.5586042,-1.2619603e-05,2.862031,-0.8515126,3.4621947,-0.016974555,-2.901238,-0.043126523,4.871505,0.3759966,-3.5195267,3.3662164,1.4483066,-0.013377972
2.7151928,-0.76428735,1.1359386,1.6264424,-3.364231,2.7561285,-0.09459947,-0.003591354,-3.2833598,3.2906735,4.386045,13.799065,-1.2469786,0.36914057,2.193202,16.120121
2.710649,-3.1488028,1.5568635,5.0222635,-3.2692556,3.699333,-0.1309366,0.028045967,0.1307948,0.7153323,-0.10715537,-0.02234077,-2.9176528,0.5988085,-2.0938845,3.0878046
1.5548536,0.25090528,-1.1409755,0.070093036,-0.7311529,3.2843118,-1.6368948,-0.0016664059,3.2478628,-0.43442178,-0.08576408,0.0030552726,-2.3260381,0.7547958,-0.92406654,4.876796
2.4934366,-0.029689547,-1.0173517,-1.1703422,3.5710495,3.231318,-2.8668077,0.005129952,3.874829,-3.3830798,-0.15842812,0.0692274,-2.4117165,-1.8809637,-2.0626516,-8.626512
-0.866732,0.49490467,-2.3643103,-0.02967596,3.2703323,1.2847763,-3.407495,-0.0025734445,0.41388348,0.9711095,-1.665726,-4.1382008,1.3100499,-3.2289762,2.600127,-0.022286303
2.8136287,-2.5921204,3.9045093,0.5533913,-1.15874,5.8024993,1.0429626,-8.822702,-0.65099084,2.3361015,-0.38756627,-11.467835,3.3316956,-1.8690255,3.0710354,-0.02722517
1.2830844,-3.217838,3.3132293,1.1634725e-06,1.9225409,0.5977515,2.0917659,-3.9547892,-2.7213426,2.7388296,0.14830583,-11.597328,3.8612068,3.2327201,-0.18329325,-0.020667894
-0.2338144,-3.0063477,3.3998919,5.4336115e-06,3.3190744,-0.44035086,-0.5757463,0.987129,-2.8997507,2.9419777,-1.3812478,-7.1213503,3.469956,3.4386785,-1.3899702,-0.04300993
-3.4541945,0.57330185,-0.005851833,-6.8376266e-07,3.4946098,-3.0014174,3.236856,0.06593756,-3.3407092,0.10198107,-0.27015427,5.5757885,0.87513214,3.4066594,-1.885295,0.02263484
-4.1944366,0.97363436,-0.27745646,0.20665425,-2.4969273,1.3088219,1.1798277,0.07088985,1.278247,3.2224116,-1.7994051,-0.08866213,-4.1906586,-0.1568169,-3.0145082,0.09929797
2.3080585,2.1693754,-2.0756235,-3.5980172,-2.2185612,3.2605822,-2.3740847,0.0060746423,3.050283,2.8329468,-0.3811605,0.015354591,-1.7469281,0.28879523,2.4635026,-6.9727015
1.7390878,-0.032691807,-1.7737389,0.22225815,-3.2832696,3.6461213,-3.4763339,0.0058077206,1.9242411,0.66440904,-0.57317066,-0.7345122,-3.2386696,0.6045622,-1.0138398,2.7833397
2.9855735,-0.70443547,-1.84197,3.745668,-3.3269117,2.688963,-3.2771683,-0.010135308,3.3534129,-1.5678276,-0.34993404,-0.019283481,-4.553457,0.8860612,-1.6528019,1.3882439
3.355228,-3.0680072,-1.5784471,1.160501,3.1597328,-0.92570454,-1.4454595,-0.0027619153,3.3108945,-3.555263,-0.014050022,-0.0015674382,-3.851112,-2.398263,-1.8851414,-10.845123
1.3485689,0.10267314,-3.2858012,-5.582897e-06,3.751726,-1.5594698,3.4111154,-0.0031016655,-1.6308811,1.3777692,-1.488763,-7.6343203,3.7062483,-3.3958485,3.422088,-0.06661903
0.06309348,-2.8322637,3.3252401,-2.2022527e-07,3.7009237,-1.3883516,0.11270292,-1.6206416,-4.395751,-1.839548,2.0483513,8.004534,4.0800757,3.3338313,-1.5771219,-0.03643855
-3.2550535,-0.570873,0.006011242,-3.6816828e-06,2.7393043,-2.7485743,2.3339374,0.37088692,-3.5700912,-1.309116,-1.1172497,13.164899,3.1513627,3.5746052,-4.132466,0.021151543
-3.8147857,1.2728928,-0.0058754943,-3.3957813e-06,-2.5909042,-0.7392775,2.658,0.10507925,-1.040898,1.5618701,-1.5513712,-0.12991393,-4.33054,-3.146442,-2.329321,0.13414463
3.3316474,0.6458179,-1.3889616,-0.14154387,-3.8455315,3.4870179,0.30944902,-0.037556887,0.64363766,1.8545455,-0.17190495,-4.0530863,-2.0887227,0.13601738,2.1849751,-9.810122
2.676869,0.58774716,-2.034298,0.050323725,-3.3747647,3.490973,-3.50204,-0.028124712,3.2105708,0.50661105,-1.0982692,-0.0135374665,2.9455209,0.45499665,5.0496492,-11.257696
3.0570107,3.672852,-1.9792614,1.2275906,-3.5232775,-3.3565872,-3.3224695,-0.026769236,3.318502,-1.1182262,-0.007102553,0.01991243,-3.612089,-1.2175082,-0.24983025,-0.022312641
1.9218452,-1.2430204,-3.4598129,7.6213617,3.748968,-0.99376214,3.4312897,-0.00920115,-1.2197475,2.5205226,-3.0266616,-6.347839,3.6662958,-3.3743958,0.7624124,-0.05461587
-0.51234865,-2.5038843,3.362923,-9.0740195e-06,2.0468197,-1.0274701,1.2789726,27.709919,-1.9291565,0.5068519,-0.7512189,3.6258416,-0.7677666,0.9145448,2.7787418,-8.107893
1.1443585,-3.3589604,1.071877,2.240788e-06,3.6835537,-1.9629545,-0.6676932,-0.43826866,-3.505565,1.4426488,-0.4130462,-1.6143767,3.8941557,-0.2163745,-0.14383374,-0.07537069
-3.494268,1.153902,0.10638413,-1.1415919e-05,-0.70388234,-3.957347,0.9091728,-0.21208751,-3.2473936,-1.1611624,0.3159597,11.945831,-3.5203676,0.74820983,-4.3740044,0.061315536
-3.3269138,3.9640632,-0.06555803,7.088427e-06,-3.1978335,3.4244404,2.84584,-0.03855533,0.24657744,3.2160463,1.7592125,-2.3367858,-2.7238941,-0.43072563,1.8708018,-8.930548
-1.2407845,-0.43646124,-3.7598958,-2.9557035e-05,-3.4020362,-1.4577323,-3.240072,-0.050604485,2.9932916,0.22396794,-0.20135874,-0.049106874,-3.6725807,-0.18709293,-1.0668745,0.09176308
4.061394,-1.095263,-1.4429433,4.738834,-4.436439,3.4460354,3.8103743,-0.019352913,2.771384,-0.8987288,-0.25368515,-0.13161993,-4.6465683,-0.654938,-2.6847646,0.5969357
3.0952616,-3.3350887,-0.8116894,1.7771811,3.3224597,0.7634189,-3.329365,0.04110281,-0.0014111996,-3.2724774,-1.9775398,0.8636551,0.9359406,-3.489601,-1.3893418,2.138863
1.2385958,0.7738511,3.3986208,8.453801e-06,3.5697293,-2.0504913,3.3478658,0.014617581,-3.470888,1.1167682,-3.7406611,0.058814004,3.961212,-3.310359,2.7324457,-0.074876875
1.1728382,-2.8532898,3.402608,4.024705e-06,3.7923083,-1.4788368,0.53243756,-2.043677,-3.7993937,3.5075765,-0.50053203,-20.517975,3.5251172,3.3430002,-2.2983701,-0.015210838
-3.5436068,-0.5358071,-0.028960139,-8.5640495e-06,0.09755443,-3.1379285,3.0929844,0.07101345,0.43439865,4.2921014,-6.008959,-42.169823,-1.8847716,3.9424834,-3.8671336,0.010704994
-3.0501764,2.8896446,-0.024087906,-3.272458e-05,-3.3264956,3.5852711,1.7259724,-0.05424346,-1.3579428,-0.38180754,3.6787639,-1.3027326,-2.3778644,0.38810503,3.3517091,-9.195856
2.4277184,3.0123324,-2.0601785,1.4967661,-3.319833,1.8457656,-3.3799887,-0.0007272428,2.6533594,0.5537582,-0.23756772,-0.7195551,-3.6187212,0.230341,-2.156242,-0.3595128
3.4768503,1.7286669,-1.5868946,-6.14417,-3.7612982,-1.5145468,-3.5960338,-0.020501656,4.2369585,0.0414296,-0.12277386,-1.0849956,-3.8010705,-1.7424284,-3.4904068,-1.8875504
4.238905,-0.5248214,-1.6578785,4.608035,1.5554146,-1.3829529,-1.0700989,-0.025769513,2.1010501,-1.2065734,-0.047194272,2.6431253,-3.5848725,-2.4326015,-1.3022912,-6.888479
