ancorasir/BennettWheelLegRL/experiment_data/2024-02-08_05-19-47/joint_position_env0.csv
Joint_1,Joint_2,Joint_3,Joint_4,Joint_5,Joint_6,Joint_7,Joint_8,Joint_9,Joint_10,Joint_11,Joint_12,Joint_13,Joint_14,Joint_15,Joint_16
0.25621793,-0.0,-0.0,0.0,-0.1162624,0.0,0.0,0.0,-0.18292545,-0.0,-0.0,0.0,0.2513825,0.0,0.0,0.0
0.24110499,-0.008120762,0.00939635,-9.3919134e-08,-0.1402298,-0.0052443435,-0.0069395206,6.240234e-05,-0.1992533,-0.00807308,0.013784883,-0.0005332437,0.22612251,-0.005399307,-0.0123098595,0.000603284
0.24110499,-0.008120762,0.00939635,-9.3919134e-08,-0.1402298,-0.0052443435,-0.0069395206,6.240234e-05,-0.1992533,-0.00807308,0.013784883,-0.0005332437,0.22612251,-0.005399307,-0.0123098595,0.000603284
0.16867948,0.014417102,0.106161766,-2.4688812e-05,-0.121949516,-0.084878884,0.01999466,-0.27215484,-0.15077293,0.0133510465,0.08701622,-0.2027195,0.1749804,-0.050218634,0.084551975,-0.13125436
0.06629965,-0.019139135,0.34372494,-0.07312765,-0.19686377,-0.08666924,0.16799064,-0.7546434,-0.11878025,0.04393875,0.15053456,0.32701683,0.24136466,0.020094646,0.2749772,-0.029226203
-0.059157487,-0.03548206,0.38972437,0.022468992,-0.1703082,-0.11854533,0.27388906,-0.7070466,-0.04187386,0.11657786,0.2102868,-0.05165077,0.17935352,0.011784465,0.3045381,0.2601588
-0.023074612,-0.07674603,0.38897625,-0.0036003976,-0.1196513,-0.124908194,0.32923192,-0.5146577,0.07892581,0.035407767,0.4001166,-0.16757138,0.10397935,0.04051191,0.25799555,0.3158813
0.012465908,-0.112222835,0.35237077,0.089495815,-0.08535932,-0.18095161,0.38871634,-0.51752114,0.046380028,-0.0791698,0.40010992,-0.17446348,0.039082497,0.07182508,0.21986833,0.45229518
0.090414666,-0.112732135,0.38746327,0.2552198,-0.047357194,-0.16758141,0.31112987,-0.37539405,0.15749094,-0.19099604,0.3433047,0.033609092,0.19210277,-0.094097435,0.27664444,0.1745363
0.16188002,-0.011063364,0.4000162,0.19862695,-0.13151449,-0.12843336,0.34767425,-0.28014246,0.24059358,-0.2102011,0.29506543,0.2533936,0.40985188,-0.1686739,0.39988783,-0.0018693053
0.06088438,0.16530788,0.39090988,-0.025503267,-0.17680861,-0.041286997,0.35957104,0.10282773,0.30209094,-0.18246058,0.17915158,0.24699134,0.40978956,-0.13171977,0.39708185,-0.15075278
-0.15055045,0.2657505,0.3409672,-0.13577794,-0.19188306,0.005368643,0.3529731,0.2403502,0.35300863,-0.20038815,0.06415871,0.25631326,0.2893179,-0.075425245,0.3999273,-0.26084298
-0.25051704,0.21671781,0.1422614,0.10951254,-0.19105756,-0.11708359,0.33344212,0.22102863,0.2259781,-0.10705643,0.15219453,0.18991105,0.05042476,0.08321085,0.3102394,-0.14119309
-0.11336999,0.13809448,0.2972558,0.12854487,-0.2760947,-0.12127834,0.38119113,-0.26391563,0.056641974,0.093591824,0.3432178,-0.14063798,-0.013079269,0.14081812,0.3174736,0.01564422
-0.04157196,0.06209497,0.37625334,0.22185783,-0.22677203,-0.036259,0.40087023,-0.3174137,-0.1665052,0.14062202,0.40003455,-0.18799154,-0.08075984,0.19520536,0.26618344,0.34188986
-0.044076078,0.016850289,0.34858653,0.17880292,-0.096037775,-0.050217133,0.3193534,-0.24211934,-0.11100641,0.025178468,0.39989376,-0.30301794,-0.10421105,0.11485274,0.20021829,0.16350903
0.04849837,-0.033422414,0.34153518,0.38798764,-0.06313803,-0.037755456,0.30376256,-0.15043512,0.033727054,-0.056609366,0.21047206,-0.015075789,0.020090124,-0.03087076,0.26732448,0.13992842
0.15543559,-0.006311609,0.40000796,0.13948548,-0.13423046,-0.048811443,0.3477795,-0.04676557,0.0709646,-0.10960729,0.26016748,0.37627363,0.30979726,-0.19138223,0.40007493,0.03022227
0.07132395,0.0783928,0.393476,-0.0890718,-0.21728541,0.008584239,0.3768141,0.14178649,0.16196366,-0.06434839,0.19399661,-0.021722838,0.46175084,-0.16516586,0.39636776,-0.108858064
-0.11711673,0.13449933,0.310758,-0.09745291,-0.20318238,0.02012686,0.33511454,0.19461596,0.2112039,-0.077697046,0.062971786,0.20726433,0.2499848,-0.07694001,0.39996374,-0.24049059
-0.12606071,0.10747337,0.23844215,0.12738113,-0.20264152,-0.069531895,0.36335838,-0.10894174,0.096457124,0.04975607,0.15123865,-0.110541895,0.005599283,0.09504055,0.29858112,-0.2501469
-0.043272752,0.10666505,0.28334603,0.06680396,-0.31243286,-0.056917112,0.3984678,-0.18790537,-0.12785074,0.20215237,0.40004504,-0.11436513,-0.042550467,0.15440688,0.28542116,0.056096766
0.010437929,0.054274965,0.3066725,0.201534,-0.19526137,-0.010895307,0.39983052,-0.32172439,-0.2624197,0.17280912,0.3984706,-0.11217917,-0.1205267,0.15625152,0.19988573,0.2668522
0.024485847,-0.0072867344,0.27387005,0.23903698,-0.0742202,0.037126224,0.26997456,-0.17820972,-0.05881445,-0.027378172,0.33248085,-0.18443456,-0.13126265,-0.0026664396,0.172962,0.084356606
0.1203968,-0.077653445,0.36890042,0.28534093,-0.073444046,0.006474854,0.28208277,-0.1634355,0.05889649,-0.12533508,0.21314494,0.1261219,0.10096776,-0.16306558,0.29952276,0.13045691
0.18928646,-0.08371232,0.40001017,0.21621038,-0.16398038,0.034122568,0.33606765,-0.12806039,0.11202639,-0.13223489,0.20721754,0.16853328,0.28981683,-0.21664572,0.4000334,0.09415236
0.11918445,0.04987579,0.3893465,-0.0331721,-0.24033967,0.08521079,0.34755477,0.07587542,0.19690186,-0.09044881,0.11862844,0.07506159,0.43307778,-0.17265244,0.39432612,-0.07948747
-0.074782796,0.16238138,0.40015522,-0.08293021,-0.28565693,0.12294982,0.32358125,0.29406357,0.25535938,-0.10896915,0.03780708,0.22475107,0.36979455,-0.11767833,0.39986417,-0.22990303
-0.18134294,0.15669858,0.28567523,0.020959185,-0.22174068,0.07887524,0.27277347,0.34960052,0.22378235,-0.09744967,0.026103297,0.22123012,0.09891665,0.033578016,0.39862543,-0.29689467
-0.16908078,0.17080343,0.28730822,0.047439545,-0.22756007,0.050756488,0.3890158,-0.037479993,0.10114253,0.054452665,0.18607207,0.009194642,-0.019783555,0.1524757,0.28048363,-0.23823014
-0.10615871,0.14404503,0.3393425,0.092949316,-0.24223572,0.094202355,0.40003684,-0.2585448,-0.1530828,0.09929186,0.40007308,-0.06740579,-0.10037487,0.18715647,0.20183899,0.093496315
-0.09375967,0.104213305,0.34243527,0.2197246,-0.08509684,0.03519338,0.4012574,-0.28529447,-0.20053299,0.049189556,0.39827633,-0.14971267,-0.14652881,0.16664787,0.121550135,0.30002427
-0.057948284,0.0639075,0.27091455,0.19851582,0.020433085,0.046474412,0.2915495,-0.096033916,0.005208063,-0.074983306,0.29321072,-0.20009655,-0.08403752,0.03628662,0.1309953,0.21844521
0.103496894,0.0333159,0.31504998,0.32984126,0.021073636,0.055589996,0.30219996,0.13917518,0.0779713,-0.16318682,0.21764421,0.00201504,0.15156335,-0.15997432,0.33285376,0.14261007
0.17324452,0.023388738,0.39879036,0.102316655,-0.0665289,0.066017084,0.35164088,0.15409747,0.12790993,-0.18234721,0.2261811,0.14829443,0.348913,-0.19956425,0.40001592,-0.00016253963
0.0833782,0.1389261,0.38940582,-0.062061097,-0.11439879,0.06541026,0.34755006,0.21646829,0.19407345,-0.15855548,0.15996577,0.20025955,0.41730022,-0.15982573,0.39088848,-0.15190493
-0.15734035,0.20063007,0.2975324,-0.05170439,-0.114200786,0.089686304,0.29447842,0.21544069,0.24174404,-0.13934559,0.024840415,0.19670963,0.16919583,-0.05034788,0.39275533,-0.3848295
-0.15117276,0.17945388,0.24485885,0.12832625,-0.1566938,-0.029198976,0.40003452,-0.013403503,0.10010946,-0.046614807,0.16358867,0.09985785,-0.09193793,0.11631585,0.23639013,-0.2446909
-0.0979195,0.20055443,0.26387027,0.1416131,-0.2327465,-0.029165171,0.40001404,-0.1728032,-0.096813194,0.071190685,0.4001004,-0.028183602,-0.13608664,0.1717932,0.24221344,-0.0472436
-0.039562482,0.15346402,0.28367203,0.16656479,-0.18653448,-0.029874146,0.40130138,-0.3508206,-0.27964517,0.08609429,0.4000143,-0.23851894,-0.23184893,0.22768478,0.14227587,0.39583316
-0.027173998,0.098716475,0.273764,0.21887693,-0.0048374576,-0.07447102,0.29342592,-0.3008409,-0.17914069,-0.019916268,0.3971888,-0.3120071,-0.26642892,0.15361783,0.083544075,0.33486602
0.08138659,0.035779964,0.32613346,0.20302379,-0.021719001,-0.014597697,0.25703445,-0.15815283,0.03475383,-0.09266297,0.15922336,-0.06977162,-0.03532232,-0.061671525,0.30274516,0.17932734
0.18577552,-0.00922977,0.40001747,0.20301269,-0.12827659,0.027010005,0.3443067,-0.0641893,0.0396253,-0.121355556,0.26056823,-0.078635566,0.1807249,-0.18318456,0.40016508,0.060331196
0.15690847,0.06717213,0.40000707,0.026820028,-0.20329252,0.057710376,0.3633965,0.05640673,0.10457883,-0.12101754,0.24950762,-0.0008201179,0.3489895,-0.19470333,0.4000688,0.05856042
-0.019231327,0.14990643,0.4000045,-0.12866667,-0.27673498,0.098966174,0.37337,0.14689285,0.20065945,-0.12432875,0.13967998,0.08946379,0.3521665,-0.13443364,0.39816806,-0.01663394
-0.14408198,0.110275716,0.26388863,-0.016945632,-0.18962647,0.05029113,0.31402618,0.14407137,0.16768706,-0.13236262,0.10331524,0.12276634,0.12533042,-0.009441573,0.3976005,-0.1786265
-0.08820247,0.08868881,0.2825591,0.15292853,-0.22019139,-0.05725111,0.40003493,-0.11399296,0.030883607,-0.0027657778,0.25247145,-0.027656687,-0.022835804,0.07340033,0.28431398,-0.054885432
-0.016227832,0.07645801,0.3071735,0.08645152,-0.2614674,-0.08222506,0.3917043,-0.48337185,-0.20968826,0.15810964,0.40008086,-0.12753408,-0.109421164,0.09180864,0.20669971,0.31362966
0.011089364,0.013940421,0.32192048,0.3426719,-0.10917186,-0.12057427,0.31928194,-0.4645067,-0.19251442,0.110472664,0.39973244,-0.3534868,-0.16717732,0.08196102,0.12676969,0.33923197
0.017098576,0.01711862,0.26816228,0.21604224,-0.06535381,-0.07109468,0.2399945,-0.22962402,-0.0013544066,-0.059997812,0.26654193,-0.041295595,-0.04862307,-0.08647813,0.19399099,0.11414272
0.14870428,-0.016343163,0.40002897,0.21191324,-0.13750057,-0.03806754,0.30861378,-0.08802743,0.07297232,-0.08664084,0.22473888,0.045634095,0.18097717,-0.21887915,0.37544745,0.008172412
0.12584178,0.06693778,0.40001786,-0.018113965,-0.22274576,0.0071014324,0.34711406,0.027376708,0.1405469,-0.07195457,0.16801155,0.05933517,0.38266006,-0.21367371,0.4001276,0.04090595
-0.0042704465,0.10601339,0.40001562,-0.08833357,-0.28404325,0.057033993,0.3576482,0.21413636,0.20434912,-0.07520038,0.08346612,0.11822947,0.46398824,-0.16176237,0.39979485,0.00058455707
-0.13226745,0.12843364,0.29067165,-0.025208723,-0.25482807,0.055621386,0.3233222,0.24591027,0.20817107,-0.08463871,0.057518937,0.08070824,0.25840744,-0.09008851,0.38455185,-0.46701467
-0.11352986,0.15590121,0.27324802,0.17797482,-0.2276449,-0.086440444,0.39916235,-0.111268535,0.043179326,0.03144741,0.21214007,-0.018178543,0.04666023,0.0736903,0.29917893,-0.22660537
-0.08426231,0.16213158,0.28573218,0.016025236,-0.26332477,-0.059456628,0.39673075,-0.28856447,-0.13944708,0.079619676,0.40014738,-0.17746677,0.00968727,0.09909088,0.2855402,0.006156908
-0.043932736,0.111683354,0.32303184,0.20918673,-0.11920819,-0.01864182,0.36602148,-0.31274655,-0.22917365,0.052237704,0.39114267,-0.33821884,-0.05435678,0.09293038,0.21247227,0.32277653
0.015576954,0.057422984,0.3220452,0.27206466,-0.043240827,-0.039708424,0.2918024,-0.22469647,-0.05259018,-0.095219076,0.30921307,-0.21368027,-0.033647284,-0.027326526,0.16217,0.13995542
0.16755734,-0.021776326,0.40001798,0.20470846,-0.07018323,-0.04383572,0.3078937,-0.07724445,0.018189603,-0.13175455,0.25358245,-0.059214957,0.21796422,-0.20295429,0.34368747,0.03332254
0.14336199,0.056654666,0.4000112,0.0034035756,-0.13920861,-0.012816077,0.32826295,0.019652788,0.08616464,-0.12384553,0.21349692,-0.014429252,0.38994452,-0.14109758,0.40006015,0.09280704
-0.058936104,0.15352952,0.40000722,-0.065589204,-0.2171582,0.026972532,0.31286258,0.18238546,0.19903508,-0.12221448,0.08935274,0.14200248,0.4256183,-0.08922317,0.39939296,-0.009716724
-0.17751276,0.13193385,0.26502576,0.015619982,-0.2109955,0.026462559,0.25964093,0.2947988,0.21759364,-0.14179365,0.058556158,0.17740263,0.1956151,0.004226397,0.4000173,-0.31135648
-0.17589763,0.1523859,0.24720755,0.1535691,-0.15810232,-0.09002829,0.3887904,-0.11939182,0.09799565,-0.043754097,0.14565122,-0.13962054,-0.018709483,0.13704915,0.26788598,-0.3284129
-0.09774365,0.15922345,0.29829124,0.15122305,-0.22457162,-0.06612251,0.3973886,-0.20955355,-0.18392469,0.12677051,0.40004897,-0.09424993,-0.08771446,0.16801146,0.23541835,-0.020204028
-0.0811128,0.14424624,0.3035049,0.10152719,-0.1326095,-0.0016029326,0.4010384,-0.14345388,-0.28295255,0.12063454,0.3997882,-0.18165404,-0.14318253,0.15420838,0.15221538,0.1677867
-0.046269998,0.09342252,0.26959106,-0.021287099,-0.014639854,0.021462152,0.2235049,-0.1937491,-0.090932086,0.0008776483,0.3247472,-0.36369535,-0.1242198,-0.002994264,0.15971531,0.11123432
0.13158834,0.002871705,0.38564926,0.22366159,-0.061694417,0.0202224,0.2896067,-0.17437555,-0.0034404923,-0.04408721,0.23928726,-0.23894452,0.12034062,-0.2018808,0.3647185,0.13454467
0.19523689,-0.009459119,0.40002248,0.051829033,-0.16893445,0.018180866,0.35319862,-0.27162933,0.056940775,-0.070601076,0.26292875,-0.11697397,0.31674644,-0.23949453,0.4000485,0.13111615
0.039788764,0.07919894,0.40000162,-0.10680271,-0.26749033,0.079008184,0.36412764,-0.054117184,0.17624782,-0.06640713,0.19805439,0.046398804,0.48882002,-0.17921685,0.4000003,0.048128553
-0.12883091,0.11849353,0.3769547,-0.08531197,-0.27512494,0.10596005,0.315311,0.14401105,0.21905757,-0.09137035,0.12696362,0.36101183,0.32382575,-0.12834291,0.39278927,-0.19013111
-0.122074865,0.052561313,0.31334457,0.16192721,-0.21614031,-0.034574013,0.36015183,0.082501985,0.18505326,0.032963127,0.18231653,0.017397659,0.03882925,0.052259408,0.3342617,-0.056640618
-0.085905485,0.07842911,0.33964634,0.12199834,-0.29295623,-0.0860186,0.4000009,-0.26078457,-0.020585831,0.13339381,0.39383498,-0.111994974,-0.05238125,0.08814229,0.28157762,0.08479651
-0.068297595,0.056164153,0.35053053,0.054914445,-0.2059544,0.043854117,0.4000468,-0.14706112,-0.15332924,0.1596799,0.39945397,-0.11047867,-0.08996697,0.10825403,0.23734294,0.3362824
-0.06398461,0.015346949,0.3598906,0.13565102,0.0147835,0.01948383,0.31955463,-0.19978733,-0.13215916,0.03877615,0.39948976,-0.3565932,-0.14574328,0.04031296,0.17294036,0.25747502
0.037941784,0.050763715,0.31616053,0.10229232,0.07274864,0.0095819365,0.28396624,-0.102182776,0.033595692,-0.03923929,0.15972826,-0.20675097,-0.022542499,-0.09939031,0.24928139,0.31709576
0.19503099,-0.01642671,0.40001553,0.010149624,-0.028479256,0.044773597,0.348311,-0.030130204,0.08043854,-0.08345507,0.19523096,-0.09730053,0.22771592,-0.19816534,0.40013283,0.28249854
0.1560521,0.12946379,0.40000296,-0.07786381,-0.092695124,0.03753559,0.34147504,-0.014184076,0.15904322,-0.08743133,0.12418831,0.059240792,0.38075444,-0.18167132,0.39995313,0.086483814
-0.004474295,0.16133712,0.40107104,-0.029877927,-0.11285315,0.039663177,0.30089152,0.08123497,0.22410215,-0.054775212,0.046475314,0.05231107,0.2820208,-0.13690813,0.39818916,-0.092202894
-0.14762446,0.12919211,0.20176771,0.06145516,-0.093218535,-0.06594818,0.32235914,0.05114267,0.1776397,0.039737698,0.099680334,-0.044703692,-0.022973385,0.04421838,0.3180176,-0.18023662
-0.032597378,0.10615786,0.32519734,0.08141859,-0.20083071,-0.046792187,0.39998797,-0.1305392,-0.028957408,0.19105352,0.32748622,-0.037434947,-0.11399481,0.10662871,0.27908435,-0.049642824
0.012253049,0.09968586,0.37387642,0.08030751,-0.22047926,-0.016312316,0.4000738,-0.18378502,-0.2057264,0.2069808,0.39969608,-0.035665624,-0.15608115,0.16390666,0.24861224,0.30025092
0.018305708,0.08903484,0.37708253,0.036685087,-0.051638316,-0.02960482,0.35953993,-0.19205078,-0.2915632,0.11645619,0.39997375,-0.20563684,-0.17936878,0.13068725,0.19635424,0.26661044
0.03141348,0.021936307,0.36225268,0.23159595,0.055078648,-0.06451962,0.24682148,-0.19920588,-0.09365332,-0.016615428,0.29987437,-0.20479742,-0.15287721,0.0036379534,0.16769718,0.05478505
0.20339185,-0.052395232,0.40009508,0.04826174,0.0023917926,-0.06009644,0.27251223,-0.12684867,0.001667584,-0.04450718,0.24735378,-0.08333782,0.09190258,-0.15101688,0.36810926,0.17215788
0.20056076,0.040985562,0.40000224,-0.084503174,-0.07725783,-0.025554882,0.2905778,0.007404791,0.09664894,-0.05057647,0.1891299,0.04581591,0.29823995,-0.17726794,0.39999396,0.087462455
0.0341559,0.11661946,0.4000579,-0.115852065,-0.13369705,-0.010853947,0.2694911,0.112447634,0.19130798,-0.033899814,0.09985076,-0.0049112933,0.3593843,-0.1438105,0.3983013,-0.024610966
-0.09215418,0.090005785,0.2518276,0.060471,-0.08241655,-0.030348657,0.23715512,0.14174241,0.19533333,0.024890736,0.082082644,0.25256267,0.1275877,-0.032393046,0.37855506,-0.15734966
-0.030134875,0.08501353,0.28610116,0.13594837,-0.14915052,-0.073660664,0.39190152,-0.09881076,0.0035087795,0.19232522,0.2926095,-0.14682178,-0.059106905,0.075540796,0.2167432,-0.1377823
0.030106591,0.101209976,0.33359012,-0.005650395,-0.23305404,-0.0552466,0.39935604,-0.22183166,-0.17862543,0.19571103,0.40000767,-0.04583375,-0.11026487,0.11385219,0.19123463,0.11600249
0.036632285,0.120671436,0.35974357,-0.163113,-0.13366127,-0.047570664,0.38077885,-0.32620686,-0.24310128,0.13422327,0.38575235,-0.23066165,-0.1401547,0.15400459,0.12869935,0.43315426
0.08450599,0.037145454,0.39717802,0.18087369,0.042083886,0.014943588,0.2663149,-0.13111383,-0.08937571,-0.029076427,0.3225081,-0.31795672,-0.19986239,0.009231876,0.10549757,0.22510318
0.17477424,0.0711224,0.3410967,0.15385091,0.020173263,0.068702206,0.26591334,-0.035665076,-0.023978878,-0.106408864,0.27561152,-0.12736939,-0.0086127855,-0.16308835,0.2582097,0.28483328
0.21679367,0.11177377,0.40000665,-0.03386874,-0.098062016,0.09950404,0.31363082,0.009891455,0.08365776,-0.11253281,0.22244465,0.009726754,0.25138932,-0.14286941,0.40003622,0.18793963
0.09486942,0.19374925,0.40000984,-0.1782285,-0.14871977,0.10056166,0.29410723,0.06391595,0.15651691,-0.108068,0.14233443,0.07947244,0.33346936,-0.117317185,0.39989173,-0.091650106
-0.11580042,0.22828215,0.2744382,-0.08356421,-0.109230705,0.041233797,0.24687195,0.110235654,0.1939632,-0.079822324,0.082401924,0.021077136,0.10531126,-0.03129587,0.3931614,-0.3103517
-0.093987375,0.18875273,0.26840314,0.14289778,-0.13384749,-0.044579346,0.39089552,-0.10298372,0.051697508,0.086471185,0.24681059,-0.16829664,-0.07608874,0.11306269,0.2723158,-0.1316962
-0.02701104,0.19351572,0.33598036,0.0824242,-0.22115377,-0.034518614,0.39441887,-0.33309564,-0.15247032,0.24171923,0.399979,-0.19626562,-0.110079035,0.1423379,0.274982,0.035852402
-0.010526261,0.12090987,0.35204533,0.23439209,-0.048883513,0.018240722,0.30779016,-0.23602387,-0.1519038,0.10200912,0.3999713,-0.25991333,-0.14227857,0.10375288,0.2188496,0.22820635
0.042944826,0.12244025,0.27102783,0.27068022,-0.022928013,0.008957323,0.26068443,-0.11043545,0.012147912,-0.01007452,0.2051891,-0.1302944,-0.025890375,-0.03906295,0.21310605,0.23114952
0.18381776,0.008404511,0.40019402,0.08365437,-0.076902606,0.018390499,0.28061184,-0.0327567,0.08197083,-0.055327237,0.16434368,0.04419822,0.21725959,-0.17089328,0.400121,0.16331893
0.086368226,0.061344642,0.40002277,-0.12604752,-0.13216574,0.045739293,0.26970956,0.13953626,0.14928052,-0.081178404,0.093259685,0.29085463,0.36772975,-0.1474942,0.3993965,0.06562257
-0.08803695,0.14186157,0.33680722,-0.12847385,-0.14331923,0.056569196,0.23680101,0.27988625,0.17962134,-0.08459018,0.043682676,0.23607633,0.2881912,-0.110109754,0.39891896,-0.11159036
-0.10688751,0.12534873,0.2898525,0.01944939,-0.09849117,-0.05927722,0.31978783,0.09860163,0.10660456,0.035380114,0.10625517,0.09721361,-0.023728594,0.10661698,0.23542903,-0.12030446
-0.077787615,0.113883674,0.34093893,0.1868603,-0.20472956,-0.05234144,0.4000951,-0.22301693,-0.10454185,0.17425416,0.33787048,-0.13062122,-0.059177063,0.19204856,0.21851896,0.14985505
-0.061902523,0.07783048,0.3705807,0.26083276,-0.15032408,0.0031392307,0.39063135,-0.39283073,-0.26695174,0.2224299,0.39977393,-0.2565262,-0.08823885,0.21376775,0.1581831,0.45636967
-0.06196166,0.04249805,0.33474198,0.21503939,-0.031914674,-0.0120795285,0.2942969,-0.31027067,-0.12178081,0.05599796,0.32239577,-0.35752955,-0.11816517,0.09746657,0.10173925,0.21918602
0.068329245,0.017830594,0.31806064,0.1498025,0.026360605,-0.033382416,0.26537624,-0.21403524,0.014530193,-0.003402706,0.110309,-0.20476474,0.061177187,-0.048429865,0.2450007,0.31872967
0.18092813,-0.02573315,0.38278762,-0.0033748748,-0.07105675,0.019730218,0.34383756,-0.09950786,0.042210255,-0.054980725,0.15015575,0.009922563,0.27553388,-0.16157898,0.40001348,0.11677086
0.095766045,0.07355119,0.4000084,-0.13224526,-0.15202764,0.05637378,0.35173845,0.08489273,0.14032851,-0.03453897,0.06476207,0.074843265,0.42160758,-0.09667754,0.4000138,0.15783982
-0.08501151,0.08676412,0.35565457,-0.1819494,-0.14668106,0.0664914,0.3159738,0.23606142,0.17271589,-0.03468737,-0.0033006344,0.16601689,0.25775555,-0.056664985,0.3884536,-0.1706956
-0.07212457,0.052875523,0.31267455,0.0016990824,-0.1258096,-0.06737016,0.35816172,-0.0062366934,0.06822825,0.085321374,0.07969042,0.028467484,-0.021140408,0.10671653,0.28293905,-0.17940181
-0.007217888,0.049562268,0.34956053,0.080863945,-0.2213589,-0.08771783,0.40003303,-0.14798908,-0.15318611,0.18169327,0.33802637,0.017313788,-0.07567112,0.16432889,0.27123883,-0.009703869
0.02961186,0.061556682,0.35729164,0.08805272,-0.2538433,-0.06359415,0.39204687,-0.37904793,-0.32259053,0.16917919,0.39999673,-0.10696277,-0.1250079,0.22857116,0.2506625,0.4429234
0.058365803,0.05541944,0.3370402,0.12937792,-0.08703316,-0.08160929,0.3133673,-0.33609605,-0.2626935,0.067804724,0.39925224,-0.28353578,-0.20079157,0.19476484,0.16165127,0.42130253
0.07960509,0.0021562949,0.30760708,0.2162973,0.0047343853,-0.05472174,0.16799244,-0.24929845,-0.079546794,-0.086694114,0.30847898,-0.27735376,-0.20491192,0.09390675,0.17099616,0.20322002
0.2114655,-0.06526929,0.40006423,0.20002292,-0.10864315,-0.04216417,0.25466833,-0.24748595,0.045635663,-0.13913949,0.25472116,-0.103279196,0.09361312,-0.09935149,0.37272117,0.18939981
0.14281958,0.025155231,0.4000178,0.027705323,-0.2069235,0.0034201967,0.29131195,-0.11358617,0.13669091,-0.13187516,0.2048751,-0.044507403,0.29035982,-0.114020355,0.4000317,0.060757916
-0.04551137,0.11811275,0.40003213,-0.039679024,-0.2912016,0.058649167,0.29721546,0.10616529,0.2222321,-0.12755385,0.11431158,0.042595852,0.41703275,-0.086588494,0.39807022,-0.13044246
-0.1498538,0.12007812,0.29194823,0.04236822,-0.2543403,0.03958868,0.25014904,0.26113537,0.22029161,-0.13919729,0.08697577,0.008955684,0.22166872,-0.0043157134,0.3973428,-0.19457494
-0.14172414,0.11926389,0.27633324,0.12453326,-0.19160376,-0.11127828,0.34511426,-0.14984569,0.12312689,-0.033656914,0.15002598,-0.06239665,-0.0028338516,0.15265761,0.25876763,-0.13263552
-0.09198998,0.11900732,0.30563483,0.08208371,-0.24614826,-0.08013152,0.3991764,-0.34353122,-0.09449215,0.08082116,0.4000785,-0.13307564,-0.04634999,0.1977028,0.23890251,0.13503455
-0.07079186,0.089053795,0.31030557,0.061279103,-0.11231287,-0.076084666,0.40023765,-0.3980576,-0.21028921,0.04621822,0.39995375,-0.1773699,-0.106372245,0.15395494,0.16922309,0.24862471
-0.034160327,0.020615008,0.28774664,0.16333692,0.040623974,-0.03271888,0.23556694,-0.12785451,-0.03245734,-0.082106456,0.30561405,-0.28909826,-0.112468876,0.005465396,0.15814574,0.10728847
0.12767404,-0.062460057,0.38652384,0.117397055,-0.013153784,-0.022434708,0.28566754,-0.042197585,0.055119377,-0.11251036,0.2447374,-0.1529187,0.11850903,-0.19484779,0.36732915,0.09511252
0.20694533,-0.07049763,0.4000322,0.017423531,-0.083137274,-0.011177843,0.3095092,0.033063453,0.09846839,-0.13418733,0.25470966,0.006658744,0.29795742,-0.28058386,0.3999979,0.14659789
0.025473047,0.09964003,0.4000083,-0.09512557,-0.17904152,0.025313424,0.31506333,0.21336348,0.22088753,-0.119008094,0.14169745,0.15236071,0.3682849,-0.2247676,0.39817187,0.0409251
-0.10704762,0.118982054,0.2796117,-0.066697136,-0.15457197,0.015523227,0.2584888,0.21797425,0.24266186,-0.104737684,0.09463515,0.094828054,0.18751094,-0.13907997,0.39996314,-0.20684725
-0.07194395,0.06775535,0.23845424,0.20970052,-0.10819434,-0.08252143,0.37313387,-0.20115323,0.11693633,0.059071254,0.20476775,-0.15628915,-0.053829823,0.0579982,0.27745003,0.053990345
0.005839779,0.05873518,0.309283,0.15548085,-0.22478782,-0.07858999,0.40001392,-0.31351689,-0.16264549,0.18153296,0.40000007,-0.2568677,-0.12338769,0.09289944,0.2466035,0.18547258
0.05306977,0.02453306,0.3469852,0.20071477,-0.13081034,-0.06920209,0.36259535,-0.41634274,-0.26332256,0.14491771,0.398758,-0.21522003,-0.17234054,0.09851232,0.17891838,0.3085344
0.07585893,0.0066561494,0.3483484,0.35847142,-0.046294596,-0.049147546,0.278515,-0.21800034,-0.05382209,-0.019898273,0.2953167,-0.110421196,-0.12943345,-0.09144584,0.20717753,0.080293775
0.19567391,0.01981347,0.4000047,0.09723664,-0.0927809,-0.018521711,0.31556323,-0.02791183,0.045788165,-0.04746764,0.2195207,0.031172713,0.10483232,-0.24828424,0.40003207,0.17761822
0.14950806,0.10101387,0.4000048,-0.11574255,-0.19204421,0.022597821,0.35130703,0.13678169,0.13214603,-0.0594051,0.18026528,0.30722716,0.33475047,-0.21415745,0.40004882,0.09992333
-0.016034774,0.13108253,0.3900805,-0.116330765,-0.2174079,0.071784,0.35055506,0.31549472,0.1651764,-0.053412337,0.09280892,0.23617682,0.29089883,-0.16368115,0.39974675,-0.023468954
-0.061391298,0.0863157,0.3166396,0.06465283,-0.15939076,0.05516286,0.30566362,0.18479027,0.19681987,0.005445222,0.09189459,0.22620082,0.104352355,-0.03611415,0.39207438,-0.20282833
-0.051676087,0.12014412,0.2745359,0.108508475,-0.2496534,-0.085011095,0.40000555,-0.066050194,-0.08401581,0.16352044,0.27655748,-0.05252592,-0.097729206,0.09025135,0.26560137,0.076286994
0.018983927,0.078320436,0.33503795,0.21195781,-0.2826677,-0.05320562,0.401203,-0.2202282,-0.24859542,0.13266669,0.4000136,-0.15724148,-0.14790511,0.12104445,0.25481915,0.31820354
0.035312887,0.04576838,0.34277388,0.24228206,-0.11200884,-0.0552665,0.3288963,-0.2510941,-0.19583347,0.043166038,0.38413644,-0.47276527,-0.18103838,0.10984523,0.19269215,0.22647902
0.09528588,0.016507396,0.27313164,0.12566595,-0.07294231,-0.01923342,0.25803688,-0.07003671,0.008319337,-0.092526145,0.20322518,-0.18125556,-0.03912819,-0.060607154,0.24231847,0.15465552
0.22749907,-0.08620189,0.39860052,0.22726768,-0.16831888,-0.024330033,0.31840873,-0.11004204,0.055261318,-0.12276985,0.25176406,-0.13049687,0.19591773,-0.14293608,0.3965744,0.10498247
0.15263236,-0.008274526,0.39399773,0.03394569,-0.24332696,0.006420615,0.31897557,0.07851009,0.12921345,-0.13459116,0.21882154,0.011638764,0.36572728,-0.13254419,0.39302373,-0.08029026
-0.05681803,0.100699514,0.40003583,-0.102801286,-0.29830787,0.018661669,0.2961036,0.17549956,0.21699837,-0.11545045,0.11071778,0.03376542,0.36971712,-0.06566225,0.39997226,-0.1395891
-0.17283377,0.1519283,0.26030567,-0.08609561,-0.24543653,-0.03677111,0.27448052,0.25204095,0.21121897,-0.10062937,0.10651838,0.085843325,0.18085521,0.02410082,0.39978212,-0.36050454
-0.12462199,0.13830166,0.28354365,0.06916348,-0.2608082,-0.10180024,0.40003318,-0.08000322,0.04959432,0.008621892,0.23638935,0.068892755,0.031117743,0.12305721,0.32569066,-0.1709385
-0.04894226,0.1355369,0.33162618,0.0764787,-0.2930398,-0.04462071,0.39929396,-0.2700866,-0.23886915,0.15840778,0.40000138,-0.15622054,-0.05438625,0.20292173,0.28766736,0.38487428
-0.027555956,0.09996085,0.34619898,0.1335214,-0.16000876,0.044070788,0.40075457,-0.22967316,-0.29056695,0.1215722,0.39898688,-0.22383362,-0.10543201,0.17937182,0.20739612,0.407952
0.007417638,0.100972906,0.2945863,0.0748348,-0.072034396,0.022849562,0.28913003,-0.35597005,-0.088081434,0.006430545,0.309272,-0.3619871,-0.15194544,0.034619365,0.23200712,0.2700986
0.14301203,0.061918277,0.39598975,0.17246191,-0.09052137,0.018562978,0.31253883,-0.27829432,0.023015104,-0.027485494,0.18171194,-0.19231847,0.049315397,-0.109906636,0.3208023,0.32568842
0.17475763,0.07887003,0.3963635,0.0479097,-0.18238316,0.05869626,0.36877173,-0.1887021,0.06439549,-0.06797893,0.21426497,0.009867216,0.2512677,-0.20816255,0.39022118,0.1238275
0.0513391,0.15125263,0.40001062,-0.10413418,-0.25891998,0.07114029,0.3768106,-0.13494845,0.15687674,-0.045691296,0.14221291,0.041206528,0.4124636,-0.18485644,0.39999962,-0.013050719
-0.118577555,0.14723678,0.31435055,-0.029993752,-0.24811466,0.10629996,0.3388478,0.1726078,0.17538261,-0.065031394,0.085563585,0.05932755,0.27340817,-0.12316317,0.38617226,-0.22378284
-0.089523286,0.14611349,0.27899024,0.0627965,-0.19744724,-0.039440643,0.38190654,-0.10756534,0.075935304,0.041333236,0.17240764,-0.04409475,0.0123564135,0.040927984,0.27560115,-0.0670815
-0.053919613,0.13657223,0.31598195,0.15407163,-0.2674134,-0.012217259,0.39844918,-0.2194374,-0.13687025,0.10068968,0.4000889,-0.09952369,-0.035973325,0.077349,0.24213314,0.21036892
-0.050041113,0.1134037,0.3120007,0.14395162,-0.056882754,0.010231566,0.34306714,-0.33517814,-0.23416802,0.043386128,0.39896992,-0.28301126,-0.080284715,0.05394073,0.17708369,0.21872291
0.0016524519,0.07174241,0.2801641,0.28042617,-0.010755064,-0.0060903295,0.2926442,-0.24235356,-0.06465556,-0.06878936,0.27441618,-0.32404637,-0.07694043,-0.07469114,0.18131632,0.19383039
0.15920946,0.0001778159,0.4000088,0.14979671,-0.03412978,-0.017198537,0.31284922,-0.19627385,0.03718034,-0.11235506,0.21607687,-0.022444224,0.17299825,-0.22319272,0.3427965,0.19242413
0.14595431,0.06029894,0.40002364,0.0077580498,-0.14268863,0.027858088,0.35105926,-0.13803901,0.14942537,-0.09868855,0.13794759,0.0023032026,0.38277242,-0.16700363,0.4001122,0.13837987
-0.055893607,0.15270557,0.40002775,-0.13363965,-0.19082148,0.070490554,0.31306162,0.14144272,0.2264942,-0.10244597,0.036688384,0.13349125,0.39611024,-0.11816135,0.39995092,-0.06855268
-0.16396357,0.12340632,0.26501694,-0.05111516,-0.12052389,0.014137988,0.26696122,0.19227247,0.18986271,-0.10262329,0.0213943,0.19053638,0.13545564,0.025546888,0.38202897,-0.24818592
-0.11855866,0.11440442,0.31796914,0.08022507,-0.22672175,-0.024026988,0.39974692,-0.21087962,-0.06907941,0.09156224,0.33502352,-0.0559301,-0.02714282,0.14266545,0.26930654,-0.09784085
-0.0720269,0.044377048,0.36684313,0.19432382,-0.19060428,0.017487895,0.40090257,-0.29431957,-0.19393297,0.08328969,0.3986776,-0.06096196,-0.07902628,0.19039422,0.22008358,0.229186
-0.06325947,-0.0011999935,0.3624386,0.19167222,-0.0029541159,0.0017200981,0.34449276,-0.27678573,-0.092423014,-0.013310087,0.39923933,-0.32403988,-0.14263064,0.120306924,0.16627872,0.23896351
0.06315857,-0.06870792,0.3673465,0.33137605,0.025637055,-0.03266704,0.3115667,-0.19903804,0.06130683,-0.08908919,0.25465536,-0.19499518,0.032942858,-0.104014866,0.35054955,0.16119193
0.18853985,-0.15051995,0.39779308,0.09405616,-0.059765898,-0.0033361516,0.36247912,-0.13213207,0.11229246,-0.123618536,0.26000398,0.012944388,0.25224423,-0.18757749,0.39570096,0.16017142
0.11012841,-0.009192655,0.40000844,-0.046151392,-0.11436499,0.028850947,0.37311238,0.0391427,0.17959866,-0.096893065,0.19727312,0.04251276,0.45839554,-0.16512935,0.4001189,0.09231264
-0.025907336,0.10519704,0.40002126,-0.061653476,-0.14543241,0.047657456,0.36380434,0.16028543,0.24202496,-0.10377737,0.09369721,0.24357748,0.46279812,-0.13172466,0.40002188,-0.00333526
-0.24734098,0.15769769,0.27680132,-0.043501712,-0.14036667,0.058289498,0.31840405,0.28376076,0.28848013,-0.10544754,-0.0054500196,0.33291474,0.19171207,-0.043547537,0.39858526,-0.29012722
-0.2399112,0.13840659,0.19708009,0.14459896,-0.13662913,-0.03119654,0.3564813,0.06886857,0.1734598,-0.077847116,0.05031254,0.27244565,-0.0380345,0.12286193,0.29742584,-0.22962405
-0.15619236,0.11902393,0.25514618,0.13118224,-0.22925267,-0.011679759,0.400088,-0.23048632,-0.0056861527,0.0654749,0.31226385,-0.093311094,-0.09311081,0.14731956,0.29987353,-0.039992448
-0.112713575,0.07811146,0.27625996,0.24633233,-0.06269276,-0.017435342,0.39946723,-0.32519543,-0.12049836,0.027522754,0.3994011,-0.24322468,-0.15058836,0.17533582,0.22760738,0.22380759
-0.09340292,0.0320645,0.2385124,0.10480979,0.03824088,-0.01770759,0.3014257,-0.2476285,0.05669433,-0.07301044,0.26549342,-0.13284405,-0.080707744,0.06218138,0.23979673,0.054470606
0.0857788,-0.06600339,0.4000149,0.24523467,-0.00328535,0.0074619013,0.36665472,-0.15756746,0.12697566,-0.1099511,0.22103192,0.053911053,0.22935942,-0.14053272,0.39166605,0.006424817
0.12731454,-0.06436079,0.40000817,0.09264463,-0.06088067,0.051322557,0.40018553,0.0017949975,0.17050269,-0.096579015,0.19325413,0.0700439,0.42251357,-0.1912159,0.40016422,0.0945567
0.027336413,0.07293427,0.40004373,-0.17537564,-0.090649806,0.06518397,0.37937054,0.11529404,0.2417179,-0.0751902,0.07380939,0.13928784,0.45791313,-0.16075702,0.39998376,-0.09741329
-0.14972007,0.11857872,0.31337878,-0.13857691,-0.06526325,0.040034838,0.30148992,0.18551172,0.31485242,-0.035661682,-0.056895904,0.14820708,0.21966016,-0.06125457,0.39999303,-0.094326645
-0.16964066,0.10260823,0.16748887,-0.02412713,-0.1083129,-0.026898168,0.37739486,-0.12966917,0.12524772,0.08215466,0.09474511,0.0072188796,-0.033593,0.11960841,0.25435126,-0.018403878
-0.0591739,0.06345162,0.2490616,0.078745276,-0.22445035,-0.04838511,0.39991108,-0.22710821,-0.11538052,0.12507254,0.40040404,0.004341645,-0.11227858,0.18266012,0.23588143,0.25207946
-0.010055348,0.052861072,0.2509395,0.12687181,-0.119165696,-0.057163723,0.40000474,-0.3130888,-0.23080087,0.10399406,0.39824638,-0.20645177,-0.17289728,0.17989294,0.17481005,0.3608459
0.0054517146,0.028092101,0.24228355,0.09237648,-0.0058040093,0.023896769,0.26103398,-0.13825129,-0.058669936,-0.069587685,0.29400328,-0.08232277,-0.16136493,0.031042071,0.18014449,0.089200705
0.14289714,-0.045436,0.3734972,0.21679607,-0.071875684,0.011593802,0.33166006,-0.14668822,0.036883414,-0.10157107,0.19429317,0.07539847,0.11043728,-0.16330266,0.3823219,-0.003743442
0.16359669,0.09023753,0.40001225,0.12545748,-0.17478126,0.03530809,0.39238364,-0.21489502,0.12668255,-0.08705255,0.1266823,0.108322635,0.3554201,-0.12742524,0.39924136,-0.059713665
0.025596363,0.2071948,0.40000978,-0.05631338,-0.2139046,0.046590924,0.37816697,-0.16245931,0.19825332,-0.040201876,0.037621703,0.062253203,0.38285825,-0.086832665,0.39977428,-0.18180811
-0.17889506,0.23695202,0.2650286,-0.15704921,-0.16382237,-0.007557478,0.35829923,-0.124427326,0.17375088,-0.04572603,0.022040505,0.28653392,0.0815083,0.056278586,0.39749253,-0.14591855
-0.08609932,0.16165777,0.27707872,0.0057243644,-0.24204144,-0.072009444,0.40004522,-0.21605888,0.00375145,0.12001903,0.22280566,-0.06952329,-0.06559982,0.12847796,0.34243572,0.017237555
-0.0038821609,0.10175263,0.3547494,-0.026414752,-0.23676397,-0.041413005,0.400014,-0.28871292,-0.18364906,0.1773201,0.39997154,-0.14953569,-0.12051971,0.15877639,0.32538456,0.3040897
0.027897099,0.02906105,0.37413457,0.2754903,-0.025535723,-0.078889355,0.30978158,-0.29724595,-0.185878,0.07162072,0.3993506,-0.31833893,-0.18288878,0.12255481,0.23922457,0.240965
0.09410883,0.00014887984,0.35312822,0.3980044,0.010245763,-0.042862024,0.27435586,-0.25622147,-0.0024498994,-0.05171986,0.25373316,-0.18031907,-0.10150219,0.00557222,0.26829445,0.11093389
0.20994759,-0.04247348,0.38951686,0.021632105,-0.04121201,-0.027830511,0.31300202,-0.22249733,0.04776347,-0.105126224,0.25727874,0.09997319,0.13662684,-0.15591593,0.40033185,0.22824158
0.20377116,-0.051709637,0.40001437,-0.1030043,-0.12425566,0.028445479,0.32935047,-0.014635298,0.13878997,-0.12676178,0.2021062,0.3039044,0.3471774,-0.16226394,0.39996815,0.10669005
0.042914752,0.06933227,0.40002117,-0.16686969,-0.17722067,0.08428597,0.32034847,0.23487753,0.21550055,-0.10747803,0.13212912,0.39956594,0.3791656,-0.12678355,0.39980495,-0.1650515
-0.07864758,0.123695716,0.33839267,-0.11582563,-0.13400592,0.094202794,0.26269248,0.21143612,0.22144629,-0.07384228,0.09128817,0.1425162,0.17314553,-0.05537508,0.38601893,-0.4867047
-0.08170703,0.10450896,0.33155584,-0.04973193,-0.16840215,-0.03269815,0.36595082,0.051801857,0.12175837,0.10572043,0.23027161,0.05491128,-0.09365439,0.12252771,0.17106506,-0.28144452
-0.0625356,0.1050575,0.36702603,-0.020330243,-0.2310624,-0.0017136293,0.40008718,-0.14577569,-0.06823201,0.14690875,0.40011224,-0.046397295,-0.077528335,0.15228489,0.20555416,-0.14800532
-0.05555802,0.09081417,0.378059,-0.13233434,-0.14931108,0.012551849,0.3985987,-0.22878306,-0.24921502,0.12412794,0.39588395,-0.13736556,-0.113033585,0.17884958,0.15690307,0.1348968
-0.05771854,0.019247124,0.37252533,0.26823938,0.074278556,-0.033286057,0.27043775,-0.1567262,-0.113453865,-0.018585915,0.2973142,-0.2273914,-0.10732491,0.08041716,0.09099194,0.1385243
0.10040713,-0.021544315,0.33850583,0.07275329,0.05879271,-0.041879375,0.29190454,-0.10192584,-0.026339745,-0.07226143,0.23437457,0.02519171,0.0996616,-0.092609495,0.2810472,0.019864148
0.18077432,0.010945825,0.4000199,-0.00558445,-0.036690358,-0.03205387,0.34570494,-0.13941002,0.063417785,-0.05832479,0.1896246,0.0775264,0.33386892,-0.1485353,0.40005556,0.0063703666
0.048412967,0.0925256,0.4000258,-0.09969904,-0.076209,0.019484943,0.3409783,0.12566598,0.12626934,-0.049570866,0.111224204,0.18133606,0.39209622,-0.11635714,0.3997594,0.015309912
-0.15260962,0.17063338,0.26433113,-0.13943522,-0.041694082,0.01972129,0.2937172,0.23825666,0.1619233,-0.037776005,0.059182454,0.11800888,0.18624602,-0.03370202,0.39803216,-0.21452874
-0.14623396,0.16414532,0.2466367,0.109938495,-0.13104054,-0.05643127,0.40005937,0.01782234,0.038924444,0.12789388,0.21598947,0.022458674,-0.03809828,0.112420924,0.22518286,-0.053807914
-0.07967061,0.15509407,0.2734117,0.010789024,-0.21974288,-0.041658703,0.4000224,-0.24285588,-0.21924216,0.2152037,0.39916041,-0.08575839,-0.079635546,0.16173017,0.22377586,0.23063667
-0.015596918,0.13515815,0.29024604,0.004051586,-0.108971335,-0.014349332,0.4013051,-0.16243757,-0.35808423,0.16733986,0.39898804,-0.15534995,-0.1645848,0.1488278,0.14299253,0.38388297
0.008520274,0.08590189,0.276445,0.09402348,0.03549606,0.022482809,0.19142832,-0.08159431,-0.12563019,-0.016797058,0.30924714,-0.19906007,-0.17299622,-0.02833931,0.15774228,0.05913795
0.16662152,-0.040374067,0.40000337,0.17071049,-0.023864856,0.04203713,0.27096334,-0.09135895,-0.017043753,-0.08974442,0.23967734,0.008556473,0.09384317,-0.20546219,0.26072782,0.09015491
0.20487574,0.012156536,0.40000707,0.08435224,-0.11536139,0.07658203,0.32311743,-0.07614153,0.054706577,-0.081346326,0.21503942,-0.008666485,0.2807432,-0.20657633,0.4001173,0.036409903
0.051244974,0.12919387,0.40001878,-0.10987042,-0.18599308,0.107197545,0.3204029,0.08869809,0.15283361,-0.06897162,0.11525382,0.034536738,0.40808216,-0.16793059,0.39994538,-0.0305643
-0.12382956,0.18821234,0.3415448,-0.028706947,-0.1701613,0.08861895,0.25249833,0.20234641,0.18211669,-0.061886057,0.059367437,-0.060317468,0.24389708,-0.12272956,0.39850008,-0.2531882
-0.16944973,0.19026756,0.2179586,0.14263877,-0.12650964,-0.03914375,0.3076342,0.06391727,0.111776054,-0.014950042,0.14837123,0.018525217,-0.010817176,0.047216155,0.29621857,-0.32498753
-0.10358973,0.16762382,0.2649598,-0.006413552,-0.23222007,-0.030667502,0.4000055,-0.043881048,-0.10146194,0.15147014,0.34185585,-0.13378063,-0.045545895,0.10302952,0.29187626,-0.18707944
-0.030752527,0.113704965,0.32943544,0.18512502,-0.2663691,-0.03685084,0.40104926,-0.1657418,-0.33414498,0.24007952,0.3999485,-0.19784066,-0.141891,0.17178111,0.21525784,0.28643438
-0.022789858,0.053778138,0.31281552,0.32552677,-0.045736924,-0.06293129,0.35128203,-0.27567053,-0.2948193,0.15250023,0.39906865,-0.3109426,-0.17504466,0.16482686,0.15467629,0.40578768
0.06146149,0.0530048,0.27888462,0.2530512,0.014020524,-0.057778854,0.25296682,-0.25544202,-0.049443454,-0.009887622,0.27556035,-0.042706277,-0.06619535,-0.014854408,0.18489291,0.17934987
0.19343613,-0.015052634,0.4000518,0.17722967,-0.04287337,-0.040478494,0.32111943,-0.19875766,0.017594218,-0.07940047,0.24716026,0.09752211,0.19352014,-0.17028089,0.33972138,0.050614625
0.107973725,0.071930334,0.39895752,-0.06415583,-0.12458181,0.038332246,0.34716776,0.064701445,0.108433396,-0.09430159,0.20065106,0.33560085,0.4112913,-0.092301786,0.3992753,-0.0293895
-0.0648121,0.14893064,0.40002817,-0.17678046,-0.18028735,0.07882023,0.35257107,0.16918753,0.21420796,-0.06344415,0.056523036,0.26406124,0.32801658,-0.044010855,0.39994437,-0.119089134
-0.13612686,0.1150246,0.3052583,-0.1655906,-0.11156386,0.055160254,0.31177667,0.26115,0.25404304,0.0043547926,0.023140242,0.16574302,0.1621723,0.043710332,0.39742255,-0.2062401
-0.11295438,0.08124892,0.3183848,0.13355984,-0.1821998,-0.05157744,0.40015638,-0.14992994,0.038522623,0.18842468,0.22406468,0.021730062,-0.056182716,0.16135135,0.14096208,-0.08486222
-0.04810991,0.099420466,0.35949123,-0.034158643,-0.26046056,0.022944769,0.39994493,-0.24314477,-0.13619494,0.19323842,0.4000969,-0.09301299,-0.07283049,0.21307929,0.20463629,0.13982864
-0.0013471618,0.08292511,0.3870348,0.032594804,-0.20400992,0.019161196,0.40001813,-0.31973103,-0.3069138,0.14278935,0.39975378,-0.17406167,-0.15088962,0.22721171,0.11759124,0.4550289
-0.016497636,0.05926213,0.34850147,0.021374086,-0.0014057542,-0.03707192,0.33630937,-0.27796566,-0.18494157,0.036466565,0.39892948,-0.30158404,-0.18645906,0.12368768,0.045922227,0.42977569
0.05531435,0.07639078,0.32573387,0.12124142,0.0805724,0.0043823947,0.16432172,-0.008088177,0.0074247583,-0.069125295,0.21758273,-0.15981457,-0.09880816,-0.06340206,0.19546694,0.2555552
0.23779681,0.047479045,0.40001646,0.054437276,-0.06101142,0.042537294,0.26694202,0.0081531,0.054201756,-0.11268417,0.29791033,-0.093789816,0.14875698,-0.20558742,0.4001019,0.09660188
0.1674716,0.13038446,0.393075,-0.11159186,-0.111328036,0.04825731,0.2618209,0.13979055,0.11864862,-0.11784566,0.2856893,0.040957578,0.31953743,-0.22972392,0.3951723,-0.14221604
-0.009745052,0.16019067,0.40132633,-0.046460062,-0.1500244,0.08790886,0.25140622,0.300567,0.18097581,-0.15450212,0.21998969,0.41047275,0.264253,-0.18038064,0.39905873,-0.20955876
-0.07172527,0.13414319,0.304587,-0.04656434,-0.11720831,0.08836301,0.22356527,0.31076723,0.1835404,-0.124359146,0.18830207,0.07878559,0.09348535,-0.089898996,0.39592803,-0.2878206
-0.016354308,0.08244844,0.33135134,0.24664156,-0.06630999,-0.026436618,0.30378598,-0.17538191,0.05677814,0.013116555,0.30509982,-0.1895232,-0.10756023,0.048238803,0.20458765,0.12182091
0.0027098362,0.07196815,0.3392424,0.06034023,-0.12207564,0.03929744,0.39997935,-0.3808131,-0.18866393,0.15875019,0.400185,-0.26292017,-0.12914309,0.103603296,0.17338063,0.3876903
0.044583507,0.023513192,0.4006014,0.20062529,-0.06957818,-0.06786459,0.40102333,-0.36914966,-0.3281075,0.13642289,0.39936876,-0.32703033,-0.1789298,0.09026594,0.10599421,0.41604993
0.031926837,-0.009929228,0.3669729,0.09099327,0.073596545,-0.06533151,0.25967222,-0.13681968,-0.122663,-0.010385317,0.38719416,-0.33319277,-0.1890062,-0.0014026458,0.08665258,0.29308534
0.1968245,0.008565292,0.40000966,0.16000405,0.054739926,-0.05418607,0.29286385,0.06330762,-0.011944276,-0.09637733,0.29641333,-0.04966124,0.057317473,-0.19142483,0.24030602,0.07453521
0.2100536,0.01392552,0.40000615,0.002428927,-0.03377058,-0.028126994,0.35234076,0.13111904,0.05221297,-0.09334983,0.2841129,0.018726934,0.28422272,-0.24718738,0.40000877,0.07344276
0.08273363,0.08856497,0.38986143,-0.18087327,-0.09687995,0.018758018,0.37151313,0.29517886,0.14000651,-0.109473705,0.20894964,0.322374,0.39754796,-0.19994989,0.39577386,-0.14061518
-0.09423545,0.09068447,0.3216469,-0.23492081,-0.07286226,0.03118092,0.32790393,0.31238723,0.22793493,-0.03199784,0.10161188,0.114600815,0.17922714,-0.09789341,0.39958373,-0.30018637
-0.07441809,0.0789872,0.31540456,-0.22290525,-0.07115336,-0.06604976,0.37830874,0.084691174,0.19286084,0.1322569,0.20123601,0.04324636,-0.056307264,0.06676928,0.21264425,-0.2509591
-0.044096783,0.042795837,0.33649448,0.02079734,-0.16437164,-0.034595903,0.40001276,-0.10092026,-0.039754394,0.2214269,0.38999063,-0.092243604,-0.095400006,0.092215136,0.1657752,-0.14553203
0.03126191,-0.0066187787,0.39936388,0.2624297,-0.05740696,-0.054049045,0.40135875,-0.2117175,-0.27260882,0.20447952,0.39990473,-0.1827326,-0.16034502,0.10948117,0.10368657,0.28708476
0.015932791,0.0038917342,0.36223844,0.10655351,0.0861182,-0.03392147,0.29294524,-0.05102914,-0.15854238,0.08260577,0.37018627,-0.28338552,-0.20081392,-0.017986752,0.09053165,0.16032009
0.17811097,-0.03947509,0.39861113,0.1448077,0.07457736,-0.043068126,0.2880881,-0.04025533,-0.0042329305,-0.03399797,0.25638723,-0.13117336,0.04451673,-0.2220634,0.28224206,0.12202588
0.25407737,-0.049801126,0.39860785,0.07879462,0.004612515,-0.024720509,0.3168467,0.00927785,0.057078417,-0.055909354,0.24337761,0.066410996,0.2285975,-0.17252839,0.39998773,0.15930048
0.14936621,0.069939904,0.39963302,-0.090329394,-0.07586259,0.013364923,0.33684605,0.21798185,0.15296486,-0.05344354,0.18347128,0.19754246,0.4149662,-0.132317,0.39995593,-0.10427606
-0.03504113,0.10575444,0.39867708,-0.15392177,-0.08464149,0.030508043,0.32301044,0.28010377,0.17844728,-0.080685176,0.1320201,0.46784285,0.3560435,-0.08030298,0.3985488,-0.2034377
-0.15775539,0.099028826,0.28711426,-0.18004236,-0.06553945,0.060239036,0.30640024,0.27231863,0.19087845,-0.06564238,0.09237469,0.3162039,0.14083302,0.0166688,0.39888006,-0.32761747
-0.13301858,0.08639009,0.3053951,-0.08158477,-0.15499248,-0.022213547,0.40018946,-0.072542205,-0.022773175,0.11443052,0.28337994,0.046397448,-0.058324255,0.11190362,0.23927364,-0.2130418
-0.028194115,0.0035637366,0.40059388,0.18547356,-0.15956861,-0.010251043,0.40011033,-0.18197145,-0.23327264,0.15154752,0.39805073,-0.038968757,-0.14003025,0.1315246,0.17982525,-0.015366954
-0.028615292,-0.022777192,0.37609878,0.11643644,0.037451293,-0.054658107,0.31529918,-0.16228536,-0.19391616,0.068700805,0.3846155,-0.21285166,-0.19126755,0.076007895,0.088060305,0.056881756
0.054892533,-0.04062351,0.30520907,0.2632786,0.09056204,-0.058222484,0.2573077,-0.027988581,0.0010498475,-0.07343859,0.18779011,0.058808833,-0.029414041,-0.097153164,0.18478724,0.040101625
0.1852801,-0.16557288,0.40001333,0.17699972,0.058479596,-0.060981795,0.2994855,-0.024127096,0.027856274,-0.12410154,0.19016494,0.3261434,0.17079723,-0.21115105,0.35121652,-8.632193e-06
0.10302416,-0.038640533,0.40000886,-0.07030581,-0.060410712,-0.023622913,0.34285098,0.120025486,0.15091056,-0.103214115,0.09092432,0.1700586,0.40260038,-0.116216764,0.40009105,0.021245485
-0.14053458,0.104776226,0.34601146,-0.20551512,-0.06921672,-0.027317632,0.29508272,0.23130715,0.21673942,-0.082873,0.0028062721,0.5093735,0.17567967,-0.024075907,0.39986962,-0.17170398
-0.1587425,0.08051834,0.275205,-0.107758485,-0.103007555,-0.09149879,0.30607843,0.13745579,0.1265201,0.03117543,0.026861992,0.3451068,-0.038885936,0.14763421,0.32318613,-0.12217591
-0.08392333,0.04234175,0.33638012,0.14785822,-0.19289298,-0.12671232,0.39129746,-0.28137082,-0.07945988,0.18137021,0.26093718,-0.07401785,-0.1385253,0.18446392,0.23919268,-0.12451383
-0.033811342,-0.0074102976,0.3954738,0.2560916,-0.14692694,-0.1370115,0.3662913,-0.37408775,-0.15617798,0.16983494,0.3998066,-0.2666325,-0.1959521,0.2163725,0.1755161,0.14298566
-0.05539123,-0.06380348,0.3933227,0.26609197,-0.007826425,-0.08631737,0.23815416,-0.22426666,0.015758427,-0.012099263,0.31686282,-0.3115333,-0.17358373,0.10553795,0.1052539,0.052907802
0.045674358,-0.07461146,0.33800742,0.03733665,-0.012182797,-0.07374291,0.24202637,-0.061745256,0.09517256,-0.09888778,0.20435803,0.042816088,0.005847397,-0.0642328,0.29277018,0.25507963
0.15837237,-0.13248101,0.40001905,0.16508803,-0.07247347,-0.08188844,0.275843,-0.08621995,0.108804144,-0.100381464,0.24491297,-0.015337156,0.18851559,-0.19600642,0.40009794,0.15801795
0.09715437,-0.035012405,0.4001856,-0.019453948,-0.16059688,-0.015498322,0.30560207,0.16370125,0.18327816,-0.11221843,0.20091353,0.118241206,0.39262885,-0.22382669,0.400023,0.03770023
-0.08223675,0.061194368,0.40001884,-0.047373235,-0.20420563,0.023497703,0.30376884,0.30439296,0.23263101,-0.15333337,0.12158908,0.3925498,0.41722363,-0.17926612,0.39973488,-0.1408577
-0.10476861,0.018994406,0.34992325,0.14029466,-0.15140605,-0.006691428,0.2701379,0.121059425,0.24944055,-0.0792774,0.10416533,0.33333823,0.19469316,-0.022007385,0.37153557,-0.32141885
-0.115841515,0.0087626465,0.30405632,0.24980646,-0.17980227,-0.097071856,0.3967825,-0.02216815,0.05396062,0.113714136,0.2622009,-0.041773085,-0.013283747,0.17046513,0.20482115,-0.16336825
-0.05797155,0.012816498,0.34006244,0.10176026,-0.19042917,-0.14182992,0.39888838,-0.14026059,-0.14801562,0.13684316,0.40010932,-0.12710808,-0.071189284,0.1769982,0.17718863,-0.06972763
-0.029053094,-0.03902343,0.34139234,0.20112886,0.069804214,-0.099825226,0.28321457,-0.1997386,-0.112489924,-0.018822843,0.36253628,-0.13856885,-0.13460381,0.07897411,0.113476664,-0.19401531
0.08536026,-0.06927138,0.35530683,0.23745325,0.07234889,-0.07460827,0.26577204,-0.009935953,0.014441304,-0.100778125,0.22705956,0.102564536,0.038044233,-0.059075378,0.2113665,-0.040716868
0.16688126,0.047241516,0.40001416,0.21696438,-0.01777969,-0.021598887,0.32769194,0.19400467,0.0677419,-0.14122534,0.25815755,0.27649248,0.319679,-0.21604149,0.4001186,-0.09409909
0.07381482,0.13082574,0.4000024,0.07042786,-0.05467669,-0.009222813,0.32508624,0.22146682,0.14026672,-0.14716566,0.18988697,0.3221211,0.42193097,-0.17240335,0.39999688,-0.08036385
-0.11689937,0.16069691,0.38912696,-0.0023607279,-0.0748375,0.03570912,0.29644877,0.33997592,0.21078964,-0.14669289,0.06254968,0.22131345,0.28341734,-0.12159155,0.40014723,-0.17847706
-0.18561617,0.11642353,0.29095098,0.19539805,-0.067920804,-0.117336236,0.34313187,-0.02597473,0.09888313,-0.08135933,0.1717341,-0.019398658,-0.033849332,0.0666356,0.24693839,-0.078291215
-0.11444541,0.07944375,0.34925374,0.1366076,-0.13578857,-0.107651144,0.4000813,-0.17817129,-0.06984029,0.056976706,0.38970974,-0.1806057,-0.11800692,0.120647505,0.21432869,0.006441819
-0.10140294,0.028268756,0.3726605,0.15770663,-0.10199836,-0.110952735,0.40082452,-0.30057815,-0.2532925,0.10153224,0.40009502,-0.23466092,-0.17949943,0.1651244,0.13894765,0.36729854
-0.0971388,-0.045480795,0.36878005,0.22873388,0.061119076,-0.15060309,0.31065214,-0.20059729,-0.16328,0.00893566,0.40000814,-0.2774609,-0.20907728,0.13298862,0.05884856,0.24511048
0.03075176,0.048444714,0.35608378,0.14410001,0.057722516,-0.035919975,0.2081985,-0.01983748,0.040303554,-0.17096217,0.20586224,0.022492377,-0.011930984,-0.10586378,0.2516596,-0.016854752
0.16521066,0.022834418,0.39883345,0.2688087,-0.02522644,0.005275983,0.25226602,0.06907619,0.066463545,-0.21896188,0.25195915,0.104951926,0.18091051,-0.2198548,0.4000813,-0.17443208
0.12576768,0.17414005,0.38655186,0.15230674,-0.06851333,0.041697506,0.24241365,0.22147664,0.11848902,-0.20985797,0.21699487,0.029967926,0.3214699,-0.26503226,0.39987805,-0.19667971
-0.047517348,0.2889503,0.3909826,0.17866339,-0.06957841,0.04500187,0.22861715,0.25521544,0.16695319,-0.242786,0.14432569,0.051875144,0.30396467,-0.25756922,0.39772442,-0.28555256
-0.15117617,0.2536217,0.2191193,0.1913454,-0.0045118807,-0.0054829465,0.22885281,0.19835097,0.1560232,-0.24539739,0.122790545,-0.16459782,0.08902425,-0.18585123,0.39771298,-0.3156896
-0.1414483,0.15591466,0.23600267,0.29890344,-0.042972468,-0.15497035,0.32681793,-0.08982807,0.035355262,-0.106665164,0.16757843,-0.2733944,-0.1458799,0.06241501,0.25771666,-0.013628043
-0.124554686,0.13446485,0.25559855,0.33334836,-0.07449253,-0.18738693,0.40080348,-0.21073723,-0.14392516,0.07522138,0.40002126,-0.36802655,-0.1272047,0.14552447,0.2891056,0.24409951
-0.100649044,0.079217404,0.25513935,0.43251178,0.0005119269,-0.16807951,0.2670407,-0.32265314,-0.19342642,0.082716495,0.39873177,-0.27659485,-0.17656627,0.10604356,0.21428949,0.08448446
-0.026005877,-0.030335896,0.25167683,0.47204438,0.03225061,-0.11915029,0.2074175,-0.026843788,0.045261644,-0.14003187,0.24859323,0.27959564,-0.05012744,-0.06855168,0.17131199,0.014690625
0.10529906,-0.16064145,0.4000004,0.47205144,0.04205236,-0.122645594,0.20074424,0.11201645,0.1377666,-0.2486826,0.1082119,0.5013746,0.1819746,-0.24459758,0.33505824,-0.053006478
0.090578005,-0.004098626,0.3915266,0.3563565,-0.0027677612,-0.061631806,0.24762395,0.21490847,0.16747732,-0.22253624,0.08803874,0.40898082,0.35853624,-0.26308888,0.4002803,-0.24980898
-0.058458503,0.1859318,0.40001634,0.29057997,-0.02747609,-0.014318527,0.23006447,0.23469879,0.2374922,-0.23217908,-0.039571404,0.32120588,0.24634987,-0.2179475,0.4000305,-0.26546428
-0.18421826,0.19887434,0.27807218,0.3014663,0.0030390914,-0.019060994,0.19024082,0.19323494,0.25794008,-0.2017389,-0.084449515,0.30556917,0.036269333,-0.09979593,0.3979866,-0.23879565
-0.19344416,0.10996035,0.19971868,0.58717597,-0.031105448,-0.1442685,0.3302321,-0.16740982,0.16323766,-0.05832435,0.08350442,-0.088028036,-0.16933414,0.09335017,0.1714224,0.002761253
-0.18542488,0.09529424,0.22175176,0.53914005,-0.12250382,-0.22050533,0.39027378,-0.5810887,0.052055497,0.06527642,0.2990133,-0.4254728,-0.1305879,0.23394804,0.2457192,0.41823143
-0.15025528,0.000334385,0.23437315,0.676121,-0.0026699172,-0.23981735,0.25155073,-0.29421866,-0.069809,0.11238394,0.40007922,-0.32376927,-0.17226699,0.23367105,0.16525668,0.35926944
-0.13439897,-0.036165528,0.18199936,0.44834518,0.057320252,-0.20811847,0.15750293,-0.21612461,0.0650286,-0.076465435,0.30299833,0.043613557,-0.13957761,0.087718636,0.16975135,0.07746899
0.015274993,-0.11215204,0.38091487,0.53170496,0.06806433,-0.14021318,0.172512,0.00821412,0.23547016,-0.22521845,0.08615424,0.37967324,0.13888174,-0.098197214,0.21370657,-0.10158154
0.064403355,-0.035680678,0.3918638,0.44490707,0.01990662,-0.04749873,0.21825787,0.224016,0.2571945,-0.32321447,0.079030015,0.6985087,0.36761165,-0.24401212,0.40008238,-0.29546103
-0.028480297,0.13404284,0.39854586,0.4196048,-0.028727774,0.047469832,0.23837647,0.24196777,0.31416622,-0.33050224,-0.05408055,0.611873,0.42172498,-0.24546632,0.4000315,-0.2882986
-0.20466916,0.2698721,0.39979157,0.3264089,-0.04895788,0.08885231,0.20045377,0.21433687,0.399776,-0.32709655,-0.18560539,0.42296866,0.23682614,-0.20785725,0.3999634,-0.46795374
-0.3205925,0.17972273,0.1701596,0.604586,0.00080210593,-0.07085497,0.28583577,-0.1563184,0.30123088,-0.27017832,-0.046215065,0.36908177,-0.060239732,-0.021346547,0.28016785,-0.14644101
-0.32139626,0.09884153,0.16959438,0.6025659,-0.0692645,-0.18262708,0.3999917,-0.4150974,0.22867018,-0.08705819,0.1037578,-0.3962501,-0.08655284,0.1521246,0.24310327,0.254602
-0.24306883,-0.017354382,0.21734568,0.87817085,-0.019439641,-0.29095528,0.2964884,-0.52843845,0.048642486,0.028329777,0.400092,-0.4194046,-0.14539815,0.19307765,0.17774782,0.3194457
-0.21915945,0.0011633415,0.20499432,0.72111905,0.12809326,-0.26564798,0.15909548,-0.36461622,0.05407921,-0.059626006,0.38165435,-0.47903723,-0.21462055,0.11258074,0.091547094,0.11528718
-0.107627876,0.026447093,0.28782538,0.5250147,0.13612981,-0.1968549,0.17400521,-0.21681339,0.23570356,-0.18396762,0.142133,0.14002596,-0.009567885,-0.0768701,0.1985057,-0.047449995
0.049394198,-0.0436115,0.40001678,0.52500916,0.12134185,-0.14445257,0.22317779,-0.13384943,0.23646383,-0.26282936,0.14656201,0.18573771,0.2489471,-0.22614384,0.3729945,-0.1979122
0.06362306,0.073474206,0.40000987,0.5250018,0.11033887,-0.07065894,0.23810762,-0.0020817323,0.24241255,-0.29026002,0.13920197,0.21704914,0.38407725,-0.2561986,0.40012115,-0.23198122
-0.06408719,0.25242943,0.40002084,0.30220118,0.1156316,-0.00073673984,0.22915725,-0.008157826,0.27450395,-0.29672018,0.008302578,0.1636803,0.21131937,-0.23044997,0.39989692,-0.19710581
-0.24107064,0.23765853,0.29091164,0.5620875,0.1282448,-0.00051298994,0.1937686,-0.10953335,0.29085442,-0.24736671,-0.038915824,-0.14666136,-0.060403027,-0.05305467,0.32060823,-0.04392798
-0.268245,0.101162106,0.19841895,0.7717751,0.060548954,-0.1055495,0.30612707,-0.38996407,0.17402494,-0.056060813,0.14407879,-0.47106704,-0.17645286,0.1728693,0.21212104,0.33385748
-0.21943492,0.07103446,0.32556584,0.8191225,0.010079259,-0.24030213,0.32761323,-0.3301282,0.008340988,0.13274352,0.4000606,-0.6078705,-0.19696084,0.28193176,0.232105,0.4645702
-0.2142721,-0.009748816,0.39034882,0.87355155,0.063753,-0.32641593,0.22480947,-0.587726,-0.113235556,0.1708747,0.399911,-0.47116834,-0.22515692,0.31841752,0.1621853,0.40718782
-0.24004336,-0.071868695,0.33986646,0.4868944,0.19074991,-0.26349348,0.12941523,-0.15921362,0.05378879,0.004098248,0.3204294,-0.20773876,-0.2064666,0.20615776,0.078586176,0.18057422
-0.15039454,-0.1255098,0.28270942,0.37183738,0.22443758,-0.21874443,0.086720616,-0.021278864,0.18799041,-0.13540809,0.12550336,0.17603527,-0.04608831,0.062905334,0.18713722,0.1630967
0.03202555,-0.13017629,0.4015839,0.57226187,0.17027554,-0.09699634,0.12893961,0.19665255,0.23109314,-0.24655204,0.103429995,0.37355813,0.21209837,-0.17594582,0.37987107,-0.16905959
0.06327585,0.043502513,0.4000361,0.3655015,0.17817919,-0.03288097,0.12270241,0.26539385,0.2397423,-0.27287576,0.04620628,0.29567406,0.33697164,-0.317725,0.40007144,-0.39215672
-0.037747603,0.2480319,0.39499915,0.3796694,0.17699537,0.05715608,0.08887221,0.33189258,0.28226253,-0.29455453,-0.08576054,0.21842259,0.17298102,-0.31608698,0.40003514,-0.55246
-0.16639906,0.22567758,0.21090887,0.4815427,0.19284979,-0.016638547,0.10983128,0.30570975,0.27908003,-0.18140042,-0.062393747,-0.13273127,-0.083579615,-0.17962992,0.34789875,-0.5735866
-0.15366319,0.12914184,0.22615428,0.5263741,0.18345082,-0.13396776,0.29313675,-0.1503702,0.038955733,0.09033239,0.28491032,-0.3835775,-0.2929669,0.099902555,0.12246449,-0.016452996
-0.08662354,0.045661405,0.30996493,0.63652784,0.08359587,-0.21216,0.36183962,-0.121812105,-0.13043946,0.21959059,0.39845532,-0.50085205,-0.29097748,0.1838472,0.20833729,0.007213987
-0.079579055,0.010256874,0.31444743,0.66958654,0.2057429,-0.2596319,0.12996447,-0.24545942,-0.04845867,0.14204386,0.37687483,-0.23469743,-0.30124903,0.2216432,0.15563479,-0.05496332
-0.011585137,-0.10514528,0.284278,0.51537484,0.20430304,-0.20510599,0.14001991,-0.23912357,0.13848847,-0.049385775,0.19955158,0.23765573,-0.11380631,0.12895902,0.2197769,-0.014435399
0.1131643,-0.187188,0.39331815,0.5303493,0.15556933,-0.14857715,0.16917461,-0.23754798,0.16543266,-0.15542811,0.22861232,0.4791577,0.09640857,-0.033015564,0.3818415,-0.10586164
0.15218984,-0.016232613,0.40000653,0.5010714,0.14495517,-0.066584356,0.1472766,-0.054512843,0.1924184,-0.25158736,0.21044448,0.5877725,0.26744252,-0.23255782,0.40005925,-0.5023664
0.08178417,0.1693899,0.40002692,0.4243503,0.1037631,0.046631306,0.13299444,0.15313412,0.2678967,-0.2986816,0.11479895,0.42903388,0.28542623,-0.28817394,0.40009505,-0.5645425
-0.09641382,0.30319902,0.3581511,0.28479657,0.119704016,0.07253193,0.08591091,0.31981185,0.30730137,-0.28881085,-0.01057444,0.18001969,0.06440067,-0.24307418,0.40005115,-0.5104465
-0.21280076,0.18319501,0.14018795,0.56713444,0.19800688,-0.10573886,0.17707647,-0.19644569,0.21563864,-0.19074832,0.11986197,-0.17278892,-0.2134026,-0.016168423,0.24640839,0.09418773
-0.20352836,0.1137498,0.22789286,0.82694435,0.14325829,-0.13687906,0.1499776,-0.25593996,0.063940324,-0.027833149,0.3577285,-0.27761012,-0.26497987,0.15672664,0.11559899,0.2876062
-0.16780005,0.04293221,0.35306862,0.7800336,0.18994722,-0.105902664,0.20879394,-0.44953653,-0.09835589,0.11933365,0.40004218,-0.41460714,-0.3078328,0.20694228,0.07000141,0.31500614
-0.18747613,0.0012008615,0.342164,0.6151236,0.19204378,-0.13172716,0.16513318,-0.46185172,-0.03304741,0.09463886,0.40001503,-0.3281572,-0.30887964,0.19898283,0.0054283403,0.39592448
-0.20593616,-0.011174359,0.2749832,0.45707086,0.20696151,-0.09456166,0.095042124,-0.31156862,0.119814135,-0.0785257,0.23222654,-0.04573607,-0.19804518,0.047433976,-0.011312694,0.1819965
-0.042673454,-0.1027646,0.28255397,0.4710102,0.1867934,-0.023957433,0.08189624,-0.1666892,0.23049334,-0.19345969,0.10649465,0.14686756,0.026915887,-0.14484207,0.23068357,0.15583657
0.112944886,-0.05854529,0.40003982,0.41781187,0.15669604,0.008989442,0.084049225,-0.25182778,0.21989043,-0.29253665,0.15585275,0.22285715,0.26548967,-0.36742458,0.40005654,-0.21995594
0.069105685,0.07438631,0.39940256,0.45118374,0.14285044,0.11524228,0.082244225,-0.07102356,0.2384099,-0.33119866,0.1158828,0.22277555,0.3385628,-0.4334144,0.40005195,-0.30180222
-0.08414967,0.2513732,0.37174377,0.3831206,0.1346356,0.1808562,0.023660377,0.006590213,0.2714914,-0.34532818,0.004637528,-0.037299097,0.1312166,-0.40989336,0.40009692,-0.2987713
-0.20483759,0.20337522,0.19039398,0.48392686,0.21809602,0.10436016,0.13819526,-0.03711605,0.23401652,-0.33991876,0.07541432,-0.46892822,-0.14872544,-0.1985977,0.28634906,-0.09516222
-0.24741876,0.101476826,0.20284063,0.7961924,0.15835494,-0.021822877,0.2401808,-0.36392042,0.06827973,-0.1385125,0.31453955,-0.5046279,-0.29491267,0.02956934,0.10916512,0.2356498
-0.22158577,0.025060812,0.3005114,0.54287183,0.17709467,-0.121545486,0.25731385,-0.23588182,-0.10967783,0.11226967,0.40007713,-0.57993186,-0.30327243,0.18550763,0.09049575,0.56612736
-0.21507493,-0.10849931,0.31531835,0.7463582,0.19780783,-0.24521151,0.18524301,-0.40715736,-0.10165168,0.117541015,0.40133014,-0.2568263,-0.34035575,0.1841835,0.0019347548,0.41520515
-0.24213247,-0.10570438,0.22091867,0.22893412,0.21414272,-0.15341228,0.10568551,-0.13492492,0.07686869,-0.06869281,0.2761911,0.05475956,-0.26819175,0.071534,0.06821183,0.22254339
-0.05101626,-0.18108901,0.30659118,0.45919916,0.22530483,-0.09333274,0.1066216,-0.036203105,0.20225187,-0.24049893,0.060212865,0.28797767,-0.015040991,-0.13361096,0.29203987,0.10883502
0.12010002,-0.027695652,0.40001982,0.52576077,0.16888762,0.029221576,0.14862257,0.10839418,0.22836675,-0.33126003,0.070703,0.37139666,0.22612475,-0.34728378,0.40012792,-0.39115122
0.14609347,0.16358036,0.40001786,0.503105,0.1542454,0.123259924,0.15391247,0.16894804,0.23641112,-0.3428543,0.0052638054,0.21277994,0.19026724,-0.38172832,0.40012228,-0.47227982
-0.02018103,0.32114756,0.38180083,0.40105748,0.17094722,0.13040535,0.12559392,0.29473978,0.24655588,-0.3285464,-0.076202676,0.003338852,-0.00048288147,-0.31157878,0.39996776,-0.41860935
-0.15689287,0.18720122,0.13536218,0.71616983,0.17483892,-0.0817505,0.2497305,-0.19800924,0.09524245,-0.15467012,0.15071766,-0.39867896,-0.27638963,-0.047949117,0.18265195,-0.02953479
-0.100926824,0.08766124,0.25105736,0.88491476,0.058879167,-0.21863861,0.28696257,-0.3251253,-0.06175512,0.0834146,0.4000514,-0.7870339,-0.28550336,0.18744756,0.2260246,0.4505395
-0.09120853,0.02350712,0.27751344,0.8804848,0.036006685,-0.3041376,0.21789064,-0.3702303,-0.15490253,0.19657709,0.3998927,-0.66412157,-0.28098693,0.29751334,0.24669382,0.56681055
-0.07329385,-0.050461654,0.28364018,0.94746757,0.11698482,-0.3631482,0.06652161,-0.21169582,-0.16312331,0.21259886,0.3999091,-0.4737113,-0.3087672,0.33729,0.18223919,0.44398904
-0.053973977,-0.13793826,0.25687656,1.0708457,0.16638255,-0.2959436,-0.00037706216,-0.29481667,-0.03163043,0.0936625,0.36190957,0.025537211,-0.352725,0.26044005,0.049757805,0.037171155
-0.016872188,-0.15892619,0.2083236,0.6909812,0.16922249,-0.20835963,-0.007600308,-0.28769758,0.12345557,-0.11766501,0.1941774,0.57645816,-0.19756782,0.105579585,0.10864485,-0.1941284
0.10164924,-0.17664668,0.3711373,0.5157239,0.23426785,-0.037796687,-0.017905107,0.034303345,0.2366254,-0.31000525,-0.0057099364,0.79638237,0.00777145,-0.09157854,0.29402104,-0.48585188
0.13238595,-0.12481414,0.40084735,0.72066844,0.22300997,0.11215565,-0.028723726,0.31853053,0.2504013,-0.40638334,-0.069254294,0.44271234,0.16016504,-0.27351278,0.40010437,-0.6920614
0.13475858,-0.0014998295,0.39847264,0.68266314,0.2544353,0.22046055,-0.033369478,0.65359646,0.22489122,-0.47754854,-0.12108844,0.44015676,0.17792368,-0.36015195,0.39927998,-0.9200137
0.02094873,0.08807228,0.2989777,0.65040326,0.24044487,0.2701896,-0.059907462,0.27011323,0.19741915,-0.44523457,-0.18229784,-0.48297384,0.018775832,-0.31233764,0.39973456,-0.68432933
-0.012053312,-0.016088143,0.26685515,0.89909405,0.23667341,0.17816487,-0.02025707,0.008410284,0.15108846,-0.39660394,-0.107810445,-0.74741215,-0.1759422,-0.14752443,0.2858822,-0.29686487
-0.08460701,-0.13099244,0.17812216,1.1865821,0.18404783,0.07910402,0.18611085,-0.019189002,-0.029642073,-0.20562428,0.15430255,-0.87827927,-0.36013448,0.054467462,0.029847927,-0.059716754
-0.07621418,-0.26954722,0.20522122,1.2555667,0.11369463,-0.021802852,0.23232459,-0.23216216,-0.19216843,-0.05571605,0.4001433,-0.9160723,-0.3671817,0.2171135,0.061110973,-0.18415724
-0.050997213,-0.3385533,0.176378,0.82254344,0.06344675,-0.110031,0.2942853,-0.22600773,-0.13006626,0.098278806,0.4000577,-0.8891924,-0.37811568,0.35300294,-0.0033001995,-0.023039497
0.010315265,-0.45756105,0.10779491,0.5448313,0.10826556,-0.22193468,0.28603837,-0.25871667,-0.06407089,0.12393988,0.3999922,-0.6390147,-0.47240385,0.34516978,-0.14870596,-0.26364285
-0.017938001,-0.5368285,5.0060244e-06,0.29138687,0.2217489,-0.18536077,0.07613828,-0.24448101,0.104847245,-0.07293093,0.28555536,-0.044081837,-0.4238298,0.29236338,-0.11109357,-0.33684587
0.05141578,-0.5304044,0.1856572,0.2065666,0.20524886,-0.048962034,0.15453875,-0.27067697,0.22348355,-0.26819077,0.15176249,-0.023371026,-0.20908721,0.09729759,0.122499146,-0.51562405
0.16532388,-0.48533422,0.34535545,0.29811493,0.14105234,0.16875164,0.17802812,0.010925275,0.29203632,-0.3998814,0.08324183,0.215482,0.05012444,-0.10958968,0.34087482,-0.5022387
0.22118738,-0.31002393,0.39088243,0.42748633,0.098231,0.29317117,0.14907682,0.10015975,0.31367475,-0.4634503,0.009775611,0.13051853,0.13817903,-0.30404446,0.40004015,-0.7085395
0.23027901,-0.040860165,0.37379616,0.6413066,0.09876072,0.38541397,0.04338552,-0.062944405,0.32749644,-0.48934156,-0.12157891,-0.16731574,0.053208567,-0.3320841,0.39990464,-0.7118593
0.057567455,0.13724767,0.3205622,0.846305,0.13071093,0.32755923,-0.013661556,-0.29155573,0.3009768,-0.46470582,-0.23334347,-1.0143386,-0.16741121,-0.17205876,0.3469714,-0.3289301
-0.032379057,0.014657249,0.14011382,1.2100592,0.13249409,0.24278782,0.22529843,-0.28195503,0.22610036,-0.3387607,-0.069110766,-1.1841617,-0.33371344,0.0519091,0.10144017,0.14503989
-0.027029583,-0.11754514,0.09131444,1.1134437,0.029148925,0.1529631,0.3043333,-0.2012204,0.034342863,-0.0738488,0.2766417,-1.1709571,-0.3364581,0.30703795,0.16602226,0.37750518
-0.01202889,-0.18108557,0.09568174,1.350468,-0.007838417,0.0031398702,0.30522633,-0.012079798,-0.0652519,0.10362787,0.3917605,-0.97561723,-0.35164648,0.40945017,0.14084622,0.3259239
-0.040605955,-0.24681936,-0.022423675,1.0551391,-0.004832286,-0.04396039,0.31282538,-0.37091768,-0.0061047277,0.20181283,0.40266618,-0.49284613,-0.37271407,0.45831737,0.018907795,-0.044289976
-0.09777638,-0.27809772,-0.014967927,0.8464255,0.010398919,0.046217266,0.25750777,-0.45782945,0.21748437,0.008191726,0.24257682,-0.06521201,-0.26986372,0.3995195,0.010873213,-0.4604621
0.01773609,-0.32082406,0.15395941,0.7625307,0.06538122,0.13412954,0.1889416,-0.33610567,0.37535533,-0.1871957,-0.050496407,-0.035434406,-0.047833346,0.23049068,0.19280502,-0.5802211
0.15897761,-0.21417685,0.38282096,0.76254064,0.06596072,0.24642825,0.14360331,-0.3400873,0.3588199,-0.32296634,-0.073049314,-0.0757885,0.12556171,0.033019762,0.39819303,-0.6269379
0.07888714,0.067163326,0.40004438,0.7937747,0.12609221,0.31764197,0.027102007,-0.4246246,0.38687715,-0.40270764,-0.25764155,-0.36245343,0.017844014,0.06543475,0.39986882,-0.57609504
-0.086717375,0.042670067,0.26141587,0.96954346,0.054199647,0.24656804,0.19220893,-0.11742126,0.27593845,-0.35540023,-0.1103882,-0.6312839,-0.1765273,0.3132316,0.26299658,-0.22040029
-0.095922135,-0.16759121,0.13181476,0.9220132,-0.026809523,0.12624916,0.36652267,-0.19226462,0.10924492,-0.20079987,0.12908646,-0.8626017,-0.29018828,0.50541776,0.15168801,0.07710905
-0.091289125,-0.35168368,0.024089409,0.82906777,-0.13870977,-0.12023303,0.38848075,-0.30529654,0.027707735,-0.0016468314,0.40018517,-0.8505932,-0.34108487,0.6652679,0.013321163,0.12096674
-0.07809904,-0.45235735,0.02012442,0.94291365,-0.14689076,-0.264813,0.32584494,-0.3099001,0.16263415,0.0339567,0.39984947,-0.6338266,-0.32842746,0.70559424,-0.065620475,-0.35388774
-0.12739635,-0.4139576,0.09152941,0.52602667,-0.079372615,-0.08028902,0.24985698,-0.00042990784,0.30995908,-0.16025074,0.28411457,-0.3894766,-0.14996836,0.62006104,0.041057706,-0.8376385
0.0033453067,-0.38986015,0.17371689,0.508408,-0.06728603,0.031780392,0.20815375,0.06382452,0.36969802,-0.2457004,0.20734335,-0.0402174,0.03247121,0.43601024,0.27195224,-0.7527015
0.09273352,-0.3569119,0.2712011,0.5516475,-0.060519498,0.11250589,0.14929166,0.11726465,0.41436768,-0.34110373,0.1292241,0.14826386,0.16669483,0.25014022,0.40029362,-0.99089366
0.14432468,-0.1869539,0.3776192,0.8677961,-0.0394756,0.24828555,0.049932275,0.36844933,0.46691018,-0.41734946,-0.010176123,0.16043921,0.16792074,0.0033727835,0.39564407,-1.3169521
0.080323726,0.08541502,0.40003252,0.6496888,0.057868008,0.28921303,-0.013089322,0.37147227,0.43996376,-0.48540276,-0.16517644,-0.17556818,0.06478635,-0.11680941,0.4000925,-1.232113
-0.07583588,0.1384915,0.29533616,0.74080056,0.08441486,0.25553715,0.030327074,0.08855,0.38073018,-0.49181843,-0.23589882,-0.9473388,-0.13245805,-0.007188363,0.39225522,-0.78112626
-0.13370752,0.02101704,0.15962598,0.9206184,0.14325663,0.16186419,0.21341504,-0.06743591,0.23479362,-0.4396157,-0.0054428824,-1.0176299,-0.30839154,0.19677566,0.1740367,-0.19565213
-0.06404742,-0.17587484,0.15635113,1.1886859,0.007750593,0.104267836,0.3931814,0.105473496,0.043855257,-0.17962833,0.29071903,-1.0483359,-0.3705368,0.43942717,0.1353503,0.19318877
-0.11965862,-0.21653455,0.09603542,1.2215508,-0.091084205,-0.06540757,0.3570304,-0.013762974,0.00919554,-0.025236042,0.39031357,-0.8417525,-0.35829547,0.5587994,0.07404025,0.02859235
-0.10668006,-0.3401231,0.033968866,1.2281072,-0.10264834,-0.19340171,0.27608335,-0.19089334,0.12574369,0.02687427,0.4016697,-0.36536828,-0.3729306,0.6010014,-0.04727113,-0.4402108
-0.13396169,-0.32878867,0.079579294,0.795625,-0.085942075,-0.11969059,0.21784745,-0.17181034,0.3457896,-0.13386032,0.21198884,-0.2997979,-0.24420802,0.58549786,0.03418354,-0.6006091
0.0016253398,-0.31777266,0.2243842,0.59629226,-0.07080418,0.044330705,0.20834816,0.0260572,0.39517015,-0.26487735,0.15277939,-0.20713468,-0.035033755,0.38412625,0.23539348,-0.9162976
0.080772914,-0.26838252,0.35483912,0.87578154,-0.03333628,0.20393862,0.13293767,0.16027237,0.42185017,-0.38504237,0.048970822,-0.10850683,0.20808105,0.14736967,0.40017053,-0.87876505
0.12221031,-0.017022416,0.39464816,0.7761411,0.03211933,0.30885628,0.0038918378,0.016006803,0.4080325,-0.4307329,-0.06328683,-0.39515534,0.20029753,-0.07887155,0.39855036,-1.0029786
-0.0078639,0.22933206,0.40003255,0.83879536,0.09267176,0.37349582,-0.072859004,-0.13670652,0.40846828,-0.48462,-0.24635477,-0.83907557,-0.014900964,-0.028814856,0.3989746,-0.6721209
-0.16117787,0.04396936,0.14705169,1.0657567,0.07932976,0.27109593,0.16765726,-0.13908808,0.24381815,-0.3629808,-0.018570572,-0.8359979,-0.23147398,0.21748501,0.20362228,0.01762807
-0.15755375,-0.10133564,0.14768146,0.9563447,-0.020545084,0.14671335,0.3296348,-0.12703079,0.12423318,-0.16956547,0.16475223,-1.2387823,-0.24828355,0.43141982,0.17605826,0.39662492
-0.09626865,-0.21862476,0.13136956,1.2049435,-0.10722128,0.0012361564,0.3931629,-0.091380864,0.011779806,0.020496044,0.4000809,-1.1827008,-0.31010878,0.5055099,0.09544722,0.3462628
-0.08698943,-0.36749786,0.003653068,0.88242227,-0.051787384,-0.20454185,0.25363043,-0.3249821,0.09026272,0.061423723,0.4000222,-0.48957133,-0.36072326,0.5456869,-0.07914028,-0.12119231
-0.08889535,-0.39707616,-0.0015582294,0.6489374,0.006880344,-0.1274961,0.19790189,-0.36297688,0.26429927,-0.11304563,0.24942215,-0.17285115,-0.3117042,0.47727394,-0.037741903,-0.5919576
-0.028846955,-0.30065566,0.18459132,0.42333117,-0.0075213346,0.06288616,0.19227165,-0.10319019,0.38913605,-0.23435642,0.11082976,-0.20595182,-0.051085725,0.27607372,0.20397589,-0.6307608
0.08059602,-0.25656796,0.32199597,0.42990026,-0.0066253673,0.18961944,0.13189037,-0.07527573,0.41730165,-0.3454939,0.037143763,0.026701381,0.19102077,0.06797819,0.3976179,-0.5499771
0.10275767,-0.10161052,0.4012772,0.8895397,0.036979605,0.2583019,0.010423654,-0.17721511,0.3815017,-0.39967304,-0.035819918,-0.27771014,0.22372669,-0.1602224,0.40109366,-0.58926535
-0.012372647,0.1449365,0.40006283,0.8552954,0.051008772,0.38078454,-0.0888108,-0.15124217,0.38912022,-0.39774224,-0.17821218,-0.967621,0.05756101,-0.15738268,0.3996742,-0.36698568
-0.15151225,0.13804337,0.21533774,0.9315979,0.081253685,0.27677038,0.04463947,-0.21591641,0.2890352,-0.3324478,-0.08337131,-1.2733912,-0.17663106,0.021106577,0.2693879,-0.08927816
-0.15938272,-0.07456091,0.2175326,1.1871525,-0.00867301,0.18482082,0.30600387,-0.077072635,0.08687101,-0.08286225,0.27172244,-1.0111495,-0.2943003,0.26817736,0.065851755,0.14454979
-0.14751992,-0.1700118,0.20494813,1.0624665,-0.09810657,0.019768316,0.40098056,-0.12198067,0.031185862,0.11511916,0.40010217,-1.1670389,-0.31706998,0.40885222,0.011828145,0.25877652
-0.17409955,-0.23970318,0.11467943,0.8549021,-0.14328268,-0.18362646,0.3863514,-0.414585,0.069971204,0.221653,0.4068656,-0.8106828,-0.290007,0.46248823,-0.053371273,0.21935265
-0.16395463,-0.3876189,-0.016600251,0.63882965,-0.059017595,-0.39131853,0.34671935,-0.39468345,0.20400524,0.18161254,0.40009513,-0.5687653,-0.3041011,0.4616706,-0.120319225,-0.007557382
-0.20692858,-0.3663076,-0.024663046,0.33727217,0.08386546,-0.24588484,0.10432076,-0.18851523,0.41065896,-0.056008607,0.14289926,-0.3194135,-0.15079571,0.3794147,0.023575777,-0.47159114
-0.06682157,-0.42930734,0.17201687,0.42638245,0.006830666,-0.011020308,0.23513794,-0.06299757,0.4055728,-0.23501784,0.25612485,-0.12820873,0.11193847,0.17437108,0.28471944,-0.5728591
0.054992303,-0.28669333,0.31861144,0.39275515,0.01135532,0.18188855,0.20669137,0.19107427,0.415897,-0.3491767,0.25002232,-0.2916279,0.30152208,-0.05989803,0.4001332,-0.71796525
0.10635334,-0.19397488,0.34604427,0.44662052,0.063379206,0.25166163,0.09994547,0.12608597,0.40100127,-0.4446843,0.17148706,-0.28801262,0.25211802,-0.30923218,0.4002099,-0.8361253
0.108502604,0.011261541,0.3736321,0.5927121,0.08437989,0.32707503,0.017639404,0.073114716,0.39325365,-0.48511273,0.08903983,-0.6617643,0.10583553,-0.34268978,0.39970207,-0.7735588
-0.041206867,0.1379675,0.31739563,0.8420942,0.11545788,0.3545271,0.009441288,-0.13030897,0.3777214,-0.5109648,-0.06659437,-1.669819,-0.15606153,-0.1918238,0.3202707,-0.15927759
-0.095004044,0.035566818,0.21003626,0.92398065,0.08146164,0.30548373,0.16628656,-0.08999313,0.25196636,-0.47551337,0.10299283,-1.7533197,-0.28302047,-0.043316472,0.14387847,0.059492603
-0.037162665,-0.11732769,0.25829035,0.92627704,-0.009313305,0.2423023,0.29318786,-0.053887196,0.047247417,-0.23079109,0.39386877,-1.6342891,-0.31398553,0.17705512,0.19894545,0.33270973
0.007724951,-0.213053,0.21596505,0.918147,0.021290515,0.10239822,0.33333096,0.10913507,-0.068801135,-0.01353989,0.38789755,-1.4983394,-0.38802898,0.27469727,0.10624327,0.44442654
0.022433994,-0.35652027,0.084529966,0.76258457,0.047871314,-0.102530286,0.23424357,-0.39479798,-0.09887838,0.1364026,0.4001222,-0.8673809,-0.45949522,0.38342836,-0.041621506,0.46886322
0.044533126,-0.49071285,-0.14332376,0.3630035,0.09969256,-0.2616091,0.13943262,-0.2057873,-0.0395528,0.10837429,0.40104732,-0.2650084,-0.5176691,0.3938128,-0.12776804,-0.11862161
-0.012109556,-0.5041304,-0.14827257,0.25570247,0.12913464,-0.18970357,0.13075192,-0.24004526,0.1551922,-0.13574564,0.16740187,-0.2053103,-0.4123647,0.345279,0.009229867,-0.42875347
0.09439827,-0.5479995,0.07702152,0.4106008,0.08238217,-0.038893536,0.18644723,-0.13344693,0.19498362,-0.26364377,0.12793654,-0.13136505,-0.18196389,0.18141867,0.23648787,-0.61894494
0.15917943,-0.4701305,0.30140623,0.59847087,0.08266546,0.0003278762,0.16507216,-0.094952285,0.20885609,-0.32968113,0.095114544,-0.04310215,0.018863503,0.017578086,0.38584283,-0.5724367
0.2219753,-0.21871974,0.40001056,0.2598683,0.2049341,-0.15657647,0.21360631,-0.40822622,0.14966413,-0.33887506,0.124663845,-0.1703541,0.0034433836,-0.16336595,0.40009195,-0.39527828
0.05870334,-0.042998023,0.40002224,-0.048812795,0.20002247,-0.2465607,0.22014104,-0.7467411,0.07314826,-0.37473866,0.19332027,-0.20047836,-0.13697925,-0.054465976,0.38434,-0.28242797
-0.0973363,0.07999093,0.34363663,-0.06651326,0.10534474,-0.20723915,0.30405822,-0.6756958,-0.007461473,-0.27719477,0.3496782,-0.2979286,-0.21160418,0.03435965,0.3853246,-0.14443573
-0.017815052,-0.028329525,0.4075929,0.1895179,0.067711554,-0.27273315,0.21223295,-0.6358887,-0.053074148,-0.10215882,0.39883563,-0.35832295,-0.28864923,0.11107135,0.3439949,0.20360275
-0.025028545,-0.049980164,0.33645537,0.07408312,0.07257272,-0.27031198,0.13105848,-0.41547275,0.072270185,-0.16573526,0.39544195,-0.42811927,-0.32039687,0.11583454,0.26994288,0.30131522
0.11671758,-0.07872992,0.40001065,0.1758424,0.010003633,-0.23457856,0.16908161,-0.29060313,0.2046679,-0.21350385,0.25631833,0.04694433,-0.07788899,-0.055159435,0.31494105,0.2026471
0.1956571,-0.09399595,0.40000406,0.09688991,-0.058728207,-0.17238387,0.20780179,-0.029894458,0.27255282,-0.2644098,0.22096558,0.43769655,0.19336815,-0.14240411,0.40010697,0.09330969
0.050986208,0.00332366,0.39825907,-0.018839525,-0.11832851,-0.104587026,0.22973531,0.2534007,0.32293758,-0.26305178,0.16846898,0.56957686,0.36919445,-0.14305708,0.3955497,-0.18227439
-0.15140098,0.14114006,0.3177502,-0.075541206,-0.1379002,-0.07254941,0.21344687,0.41128838,0.3669665,-0.26272666,0.12402616,0.31909075,0.29562315,-0.079707816,0.39748377,-0.3102364
-0.16983797,0.106044255,0.24509667,0.056561287,-0.11035313,-0.14555117,0.24697384,0.40758663,0.33063078,-0.18177527,0.16098009,-0.0048288545,0.056857154,0.07559704,0.30868495,-0.42179886
-0.14416595,0.10333844,0.29470435,0.19292572,-0.16951989,-0.11983284,0.34879777,-0.24167101,0.086230874,0.0068470594,0.37984556,-0.19299813,-0.015486443,0.17631602,0.2653976,-0.17796406
-0.092359506,0.097611494,0.35776517,-0.04902943,-0.2038827,-0.052473515,0.40003243,-0.38021907,-0.15353812,0.120497935,0.40004325,-0.10365423,-0.07822974,0.18490256,0.21779987,-0.09487323
-0.06848375,8.507764e-05,0.37167028,0.213482,-0.042966045,-0.055355567,0.30450505,-0.38766307,-0.10000766,0.04484245,0.39871013,-0.29444483,-0.11799456,0.15268402,0.1541568,-0.09061926
0.019637281,-0.022520581,0.36266598,0.3027599,-0.020577615,-0.03256238,0.27634677,-0.0991611,0.08972064,-0.03542387,0.26234522,-0.19602828,0.00061391346,0.018212864,0.22205283,-0.033590544
0.13817327,-0.042406943,0.39316514,0.073958136,-0.082772605,-0.035095178,0.31166306,-0.010531012,0.13624331,-0.06819016,0.27614293,-0.029974317,0.23516035,-0.14990476,0.3764732,-0.05372106
0.10984174,-0.007821506,0.40002885,-0.11010208,-0.14371645,0.003389339,0.3353124,0.18939753,0.17866613,-0.13476825,0.2828834,0.40224054,0.43622622,-0.20438883,0.39816242,-0.039194845
-0.03269161,0.03855481,0.37656647,-0.11895915,-0.18223411,0.0651059,0.34409454,0.3858524,0.23129286,-0.111975476,0.19584522,0.35447484,0.3460769,-0.13881932,0.3986139,-0.13948438
-0.021925325,0.049515106,0.35458216,-0.24920052,-0.124535955,-0.04530711,0.40002123,-0.013272585,0.21891363,0.03088299,0.20524761,0.11665283,0.09514567,0.05244243,0.33130178,-0.15664457
-0.029651621,0.039567497,0.35275492,-0.17393294,-0.20469993,-0.039667808,0.39997992,-0.10445046,-0.048955586,0.16997616,0.40003854,-0.00618316,-0.0107642235,0.11719066,0.21236424,-0.1372399
0.031808876,0.002768061,0.38533497,-0.050796617,-0.21190438,0.011202566,0.4000486,-0.21796234,-0.26979348,0.17163621,0.40022683,-0.063955545,-0.09278485,0.16273049,0.14477514,0.33280942
0.0454198,0.020854583,0.3651386,-0.089243054,-0.05012244,0.015269882,0.39081386,-0.20789693,-0.17095304,0.099424146,0.3970609,-0.2273275,-0.15931459,0.08625695,0.064195596,0.35017574
0.085710175,0.018274354,0.3260058,0.01924903,0.044082236,0.071929686,0.23598403,0.0018597982,0.019802513,-0.0076622176,0.27500665,-0.2644511,-0.09587053,-0.0456518,0.13653187,0.2895557
0.22312237,-0.02920467,0.3891599,-0.04268541,-0.028191015,0.054571606,0.26615167,-0.006554421,0.029024912,-0.020915918,0.3701052,-0.19191685,0.073327556,-0.21019237,0.33569008,0.2262056
0.28924957,-0.12745848,0.39847198,-0.32189813,-0.103433736,0.06601923,0.31315765,0.10231111,0.05705671,-0.03447116,0.40176547,-0.038976192,0.25126183,-0.19438228,0.39946234,0.11904382
0.25001976,-0.14948615,0.4000221,-0.5939187,-0.17853935,0.07941653,0.35229248,0.22283411,0.12176666,-0.034529474,0.37959212,0.21180798,0.32292134,-0.12341382,0.39989007,-0.06974027
0.09726649,-0.122353666,0.40000635,-0.8531299,-0.23294514,0.09534562,0.36405373,0.34200662,0.18750817,-0.022162575,0.32115215,0.33783028,0.2596771,-0.060891088,0.39906776,-0.32270494
-0.044037472,-0.032737337,0.40541136,-0.98110306,-0.2698858,0.049233995,0.37827393,0.14269368,0.09442695,-0.04213112,0.32876512,0.5592433,0.014898614,0.08722894,0.32456762,-0.32684702
-0.026921077,-0.004131504,0.401132,-0.8328575,-0.36719182,0.16448219,0.38243318,-0.27425173,-0.05789035,0.10075036,0.3800246,0.1846848,0.018352803,0.07758212,0.34012285,-0.1881681
-0.010850034,-0.011489661,0.40097284,-0.48605695,-0.47882858,0.31822827,0.32970077,-0.34948173,-0.1419957,0.13631327,0.40011147,0.09378053,-0.027915716,0.115766995,0.2881914,0.25070488
-0.009869809,-0.0067645265,0.38105732,-0.33049408,-0.5494684,0.48068693,0.23352776,-0.79581755,-0.11893389,0.035339415,0.399963,-0.49671048,-0.043105014,0.18578495,0.27897233,0.81089884
0.05596624,-0.1316808,0.40221232,0.57664514,-0.35365567,0.6119009,0.21065024,-1.5564871,0.03515313,-0.124742515,0.35644102,-1.6040139,-0.13274296,0.15399674,0.20378084,1.0804595
0.1751312,-0.27622077,0.37410235,0.53031987,-0.17341581,0.49338973,0.37258923,-1.7682544,0.16419315,-0.1251099,0.37976894,-1.5301155,-0.11610819,0.008622645,0.3404155,1.0856262
0.31913593,-0.43649176,0.33400998,0.46451533,-0.07445243,0.30997968,0.4226803,-1.945774,0.23380874,-0.10126177,0.41431153,-1.1440364,-0.0039805244,-0.107458524,0.3947452,0.618601
0.46056998,-0.6076482,0.33961114,0.10343857,-0.019288333,0.13436976,0.4010988,-1.4658985,0.24085096,-0.04950062,0.3754413,-0.7672796,0.21874776,0.0004872523,0.40132093,0.62892216
0.53213406,-0.72306234,0.2747172,-0.74802756,0.05657577,-0.014863267,0.40842268,-0.9244301,0.21480133,-0.08015851,0.4014254,0.0700102,0.41448635,0.13348381,0.39205042,0.06961601
0.4403277,-0.7425483,0.29174227,-1.6065084,0.060691733,-0.05431241,0.3983304,-0.10316355,0.20213854,-0.06713019,0.3510318,0.50797856,0.2966153,0.3579507,0.36952502,-0.3363062
0.24990216,-0.53796524,0.4000747,-2.065004,-0.050917815,0.056891304,0.39999172,0.1998394,0.07817952,-0.101836056,0.3420593,0.8287921,0.05730333,0.29915765,0.2833792,-0.6438951
0.1181491,-0.34949616,0.43222755,-1.7804685,-0.19821557,0.27464902,0.36876824,-0.35212284,0.07503087,0.015500162,0.3759988,0.5607505,-0.01811392,0.190911,0.30917794,-0.27273008
0.042249124,-0.20006213,0.4000834,-1.0714831,-0.3179063,0.46022508,0.34492353,-0.57864827,0.055759676,-0.1068425,0.4000891,0.18118697,-0.025755139,0.12356877,0.3003254,0.18033308
0.100132585,-0.18810827,0.4068922,-0.06752667,-0.37234777,0.6522097,0.17609029,-1.2866068,0.06668074,-0.29938987,0.35435304,-0.959645,-0.09033995,0.13899228,0.28193474,0.8914312
0.18506669,-0.2761205,0.3934985,0.86326885,-0.1894038,0.60300297,0.23353995,-1.7692192,0.28479066,-0.4244892,0.3082637,-1.6043155,-0.13263468,0.0806842,0.24377571,1.020027
0.31103954,-0.42093754,0.343271,0.523198,-0.18006544,0.49964827,0.38512832,-1.821729,0.3266321,-0.30793935,0.38603103,-1.4409376,-0.04972333,-0.023095999,0.32878736,0.9934486
0.48103252,-0.6114539,0.39451382,0.02111412,-0.08764291,0.24211045,0.40009713,-1.4614301,0.3054359,-0.26147357,0.3897022,-0.7401258,0.16902104,0.113562904,0.40090373,0.89248675
0.57339746,-0.761426,0.37944648,-0.7010387,-0.037585706,0.054410946,0.40184772,-1.0440738,0.2935156,-0.23300393,0.3989533,0.014946774,0.38487646,0.26756442,0.3819272,0.13995692
0.43642902,-0.82314134,0.37052467,-1.7783359,-0.007030616,0.03161225,0.40144914,-0.4595204,0.26731095,-0.22791363,0.3827357,0.5210361,0.29032978,0.43772352,0.35259968,-0.45477962
0.17357819,-0.51540637,0.40004075,-2.1160543,-0.11625291,0.1640318,0.39996514,-0.14441998,0.17838293,-0.23160478,0.41369173,0.58506244,-0.018700626,0.27416486,0.22683865,-0.63393015
0.0728717,-0.3579747,0.40280095,-1.6935132,-0.25186548,0.37409508,0.39163557,-0.40814033,0.1625496,-0.092111275,0.40008602,0.30088007,-0.011739999,0.18416163,0.25920215,-0.38065305
0.028000139,-0.20000516,0.40301457,-0.97750723,-0.4043099,0.5934448,0.243521,-0.69990593,0.11171589,-0.23786196,0.40007156,-0.103300706,-0.03053979,0.14477049,0.25016218,0.22915722
0.07136077,-0.22790343,0.40472573,-0.060310807,-0.4061881,0.74410534,0.18766989,-1.2699608,0.11517286,-0.39731884,0.36853093,-0.941315,-0.0636966,0.16272217,0.237345,0.80813247
0.08636399,-0.26760748,0.37129077,0.3154628,-0.17688918,0.60348105,0.29351056,-1.8237795,0.33290303,-0.5037619,0.2923396,-1.6113724,-0.08503879,0.09855409,0.21578054,1.1006019
0.2548736,-0.4561975,0.3624719,0.41945753,-0.14698167,0.46168217,0.4243331,-1.7636069,0.39107415,-0.3875965,0.36708942,-1.4142338,0.005073594,0.05987078,0.3594064,1.0682545
0.3987203,-0.6274327,0.37064943,-0.17663464,-0.07730734,0.21226433,0.4001235,-1.2738265,0.39013398,-0.3442521,0.39000404,-0.6439754,0.2407496,0.10241829,0.40021756,0.7229073
0.45242926,-0.7435371,0.36459586,-0.88666093,-0.05163604,0.08149924,0.39980513,-0.88201386,0.39014414,-0.3683691,0.4123123,0.22264522,0.4233761,0.23166308,0.3995819,0.19016632
0.2403831,-0.6585419,0.38588595,-1.9476198,-0.040685456,0.09626711,0.38710633,0.0670327,0.38791388,-0.35389572,0.3675073,0.5431227,0.22346224,0.41753486,0.374243,-0.588551
0.080188714,-0.41410154,0.38926953,-1.9079915,-0.1610771,0.21958494,0.39970845,0.1595913,0.32700717,-0.2890015,0.4143569,0.62000775,-0.002633456,0.27741107,0.221923,-0.73965615
-0.032464944,-0.2382545,0.40486577,-1.4569994,-0.2545603,0.38271433,0.30163586,-0.21404573,0.2859758,-0.21606465,0.40008417,0.3608953,-0.05612024,0.19877993,0.19113864,-0.45155725
-0.04842491,-0.12823571,0.39768153,-0.6512164,-0.39173442,0.60863996,0.16958201,-0.88674587,0.09740241,-0.33369872,0.38727242,-0.318138,-0.06709957,0.20377406,0.2172782,0.35559657
0.021083618,-0.20729311,0.41051415,0.61964154,-0.3245295,0.7419548,0.17329225,-1.5165323,0.12465432,-0.49611375,0.30185166,-1.4731735,-0.150616,0.17973053,0.16311127,0.99915916
0.16607782,-0.36957,0.35497242,0.69715273,-0.10303553,0.5157596,0.3379074,-1.8571687,0.3866025,-0.35780308,0.29979402,-1.7100579,-0.105813324,0.064141385,0.26759118,1.1350089
0.28500804,-0.51577926,0.2773586,0.3844335,-0.0657604,0.3834841,0.43099943,-1.8575454,0.35640362,-0.35195452,0.41656315,-1.2912529,0.0014657052,0.060179148,0.36754477,0.7961132
0.37855765,-0.6231557,0.3446459,0.06589082,0.016243525,0.1829625,0.4004291,-1.5572348,0.36107215,-0.33138293,0.39886916,-0.6628941,0.18975826,0.15961589,0.40018266,0.64555186
0.49932557,-0.78233665,0.3551597,-0.7956023,0.09065012,-0.007235533,0.40464336,-1.0276774,0.36965114,-0.3511433,0.40562755,0.3197,0.44456792,0.33333263,0.39968953,0.082048014
0.35850188,-0.7497479,0.37120476,-1.5928559,0.106066935,-0.017696887,0.38996407,-0.4953175,0.35909036,-0.3209535,0.40188444,0.7453905,0.2926695,0.45641753,0.39013952,-0.43202525
0.14609866,-0.50322145,0.40003857,-2.0483842,-0.008502825,0.09653376,0.39246607,-0.06602367,0.30824873,-0.28906402,0.4038208,0.63692105,0.043312978,0.36231372,0.28592077,-0.60823023
-0.0066756443,-0.2249747,0.39660043,-1.5360599,-0.17686546,0.32033053,0.31887048,-0.33000574,0.26100367,-0.14905898,0.3997241,0.359289,0.003423842,0.21505523,0.23248088,-0.42224315
-0.05285624,-0.094160974,0.40006632,-0.6895161,-0.27091086,0.48567525,0.22649457,-0.77205783,0.15079337,-0.20500395,0.40009,-0.056149345,0.030454807,0.25104293,0.2730797,0.1337994
0.014376572,-0.19470824,0.41674998,0.5493088,-0.2951842,0.673,0.14873992,-1.4378968,0.1190072,-0.40862963,0.31377003,-1.2160944,-0.047421824,0.24661843,0.23966259,0.75410265
0.12205779,-0.31791407,0.38630086,0.75030327,-0.12398213,0.55455834,0.29843748,-1.7595676,0.35220122,-0.38521722,0.30144268,-1.5842823,-0.073839076,0.100462206,0.2700365,0.98021847
0.29404396,-0.51341254,0.3526379,0.30546036,-0.09408498,0.37727413,0.41258883,-1.7596644,0.31069034,-0.30806753,0.41345078,-1.2730683,0.047906123,0.06558263,0.37823704,0.94784564
0.42095494,-0.66287416,0.40001956,-0.036555286,-0.017412227,0.1803253,0.4003998,-1.4143486,0.31779528,-0.31448373,0.3913073,-0.6432656,0.25130454,0.13349684,0.40102896,0.7467772
0.50366503,-0.78857213,0.372967,-0.63934934,0.008862752,0.045028925,0.40222672,-0.9570351,0.3220561,-0.32100403,0.4000968,0.118818566,0.3908409,0.24242055,0.40006104,0.18822055
0.33843365,-0.8048131,0.36390263,-1.7197303,0.02245141,0.026039438,0.40043497,-0.40768635,0.32135123,-0.31670228,0.39995584,0.8456686,0.22135358,0.46386868,0.36879292,-0.4076472
0.13354889,-0.57674897,0.40001893,-2.180629,-0.08356421,0.118005805,0.40000048,0.14100696,0.26924974,-0.26937258,0.40189213,0.85469604,-0.0061116964,0.31302518,0.23570667,-0.7557211
-0.012206034,-0.2863508,0.39983127,-1.6267254,-0.2456262,0.3495821,0.32257703,-0.19470008,0.21673541,-0.1804755,0.40010703,0.44824627,-0.05279069,0.17521873,0.27535498,-0.28369686
-0.039266635,-0.19260101,0.40108123,-0.89509624,-0.34498093,0.5166288,0.20558381,-0.7180809,0.08630933,-0.23111208,0.40013897,0.006566569,-0.08068207,0.16327025,0.25201985,0.25318798
0.012878138,-0.24061586,0.41501957,0.097023875,-0.3499257,0.6965803,0.12657043,-1.3427517,0.066515476,-0.4210314,0.37237522,-1.1465214,-0.15853919,0.14581671,0.21079536,0.88488007
0.07837568,-0.30966994,0.3942754,0.8407603,-0.13357943,0.59414667,0.26136187,-1.8279752,0.27480978,-0.4783287,0.33995757,-1.718193,-0.18107183,0.07248824,0.17641196,1.0488776
0.21474949,-0.47071114,0.36197284,0.3306683,-0.019795403,0.40012634,0.39732543,-1.9172776,0.35939273,-0.3843523,0.38703513,-1.572562,-0.06872788,-0.03333476,0.31928742,0.9337069
0.36446312,-0.6450167,0.4000166,0.053703632,0.038327765,0.20976536,0.39809635,-1.6297576,0.33142245,-0.34450936,0.40074998,-0.9576218,0.09428143,0.039962113,0.39718843,0.7960104
0.49185455,-0.7817405,0.4000366,-0.44253165,0.13618027,0.019752633,0.39449432,-1.1923021,0.32961303,-0.36201105,0.40310806,-0.34991217,0.30094987,0.11675878,0.39189082,0.27229065
0.43959355,-0.8587227,0.324189,-1.5769664,0.14543256,-0.032436565,0.40343666,-0.22653697,0.3307954,-0.3933592,0.3958449,0.5900671,0.25822666,0.31192937,0.38460082,-0.454039
0.2322776,-0.6533052,0.4000352,-2.146398,0.03419592,0.06616737,0.39999247,0.1950635,0.30599153,-0.34381264,0.40371832,0.80062664,0.023796318,0.32020718,0.24590625,-0.8983053
0.056206133,-0.37013227,0.4000622,-1.57226,-0.12181304,0.27710056,0.33380818,-0.08508681,0.22213767,-0.11574086,0.40015182,0.49206048,-0.057342306,0.19548334,0.20704941,-0.53972435
-0.0064536124,-0.18586576,0.40599054,-1.144692,-0.22780144,0.4516894,0.24816085,-0.54821575,0.14243543,-0.124641575,0.40012282,0.12887955,-0.0070446655,0.1895549,0.2814659,-0.03088002
0.0017702746,-0.15461631,0.40118468,-0.331888,-0.30224192,0.65076387,0.12176415,-1.1646606,0.11525598,-0.3007692,0.3661633,-0.9438145,-0.028976798,0.19156186,0.28137705,0.6204081
0.024350287,-0.19634464,0.37828416,0.39251903,-0.17618094,0.69232875,0.21533631,-1.6215483,0.2500111,-0.50269514,0.29346427,-1.4885945,-0.092276335,0.12944292,0.19881085,1.1157113
0.15952677,-0.35831052,0.3108098,0.39807498,-0.06142583,0.5037582,0.37072158,-1.7374846,0.37485054,-0.40310583,0.3014806,-1.4197704,-0.074755155,0.0049345857,0.3085711,0.9647885
0.3445803,-0.5755009,0.328769,0.28149188,0.0083392095,0.2714027,0.40706593,-1.754543,0.3044956,-0.31660533,0.40890095,-1.0251515,0.10008669,0.060352616,0.38874912,0.6874317
0.43883684,-0.68436456,0.3563386,-0.2125725,0.06722149,0.09953003,0.40423125,-1.3667608,0.31206563,-0.2995855,0.39795187,-0.4962856,0.28991958,0.12996738,0.40016136,0.5289954
0.5099358,-0.80862665,0.2863241,-0.8290028,0.07412359,0.03346372,0.4058438,-0.9933401,0.31875467,-0.31884128,0.40248555,0.21553044,0.41785213,0.2721531,0.39997557,0.17612281
0.34277883,-0.7487632,0.32379118,-1.8960218,0.08013168,0.016992524,0.3933467,0.00674665,0.29119673,-0.33015472,0.3729338,0.57306165,0.20153354,0.4495681,0.36353517,-0.5762635
0.13506205,-0.50862855,0.40002868,-2.2037458,-0.037109565,0.14245561,0.3999545,0.050302625,0.21786538,-0.23935246,0.40836802,0.5704879,-0.045246266,0.27495837,0.21619888,-0.7847175
0.070419624,-0.40271357,0.40114602,-1.646728,-0.12764184,0.29312176,0.40007755,-0.4065948,0.18479852,-0.13395703,0.40020052,0.3924682,-0.08670198,0.16668569,0.21220896,-0.5340047
0.045230545,-0.27347523,0.40211943,-1.1228213,-0.25311175,0.46830854,0.2872744,-0.669083,0.11149624,-0.15339053,0.4001454,0.03904242,-0.04520116,0.20692416,0.2647439,0.0695569
0.06185189,-0.23694669,0.40889364,-0.28223947,-0.33023158,0.6618198,0.1835496,-1.1819537,0.044479296,-0.3280204,0.38854986,-0.824473,-0.0691667,0.21497107,0.28409716,0.77488184
0.093030356,-0.24294372,0.38949037,0.48893616,-0.21709254,0.66914606,0.27978578,-1.6954012,0.19467662,-0.5136432,0.30526337,-1.5864995,-0.156803,0.10242556,0.21224558,1.055373
0.26193464,-0.42638022,0.34109443,0.34307295,-0.13654004,0.4935323,0.41791824,-1.7511606,0.3468259,-0.39874387,0.35903907,-1.4963698,-0.043427467,0.025859067,0.31914312,1.0306512
0.39519864,-0.5912147,0.35589004,0.15041661,-0.06375401,0.26633427,0.399778,-1.6282034,0.3060211,-0.37357643,0.41126516,-0.9458938,0.13342158,0.08169167,0.39998138,0.8303786
0.46666023,-0.6943894,0.36800408,-0.6295995,-0.026846051,0.11292722,0.40079045,-0.98793846,0.33575937,-0.36658046,0.4001752,-0.17161049,0.35002366,0.20366614,0.3928664,0.3204163
0.42043683,-0.8272764,0.3819108,-1.5623881,-0.013258177,0.05781113,0.42942494,-0.44421566,0.34752873,-0.36702225,0.4008116,0.70570207,0.34332988,0.4251293,0.38523668,-0.1973011
0.2765583,-0.7341945,0.32677472,-1.6525568,0.09394906,0.05210278,0.35464227,0.023067053,0.3205252,-0.36442292,0.364642,0.6601797,0.10120405,0.46039802,0.30913684,-0.3868537
0.33727685,-0.82190543,0.33562553,-1.3211687,0.1805196,0.07839834,0.39954552,0.112353265,0.2875153,-0.41640052,0.3062534,0.42805314,-0.10422922,0.41845864,0.10541616,-0.45532387
0.29733053,-0.7806977,0.3902923,-1.2172055,0.20477031,0.03005052,0.3917225,-0.06575391,0.24425985,-0.49547943,0.30093065,0.4503411,-0.25033218,0.33217284,-0.09623487,-0.52360356
0.21252325,-0.687041,0.38774803,-1.1126881,0.20895351,0.03543263,0.39890477,0.079392485,0.24360958,-0.515877,0.31261626,0.5485771,-0.2378344,0.23338184,-0.09314263,-0.5098802
0.151034,-0.6181306,0.34005204,-1.1014656,0.27711967,-0.015713291,0.37510875,0.051691763,0.2329289,-0.48771146,0.31942442,0.51941085,-0.21243887,0.1445396,-0.04624968,-0.540301
0.20656128,-0.46257693,0.4018572,-0.95022607,0.3132551,-0.07579583,0.3317783,0.07444004,0.24766232,-0.49668542,0.28029335,0.8972806,-0.15692087,-0.017829774,0.2639882,-0.56449723
0.10011181,-0.3382296,0.38336053,-0.73278874,0.28963286,-0.05160052,0.3450104,0.16675012,0.3237924,-0.50088143,0.14552867,0.8502268,-0.089766756,0.03784102,0.400488,-0.48080024
-0.04880457,-0.15999985,0.3849101,-0.5933223,0.30411398,-0.09134882,0.27278426,0.21163408,0.3898368,-0.50126153,-0.021085743,0.48609573,-0.13832292,0.1675304,0.3991867,-0.46117625
-0.17910863,-0.04875387,0.338514,-0.39290887,0.26218975,-0.1340579,0.24455982,0.03722654,0.35997397,-0.40649202,0.05118424,0.33742172,-0.2438522,0.25492814,0.19178863,-0.42800295
-0.18113144,-0.041011367,0.35959113,-0.0005427233,0.18898314,-0.085364595,0.3693883,-0.42876184,0.14870796,-0.2016052,0.28364006,-0.026946958,-0.24696892,0.32711095,0.2009838,-0.07391483
-0.12386035,-0.09946988,0.4046455,0.18891932,0.04369786,-0.09247463,0.40083557,-0.3579249,-0.0850914,-0.060342647,0.39982417,-0.17750242,-0.28104165,0.3330156,0.20749491,0.041810304
-0.11069872,-0.12638022,0.33012155,0.15552273,0.124286175,-0.04376048,0.30154854,-0.221544,0.0051641655,-0.1533878,0.3605869,-0.17444134,-0.22899671,0.24088039,0.19964454,0.09131037
0.070059605,-0.19508326,0.39991692,0.23429482,0.13187464,-0.075011276,0.3204685,-0.29205278,0.1267575,-0.1740528,0.18723336,-0.042512856,0.062394314,0.050622754,0.39640617,0.14239763
0.12971132,-0.12147161,0.4000036,0.10294627,0.0806699,-0.073340155,0.3587494,-0.28506318,0.14636366,-0.18342876,0.22472654,0.022973504,0.2789876,-0.13014951,0.40010935,-0.00019457164
0.09142186,0.0054336875,0.40002725,-0.19077918,0.029244013,0.020729706,0.40122274,0.020035397,0.19158836,-0.15179403,0.16636553,-0.024080755,0.4439428,-0.12642944,0.40014166,-0.05777092
-0.07425848,0.13713546,0.40000248,-0.23145288,0.011217999,0.028040506,0.3784249,0.1298933,0.24989334,-0.14232042,0.06077637,-0.08438464,0.2926723,-0.052207965,0.3986807,-0.14077622
-0.17400378,0.12380155,0.23144,0.02753208,-0.007310359,-0.05136579,0.36843774,0.010456675,0.1557279,-0.10709309,0.13109787,0.0080615105,0.03294315,0.12083183,0.28651717,-0.08037286
-0.05411199,0.14501701,0.3047067,0.027361773,-0.16347034,-0.063579604,0.39996487,-0.090060204,-0.122235455,0.08526013,0.4000922,-0.0860104,-0.06258295,0.21250243,0.27952877,0.15679768
-0.0110839605,0.13572812,0.319655,0.049905095,-0.20211187,-0.09591779,0.3971054,-0.29434907,-0.3252121,0.10227476,0.3999139,-0.11833223,-0.12815927,0.23979148,0.23732337,0.46723968
0.014165659,0.11584848,0.30491883,0.096132636,-0.02470125,-0.055665895,0.31431714,-0.19329467,-0.26994568,0.035529006,0.40001184,-0.39726928,-0.19942828,0.14939836,0.18207888,0.36906755
0.07784,0.10793856,0.25979447,0.076645695,0.051685087,0.021244038,0.19123822,-0.00713357,-0.060768437,-0.052244958,0.22346021,-0.1239607,-0.05429243,-0.032471802,0.24743237,0.18705969
0.20697282,0.019758562,0.3637079,0.048697166,-0.029638272,0.02651595,0.2725879,-0.10389706,-0.03304572,-0.039076224,0.24932547,-0.18224141,0.13531165,-0.08039269,0.3957957,0.080567695
0.18347691,0.09361911,0.3921685,-0.18946664,-0.09987089,0.046471063,0.30476484,-0.06321857,0.025566718,-0.06359158,0.21325488,-0.067225546,0.29718146,-0.09752898,0.39991385,0.0908391
0.017073125,0.15675293,0.39906374,-0.31303433,-0.118773185,0.026192835,0.28348082,0.074417666,0.07612826,-0.06164423,0.13405314,-0.02471231,0.2876602,-0.08661002,0.39847857,-0.004378258
-0.108235456,0.13457856,0.21326664,-0.3476292,-0.012031086,-0.009792269,0.33527112,0.089258045,0.013463825,-0.014265506,0.15185757,0.09117019,0.044189658,0.04130725,0.37699902,0.02239386
0.008027117,0.12411983,0.27448854,-0.32260877,-0.08583538,0.10038388,0.40005136,-0.16259669,-0.17404993,0.13022299,0.27629384,0.08378945,-0.07977929,0.18515432,0.34574565,0.36206552
0.09318147,0.13744272,0.3175314,-0.38407308,-0.19523506,0.24798755,0.40006155,-0.30542552,-0.19370078,0.1624734,0.40009192,-0.08817525,-0.17693597,0.34133577,0.29430276,0.97368985
0.13492693,0.12649678,0.2903864,-0.34871686,-0.24755752,0.41201815,0.37309352,-0.37335327,-0.06725447,0.16160762,0.40005544,-0.2962979,-0.27478197,0.44783008,0.2319297,1.5423626
0.20553374,0.11606442,0.2501851,-0.24080944,-0.15118264,0.55876064,0.26335406,-0.22204646,0.117985554,0.06688324,0.39577538,-0.3827226,-0.37902537,0.40854388,0.16101442,1.2654756
0.26208127,0.13213354,0.17526823,-0.2448913,0.025896553,0.58360267,0.14745228,-0.113165356,0.22235195,-0.06930148,0.33859736,-0.19331026,-0.44868872,0.21946223,0.2107218,0.76709795
0.2957302,0.089447774,0.090490535,-0.34397903,0.20243685,0.5992646,0.16298458,-0.44147715,0.18847837,-0.101756856,0.31516808,-0.23063685,-0.3671837,0.07129511,0.34388372,0.48472136
0.3212354,-0.0014677786,0.19509144,-0.50019294,0.27122715,0.6178149,0.22004476,-0.37726516,0.061395578,-0.14342207,0.4071593,-0.14480047,-0.18554166,0.075334705,0.40004888,0.07683443
0.2942724,-0.09373395,0.36217338,-0.6970761,0.38238508,0.6123018,0.23412699,-0.27781546,-0.06014599,-0.11719982,0.3930131,-0.17017955,0.0542338,0.26189238,0.39791942,-0.043311756
0.15467624,-0.13095774,0.40000305,-0.75765127,0.51514465,0.4957124,0.25822192,-0.4502269,-0.18308356,-0.1007361,0.3664686,-0.14320715,0.15925448,0.43933964,0.30153066,-0.0611661
-0.025763508,-0.10914664,0.3998886,-0.73080313,0.44632933,0.4353862,0.29692602,-0.9048916,-0.2138311,-0.037990525,0.2936728,-0.116797276,-0.026984459,0.5076979,0.17587832,0.00017442202
