ancorasir/BennettWheelLegRL/experiment_data/2024-02-13_04-17-16/joint_torque_env0.csv
Joint_1,Joint_2,Joint_3,Joint_4,Joint_5,Joint_6,Joint_7,Joint_8,Joint_9,Joint_10,Joint_11,Joint_12,Joint_13,Joint_14,Joint_15,Joint_16
0.0,0.0,0.0,0.0,0.0,0.0,0.0,0.0,0.0,0.0,0.0,0.0,0.0,0.0,0.0,0.0
0.3679856,-0.5721796,1.8362143,-1.6099325e-06,0.32117024,-0.5564884,-1.8038614,0.0050435327,0.20543557,-0.61995685,1.8246002,0.00020250291,0.7862108,-0.675659,-1.8255146,-0.01233399
0.0062767267,-5.0,2.1205096,0.21457428,2.24266,-1.3838595,-1.7079437,-5.0,4.060126,-1.0654359,2.1482697,0.11156219,-1.8696221,-2.0276587,-0.22271919,-0.14901483
1.3805155,-4.2854075,3.2573924,-0.73849285,5.0,-1.1584501,-2.2609537,5.0,5.0,1.3501865,-3.3712456,10.0,1.4023472,2.1526694,3.6582885,0.34302503
0.041149616,-3.4919229,5.0,-0.1323395,5.0,-0.09542596,-4.4958954,5.0,5.0,5.0,-5.0,-7.6039143,1.0188993,5.0,5.0,-0.95159435
-1.0542065,-0.6014598,1.4333786,0.17140406,5.0,-5.0,-5.0,-4.881791,5.0,5.0,-2.8963904,-10.0,-0.24229503,5.0,4.6526866,1.1638042
-5.0,5.0,-5.0,4.4198565,-3.4713407,3.267036,2.3721533,-2.9093986,-5.0,-2.4536855,5.0,-4.6492457,-5.0,-4.7544627,-4.3710613,5.0
-5.0,5.0,-5.0,-6.3822427,1.276902,1.4961675,3.1634955,-2.1476123,-0.9555218,-5.0,5.0,-0.9467937,-3.1934364,-5.0,-3.412344,-5.0
2.0848002,5.0,-5.0,-4.0707912,5.0,-5.0,-5.0,0.29063764,5.0,-0.9724666,-2.1588244,-0.041719057,2.4497275,-5.0,1.6015737,2.1477857
3.5716724,-4.060721,5.0,-0.33358863,5.0,-2.8803022,-3.8339715,5.0,2.9599438,5.0,-5.0,-3.6493201,2.2922802,4.547441,5.0,-0.5348711
-0.9190401,-3.6967027,5.0,0.14492339,5.0,-5.0,-4.2293496,5.0,5.0,5.0,-4.2808447,-7.893226,-0.06371987,5.0,5.0,-0.92572874
-5.0,2.0793622,-2.01853,0.42469606,4.6817055,-5.0,0.53627646,-2.226455,2.5534546,5.0,0.13726705,10.0,-4.74008,5.0,0.56398994,-0.5329183
-5.0,5.0,-5.0,-5.5940504,-0.93351465,0.33595926,3.1109705,-0.4542404,-5.0,-0.78746134,4.646242,-0.052485302,-4.4893765,-5.0,-5.0,0.95105124
-5.0,3.9455369,-4.581987,6.402192,3.4670906,-2.6392174,-2.502002,-0.5905098,1.366851,-5.0,3.6619477,0.2219667,-5.0,-5.0,-1.847659,-5.0
5.0,-2.1800566,2.360529,0.57896936,5.0,-1.8051523,-4.412717,5.0,4.871057,5.0,-5.0,3.5485525,5.0,-4.2186174,1.504211,0.112210244
1.626935,-4.9037485,5.0,-0.4888242,5.0,-4.5444336,-5.0,-2.521347,2.6881206,5.0,-5.0,10.0,3.3578858,5.0,5.0,-0.24530466
-0.8532094,-1.4492502,3.6626122,-0.47125465,5.0,-4.2469625,-4.15011,5.0,5.0,5.0,-3.4353971,10.0,-0.551244,5.0,5.0,-0.5842535
-5.0,5.0,-5.0,0.6390408,4.517265,-5.0,-1.5693201,-4.2275906,2.9269285,5.0,2.8521776,2.944357,-4.294407,5.0,0.9032912,-0.43311727
-5.0,4.508143,-5.0,10.0,-1.5839086,2.7617533,3.5581875,0.5505193,-5.0,-2.7957067,3.4523468,-0.17847164,-5.0,-5.0,-5.0,5.0
-4.5324993,5.0,-5.0,10.0,5.0,-1.9142663,-2.5117483,5.0,4.1773686,-5.0,2.142197,-5.221082,-2.772661,-5.0,-0.7829414,-5.0
4.848996,-2.2382953,1.1443046,-0.5172357,5.0,-4.380643,-5.0,5.0,4.234113,5.0,-5.0,1.0065141,5.0,-5.0,0.5402893,0.4697314
0.3934399,-4.07236,3.742677,0.0844398,5.0,-5.0,-5.0,-3.1264477,2.8200076,5.0,-5.0,-5.150755,4.705243,5.0,5.0,-1.3956636
-5.0,3.3568063,-4.1698074,-0.13054112,5.0,-5.0,-5.0,-2.424596,5.0,5.0,-1.6398598,-3.893836,-1.5126183,5.0,3.1148417,0.3605879
-5.0,5.0,-5.0,1.3322864,-4.783874,1.0591848,1.9764283,-0.093878835,-3.1773248,3.6953495,1.0513123,0.4846071,-5.0,-2.0379438,-4.554744,0.9390035
-5.0,5.0,-5.0,-1.5538126,-2.7069042,3.363994,2.9436657,-0.31865627,-1.013747,-3.099821,5.0,-0.75523984,-3.9451017,-5.0,-4.4070053,-2.7767773
-5.0,5.0,-5.0,-3.0334988,5.0,0.5379406,0.9798733,2.2057428,0.62692106,-5.0,4.2482333,-0.21938644,-2.1243594,-5.0,-2.1784601,-1.6695865
5.0,2.4842372,-3.0853705,-2.895296,5.0,-5.0,-5.0,-5.0,3.2437923,5.0,-5.0,0.45177692,4.3561306,-5.0,1.5193367,0.6235502
2.0225763,-2.6263132,3.4362364,0.032367818,5.0,-4.23892,-4.65901,-5.0,2.9280863,5.0,-5.0,-10.0,5.0,2.468862,4.8075995,-1.0666984
-2.7371774,-0.8530554,2.1705558,0.25277802,5.0,-5.0,-4.6460633,-5.0,5.0,5.0,-3.7760177,-8.946454,0.561489,5.0,5.0,-0.24774012
-5.0,3.2134948,-5.0,6.1324363,-2.439296,-3.6666756,4.250412,-5.0,-4.695713,5.0,0.2591617,0.2586055,-5.0,5.0,-4.261484,3.0298057
-5.0,5.0,-5.0,-7.9456778,-0.027997822,2.2834325,2.7662935,-4.227917,-1.9140117,-2.1494231,5.0,-4.723249,-5.0,-5.0,-5.0,-2.3059301
-3.2700171,5.0,-5.0,9.854347,5.0,-5.0,-4.4400797,0.17176475,3.6963534,-4.3244286,1.0123609,0.71679705,0.0075621605,-5.0,1.9326491,-5.0
5.0,-1.8223796,0.39791632,-0.3930782,5.0,-5.0,-5.0,5.0,5.0,4.6546726,-5.0,5.063128,1.9622157,-5.0,1.7892518,-0.2541681
1.2235768,-5.0,5.0,-2.0471504,5.0,-5.0,-5.0,-2.8951275,2.5977397,5.0,-5.0,-10.0,1.7110602,5.0,5.0,-1.334311
-0.15976274,-5.0,5.0,-1.1795654,5.0,-5.0,-5.0,1.9481237,4.7079444,5.0,-5.0,-6.3930955,0.46028626,5.0,5.0,-1.0553893
-5.0,2.8788822,-4.6207685,0.06110537,-4.00084,-1.9121859,1.6871462,3.1362143,-2.2041256,5.0,5.0,-2.5083761,-5.0,5.0,-0.8779329,0.17910424
-5.0,5.0,-5.0,10.0,-1.7700615,3.0653832,4.340537,0.3777709,-5.0,-3.1741805,4.340694,-1.1360978,-5.0,-5.0,-5.0,3.1845913
-5.0,5.0,-5.0,10.0,0.9446024,0.26359951,2.4225225,5.0,-0.28690112,-5.0,4.988901,-0.4555352,-4.853744,-5.0,-5.0,-5.0
5.0,-1.2315935,-0.04197204,0.43592826,5.0,-5.0,-5.0,-5.0,4.596816,5.0,-4.8263254,0.084314354,5.0,-5.0,0.16767228,-0.57447726
1.6512473,-4.2631164,5.0,-0.09354151,5.0,-4.098897,-5.0,-5.0,3.976327,5.0,-5.0,10.0,4.8907585,5.0,5.0,0.15227331
-3.468605,0.33519322,-0.7196251,-0.04855032,5.0,-5.0,-4.2822275,0.34099865,5.0,5.0,-2.2073982,-10.0,-1.1717635,5.0,4.4503794,-0.7162232
-5.0,3.9687333,-5.0,-3.489089,-5.0,-0.0845595,0.92390656,-4.443004,-5.0,3.8448596,4.112843,-4.0145316,-5.0,-0.2760687,-5.0,5.0
-5.0,5.0,-5.0,0.9715233,-0.78996813,1.3377086,2.7233298,0.80089545,-4.6738515,-4.4211154,5.0,-0.9511204,-5.0,-5.0,-4.710935,-0.9475317
-0.8043877,5.0,-3.27716,-5.5996437,5.0,-5.0,-5.0,-5.0,5.0,-1.1571989,-0.3505932,0.04843043,0.7951791,-5.0,-2.0322795,-4.6931276
1.1257164,-4.3360295,3.8319733,0.1589961,5.0,-3.6628118,-5.0,-3.0421906,5.0,5.0,-5.0,10.0,5.0,0.4726138,1.6396601,-0.14848317
0.05328834,-3.745183,5.0,0.019801617,5.0,-5.0,-4.2448673,-1.3631511,3.9535651,5.0,-5.0,10.0,0.34322625,5.0,5.0,-0.3914322
-5.0,3.2012,-5.0,0.04301428,4.9402485,-5.0,-1.087399,-0.3574078,2.1774955,5.0,1.4050827,1.9752827,-5.0,5.0,1.8027279,0.51737934
-5.0,4.3682785,0.8040329,10.0,-5.0,0.34050423,2.314683,-2.3937821,-2.9355597,1.254705,0.94118285,-1.2022568,-5.0,-5.0,-5.0,3.0035803
-5.0,5.0,-5.0,-9.583998,-1.0927415,0.67611927,2.5568628,0.091169715,-0.8514204,-5.0,5.0,-1.0086026,-5.0,-5.0,-5.0,5.0
-5.0,5.0,-5.0,-8.194763,4.38639,-2.583757,-0.9928243,-0.781031,0.429927,-1.4250734,0.76674056,4.477776,-0.6199352,-5.0,3.3539248,1.4155145
2.3973966,1.4721057,-2.3423972,2.5080676,5.0,-0.43608022,-5.0,0.104483366,5.0,5.0,-5.0,-6.860174,5.0,-4.7868843,0.49526238,0.5914746
0.32897153,-4.949192,3.8965876,0.8849469,5.0,0.6349692,-5.0,5.0,4.469055,5.0,-5.0,3.2334194,5.0,5.0,4.6059875,0.38470888
-0.18168676,-4.5319147,5.0,0.37809542,5.0,-5.0,-4.5089684,-2.8760378,5.0,5.0,-5.0,-8.319354,2.5250344,5.0,5.0,-0.70799214
-4.7405877,0.2605791,0.51787114,1.635511,3.6580317,-5.0,0.51253486,5.0,5.0,5.0,-1.1557993,-1.7593735,-2.190578,5.0,3.9819798,0.23369399
-5.0,5.0,-5.0,-8.846013,-5.0,3.948317,4.159105,0.38883987,-2.627363,-0.33092844,4.413952,0.25048074,-5.0,-5.0,-3.0263968,5.0
-5.0,5.0,-5.0,1.6395597,1.3510522,0.054728806,1.7847431,1.3826171,-0.6457488,-5.0,5.0,0.03588362,-2.6568546,-5.0,-2.3907814,5.0
3.0258589,1.4390368,-4.746076,-9.932279,5.0,-5.0,-5.0,-5.0,5.0,5.0,-5.0,4.4826255,5.0,-5.0,3.4827995,1.6691984
-0.3034375,-4.198971,5.0,-5.196098,5.0,-4.297943,-5.0,-5.0,2.873743,5.0,-5.0,10.0,3.423573,5.0,5.0,-1.4609325
-0.97329164,-3.235566,5.0,-0.13137074,5.0,-5.0,-5.0,-5.0,5.0,5.0,-2.5435789,3.4402537,-0.50093913,5.0,4.965849,-0.05791632
-5.0,5.0,-5.0,0.35416254,-4.178135,-0.6038792,3.6877387,2.3898013,-1.2842855,5.0,4.5426583,8.50769,-4.410842,3.5917454,-1.0538063,-0.61451805
-5.0,5.0,-5.0,0.41120362,0.6900423,-0.2623494,2.2382643,2.5541482,-5.0,-4.584937,5.0,0.071199596,-5.0,-5.0,-5.0,5.0
-5.0,5.0,-5.0,-8.833023,3.4045525,-1.8429499,-3.1813188,0.9566401,0.5800747,-5.0,4.023429,-3.2118034,-5.0,-5.0,-3.0636287,-5.0
3.4717216,-2.4656081,0.88489664,4.1432524,5.0,-5.0,-5.0,5.0,5.0,4.607884,-5.0,1.1429698,3.9305406,-5.0,-0.18943715,-2.6449618
0.6712296,-5.0,5.0,-0.281652,5.0,-5.0,-5.0,0.4852721,3.0670264,5.0,-5.0,-9.459988,2.8699055,5.0,5.0,0.47007352
-1.1296923,-0.2304551,2.1682818,-0.24140464,5.0,-5.0,-3.868784,-5.0,5.0,5.0,-2.2116392,-10.0,-0.93359184,5.0,5.0,-0.36602473
-5.0,0.21024752,-5.0,10.0,-5.0,2.0341911,2.0802705,0.38299555,-5.0,3.8612156,1.3680848,-1.8733803,-5.0,0.11649853,-2.6857123,0.16495988
-5.0,5.0,-5.0,-3.98072,-4.253889,4.6665854,3.4700155,-0.119148165,-3.1305666,-3.9892685,5.0,0.6868559,-5.0,-5.0,-4.5286655,-5.0
-5.0,4.1248517,-5.0,-10.0,4.0286922,-1.6056793,0.2870829,-0.027008697,0.7476795,-5.0,3.6688557,-0.06874859,-4.270131,-5.0,-0.12836322,5.0
3.7993546,-4.23833,0.062708974,-0.17631225,5.0,-3.3293846,-5.0,3.928698,5.0,5.0,-5.0,10.0,5.0,-1.9467227,0.46901608,-2.194888
0.24068266,-4.8691573,4.470969,0.12882076,5.0,-2.6287544,-2.7436647,5.0,5.0,5.0,-5.0,-9.245524,5.0,5.0,5.0,-1.47028
-2.6272736,0.46993017,-0.2660272,-4.3863316,5.0,-5.0,-5.0,-5.0,5.0,5.0,-2.8285966,-9.642481,0.02828765,5.0,5.0,-0.34920034
-5.0,5.0,-5.0,-10.0,-2.1354342,-1.9289553,0.99295616,0.4584004,-1.3811506,5.0,0.7161739,-2.4145932,-4.7262135,3.391765,-2.909989,-0.27188328
-5.0,5.0,-5.0,10.0,-3.4335766,3.5492048,4.426123,0.24750412,-1.9064398,-3.9722447,5.0,0.97469723,-5.0,-5.0,-5.0,-5.0
-5.0,5.0,-5.0,1.3585831,5.0,-3.557719,-2.8236885,1.1954072,0.95708585,-3.6178813,2.0084476,0.57576334,-2.5030618,-5.0,-0.38342518,5.0
3.0367558,-1.0930872,1.6257461,0.13059156,5.0,-4.622571,-5.0,-4.2500577,5.0,5.0,-5.0,10.0,5.0,-5.0,0.6115185,0.4638519
0.7015566,-4.058628,3.098625,0.11911457,5.0,-5.0,-5.0,-4.5085716,1.9034073,5.0,-5.0,10.0,5.0,2.4421597,4.3742113,-0.23902635
-5.0,-0.5032054,0.5450184,-0.20486361,5.0,-5.0,-4.5026855,-5.0,5.0,5.0,-5.0,-3.968136,-0.44551003,5.0,5.0,-1.2402824
-5.0,5.0,-5.0,-9.480645,-1.1976571,-2.9129186,2.237949,2.683597,1.3351864,5.0,-0.42641342,0.73966575,-5.0,5.0,-1.2390156,0.124864645
-5.0,2.5631235,-5.0,10.0,-1.7445316,1.3339804,2.3723936,0.13095672,-4.7815633,0.10752034,3.6395206,-0.34644035,-5.0,-5.0,-5.0,-4.4295626
-5.0,5.0,-5.0,3.148769,5.0,-3.8933945,-4.6141486,0.15726116,2.814612,-2.9544463,1.9182928,0.61507887,-0.8016678,-5.0,-1.8330814,-5.0
5.0,-1.3082312,1.825115,-0.29572704,5.0,-5.0,-5.0,-5.0,5.0,5.0,-5.0,-4.889077,5.0,-2.3526745,0.3211205,-2.4082325
0.8043413,-4.6388025,5.0,0.003365877,5.0,-4.4370384,-5.0,0.773434,2.64711,5.0,-5.0,-8.336537,3.478441,5.0,5.0,-0.7286901
-3.7217538,0.29225704,-0.78905827,-0.28281197,5.0,-5.0,-5.0,5.0,5.0,5.0,-4.857418,-4.2879953,-2.4293518,5.0,5.0,-1.178213
-5.0,5.0,-5.0,1.6783648,-0.46943843,-1.9676774,0.5976572,3.1273823,-3.104415,5.0,0.815047,1.4275968,-5.0,5.0,-1.9558077,-0.36400276
-5.0,5.0,-5.0,-5.1220293,-1.750973,1.8929838,3.6123383,0.7282176,-1.9460895,-4.4435353,5.0,-0.2465091,-3.6318235,-5.0,-3.769155,5.0
-5.0,5.0,-5.0,-3.6604385,4.765688,-1.0157514,-1.0364717,-0.16870521,0.8948723,-5.0,4.713093,-0.36057654,-1.8049259,-5.0,-0.3374362,5.0
4.6395516,-2.7872398,3.5050576,3.174824,5.0,-2.4271512,-3.7597196,5.0,5.0,5.0,-5.0,-6.5549445,5.0,-5.0,3.6187506,-0.9758411
1.8054063,-4.980479,5.0,0.025408255,5.0,-1.8891686,-3.8842034,5.0,4.7399797,5.0,-5.0,-6.158414,4.5781527,5.0,5.0,-0.66292787
0.09885144,-3.9106748,5.0,-0.79633456,5.0,-5.0,-5.0,-5.0,5.0,5.0,-2.473411,10.0,0.64906484,5.0,5.0,-0.07606779
-5.0,2.5638828,-4.8389997,0.7687025,5.0,-5.0,-2.1786628,5.0,2.1862426,5.0,0.3491006,10.0,-4.098297,5.0,1.8247879,0.74448484
-5.0,3.532956,-5.0,4.0740886,-3.6295595,3.9777098,3.865463,0.14531113,-4.8995366,-3.6537395,5.0,-0.037270278,-5.0,-5.0,-4.745845,-0.7458792
-5.0,4.6502557,-5.0,10.0,0.29726732,-0.22313982,2.537517,0.32922748,-0.28034553,-5.0,5.0,-0.54275304,-4.3513856,-5.0,-1.0227078,5.0
0.3632902,3.412088,-0.9140463,-0.22227138,5.0,-5.0,-5.0,-5.0,5.0,2.2032943,-3.3895388,-0.31580618,4.0359163,-5.0,0.45236748,0.2909473
2.9421625,-4.7762704,5.0,0.0025809447,5.0,-2.9685607,-5.0,-5.0,4.607273,5.0,-5.0,-5.0415835,5.0,4.480436,2.7837057,-0.31636423
-1.5101225,-3.3452334,5.0,0.16217105,5.0,-4.4075384,-5.0,-1.6339791,4.8071156,5.0,-4.9982247,2.1664798,-0.20723946,5.0,5.0,-0.23464814
-5.0,2.3473454,-3.035018,-0.35714602,5.0,-5.0,-2.572755,5.0,5.0,5.0,-2.7933316,-1.9793673,-2.6860313,5.0,3.4768374,0.11260304
-5.0,5.0,-5.0,-2.4157877,-4.223729,0.6319869,3.150982,-5.0,-4.74452,0.12302041,5.0,-0.16970171,-4.021827,-5.0,-5.0,0.013110638
-5.0,5.0,-5.0,10.0,1.0235852,-0.24474937,0.05122745,-3.6655347,-0.6386275,-5.0,5.0,-0.33151048,-3.919423,-5.0,-5.0,0.7531823
-1.0206664,5.0,-5.0,1.6406158,5.0,-5.0,-5.0,-5.0,3.1309023,2.3167567,-2.5193172,-0.23053107,0.7999069,-5.0,1.0738362,1.1794115
3.698452,-4.2575207,4.4317403,-0.015609207,5.0,-5.0,-5.0,-5.0,1.5852069,5.0,-5.0,-6.7738466,5.0,0.09985858,3.3470106,-0.4819944
-0.4536059,-5.0,4.931625,-0.057313673,5.0,-4.211465,-5.0,5.0,5.0,5.0,-5.0,-8.764351,3.0661669,5.0,5.0,-0.8894534
-3.7606363,3.7695856,-2.7707705,0.2651296,5.0,-5.0,-5.0,1.7352815,4.460218,5.0,-0.07358217,9.768124,-0.65736496,5.0,3.642539,0.3427992
-5.0,5.0,-5.0,-10.0,-3.0024343,-0.034635186,1.7336671,2.7947898,-1.171268,4.557316,2.0596888,-0.2280365,-4.6956296,-1.7315428,-4.376175,0.17280719
-5.0,5.0,-5.0,1.0933082,1.8318694,1.5490828,2.2932017,1.0242723,-1.5606538,-5.0,5.0,-0.40478685,-3.9377792,-5.0,-5.0,0.42267323
0.5186368,5.0,-5.0,-0.14342952,5.0,-5.0,-5.0,-5.0,5.0,3.1300488,-2.873394,-0.25161123,3.958741,-5.0,3.0900002,1.4407084
2.9964676,-3.7976813,5.0,-0.9569303,5.0,-5.0,-5.0,-5.0,4.74736,5.0,-4.635827,10.0,2.4575162,2.0513601,3.590322,0.23137705
0.06430411,-4.634688,5.0,-0.75869703,5.0,-5.0,-5.0,-5.0,5.0,5.0,-4.647473,-1.6350849,-0.22537145,5.0,5.0,-0.24483761
-5.0,5.0,-5.0,3.8623903,-4.8180604,-5.0,4.1865454,5.0,-1.3858898,5.0,5.0,-2.1359832,-5.0,4.742539,-3.4034657,0.13746476
-5.0,5.0,-5.0,-6.30464,-2.903562,3.3621888,3.475521,0.431028,-4.5108433,-0.43785596,3.6981108,-0.017384414,-5.0,-5.0,-4.6162257,5.0
-5.0,5.0,-5.0,-8.242209,3.1908455,2.1015809,0.77636003,-0.3675337,-0.9091705,-5.0,4.577293,-0.8355099,-4.3504744,-5.0,-3.784089,-2.6141346
1.0209552,4.086663,-2.190126,-0.18440683,5.0,-4.4869423,-5.0,5.0,5.0,2.1773121,-5.0,0.6843885,5.0,-5.0,1.15627,1.3522654
-0.49473387,-3.5977862,3.9135563,-1.6149853,5.0,-5.0,-5.0,-4.8827944,5.0,5.0,-5.0,-9.706894,5.0,4.332706,5.0,0.9489405
0.16650933,-4.797859,5.0,0.016970493,5.0,-3.059207,-3.140215,5.0,5.0,5.0,-5.0,-3.8595543,2.4927382,5.0,5.0,-0.38837212
-5.0,0.74883443,-5.0,0.2950351,5.0,-5.0,-4.1299076,-5.0,5.0,5.0,2.5842028,0.31663316,-3.6053746,5.0,2.8462596,-0.20440608
-5.0,5.0,-5.0,10.0,-5.0,4.283201,4.8500485,-0.030772679,-3.4562244,0.34086347,2.9125774,-0.536142,-5.0,1.8723525,-5.0,5.0
-5.0,5.0,-5.0,-7.86531,-0.36155033,1.2174344,2.9707987,-0.6106956,-2.1567032,-5.0,4.843803,-0.36109537,-5.0,-5.0,-4.665773,-2.1737585
0.9633546,5.0,-5.0,-6.506486,5.0,-5.0,-5.0,-2.8658195,4.7669487,-2.9323916,-0.014970303,3.3077831,-0.59720975,-5.0,1.0030463,-5.0
5.0,-0.7904254,1.6470425,-0.42199594,5.0,-4.5468154,-4.446328,5.0,2.1267674,5.0,-5.0,-5.770816,2.1187086,-4.197998,0.8901371,-0.43778956
-0.12935895,-4.043885,5.0,-0.10352802,5.0,-3.6346648,-4.030476,5.0,3.0022025,5.0,-5.0,-7.8837376,1.071053,5.0,5.0,-0.7127957
-5.0,0.7745377,-4.2727456,2.8982816,5.0,-5.0,-5.0,0.5928526,5.0,5.0,-3.3773282,-10.0,-1.7706281,5.0,3.3002946,-2.536978
-5.0,5.0,-5.0,-5.2093973,-5.0,-0.2342267,3.0585454,0.089371376,-2.8194475,4.2889833,2.9121363,0.7871137,-3.9639678,-0.5025115,-2.808041,-0.24985473
-5.0,5.0,-5.0,-5.1369324,-1.7312199,0.30498898,1.3184218,-0.06680128,-1.7310548,-2.448991,5.0,-0.28684938,-0.75110966,-5.0,-5.0,5.0
4.8988066,-0.13914692,-2.7186897,-8.765427,5.0,-5.0,-5.0,5.0,4.7461042,1.1839709,-5.0,4.174623,5.0,-5.0,4.379939,3.4975698
4.600713,-3.9241943,4.3072233,0.5559993,5.0,-5.0,-5.0,-5.0,2.571548,5.0,-5.0,-10.0,4.1107664,-0.08462751,3.3148205,0.16188607
-0.09551361,-0.7467613,5.0,-1.4950054,5.0,-4.125055,-5.0,5.0,3.476965,5.0,-4.99601,10.0,0.09735364,5.0,5.0,-4.6059856
-5.0,2.1610081,-2.8345528,-0.558077,5.0,-5.0,-4.7425556,-3.687233,5.0,5.0,1.2096207,0.8873773,-3.8058176,5.0,3.744585,-1.061768
-5.0,4.9534445,-5.0,10.0,-4.7466507,2.1859155,1.5237993,0.65693486,-3.5286431,-0.52443016,4.246317,0.040804885,-5.0,-4.404764,-5.0,-3.4323559
-5.0,5.0,-5.0,-2.1293855,2.883924,-1.3768855,-0.5886042,-3.872582,-1.4391935,-5.0,3.7467093,-0.090900436,-5.0,-5.0,-4.09524,5.0
5.0,-2.05299,2.2744951,3.454802,5.0,-5.0,-5.0,-5.0,5.0,3.709536,-4.01398,-0.23027754,2.6745105,-5.0,2.3404028,2.1596355
2.6725745,-5.0,5.0,-0.39414918,5.0,-5.0,-5.0,-4.297994,-0.49212408,5.0,-5.0,10.0,0.23258269,5.0,5.0,-0.12655632
0.08004713,-4.5400352,5.0,-0.37526384,5.0,-5.0,-5.0,-5.0,5.0,5.0,-1.2945703,1.6313732,-0.33760732,5.0,5.0,-1.2490247
-5.0,1.7470601,-3.9497054,1.0211112,0.8013675,-5.0,-3.5241227,-4.264471,-0.7411864,5.0,0.15761882,0.26435506,-5.0,5.0,0.23079509,0.2990279
-5.0,5.0,-5.0,-2.2252023,-3.6543975,1.4688737,2.2107544,-0.14958417,-3.054072,-4.030592,5.0,-0.21909197,-3.9949222,-5.0,-5.0,5.0
-5.0,3.745276,-5.0,-0.5166588,4.3080196,-2.667457,-2.7948813,-5.0,-1.1576416,-5.0,3.9326057,0.7748169,-5.0,-5.0,-3.835789,-5.0
2.4620264,2.7933414,-2.1894236,-3.5365882,5.0,-4.0462003,-5.0,5.0,5.0,0.27559018,-3.5258365,0.49803972,3.7194695,-5.0,-1.6463972,-3.08622
3.7703772,-4.9222116,4.996766,-1.4001799,5.0,-4.0433254,-5.0,-5.0,2.6313262,5.0,-5.0,9.508852,3.9856396,0.2371875,2.264461,0.07415955
1.1456752,-4.280626,5.0,-0.06722317,5.0,-4.133783,-5.0,-5.0,3.3616097,5.0,-4.096019,10.0,0.49737036,5.0,5.0,-1.2495797
-1.0229297,-2.6226661,3.3531039,0.45328984,5.0,-5.0,-5.0,1.2257053,4.5084877,5.0,-2.1633246,-5.8602877,0.19964612,5.0,5.0,-1.219293
-5.0,5.0,-5.0,-0.5670209,-5.0,-0.8673851,1.4665276,0.06963858,-3.7659593,5.0,4.072242,-0.28166413,-5.0,-1.867955,-5.0,-5.0
-5.0,5.0,-5.0,2.639998,-0.68765336,1.349812,2.763896,4.1368513,-3.3118792,-3.984223,5.0,-1.0839244,-4.6752996,-5.0,-5.0,-0.9272251
3.147689,1.9748001,3.157108,10.0,5.0,-5.0,-5.0,5.0,5.0,-1.2269001,-5.0,2.4875348,2.348069,-5.0,-1.3587981,-0.46065295
2.5114315,-4.552807,3.799373,-0.2043234,5.0,-3.6914482,-5.0,-5.0,2.7027924,5.0,-5.0,-6.0295115,5.0,-0.063022375,0.64242744,0.06173728
-1.2257394,-2.5788078,4.135961,-0.7382291,5.0,-4.307461,-4.948316,5.0,5.0,5.0,-4.555822,-9.229598,2.5166852,5.0,5.0,-0.76160175
-5.0,4.311085,-3.680029,-0.036597807,2.2088265,-5.0,-1.176494,5.0,3.9068077,5.0,-0.93179154,1.0908289,-3.1640658,5.0,2.3013833,0.25974753
-5.0,4.728048,-5.0,10.0,-4.571795,3.6235693,3.2135954,-0.44761762,-4.1361337,-1.5280458,4.109647,1.1470464,-5.0,-5.0,-5.0,-5.0
-5.0,5.0,-5.0,10.0,3.7565737,0.4462921,3.0809145,3.5907428,-0.66158223,-5.0,4.3801265,0.44755644,-2.2672555,-5.0,-4.7506027,-2.6472812
3.5579066,-1.3555379,0.82421076,-0.20795715,5.0,-5.0,-5.0,-5.0,5.0,5.0,-5.0,0.7460275,5.0,-5.0,1.254039,1.3448244
0.87261724,-5.0,5.0,-0.19929908,5.0,-5.0,-5.0,-5.0,4.443057,5.0,-5.0,-9.371702,5.0,5.0,5.0,-0.6105256
-5.0,2.063449,-2.7965698,0.91271585,5.0,-5.0,-5.0,5.0,5.0,5.0,-0.3941207,10.0,-2.5018425,5.0,5.0,-0.103791736
-5.0,5.0,-5.0,-7.6796913,-3.7086344,0.22608724,2.222292,0.46466285,-3.2253382,4.246157,0.8206371,-0.12502381,-5.0,1.3322098,-5.0,-5.0
-5.0,5.0,-5.0,-0.76895356,-0.25649735,1.990667,1.5476308,0.50746584,-2.3232303,-3.4278271,5.0,-1.0050126,-5.0,-5.0,-5.0,4.484319
-0.8283681,4.509829,-5.0,7.2537613,5.0,-5.0,-5.0,1.3484045,4.45626,-1.6521193,-2.2079842,-0.42925835,1.589651,-5.0,1.9017421,5.0
3.4062252,-3.3800714,3.25445,0.16206542,5.0,-0.5433371,-5.0,3.2619061,5.0,5.0,-5.0,-9.813295,5.0,-5.0,-1.4174876,-1.1139684
0.92975086,-4.973982,5.0,-0.24699356,5.0,-5.0,-4.1480417,0.49859798,1.1191533,5.0,-5.0,10.0,-0.2999966,5.0,5.0,-0.15938523
-3.9573255,0.25216305,-0.015256405,-0.19958296,5.0,-5.0,-5.0,5.0,5.0,5.0,-0.8307674,1.6059179,-1.9961605,5.0,5.0,-0.35993376
-5.0,4.7520742,-5.0,5.592121,-4.2063265,1.5512999,2.99047,-1.0095577,-3.5737646,2.0224926,5.0,0.35862288,-5.0,-2.919138,-5.0,5.0
-5.0,5.0,-5.0,10.0,4.3503547,0.13354766,-0.52069557,-5.0,-0.52323496,-5.0,4.599443,-4.5965133,-4.9215593,-5.0,-4.966509,-5.0
3.5446153,0.4216417,1.472758,2.0379994,5.0,-5.0,-5.0,-5.0,5.0,3.0526123,-4.404836,0.86055034,3.7391987,-5.0,0.036762297,-0.43527853
1.6685647,-4.0864925,5.0,0.035625532,5.0,-5.0,-5.0,-2.3290603,1.812716,5.0,-5.0,-10.0,4.400205,5.0,5.0,-0.29406208
-4.696565,0.3286121,-3.623771,0.4310128,5.0,-5.0,-4.740699,5.0,5.0,5.0,1.9244776,10.0,-3.8718052,5.0,5.0,-1.9258536
-5.0,3.3823016,-5.0,2.1132364,-4.732521,-3.3674517,-0.0073928833,-5.0,-5.0,5.0,5.0,-0.58125496,-5.0,1.7501024,-3.1395607,1.8617264
-5.0,5.0,-5.0,-7.9194,-2.7600846,2.172904,3.5425417,-2.7823567,-2.515729,-3.1822367,5.0,0.14728606,-5.0,-5.0,-5.0,-3.474177
-5.0,5.0,-5.0,2.5318618,4.558729,-0.36397648,0.3745915,1.3637222,0.79371107,-5.0,4.7808905,-0.22190541,-2.86017,-5.0,-2.690824,5.0
0.46749496,3.1066742,-5.0,-0.25897443,5.0,-5.0,-5.0,-4.784797,4.851734,3.4848087,-3.6641726,-0.041320927,3.8669572,-5.0,2.728341,1.6925137
1.1834959,-4.45939,5.0,-0.44769257,5.0,-4.3733816,-4.5215983,2.5588357,3.2233183,5.0,-5.0,-10.0,5.0,4.8594184,3.763332,-0.661204
-0.053688407,-3.9798741,5.0,-1.1716862,5.0,-3.537551,-2.635462,5.0,5.0,5.0,-4.559246,-10.0,0.89063346,5.0,5.0,-0.6440128
-2.409391,1.3931344,-1.3486352,-0.31100464,5.0,-5.0,-3.9181786,-5.0,5.0,5.0,0.85444367,-1.8523475,-2.457807,5.0,4.3710136,-0.45339248
-5.0,5.0,-5.0,-1.2232976,-2.690621,1.0273235,2.1925378,0.04992307,-3.6811614,4.3379965,1.6731493,1.653145,-5.0,-5.0,-5.0,-5.0
-5.0,5.0,-5.0,-0.7250514,-1.3774897,2.8216963,3.5704265,-0.50583625,-1.7909435,-3.6422124,5.0,0.738909,-5.0,-5.0,-4.1437945,0.97310376
-1.8832479,5.0,-3.5987668,-8.299831,5.0,-5.0,-5.0,-5.0,3.9527168,-1.2894356,-0.11189628,0.098096535,0.6198317,-5.0,1.000478,0.06384203
2.941644,-5.0,4.6417165,-0.8348759,5.0,-2.5660033,-5.0,1.5307395,5.0,5.0,-5.0,-0.68948317,5.0,0.7553685,1.1834233,1.2818325
-0.08024883,-3.1469517,4.3866825,0.28918818,5.0,-5.0,-5.0,-3.5589418,5.0,5.0,-3.551133,-10.0,0.67772794,5.0,5.0,-0.90257686
-5.0,5.0,-5.0,-6.4621572,-2.3469841,0.24352205,3.1021578,-2.8779736,-0.8856566,5.0,1.8078339,-10.0,-5.0,5.0,-3.374816,0.7539637
-5.0,3.87849,-5.0,10.0,0.2976879,1.1223699,1.3768886,-0.0448054,-5.0,-1.8180352,4.608098,0.5086398,-5.0,-5.0,-5.0,0.002825737
-3.8557968,5.0,-5.0,-8.445887,5.0,-3.4174066,-5.0,5.0,5.0,-5.0,0.6586114,1.621856,-2.261462,-5.0,0.012101769,-5.0
3.2953782,-4.0248027,4.062693,-3.2493377,5.0,-1.2177926,-5.0,-5.0,5.0,5.0,-5.0,4.355052,5.0,-1.5046672,3.6654198,-4.658243
0.18927723,-5.0,4.5088315,-0.543306,5.0,-4.9612675,-5.0,5.0,3.4700255,5.0,-5.0,-1.8446321,3.7528162,5.0,5.0,-0.66311336
-1.490519,-0.45656967,0.64503205,0.10027315,5.0,-5.0,-5.0,-4.8652,5.0,5.0,-0.64902663,-6.8989687,-1.3354619,5.0,5.0,-0.49397582
-5.0,4.04916,-5.0,10.0,-5.0,2.388069,3.0871158,-3.5983965,-5.0,1.8206922,3.1864998,-0.9493886,-5.0,-4.4334655,-3.013147,0.53384364
-5.0,5.0,-5.0,-10.0,1.0770836,1.8821484,1.2173643,-0.3484511,-1.8911248,-5.0,5.0,-0.42216027,-5.0,-5.0,-5.0,-1.7405083
3.6534388,4.157751,-2.7222583,-4.171921,5.0,-5.0,-5.0,-5.0,5.0,2.4595723,-5.0,0.06388433,3.0199347,-5.0,-0.47756904,-2.33109
0.8288251,-1.2084423,5.0,-1.8523587,5.0,0.045102,-5.0,5.0,3.0273995,5.0,-5.0,10.0,4.891796,4.0487914,5.0,-0.037311144
-1.3373728,-0.86551094,2.7242417,0.0006566125,5.0,-5.0,-5.0,-3.763116,5.0,5.0,-2.4365306,-7.7070637,0.16448608,5.0,5.0,-1.0779551
-5.0,3.7208238,-5.0,7.219731,-1.3228954,-2.4117918,0.1115756,-5.0,-3.513997,5.0,2.0492477,0.6515013,-5.0,2.8217533,-2.5062916,0.04912124
-5.0,5.0,-5.0,2.042264,-1.8541331,4.008081,3.9814425,-0.08736554,-5.0,-1.0088172,4.8923497,0.7902766,-5.0,-5.0,-3.9688504,5.0
-5.0,3.8030815,-5.0,10.0,0.98802483,0.09230879,2.1419318,-0.3247105,-0.2774069,-5.0,5.0,-0.15243222,-5.0,-5.0,-3.0512729,5.0
5.0,-3.1729364,0.38750315,-1.6175888,5.0,-4.1921954,-5.0,5.0,5.0,5.0,-5.0,0.90773386,5.0,-5.0,1.3865553,0.0019757375
2.7670474,-4.9030933,5.0,-0.21626009,5.0,-1.0328432,-5.0,5.0,3.848954,5.0,-5.0,-7.599222,2.5303888,5.0,5.0,0.5973805
-1.7588589,-1.9695804,3.1979477,0.47305173,5.0,-5.0,-5.0,5.0,3.6757462,5.0,-3.7732863,10.0,-2.4234142,5.0,5.0,-0.9849217
-5.0,4.801105,-5.0,-2.5991328,-5.0,-0.18480675,1.6125932,-0.3909341,-2.549779,1.7862028,3.891926,-0.45451212,-5.0,-2.5406141,-5.0,-5.0
-5.0,5.0,-5.0,10.0,5.0,-0.16850908,0.7767033,-0.9694558,0.92686576,-5.0,3.8098195,-2.894965,-5.0,-5.0,-5.0,-5.0
3.578526,1.1887193,0.098364115,-0.09032494,5.0,-5.0,-5.0,-5.0,2.1553197,5.0,-5.0,0.5170057,1.339162,-5.0,-0.45987558,-5.0
1.8860618,-2.9611135,5.0,-3.048163,5.0,-2.358426,-5.0,1.3979402,0.8843572,5.0,-5.0,10.0,3.8036232,5.0,4.4894547,1.099274
-1.2788701,-4.4020267,5.0,-1.1971024,5.0,-5.0,-5.0,-5.0,5.0,5.0,-1.7511575,5.633599,-0.106609076,5.0,4.1662836,-0.33564425
-5.0,3.2401874,-5.0,8.2535,-2.9748468,-0.17510039,1.9310199,-0.4694317,-1.3026886,5.0,0.8766916,-3.958645,-5.0,4.3089123,-1.4188533,-0.56493986
-5.0,5.0,-5.0,0.31575453,-4.12272,1.92445,3.432568,0.46007437,-3.9388323,-2.1943076,5.0,-0.055092555,-5.0,-5.0,-5.0,5.0
-5.0,4.855665,-5.0,1.0085369,5.0,-4.687089,-2.8476138,1.3336287,1.5242226,-5.0,0.21071887,-0.47437876,-4.704815,-5.0,-0.5140139,-4.2829037
3.8226912,-1.2460856,0.8395853,-0.045878492,5.0,-5.0,-5.0,-5.0,5.0,5.0,-5.0,-4.7411866,5.0,-5.0,1.011971,1.3814664
0.94560724,-3.9737854,5.0,-0.12973237,5.0,-4.9953184,-5.0,-5.0,2.8388674,5.0,-4.869451,10.0,1.7989242,5.0,5.0,-1.3326174
-3.0346773,-0.22539818,1.1996819,0.018547554,5.0,-5.0,-4.5774903,5.0,4.843128,5.0,0.17432326,10.0,-3.1305118,5.0,4.1033206,-0.3218893
-5.0,4.54397,-5.0,-5.3285365,-5.0,3.919659,4.524306,0.05617628,-2.609364,-0.112755656,4.186182,-0.3676949,-5.0,-5.0,-5.0,5.0
-5.0,5.0,-5.0,10.0,1.7045951,0.4277873,3.6827834,-5.0,-0.9862976,-5.0,5.0,-3.4140835,-5.0,-5.0,-5.0,0.9023676
-5.0,5.0,-5.0,-10.0,5.0,0.4703089,-4.665777,4.7447624,4.759777,-5.0,2.583211,-4.3284354,-1.4871604,-5.0,-0.65923107,-1.0835629
3.9946423,-1.9777946,5.0,0.68622583,5.0,-5.0,0.88020194,3.9956324,5.0,5.0,-5.0,9.318764,5.0,-5.0,4.6302786,-3.575897
0.8489662,-4.399422,5.0,-0.942286,5.0,-5.0,-4.691264,-5.0,2.9915252,5.0,-5.0,10.0,3.7600946,5.0,5.0,-0.21877825
-1.9841998,0.11860939,1.3141494,0.113467984,5.0,-5.0,-4.179257,-1.5276399,5.0,5.0,-2.6258984,-3.554288,0.82436514,5.0,5.0,0.0120044155
-5.0,3.4877827,-5.0,-5.6727557,-1.318935,-0.57137835,3.6823936,1.5872583,-2.8068624,5.0,-1.0095582,-4.1354003,-5.0,3.5644329,-1.3755566,-0.10764838
-5.0,5.0,-5.0,-4.834445,-0.17923015,1.5691277,2.5792449,1.2644273,-5.0,-4.0445657,5.0,0.82700604,-5.0,-5.0,-5.0,-4.1510553
0.112210095,5.0,-4.4484243,-10.0,5.0,-4.9614477,-5.0,-3.0403872,5.0,-2.6201887,-0.01046896,-0.19068879,0.478575,-5.0,2.4044452,2.3676376
5.0,-2.586125,0.50541294,0.5925997,5.0,-5.0,-5.0,-5.0,5.0,4.3985734,-5.0,10.0,5.0,-4.6873446,1.4068761,1.5448177
1.1168242,-4.978092,5.0,-0.4073627,5.0,-5.0,-5.0,-5.0,3.6222124,5.0,-2.351241,10.0,0.7701136,5.0,5.0,-0.9592276
-1.7602378,1.2660329,-2.7783604,-4.4451284,5.0,-5.0,-5.0,-5.0,5.0,5.0,-1.4162266,-10.0,-1.0063821,5.0,5.0,-0.090813324
-5.0,4.1429453,-5.0,0.3660369,-4.2335343,-0.20334008,2.1443334,-0.543134,-3.4285188,2.9318175,2.1602077,0.33186376,-5.0,2.2045896,-2.079784,0.010766619
-5.0,5.0,-5.0,-4.9811707,-3.3123336,3.795526,3.1702993,0.508726,-3.471809,-3.9373076,5.0,-1.1964283,-5.0,-5.0,-5.0,4.8680334
-5.0,5.0,-5.0,2.0289311,4.1806707,-0.5885876,-0.005462408,-2.512652,0.15792716,-5.0,4.6245885,-0.4270488,-5.0,-5.0,-2.241665,5.0
4.227873,-1.8453947,1.5568936,2.5590658,5.0,-5.0,-5.0,4.9797726,4.0878487,3.3244553,-5.0,1.0830783,2.8902788,-5.0,0.34023106,0.38603023
1.3283734,-3.8481112,5.0,-0.3093582,5.0,-5.0,-5.0,-5.0,0.6005943,5.0,-5.0,10.0,2.541652,5.0,5.0,-1.4067856
-1.4146627,-2.3391442,3.294551,-0.011217154,5.0,-5.0,-5.0,5.0,4.8709855,5.0,-4.4738326,10.0,0.09746754,5.0,5.0,-0.30776578
-5.0,2.857174,-3.1286993,0.13383174,0.50346506,-5.0,-0.5278642,5.0,0.9162941,5.0,-2.5966864,-2.2016678,-4.094405,5.0,0.6144148,-0.7639809
-5.0,5.0,-5.0,-5.8305125,-0.36367318,1.1550262,2.7706337,-0.82146406,-4.3100204,-1.787883,4.0068674,-0.73019654,-5.0,-5.0,-5.0,-4.4295926
1.6636717,5.0,-3.478302,10.0,5.0,-4.968915,-5.0,-0.5241139,5.0,-4.2909217,-1.6556224,-2.1902938,1.9084733,-5.0,-1.8432941,-1.5193374
5.0,-2.6280937,2.9172628,0.43046013,5.0,-5.0,-5.0,-5.0,5.0,4.5256977,-5.0,10.0,5.0,-2.47725,1.8420954,2.4978282
1.2001965,-4.231161,4.765934,-0.27569875,5.0,-3.4481683,-4.3484654,2.2839956,1.433641,5.0,-5.0,10.0,1.4350979,5.0,5.0,-0.09443408
-3.2826629,-0.6754564,0.82110226,2.206024,5.0,-5.0,-5.0,5.0,5.0,5.0,-3.137802,-0.44848046,-0.95869446,5.0,5.0,-0.502858
-5.0,5.0,-4.8550835,-5.8411393,-4.0402155,0.37162313,1.6378319,0.1785335,-2.565106,3.4862516,2.3067584,0.6540339,-5.0,-1.5647569,-3.4417791,0.879317
-5.0,5.0,-4.73658,10.0,-1.2004179,1.4451466,2.8686178,0.43744457,-1.2575667,-2.2101326,5.0,-0.36552197,-4.1339836,-5.0,-5.0,-2.2406588
1.733185,2.8602707,-3.1491303,-4.484109,5.0,-5.0,-5.0,5.0,3.521996,0.8845718,-3.227726,-0.21832941,1.0107509,-5.0,-0.3202629,-2.0825908
3.3992357,-5.0,4.3217444,0.19199227,5.0,-3.3049798,-5.0,-5.0,3.9036431,5.0,-5.0,-6.814099,5.0,-1.1474254,1.1170374,-0.25030434
0.5183508,-4.768053,5.0,-0.38996708,5.0,-5.0,-5.0,-5.0,2.6905699,5.0,-5.0,-10.0,1.9108142,5.0,5.0,-0.5124604
-5.0,4.849447,-5.0,-3.6160364,4.892325,-5.0,-2.3778198,5.0,3.4819365,5.0,-1.9504256,-2.0199592,-4.9473553,5.0,0.5302168,-0.6980581
-5.0,0.4344939,-5.0,10.0,-3.261197,2.574202,4.098328,-0.15708995,-3.7060091,-0.5251852,5.0,-0.4238386,-5.0,-5.0,-5.0,-3.7145562
-5.0,5.0,-5.0,-6.0197177,1.2555861,-0.30975994,1.0995541,-0.13981357,-0.46932083,-5.0,5.0,-1.4464111,-2.9467638,-5.0,-5.0,-4.9122543
2.528295,-3.4497638,1.7599692,-0.18606749,5.0,-3.1000664,-5.0,2.749978,5.0,4.6482577,-5.0,-3.0241206,4.899597,-5.0,0.11950004,-0.54661185
1.1633162,-5.0,4.7457833,-0.4401659,5.0,-1.7939343,-4.801176,5.0,1.4810764,5.0,-5.0,-5.864612,4.707159,2.388499,5.0,-0.27807322
-1.8970187,0.9811822,-1.0622199,0.17471558,5.0,-5.0,-5.0,5.0,5.0,5.0,-2.0142493,-5.6351943,-0.802408,5.0,5.0,-0.51006764
-5.0,5.0,-5.0,-1.9828053,-5.0,2.445553,3.0139027,-0.319964,-5.0,3.9550052,3.4568634,1.8335615,-5.0,-2.6197343,-5.0,0.06841861
-5.0,5.0,-5.0,-1.8949482,-3.4417143,4.272794,3.4565403,-1.8036883,-3.0400002,-4.245635,5.0,-0.5558007,-5.0,-5.0,-5.0,0.3261385
-5.0,5.0,-5.0,-1.1726184,5.0,-4.2823453,-2.5345383,0.415641,2.5329127,-5.0,1.3522713,0.56586725,-0.4415717,-5.0,1.4958441,1.4395099
5.0,-1.0908568,-1.8778696,6.612314,5.0,-5.0,-5.0,0.82802534,5.0,5.0,-5.0,0.53976,0.36371112,-5.0,1.0848992,0.28518632
2.6385288,-3.9374146,5.0,-1.2788323,5.0,-1.2258279,-5.0,5.0,1.6895235,5.0,-5.0,10.0,1.530814,5.0,5.0,-0.37311518
0.4037491,-4.708684,5.0,-1.0707216,5.0,-2.0587049,-5.0,5.0,5.0,5.0,-1.9692968,10.0,0.07860613,5.0,5.0,-0.46105936
-5.0,4.7872143,-4.2725325,0.29109356,4.635147,-5.0,-4.635493,-3.3388746,5.0,5.0,0.4896506,-5.356847,-3.2334347,5.0,1.0049812,-0.74021614
-5.0,3.5666456,-5.0,10.0,-1.4482985,0.022475272,2.3923345,2.1623864,-4.2220345,2.188675,4.298549,0.15963332,-5.0,-5.0,-5.0,1.1693583
-5.0,5.0,-5.0,0.09145641,1.3487555,-2.5671003,-2.2498136,-4.453302,0.51312727,-5.0,3.4191616,0.13930617,-5.0,-5.0,-2.2758582,-0.59446716
4.3786726,-1.9114366,0.5888574,-0.6153477,5.0,-5.0,-5.0,-5.0,4.4420085,2.3020139,-5.0,0.3203159,5.0,-5.0,0.7817764,1.2588599
0.6809552,-5.0,5.0,-0.27785945,5.0,-2.5032542,-4.101712,5.0,0.7822941,5.0,-5.0,-9.038253,4.0566177,5.0,5.0,-0.34262758
-2.7800055,0.27402863,-0.5932176,0.26940855,5.0,-5.0,-5.0,-2.994232,5.0,5.0,-3.5156498,-8.582984,-0.9090904,5.0,5.0,-0.061056726
-5.0,5.0,-5.0,-6.361003,-4.4547276,0.8413944,3.5954633,0.6221059,-4.6358914,4.2131705,2.417295,0.33025712,-5.0,-1.169261,-5.0,-1.3172165
-5.0,5.0,-5.0,-7.4740825,-3.9525492,2.7715263,3.0334206,0.5924445,-0.07201445,-3.8803666,5.0,-0.48684314,-5.0,-5.0,-5.0,-5.0
-3.0335233,2.940601,-3.2084053,8.5059595,5.0,-5.0,-5.0,0.25101337,3.1024761,-3.7548637,0.41531384,3.1224008,-0.005089253,-5.0,1.6999992,3.207083
4.552473,-1.3826429,1.3844197,-0.00560118,5.0,-3.2146425,-5.0,-5.0,4.026163,5.0,-5.0,1.7368735,5.0,-4.1508365,0.8856162,1.5512327
0.09858394,-4.710246,4.551536,-1.1127067,5.0,-5.0,-5.0,-4.141801,4.6275034,5.0,-3.4128876,-1.5023923,0.6341475,5.0,5.0,-0.6474388
-5.0,2.7102222,-4.1315665,0.55902934,5.0,-5.0,-1.8166666,5.0,3.9162946,5.0,0.1288616,-0.3445338,-4.822603,5.0,3.132089,-0.28548062
-5.0,5.0,-5.0,6.3084946,-4.5681877,2.0881803,3.049722,1.8564042,-3.9722593,-0.3338412,5.0,0.19183624,-5.0,-5.0,-5.0,5.0
-5.0,3.4972086,-5.0,10.0,2.9953136,-0.26166117,1.575813,2.374899,-0.8617674,-5.0,5.0,-0.16681786,-5.0,-5.0,-5.0,-5.0
5.0,-1.9556539,0.8408133,0.60158074,5.0,-3.7652867,-5.0,5.0,5.0,5.0,-5.0,-5.3185215,3.0294564,-5.0,-0.14423215,-1.9080313
3.0239928,-4.7621346,5.0,-0.49614045,5.0,-0.57840407,-5.0,5.0,1.297183,5.0,-5.0,10.0,3.9837651,3.5869088,4.222759,0.86449665
-1.9470934,-1.8825788,5.0,-2.0416439,5.0,-4.2646666,-5.0,5.0,4.015382,5.0,-4.743086,-10.0,-2.2497995,5.0,5.0,-1.7733456
-5.0,1.9045626,-3.034295,-0.2346084,0.4665867,-5.0,-0.982718,-3.3804412,1.0676594,5.0,-0.34207404,0.16686541,-4.498026,5.0,0.9417476,0.5683261
-5.0,5.0,-5.0,-9.278826,-2.13943,1.7062408,3.332345,0.6408927,-4.9995766,-0.11224353,3.8634577,1.1450597,-5.0,-5.0,-5.0,2.4627383
-5.0,5.0,-3.90015,-5.5487013,5.0,-5.0,-5.0,0.4428157,3.7095819,-5.0,0.4660133,0.4342827,-3.491006,-5.0,1.3357127,-5.0
3.2034056,-3.2159433,3.200986,0.46673095,5.0,-2.3876414,-4.4549627,5.0,4.5348196,5.0,-5.0,-8.77383,5.0,-5.0,0.016790748,-2.052388
0.7862165,-5.0,5.0,-0.10543396,5.0,-3.0975919,-5.0,5.0,2.32753,5.0,-5.0,10.0,5.0,3.7445152,5.0,-0.32706153
-1.0368876,-0.16222596,1.9652872,-0.032266647,5.0,-4.785775,-5.0,5.0,3.0504444,5.0,1.0162315,10.0,-0.6215836,5.0,5.0,-0.9477513
-5.0,2.417787,-5.0,-7.226646,-0.7181708,-1.1757632,0.24199331,-5.0,-4.90423,5.0,4.3353543,0.14660753,-5.0,3.3174853,-0.6178806,-1.9038602
-5.0,5.0,-5.0,-5.1393876,2.27315,3.0628223,0.5016985,-1.4986657,-5.0,-5.0,5.0,-0.15326762,-5.0,-5.0,-5.0,-2.8482704
-4.9688935,5.0,-5.0,-10.0,5.0,-5.0,-3.8027573,-1.1442146,3.8411756,-4.1587963,-0.26363325,-0.40235272,-0.5597241,-5.0,1.8528771,3.8385983
5.0,-2.3194857,0.9728892,0.25361097,5.0,-4.875169,-4.605826,-0.39062887,3.0630476,5.0,-5.0,-0.15007985,3.3607898,-5.0,1.615098,1.736142
1.4577775,-4.6351404,5.0,0.0013804989,5.0,-5.0,-5.0,-5.0,2.5413504,5.0,-4.542115,0.9621597,3.981705,5.0,4.169358,-0.19113597
-2.5010056,0.21253383,0.6435484,0.60355103,5.0,-5.0,-5.0,-4.495678,5.0,5.0,-3.7389038,-3.5618055,-2.6798182,5.0,5.0,-1.4384562
-5.0,3.4488997,-5.0,-10.0,-0.6503745,-1.6854751,2.7226005,2.4751036,-0.15618265,5.0,-1.4894959,-3.3333006,-5.0,4.6093597,-0.6870377,-0.7478821
-5.0,5.0,-5.0,2.8404322,-1.9080236,2.3610485,0.97572696,0.50489247,-2.411676,-3.6883774,5.0,-0.04467757,-5.0,-5.0,-5.0,3.3364353
-1.7034185,-0.18874872,0.49346352,10.0,5.0,-5.0,-3.603383,0.8349962,1.5631902,-2.9377985,0.53945184,-0.07197186,-2.6003685,-5.0,1.4259733,0.81648666
2.754143,-2.716401,2.1784153,0.51232255,5.0,-4.205474,-5.0,-3.3032994,1.0043997,5.0,-5.0,-5.060589,5.0,-5.0,3.088268,0.5208146
0.7940674,-5.0,5.0,-1.1511949,5.0,-5.0,-5.0,-3.9906464,1.4672098,5.0,-5.0,-6.9450336,2.9044435,5.0,4.8256903,-1.4782659
-1.3127991,-0.34758413,2.8657804,-0.1558295,5.0,-5.0,-5.0,5.0,4.8131166,5.0,-3.2763224,-10.0,-0.3460034,5.0,5.0,-1.3042217
-5.0,2.0650506,-5.0,10.0,-2.4126692,0.60587645,4.524717,-4.8742537,-5.0,5.0,5.0,3.0445876,-5.0,2.8779938,-4.061421,0.20601287
-5.0,5.0,-5.0,-5.697105,-2.5189488,3.6654382,4.3419256,-0.03230568,-2.435469,-5.0,5.0,-0.68651474,-5.0,-5.0,-5.0,2.7241557
-5.0,5.0,-4.76342,-10.0,-0.2387042,-0.6042162,0.929288,1.8553433,1.3834895,-5.0,1.9055829,0.5505376,-5.0,-5.0,0.29571146,4.6459327
4.311015,-0.53053397,1.2240362,-0.17904004,5.0,-1.7656295,-1.4706469,-0.139474,0.15360034,5.0,-5.0,3.837051,3.10908,-5.0,0.35637152,0.21208379
0.6355624,-5.0,4.3957148,0.0674535,5.0,-5.0,-5.0,-2.612752,2.2285457,5.0,-5.0,10.0,4.8633566,2.3285713,3.6849272,-0.06972627
-2.6000743,-0.38562667,1.4400325,2.17672,5.0,-5.0,-5.0,5.0,3.4772296,5.0,-3.4644372,3.6455126,0.3587209,5.0,5.0,-1.0210938
-5.0,5.0,-5.0,-6.763568,-5.0,1.9566762,2.6390624,-0.46608746,-2.3856244,3.332062,3.5856051,0.2375603,-5.0,-1.9945705,-5.0,-4.6894555
-5.0,1.2234985,-5.0,10.0,-3.2511196,3.7608714,4.8858314,-0.33161384,-0.9738698,-5.0,5.0,-0.50626695,-5.0,-5.0,-5.0,-2.673212
-5.0,3.0463572,-5.0,5.4186263,5.0,-2.9393406,-1.2636437,0.1566936,1.1086934,-4.807907,0.32571867,0.24132055,-4.409092,-5.0,0.8922156,-1.020298
5.0,-0.7931257,0.68276334,-0.38885787,5.0,-2.5986643,-5.0,-5.0,2.548696,5.0,-5.0,-7.8650007,5.0,-5.0,0.63518906,0.35870817
2.1575992,-5.0,5.0,-1.4936992,5.0,-4.7128267,-5.0,-5.0,2.3166595,5.0,-5.0,-10.0,1.5977974,5.0,5.0,-1.5642676
-1.4474595,-0.46225178,0.79922307,4.929759,5.0,-5.0,-5.0,-1.4847445,2.858279,5.0,0.2912115,10.0,-1.8323367,5.0,4.905031,-0.14973293
-5.0,2.1985226,-5.0,10.0,-5.0,-0.11837992,1.0941591,-0.057102382,-1.5868053,1.0583992,3.537475,0.23711465,-5.0,-5.0,-5.0,-5.0
-5.0,5.0,-5.0,-10.0,0.6894889,0.94295716,1.8879793,-0.089245655,0.015433282,-5.0,5.0,0.77366674,-5.0,-5.0,-5.0,-2.1658552
1.7139881,-0.33603358,-1.1319408,-4.77481,5.0,-3.177363,-5.0,-0.9353548,0.9212402,5.0,-5.0,8.006166,4.8405876,-5.0,0.5933572,-0.24089032
1.197894,-5.0,5.0,-0.10460773,5.0,-2.5901692,-3.904264,-2.2715106,2.947822,5.0,-5.0,-10.0,5.0,0.20915759,3.166092,0.37207928
-3.0058086,-0.57555073,0.42604256,2.590739,5.0,-5.0,-5.0,5.0,3.5710034,5.0,-1.6292738,10.0,-0.03500235,5.0,3.9507189,-0.34875888
-5.0,5.0,-4.8056207,-10.0,-0.9275564,-1.7608751,0.4310652,-4.033784,-1.289766,5.0,1.2146969,2.3498971,-5.0,0.7971481,-2.053141,-0.3157557
-5.0,5.0,-5.0,-4.576164,-2.6112905,2.9797611,3.296011,-0.035716347,-1.0879712,-3.9005592,5.0,0.015263087,-5.0,-5.0,-4.8911643,5.0
-5.0,3.9264739,-1.8181343,-5.034794,5.0,-3.5834656,-5.0,2.384221,3.099258,-5.0,-0.07278395,0.27548355,-5.0,-5.0,2.2622952,-1.3183489
3.8577788,-3.1943922,2.2188334,0.5058265,5.0,-0.934188,-5.0,-5.0,1.7782582,5.0,-5.0,6.301935,5.0,-2.5897965,1.4148642,2.4290018
-1.10484,-4.879018,5.0,-0.74052924,5.0,-4.7361183,-5.0,5.0,3.5949519,5.0,-5.0,10.0,4.7423086,3.370283,5.0,-1.120614
-5.0,1.5840095,-5.0,-1.5049318,5.0,-4.89896,-1.5475757,2.9049978,4.7186694,5.0,-2.0992036,-10.0,-3.2022614,5.0,2.711303,-0.12811187
-5.0,5.0,-5.0,-3.0692632,-4.408499,1.7274522,2.2202573,-0.009012356,-1.1487802,1.9120629,3.527535,0.36393863,-5.0,-5.0,-5.0,-5.0
-5.0,2.3671474,-5.0,10.0,2.7155175,0.80114543,2.3699956,-0.19072394,-1.0698768,-5.0,5.0,-0.61392915,-3.0938504,-5.0,-5.0,5.0
5.0,-0.3552251,0.40098715,-2.9816694,5.0,-5.0,-5.0,3.7745607,3.0251112,3.699813,-4.774251,2.5366764,3.5827591,-5.0,0.4545977,-5.0
3.7892134,-5.0,4.0880656,0.94033736,5.0,-4.1688695,-5.0,-4.983112,0.0052888393,5.0,-5.0,-4.4268894,5.0,-0.008620381,3.4303532,-0.25196415
1.0733299,-4.1297717,5.0,-0.93759346,5.0,-3.94216,-5.0,-1.3616295,2.6214533,5.0,-5.0,-6.3810396,2.0996447,5.0,5.0,-1.0049101
-1.774312,0.37657985,-0.7479317,-0.7622622,5.0,-5.0,-5.0,-5.0,5.0,5.0,-3.0208669,-9.71873,-1.9477073,5.0,5.0,-0.529594
-5.0,4.1525555,-5.0,-9.876406,-2.050972,-0.8246801,1.5445577,0.6582696,-2.1797814,5.0,1.9389184,0.323305,-5.0,1.8903146,-1.3103315,-0.49560127
-5.0,5.0,-5.0,-10.0,-0.6147829,1.289604,1.8386312,0.08769814,-1.2958232,-2.4737523,5.0,-0.1588085,-5.0,-5.0,-5.0,5.0
2.0570147,3.7789652,-1.0746374,-10.0,5.0,-5.0,-5.0,0.5178551,3.2472353,0.45347697,-5.0,-0.27693576,-1.8881557,-5.0,0.96455336,-0.87812686
3.494923,-4.033911,3.2709372,-0.8466745,5.0,-3.6938524,-5.0,-5.0,1.0655038,5.0,-5.0,-5.0406117,5.0,-1.3061572,2.3898304,-0.059479974
-2.2001061,-2.2414064,1.855372,-1.9603971,5.0,-5.0,-5.0,5.0,5.0,5.0,-2.3177667,10.0,-0.29820752,5.0,3.5537045,-4.972319
-5.0,5.0,-5.0,0.6940634,2.9448483,-5.0,0.5599935,-5.0,-0.021693945,5.0,-3.9047568,-10.0,-5.0,5.0,0.59807247,0.5160844
-5.0,4.112899,-5.0,10.0,-4.40114,2.8543115,4.57464,0.35807228,-1.4686861,-0.066551566,3.7698174,0.48125726,-5.0,-5.0,-4.815547,-4.414303
-5.0,4.464953,-3.2400675,10.0,3.0986385,0.14724824,1.3941287,2.2206852,-0.9696746,-5.0,4.466216,0.45729405,-3.7434628,-5.0,-3.9429228,-5.0
3.1229184,-1.7326822,3.2797687,7.118372,5.0,-5.0,-5.0,1.257443,4.4979725,2.833647,-5.0,4.6280766,0.9605365,-5.0,1.2655306,0.19207017
1.9803786,-5.0,5.0,-0.0676764,5.0,-2.456314,-5.0,2.4490013,2.303885,5.0,-5.0,-8.063841,5.0,2.5053961,3.1998854,-0.92334807
-0.23417461,-4.2991514,5.0,-2.4088502,5.0,-4.7998223,-5.0,5.0,5.0,5.0,-4.2063675,10.0,-0.6429535,5.0,5.0,-5.0
-1.7570292,-0.48296434,1.444278,2.5983021,5.0,-5.0,-5.0,-5.0,4.4483113,5.0,-0.9706286,2.195776,-3.6015136,5.0,5.0,-0.4277249
-5.0,1.3284081,-5.0,10.0,-5.0,3.44141,4.424513,-5.0,-5.0,5.0,3.6352093,0.037642285,-5.0,-2.1552434,-1.8552253,-0.7162491
-5.0,5.0,-5.0,-5.3205223,-1.7759951,5.0,2.1091197,0.7106201,0.11194581,-5.0,5.0,-0.14783853,-5.0,-5.0,-5.0,3.9138951
-5.0,5.0,-2.5377033,-5.191141,5.0,-2.5917516,-1.4592421,0.5766363,1.5423111,-5.0,0.83630764,0.6805799,-5.0,-5.0,-2.2676072,0.16756105
4.519279,-5.0,5.0,0.43761393,5.0,-3.4721532,-5.0,-5.0,1.5491097,5.0,-5.0,-9.0444565,5.0,-3.2519107,2.281852,-0.32684293
0.67018676,-5.0,4.2201877,0.13771617,5.0,-2.9373024,-5.0,-2.3177447,2.483574,5.0,-5.0,-6.825462,5.0,4.7431808,4.7695765,-0.79567164
-5.0,2.2088537,-5.0,8.307827,5.0,-5.0,-2.2394905,5.0,1.6137451,5.0,0.5104952,1.1086286,-4.1031528,5.0,3.7433314,-0.036031157
-5.0,2.8258822,-5.0,10.0,-1.7343494,-0.12173456,-0.36293888,0.17811845,-3.53566,2.6603668,3.427674,-0.42012987,-5.0,0.7466314,-5.0,5.0
-5.0,5.0,-5.0,10.0,3.1850967,1.200885,2.4148915,0.3454387,-0.92892754,-5.0,5.0,-1.017822,-5.0,-5.0,-5.0,-5.0
0.90016013,4.996926,-2.0859807,3.476995,5.0,-5.0,-4.255014,0.3003613,2.8485327,1.2394927,-2.1563954,-0.47042346,0.48708934,-5.0,2.653046,5.0
3.6497157,-5.0,5.0,-1.2048383,5.0,-0.15242791,-5.0,5.0,0.8970711,5.0,-5.0,10.0,5.0,0.639554,2.952855,0.18150045
1.1670154,-4.490387,5.0,0.06084003,5.0,-4.0080805,-5.0,5.0,3.8926883,5.0,-5.0,10.0,0.9014157,5.0,5.0,-0.8399399
-2.4044142,0.35439545,-1.1627072,-0.008552256,5.0,-5.0,-5.0,5.0,2.7418413,5.0,1.5116258,-10.0,-2.5099754,5.0,4.948155,-0.2124393
-5.0,4.974864,-5.0,-4.2977757,-3.4506829,2.2740068,3.0393195,0.031139366,-4.119399,5.0,2.703138,-0.50543416,-5.0,0.9635235,-0.6364744,-0.5566622
-5.0,5.0,-5.0,-4.304354,-0.5531037,2.2401686,1.4079735,0.10212611,0.7409618,-5.0,5.0,-0.23846845,-4.0014153,-5.0,-5.0,-1.3379307
-5.0,4.2608843,-5.0,10.0,3.4996672,-0.18681157,2.3363104,1.3574698,0.10744429,-5.0,2.4156573,0.15629326,-3.5281565,-5.0,-3.1681097,5.0
5.0,-1.1255757,1.8463421,-7.807893,5.0,-3.467008,-3.0980844,0.15581952,-3.1309762,5.0,-5.0,10.0,5.0,-5.0,1.7740475,-1.744066
2.354011,-5.0,5.0,-1.1296626,5.0,-4.36444,-5.0,-2.7071095,1.1700276,5.0,-5.0,-10.0,5.0,2.925808,4.8242426,-0.3524907
-0.23901212,-4.4481115,4.350427,0.20752336,5.0,-5.0,-5.0,-2.4473667,2.6902971,5.0,-5.0,-8.7791395,0.46491164,5.0,5.0,-0.28907567
-5.0,2.6969795,-5.0,4.806511,0.3128003,-3.0397794,-0.005962491,-0.05393739,-1.9579631,5.0,-0.31981134,0.3036074,-5.0,5.0,-0.012266755,-0.42494538
-5.0,4.74122,-5.0,-4.616369,-5.0,4.249154,4.3309984,-0.09265652,0.1466229,-3.3811457,5.0,0.039800867,-5.0,-5.0,-5.0,5.0
-5.0,4.099926,-2.0219111,-3.2692244,5.0,-3.9277294,-3.8659368,0.73832214,3.38024,-5.0,-0.036726296,0.31360805,-2.9776213,-5.0,2.3438616,4.0990806
2.5219736,-2.3195977,2.775613,-0.3581966,5.0,-0.4025135,-5.0,-5.0,1.6590719,5.0,-5.0,-3.6864467,5.0,-5.0,0.2961682,-0.071883306
0.47849056,-3.5678654,5.0,-1.0738851,5.0,-4.112872,-5.0,5.0,2.0792866,5.0,-4.90942,10.0,2.852601,5.0,5.0,-1.5621816
-4.5723844,3.9849532,-3.722877,-0.2921559,5.0,-5.0,-1.0268872,-5.0,0.119674206,5.0,1.7185439,10.0,-4.6773443,5.0,1.7040085,0.8804615
-5.0,4.646965,-5.0,-7.781925,-1.8900074,1.997577,1.2128292,0.9265978,-3.159744,-0.10285215,3.0376058,-0.35209525,-5.0,-5.0,-5.0,5.0
-5.0,5.0,-5.0,-4.292543,0.4516977,-0.046432853,1.7101352,2.2598007,-0.30417347,-5.0,5.0,-1.253571,-5.0,-5.0,-5.0,5.0
5.0,-3.0311537,3.0184689,10.0,5.0,-5.0,-5.0,-5.0,2.8740687,2.482215,-5.0,-0.32362205,2.366335,-5.0,-1.9848208,-1.2536447
1.414929,-5.0,5.0,-0.32210028,5.0,-1.8495106,-5.0,-5.0,2.0031843,5.0,-5.0,-2.4886022,5.0,-0.0522981,0.043419242,0.36073616
-1.8579575,-4.865289,5.0,-1.2780253,5.0,-5.0,-5.0,2.2110252,4.7543426,5.0,-4.6421347,10.0,2.9240212,5.0,5.0,-5.0
-4.40803,0.85325605,-0.8539953,-0.21033749,5.0,-5.0,-3.0569193,-5.0,4.9757085,5.0,-3.2835548,-2.061846,-3.2596948,5.0,4.2705755,-1.2712647
-5.0,3.5331655,-5.0,10.0,-4.749988,2.329713,2.3661585,0.25243902,-1.9516853,4.8677645,3.2744095,0.2280154,-5.0,-1.6478746,-5.0,-5.0
-5.0,2.7774956,-5.0,10.0,0.47053623,3.043387,4.346439,0.21755773,-0.8328011,-5.0,5.0,-0.4415449,-4.2723637,-5.0,-5.0,5.0
0.23993492,-1.070353,1.0910119,10.0,5.0,-5.0,-5.0,0.5929563,3.1099625,-2.069649,-1.6051005,0.37201637,-0.2010963,-5.0,2.473535,5.0
2.3491616,-4.780365,5.0,-0.243442,5.0,-2.075001,-5.0,-5.0,2.669062,5.0,-5.0,10.0,5.0,-1.6876421,1.8038776,1.3755462
1.1283227,-4.46693,5.0,-0.093860246,5.0,-5.0,-5.0,-4.510654,2.6894472,5.0,-5.0,10.0,2.7679572,2.9640417,4.6446223,-0.44957748
-5.0,4.2794123,-5.0,-3.4095817,5.0,-5.0,-2.888125,-5.0,0.27167863,5.0,2.9058504,3.6433,-5.0,5.0,1.2086698,-0.47588146
-5.0,2.8231916,-5.0,-3.1679664,-3.8720732,3.2601278,4.412938,-0.43017662,-5.0,1.7111784,2.0667214,0.6788871,-5.0,-2.6803236,-3.0910633,5.0
-5.0,5.0,-5.0,0.46438742,5.0,-0.13999829,1.259836,1.7675381,0.26777923,-5.0,3.4780376,1.0618087,-5.0,-5.0,-1.1961731,5.0
5.0,0.011727214,-1.3032368,0.35027692,5.0,-5.0,-5.0,-5.0,2.9659204,3.8984976,-5.0,0.37473083,0.18288767,-5.0,-0.43452573,-5.0
2.5170536,-5.0,5.0,0.6867394,5.0,-2.206085,-5.0,5.0,2.0942616,5.0,-5.0,-4.400696,5.0,2.706298,3.4545445,-0.041123316
1.117042,-5.0,5.0,-1.3160324,5.0,-4.356132,-5.0,-4.759833,2.5717409,5.0,-2.7187996,10.0,0.25142068,5.0,5.0,-0.6381863
-5.0,-0.035280585,-2.3177445,-0.8157132,3.899906,-5.0,-2.6957579,-2.0455081,0.014475703,5.0,-2.2595932,-10.0,-5.0,5.0,2.6539733,-0.32731566
-5.0,1.325885,-5.0,10.0,-4.0360093,1.4543787,3.2452505,-0.24727932,-5.0,0.6607437,4.957448,-0.06829311,-5.0,-5.0,-5.0,-5.0
-5.0,5.0,-5.0,-2.0984876,0.096683025,3.7060082,3.6548822,0.4062905,-0.23255622,-5.0,5.0,-0.42355236,-5.0,-5.0,-5.0,-3.2315745
3.3946927,0.06537706,3.087498,-0.80786073,5.0,-5.0,-4.0527515,5.0,1.8997364,2.7686448,-3.7942367,-0.31705478,-0.12919909,-5.0,1.1939496,0.05642242
4.0295296,-4.483284,5.0,-0.9940184,5.0,0.78051376,-4.248897,5.0,1.3964283,5.0,-5.0,-7.592483,5.0,-2.7555008,3.2718627,0.54272115
0.24637043,-2.9858315,3.7987294,0.34475276,5.0,-5.0,-5.0,-4.4614363,2.4335074,5.0,-1.8718135,-10.0,0.093115926,5.0,5.0,-0.0784756
-5.0,5.0,-5.0,-0.4639275,1.720941,-5.0,0.59502494,-0.25435078,-3.6818671,5.0,4.044912,3.9685698,-5.0,5.0,0.21970016,0.610577
-5.0,3.762355,-5.0,1.9504875,-3.3539863,2.7041385,3.1611888,0.2685295,-1.1403872,-5.0,5.0,-0.8046086,-5.0,-5.0,-5.0,-4.818961
-5.0,3.1933355,-5.0,10.0,3.4477065,-0.087497234,2.0729277,0.42837483,-0.6681657,-5.0,2.4520614,0.30182844,-5.0,-5.0,-2.739376,-5.0
1.8790998,-1.3290986,-0.13331723,4.937414,5.0,-5.0,-5.0,1.1321694,1.5597655,4.457694,-5.0,-9.665427,0.28771168,-5.0,1.1958034,-5.0
2.0982091,-4.8354554,5.0,-0.2709454,5.0,-2.8037105,-5.0,-5.0,1.510765,5.0,-5.0,-4.4445515,5.0,1.1103714,2.7922757,-0.08108052
0.41578826,-4.0717726,5.0,0.51032037,5.0,-5.0,-5.0,-4.264171,3.4177315,5.0,-4.37074,-1.4855795,-0.021678507,5.0,5.0,-1.2355317
-5.0,0.8089746,-2.9438868,-0.3836905,0.051585853,-5.0,-1.500854,-0.9383589,-0.75355756,5.0,0.518544,0.06977421,-5.0,5.0,0.27399278,-0.32480216
-5.0,5.0,-5.0,-5.1306505,-2.5991304,3.0808313,3.3667264,0.20164701,-4.0442886,-2.4595723,5.0,-0.24271455,-5.0,-5.0,-5.0,5.0
-5.0,5.0,-3.333708,-4.5841103,3.222581,-1.0536702,1.2290875,2.3486514,-0.068665385,-5.0,4.1285796,0.03809041,-4.6924005,-5.0,-4.415617,-5.0
4.8354945,-4.9654484,-0.118056774,0.7061501,5.0,-5.0,-5.0,-3.236659,-0.38798082,5.0,-5.0,1.4883227,5.0,-5.0,1.2753253,1.1355329
2.3715892,-4.6028705,5.0,-0.53982455,5.0,-4.3788013,-5.0,-4.8267107,1.2115787,5.0,-5.0,10.0,3.4494987,2.0271785,4.290412,-0.79439056
0.86467683,-5.0,4.6828427,-0.054242935,5.0,-5.0,-5.0,5.0,2.1597877,5.0,-5.0,6.764786,0.25194442,5.0,5.0,-1.5112255
-4.644391,2.1714823,-5.0,10.0,5.0,-5.0,-1.990624,2.6295166,1.4709036,5.0,2.464529,3.128738,-3.7472332,5.0,1.926757,0.23747182
-5.0,1.5536811,-5.0,10.0,-4.482284,3.2094254,5.0,-0.15816107,-1.7937702,1.8499175,3.5371702,0.1984879,-5.0,-0.41391182,-5.0,5.0
-5.0,3.3693714,-5.0,10.0,0.67379403,3.0179365,2.7146814,0.78764945,-1.9259431,-5.0,5.0,-1.0643334,-5.0,-5.0,-5.0,5.0
1.0080223,3.3175676,-1.9805053,-2.4955916,5.0,-5.0,-5.0,5.0,2.8149946,0.46854818,-3.5751393,-2.363863,-2.7611184,-5.0,1.5331924,-5.0
5.0,-3.2647634,5.0,0.015532776,5.0,-1.9407587,-5.0,-5.0,1.4395169,5.0,-5.0,-7.0068665,4.309387,-2.1444619,-0.09848046,2.6169326
2.2871108,-3.6013808,5.0,-0.015041912,5.0,-4.8454213,-5.0,-5.0,2.8344855,5.0,-5.0,-9.912856,1.986897,5.0,5.0,-3.4002464
0.038770795,-4.2945294,5.0,-0.10109187,5.0,-5.0,-5.0,-5.0,5.0,5.0,-1.9691036,-10.0,0.20052469,5.0,4.889925,-0.36549968
-5.0,2.1864743,-5.0,-0.17277206,4.1501703,-5.0,2.9222655,0.67851686,-3.3500297,5.0,1.1453205,7.874113,-5.0,5.0,0.5256665,0.66576475
-5.0,5.0,-5.0,0.87084645,-2.9085865,2.7654836,3.3497002,0.40323243,-3.4553032,0.5466163,5.0,0.12953795,-5.0,-5.0,-5.0,5.0
-5.0,5.0,-5.0,10.0,5.0,-0.37584823,1.2076616,2.535101,1.0791043,-5.0,4.122015,-0.19394666,-5.0,-5.0,-5.0,5.0
2.5785906,1.2814944,0.45809436,3.8958724,5.0,-5.0,-5.0,1.6999214,3.4226298,0.4654203,-4.083971,4.109286,1.0110679,-5.0,3.370649,-0.46969622
2.6130526,-5.0,5.0,-1.4930153,5.0,-1.9245044,-5.0,5.0,2.3677065,5.0,-5.0,-5.9493213,5.0,0.09360385,3.1401193,0.48790878
0.23176092,-4.384816,3.0619318,0.6549351,5.0,-5.0,-5.0,-3.6895676,2.4519277,5.0,-5.0,-5.3037148,0.21935439,5.0,5.0,-1.1006353
-5.0,4.8267403,-5.0,10.0,0.30174935,-5.0,5.0,0.52761936,-4.01968,5.0,2.2194705,-2.168713,-5.0,5.0,-2.3963282,-2.5812855
-5.0,5.0,-5.0,-5.8921614,-4.9952035,1.8133153,3.4828753,0.39927766,-0.17757523,0.80731153,4.4582214,0.53221077,-5.0,-5.0,-5.0,-5.0
-5.0,2.7649655,-5.0,4.0716467,0.89814925,0.15503323,2.4634938,2.5134587,-0.7997584,-5.0,5.0,-1.1884267,-5.0,-5.0,-5.0,5.0
2.5854359,0.6357156,0.7761903,10.0,5.0,-5.0,-5.0,2.6696143,3.1448288,-0.4946803,-4.0950565,-1.063065,2.223384,-5.0,0.5044534,2.3512936
1.593405,-1.9517857,5.0,-0.12988757,5.0,-1.7067066,-5.0,-0.045114517,2.5222416,5.0,-5.0,1.6089985,5.0,3.054998,3.2917392,-2.6733775
0.7093575,-3.8668206,5.0,0.8793014,5.0,-5.0,-5.0,-5.0,3.2781956,5.0,-4.514694,-10.0,1.9581007,5.0,5.0,-0.5250395
-5.0,4.4225264,-5.0,-0.90481365,5.0,-5.0,-3.2957788,-5.0,1.5180808,5.0,-1.0979171,-10.0,-5.0,5.0,1.8144101,0.09273026
-5.0,2.0353444,-5.0,10.0,-2.4749522,1.4853759,3.3026896,-0.23253617,-1.2853216,0.3601082,3.9574444,-0.05557982,-5.0,-5.0,-5.0,2.5028853
-5.0,5.0,-5.0,-4.526327,5.0,-0.4349203,0.84286654,-1.3336303,0.60932666,-5.0,4.9475217,-1.3731488,-5.0,-5.0,-5.0,-1.440764
-4.259157,5.0,-5.0,-2.7950597,5.0,-5.0,-5.0,0.25726187,3.1530442,-1.7406113,0.51089346,3.5404115,0.41014528,-5.0,1.4326472,0.9641122
4.8236527,-5.0,3.9419487,0.95206034,5.0,-4.673835,-5.0,-5.0,2.83777,5.0,-5.0,-0.09650183,5.0,-5.0,0.84862864,1.1237088
1.2318473,-5.0,5.0,-1.3760253,5.0,-4.02039,-5.0,0.04313469,2.2422132,5.0,-5.0,10.0,5.0,3.7201965,3.9801111,0.044935104
-0.59945154,-2.3737392,5.0,0.24543959,5.0,-1.1246037,-5.0,5.0,4.1155486,5.0,-0.39246845,4.1447654,-0.20912981,5.0,4.8399825,0.02502497
-5.0,2.3147233,-4.5787935,-0.8620201,0.5632316,-4.7400136,-1.7180265,-1.0457356,-0.90811276,5.0,-0.32390273,-2.4059784,-5.0,5.0,0.39173317,0.30951762
-5.0,5.0,-5.0,0.46225977,-2.9192398,4.2338333,4.0723233,-5.0,-2.081442,-3.4264395,5.0,-2.5018454,-5.0,-5.0,-5.0,5.0
-5.0,5.0,-5.0,-3.2048285,3.531815,-0.35759458,1.3295418,0.48305553,-0.3066454,-4.4234285,3.1786954,-1.0864396,-1.718842,-5.0,-5.0,-5.0
5.0,-3.5700192,3.190343,-2.8300867,5.0,-4.9080977,-5.0,5.0,-2.5037408,5.0,-5.0,10.0,5.0,-5.0,1.2129401,-2.3133068
2.8758671,-4.6344037,5.0,-0.8569064,5.0,-1.196398,-4.9809127,5.0,2.0758698,5.0,-5.0,10.0,3.7128778,3.2316756,5.0,-0.19298133
0.29875565,-4.203631,5.0,0.24912171,5.0,-5.0,-4.5501113,5.0,3.7227087,5.0,-5.0,10.0,0.345793,5.0,5.0,-0.5788314
-5.0,4.96615,-5.0,8.500528,4.5730977,-5.0,0.41022462,5.0,1.7452793,5.0,0.29937464,10.0,-3.7803464,4.245016,0.40319613,-0.026186783
-5.0,5.0,-5.0,-4.6453676,-4.6029716,2.765246,4.0323586,-0.4653653,-0.9242605,-2.4350653,5.0,-0.10333531,-5.0,-5.0,-5.0,5.0
-5.0,5.0,-5.0,-8.565862,4.0404377,0.23610407,2.6688128,-0.05852192,-0.45676517,-5.0,5.0,-0.86058855,-2.8800225,-5.0,-5.0,-5.0
3.0337324,-2.6848836,2.0178761,10.0,5.0,-5.0,-2.4081082,0.28379402,0.2805711,5.0,-5.0,-2.259612,3.7957885,-5.0,0.2090199,0.2924143
2.213431,-3.5150032,4.191627,0.065974295,5.0,-4.703817,-3.6433718,-5.0,0.6018369,5.0,-5.0,-7.7977304,5.0,2.8752894,5.0,0.72670925
0.05755484,-3.6534216,2.8090057,0.24560429,5.0,-5.0,-5.0,-3.8432984,3.1971283,5.0,-5.0,-3.8865688,1.858545,5.0,5.0,-0.3324559
-5.0,2.299851,-5.0,10.0,3.730553,-5.0,1.5037727,5.0,-0.28086305,5.0,-1.1636417,-2.2386856,-5.0,5.0,0.039756343,-0.1816818
-5.0,1.3670635,-5.0,10.0,-1.63478,1.3117055,1.5493145,0.23608164,-1.5872856,-2.5170593,3.318636,-0.87293947,-5.0,-5.0,-5.0,1.0378366
-5.0,5.0,-5.0,3.3179634,3.181896,-0.26642936,1.7113805,0.1851261,-1.4523039,-5.0,5.0,-0.5798145,-5.0,-5.0,-5.0,5.0
5.0,-2.761507,2.0347457,-4.355915,5.0,-3.4406703,-5.0,5.0,2.580065,5.0,-5.0,2.785761,4.7913866,-5.0,0.6148293,-2.2607777
2.940803,-5.0,5.0,0.1424138,5.0,-2.7318063,-5.0,5.0,1.1186119,5.0,-5.0,2.972727,3.5450673,3.0043201,2.7337832,-0.115178876
0.74163926,-5.0,5.0,-0.1306573,5.0,-5.0,-5.0,-1.8145032,3.4236016,5.0,-4.039851,10.0,0.98562896,5.0,5.0,-3.5408895
0.19330502,-4.053082,4.0332375,-0.61531764,5.0,-5.0,-5.0,-0.6374638,5.0,5.0,-3.6602046,-0.17194402,-2.9922147,5.0,5.0,-0.24510668
-5.0,5.0,-5.0,1.6635215,-2.6062603,-0.4338771,2.4241123,1.567797,-5.0,5.0,5.0,1.7396373,-5.0,2.2805521,-1.0460422,-0.43506756
-5.0,5.0,-5.0,4.454998,0.62605363,3.0702152,1.7459693,-5.0,-3.4378552,-5.0,4.5729494,-0.1245874,-5.0,-5.0,-5.0,5.0
-5.0,5.0,-4.030652,5.93318,5.0,-4.887844,-3.5542912,0.2681697,3.0363338,-5.0,-0.01760137,-1.4785596,-4.3093076,-5.0,2.0539489,2.4299047
5.0,-4.6255655,3.432374,-0.48506683,5.0,-4.696809,-5.0,-5.0,-0.00612393,5.0,-5.0,10.0,3.3920665,-5.0,0.68221366,-0.32484508
0.49536046,-3.745431,5.0,-3.0373652,5.0,-3.1282766,-5.0,5.0,1.8143895,5.0,-5.0,-10.0,0.68263996,5.0,4.9198456,-3.6837552
0.8765664,-4.111662,4.7390094,0.11877135,5.0,-5.0,-5.0,-5.0,4.8265758,5.0,-1.4491582,10.0,-0.15962306,5.0,5.0,-0.17443456
-4.549951,1.0801225,-2.7099948,-0.30925453,4.150727,-5.0,-3.2127268,-5.0,0.65728056,5.0,-0.8569621,-9.64017,-3.4191043,5.0,1.7424662,-0.7988501
-5.0,5.0,-5.0,10.0,-0.5473066,0.8504546,1.5356119,2.812258,-4.6695766,1.1734195,3.684637,-0.27488863,-5.0,-5.0,-5.0,5.0
-5.0,1.932086,-1.2068615,10.0,4.1712456,-2.4003658,-0.844368,0.42493618,3.7485776,-5.0,2.249382,0.24765731,-5.0,-5.0,-0.7401154,5.0
5.0,-3.7666218,2.0479884,0.16588266,5.0,-5.0,-5.0,-5.0,3.8640654,1.956088,-3.6547718,0.4432316,3.671716,-5.0,-1.0073155,-2.6777468
2.574224,-5.0,5.0,-0.2620046,5.0,-4.5760345,-5.0,-5.0,1.1499317,5.0,-5.0,-4.993931,5.0,2.3352642,3.9313712,-0.05631742
0.056714654,-1.7745947,2.909798,-0.4132248,5.0,-4.8611054,-5.0,5.0,2.0905151,5.0,0.31900585,10.0,-0.26213306,5.0,5.0,-0.004776148
-5.0,-1.5624119,-5.0,10.0,-0.81285805,0.12441367,2.8695168,5.0,-2.4082155,5.0,2.0543098,-10.0,-5.0,4.7582517,-5.0,0.4618286
-5.0,5.0,-5.0,3.3567824,-1.3694216,2.5995378,2.5763938,0.54360694,-1.7746437,-0.2367444,5.0,-0.56636906,-5.0,-5.0,-5.0,4.333433
-5.0,5.0,-4.12514,8.843642,5.0,-1.9303962,0.1630739,0.3924977,0.2919073,-5.0,2.4142833,0.65190333,-5.0,-5.0,-2.7484412,-5.0
2.7370963,-2.4279113,0.8743527,-0.53709626,5.0,-5.0,-5.0,5.0,4.3380666,5.0,-5.0,-3.0936596,2.581616,-5.0,2.9723728,-0.4906085
3.909956,-4.7264624,5.0,-0.35047656,5.0,-2.164713,-5.0,5.0,0.9691532,5.0,-5.0,-6.6530232,5.0,2.4806356,3.8076134,-0.06817186
0.3762853,-4.1184034,5.0,-0.036135383,5.0,-5.0,-5.0,5.0,2.9060655,5.0,-4.7364902,-7.3883805,0.5799502,5.0,5.0,-0.7851295
-3.4870822,-0.3216021,-0.9649756,0.12572175,5.0,-5.0,-5.0,5.0,3.994778,5.0,-1.5645733,-10.0,-3.0594904,5.0,4.4358907,-0.25027788
-5.0,4.930341,-5.0,-1.3173561,-2.6392488,0.773787,3.1122568,0.5209612,-2.842649,-1.6004099,4.22035,-0.86370903,-5.0,-5.0,-5.0,2.6923528
-5.0,5.0,-5.0,-6.3040586,3.6375735,-0.13510948,1.2602924,2.28484,-0.47180185,-5.0,5.0,-0.3276397,-5.0,-5.0,-5.0,-5.0
5.0,-4.8561687,3.7109358,-1.5238798,5.0,-5.0,-5.0,5.0,3.4318728,4.479469,-5.0,7.019764,4.4962587,-5.0,3.2342756,1.7835863
3.0954514,-4.4161563,5.0,-0.21269013,5.0,-3.5556479,-5.0,-5.0,1.5598192,5.0,-5.0,6.4046006,4.802287,2.1194875,3.9203916,-0.21679
0.63265294,-3.4351485,5.0,-0.93246526,5.0,-5.0,-5.0,1.5575533,2.489922,5.0,-3.1578288,4.802702,0.55051744,5.0,5.0,-0.23566684
-5.0,-0.6161689,-5.0,1.9873888,5.0,-5.0,0.65589786,4.919696,-3.1151893,5.0,1.2368915,-0.51487195,-5.0,5.0,1.9710145,0.09963596
-5.0,0.38697577,-5.0,2.003955,-2.9676342,2.4937043,4.0569525,-0.70164955,-1.016535,1.6189642,5.0,-0.31571865,-5.0,-5.0,-5.0,3.7205262
-5.0,5.0,-5.0,8.923271,5.0,-2.731714,-2.1926305,-0.44445163,1.4290248,-5.0,1.269672,0.6590455,-5.0,-5.0,0.29530656,5.0
5.0,-3.2261298,0.98994064,0.81332844,5.0,-5.0,-5.0,-5.0,5.0,5.0,-5.0,1.5374389,4.3645782,-5.0,1.0393413,0.5753997
1.8591012,-5.0,5.0,-0.18144864,5.0,-3.4378276,-5.0,5.0,0.36799997,5.0,-5.0,-3.5387964,5.0,4.888779,5.0,-0.85951465
-1.9943458,-2.5955472,2.706811,-0.80075943,5.0,-5.0,-5.0,0.02344513,4.3258424,5.0,-3.1347718,10.0,-2.915938,5.0,5.0,-5.0
-5.0,2.2035973,-5.0,6.34063,5.0,-5.0,1.1218499,-5.0,-5.0,5.0,2.6637433,10.0,-5.0,5.0,-1.0349802,-0.40964085
-5.0,5.0,-5.0,1.3797758,-4.6285253,2.9541075,5.0,0.030550238,-2.871519,-2.0290508,4.041898,-1.0709014,-5.0,-5.0,-5.0,4.360445
-5.0,5.0,-5.0,-0.7458236,3.852211,-0.13769177,0.76310426,0.3461706,-0.7043481,-5.0,5.0,-0.13554013,-5.0,-5.0,-5.0,-5.0
5.0,-3.4214065,4.7436194,1.2577363,5.0,-4.801114,-5.0,5.0,5.0,4.083514,-5.0,10.0,4.781246,-5.0,0.8542092,-1.0703262
2.231051,-5.0,5.0,-0.87459505,5.0,-2.7875533,-5.0,5.0,-1.257025,5.0,-3.2037477,10.0,5.0,3.2825565,2.7537258,-0.19093657
1.2486786,-4.8581285,5.0,-0.6435234,5.0,-2.5977855,-5.0,5.0,1.1853051,5.0,-5.0,10.0,0.45732734,5.0,5.0,-0.640192
-5.0,-1.0106342,-4.571286,3.9709516,5.0,-5.0,-3.2645433,5.0,0.67377025,5.0,0.32421586,-10.0,-5.0,5.0,2.16657,-3.4121609
-5.0,2.7026343,-5.0,10.0,0.73607254,3.0069263,1.967815,-5.0,-4.1516767,-2.4162216,5.0,-1.5284157,-5.0,-5.0,-5.0,5.0
-5.0,4.428079,-5.0,10.0,0.65018904,1.2306659,2.2358794,0.2816863,-1.0213941,-5.0,5.0,-1.1062326,-4.825124,-5.0,-5.0,-4.8697276
-2.3382998,1.8847812,-0.5897832,1.3708009,5.0,-5.0,-4.8404765,0.8918711,1.9308475,-4.0420947,0.008552551,-0.046003472,-2.083671,-5.0,2.9646208,2.8304577
2.9387078,-4.672016,5.0,1.0523168,5.0,-1.738046,-5.0,-5.0,1.2075348,5.0,-5.0,10.0,5.0,-2.2551532,2.3299937,-0.27773032
-1.5391779,-0.94780463,5.0,-2.0419831,5.0,-4.7941475,-5.0,-1.9146442,5.0,5.0,-4.355086,-8.598532,-0.22840011,5.0,5.0,-3.510863
-5.0,4.6526546,-5.0,-8.330743,5.0,-4.5815964,-1.8039708,5.0,4.304879,5.0,1.9802351,-8.219735,-2.6258469,5.0,1.2829481,-0.04624621
-5.0,5.0,-5.0,-3.5787344,-4.584596,5.0,4.38619,0.06063226,-5.0,4.645436,2.1789074,0.47958013,-5.0,-2.6907258,-5.0,-5.0
-5.0,5.0,-5.0,2.6157916,-1.204548,3.0308485,2.5653393,0.63803923,-2.798264,-3.020687,5.0,-0.12407882,-4.7635555,-5.0,-4.6700983,5.0
3.500785,5.0,-3.8457232,2.3994155,5.0,-5.0,-5.0,-1.7576594,5.0,0.8268647,-5.0,-0.018687014,2.0336015,-5.0,0.4048413,-0.39085382
3.2517343,-3.4619148,3.8538013,0.2851518,5.0,-3.5898728,-5.0,-5.0,4.251935,5.0,-5.0,-6.002672,5.0,-0.4773432,1.0859525,2.410232
-0.70758826,-3.2163215,5.0,-0.5794921,5.0,-5.0,-5.0,-5.0,4.1935654,5.0,-5.0,10.0,-0.485677,5.0,5.0,-1.8385781
-3.4069824,-0.14091241,0.07583487,0.14741813,5.0,-5.0,-5.0,-3.6017392,5.0,5.0,-3.8647227,-5.91034,-1.4696896,5.0,5.0,-0.073364824
-5.0,5.0,-5.0,-9.78722,-0.22473478,-2.4582825,0.23023057,-5.0,-0.5294511,5.0,0.49434483,0.40002847,-5.0,0.70118296,-2.9689634,-0.20490047
-5.0,5.0,-5.0,3.9488873,-0.12921542,-0.127769,0.6430076,3.0940487,-1.1850876,-4.006124,5.0,-1.0096246,-4.9467134,-5.0,-5.0,-1.1534839
-0.2890606,5.0,-5.0,5.7256403,5.0,-5.0,-5.0,-5.0,5.0,-0.6420412,0.6610919,3.2776115,1.691251,-5.0,-2.3034456,-5.0
2.627074,-0.9794072,1.5214175,1.1167227,5.0,-2.9886742,-4.658461,5.0,5.0,5.0,-5.0,-8.79893,5.0,-3.20249,1.5772089,0.5481039
-1.3792676,-1.2419226,2.9850817,0.25357932,5.0,-3.312896,-5.0,5.0,5.0,5.0,-5.0,-7.3743773,2.1428275,5.0,5.0,-1.1659242
-5.0,5.0,-5.0,-7.450517,1.8803577,-5.0,-3.300531,-0.80201185,2.6748326,5.0,0.86332834,8.656099,-5.0,5.0,0.87469953,-0.085568234
-5.0,5.0,-5.0,-0.32635713,-5.0,2.0493479,4.1858153,-0.26568353,-2.9453015,-0.5645994,5.0,0.82583,-5.0,-5.0,-5.0,5.0
-5.0,5.0,-5.0,10.0,5.0,0.2838552,1.9587437,1.6028454,0.33791542,-5.0,4.660336,0.13669783,-3.674801,-5.0,-2.5514343,1.0103271
0.8232522,4.148966,-2.1437848,10.0,5.0,-5.0,-5.0,-5.0,5.0,4.0988436,-5.0,0.8639923,5.0,-5.0,0.88858235,1.2842538
1.4783148,-0.7749838,1.1637225,-0.32857972,5.0,-4.0865026,-4.495964,-5.0,3.8181286,5.0,-5.0,0.25201428,3.90902,0.40153843,2.9584904,-0.19168845
-2.19209,-1.1001205,3.0334027,-0.42131895,5.0,-5.0,-5.0,-3.4455588,5.0,5.0,-5.0,-7.916402,-1.910305,5.0,5.0,-0.9033689
-5.0,5.0,-5.0,10.0,-2.026041,-2.7291794,2.7484133,-1.4805377,-4.413379,5.0,1.8102555,-10.0,-5.0,5.0,-5.0,0.30292186
-5.0,5.0,-5.0,-8.571506,-2.6841295,3.1868958,4.2487392,0.8570736,-5.0,-5.0,3.2849042,0.17305116,-5.0,-5.0,-5.0,-5.0
-5.0,5.0,-5.0,10.0,1.6003802,-0.42776507,0.22170508,0.20454867,-0.8532538,-5.0,4.036757,-0.10231137,-5.0,-5.0,-2.5312717,-1.2155778
1.796419,-2.4168673,3.5504997,1.2373494,5.0,-4.471995,-5.0,-5.0,5.0,5.0,-5.0,-1.031301,5.0,-5.0,0.786602,-3.3895478
1.0650698,-5.0,5.0,-1.0209323,5.0,-4.847435,-5.0,-5.0,3.7243533,5.0,-5.0,-10.0,4.369895,3.8578784,4.8921776,-0.21980843
-2.728397,-2.2445505,3.4579816,0.34069288,5.0,-5.0,-5.0,-5.0,5.0,5.0,-3.3645563,-7.768104,-0.7618933,5.0,5.0,-0.13833842
-5.0,5.0,-5.0,-0.5515599,-4.0652695,-0.98646283,0.54235923,-0.2188891,-1.9066291,5.0,1.3844612,0.11126905,-5.0,0.20815575,-2.7032967,0.6530697
-5.0,5.0,-5.0,10.0,-5.0,5.0,4.91804,-1.3310026,-2.2041564,-3.3462024,5.0,0.22445032,-5.0,-5.0,-4.3918066,5.0
-5.0,4.7436023,-5.0,3.5597355,4.63757,0.01582098,2.0684614,2.084292,2.0182796,-5.0,5.0,-0.117962316,-5.0,-5.0,-1.0404283,3.806792
3.4483047,-0.62534696,2.39968,4.0454392,5.0,-2.294108,-5.0,5.0,5.0,5.0,-3.91101,0.818249,5.0,-5.0,0.9049171,1.1994098
0.94212896,-4.585402,4.7110486,-0.13224632,5.0,-4.1890154,-3.0048087,-0.26736677,4.244796,5.0,-5.0,10.0,3.2945423,4.1563563,5.0,0.096310936
-1.6163535,0.36794055,0.10023266,0.23578344,5.0,-5.0,-5.0,0.82215714,5.0,5.0,-4.3077607,3.479589,1.2180783,5.0,5.0,0.038459465
-5.0,5.0,-5.0,10.0,-3.569965,1.2037021,2.3950448,0.32205662,0.57976794,5.0,2.1127388,2.451835,-5.0,1.2080684,-4.1970673,-0.40529215
-5.0,5.0,-5.0,5.6237926,-0.5398629,0.43626046,2.5092533,1.2904766,-3.0309598,-5.0,5.0,0.5801862,-1.9174145,-5.0,-5.0,5.0
-0.033643663,5.0,-5.0,0.59643126,5.0,-5.0,-4.457691,0.14731391,4.6862187,-0.3094182,-1.7113942,-0.3321915,3.875309,-5.0,0.23452544,-0.4301919
2.6993666,-0.2271744,-2.4079227,-3.344585,5.0,-4.5673647,-5.0,-5.0,2.7216048,5.0,-5.0,-7.975458,5.0,-0.40117967,1.9628412,0.37445396
-0.03605795,-2.0536485,4.674599,-0.74776053,5.0,-5.0,-4.1335306,-4.3842983,4.4032693,5.0,-5.0,10.0,0.16140658,5.0,5.0,-0.122646354
-4.5603895,4.9951105,-3.0542953,0.087090634,5.0,-5.0,-2.720145,-3.767633,5.0,5.0,-3.0457275,2.1428123,-1.6886322,5.0,1.6007662,-0.30637023
-5.0,5.0,-5.0,4.932219,-4.670964,2.1060553,3.566377,0.11065346,-5.0,2.453725,4.6561146,0.24747588,-4.3525085,-5.0,-5.0,0.48511887
-5.0,5.0,-5.0,6.9992537,2.5975266,-0.13694295,0.9443761,1.9830573,-2.021537,-5.0,4.6244364,-0.5770587,-1.8632472,-5.0,-2.3577254,3.1884608
5.0,-1.7159048,1.8396931,-8.040813,5.0,-2.638029,-5.0,5.0,5.0,5.0,-5.0,5.8770776,5.0,-5.0,1.1837554,-2.0001864
0.36588192,-4.5745277,5.0,0.083542556,5.0,-3.7773192,-3.9119992,-2.917094,4.112806,5.0,-5.0,-2.6784377,3.4270587,4.451623,5.0,-0.40647134
-2.9686544,0.033367395,2.4992,-0.5266608,5.0,-5.0,-5.0,-5.0,5.0,5.0,-3.857609,6.5018063,-0.1330545,5.0,5.0,-0.9749284
-5.0,5.0,-5.0,-5.8529477,-2.9701262,0.45020938,1.3253782,2.6471179,-2.00733,5.0,1.3811549,0.37158483,-4.1310687,-0.26894343,-2.9361815,0.4828919
-5.0,5.0,-5.0,-0.47001266,-5.0,2.8344743,3.5463033,0.33591774,-3.5164433,-0.63182366,5.0,0.13574693,-4.832345,-5.0,-5.0,4.3170004
-4.5222464,5.0,-5.0,4.3327203,5.0,0.20451131,0.70377034,-2.6755807,0.952518,-5.0,5.0,-0.19556154,-1.8108556,-5.0,-3.0487933,-4.76685
5.0,1.4029888,1.8122207,6.422583,5.0,-3.9987392,-0.9764265,1.0095704,5.0,5.0,-4.804444,0.6532701,3.8543987,-5.0,2.446426,-0.17092776
0.94222295,-3.0736628,1.8054463,0.35038877,5.0,-4.1303473,-4.7148123,-5.0,5.0,5.0,-5.0,-10.0,4.9628215,4.1975875,5.0,0.55932105
0.32806996,-2.107359,4.2377806,0.51371604,5.0,-5.0,-2.2524416,-2.5449555,4.6476,5.0,-5.0,-5.3471274,1.1088045,5.0,5.0,-0.32328787
-0.1506257,-0.8471488,2.7544727,-0.43741697,5.0,-5.0,-2.839238,-5.0,4.354602,5.0,-5.0,10.0,-0.542861,5.0,5.0,-0.19893181
-5.0,5.0,-5.0,-1.9770583,5.0,-5.0,0.9769465,-1.2031531,5.0,5.0,-3.0324152,2.5317287,-0.93298185,5.0,-0.33228204,-2.0537524
-5.0,5.0,-5.0,10.0,-2.4860723,0.060312882,3.2529416,-5.0,-5.0,1.6156127,1.5241566,-5.2148347,-5.0,-5.0,-4.022414,-1.0043001
-5.0,5.0,-5.0,10.0,2.4666762,-4.1153812,-4.6081715,-2.1065962,-1.1735334,-4.6490145,2.9812002,0.1366515,-2.467512,-5.0,-2.1429062,-4.275905
4.173232,-2.0277421,1.427896,2.8341498,5.0,-5.0,-5.0,-5.0,5.0,3.5175776,-5.0,0.5370436,4.9797697,-4.849184,0.97455895,-0.021254696
0.17782262,-1.6228337,1.4613492,-0.17310071,5.0,-4.752719,-5.0,-5.0,3.5072808,5.0,-5.0,-6.3970385,2.9567146,2.2714138,4.8567815,0.039890707
-2.126633,-2.9296641,3.9682798,0.27047965,5.0,-5.0,-5.0,-5.0,5.0,5.0,-5.0,-6.254699,-1.2730868,5.0,5.0,-0.66364014
-5.0,5.0,-5.0,0.75033724,-0.37877187,-1.4513394,0.5642792,-0.6628104,2.824193,5.0,-1.8993689,-5.4964986,-3.1912084,4.562646,-2.7269444,-0.45207077
-5.0,5.0,-5.0,-8.669664,-1.342663,0.8095288,1.9639945,1.8931916,-5.0,-2.8747396,5.0,-0.22907703,-3.0526538,-5.0,-5.0,-5.0
-2.064775,5.0,-5.0,-8.343262,4.618083,-5.0,-5.0,0.24796315,0.8565277,-4.011989,0.9546936,1.9378724,-1.6678418,-5.0,1.8385946,5.0
2.1202111,-1.9486449,2.7792225,0.0040176697,5.0,-2.8273726,-5.0,-5.0,5.0,5.0,-5.0,10.0,5.0,0.07013279,0.84031755,2.0321386
0.98459,-3.5415585,5.0,-0.16217099,5.0,-5.0,-5.0,-5.0,3.4781451,5.0,-5.0,10.0,0.03194952,5.0,5.0,-1.1761496
-4.593358,3.0293128,-2.7009091,-0.21400173,5.0,-5.0,-3.333901,-5.0,5.0,5.0,-0.35382044,10.0,-2.4602265,5.0,2.457358,0.56222254
-5.0,5.0,-5.0,-2.1378472,-5.0,1.5380846,2.6150737,-0.49227726,-1.0179536,2.824549,2.2959805,2.6266322,-3.7786236,-1.9845564,-5.0,-0.29276752
-5.0,4.6348567,-3.9658742,10.0,-5.0,2.3763325,3.3947692,-0.82935774,-4.8097625,-1.8989928,5.0,0.58214414,-5.0,-5.0,-4.835561,-3.959294
-5.0,4.584443,-5.0,8.382536,0.48272455,-0.97475815,0.5037298,-0.13998732,-0.025613785,-5.0,4.1425557,-0.19979802,-2.1858625,-5.0,0.4204858,2.360498
4.085821,-1.5897708,-0.977878,0.13373436,5.0,-3.9696548,-5.0,-5.0,5.0,5.0,-5.0,0.7314611,5.0,-5.0,0.48384738,-0.02807729
0.49006128,-4.107624,5.0,0.071986355,5.0,1.6350037,-3.732931,5.0,5.0,5.0,-5.0,10.0,4.620032,4.0319185,5.0,-0.60042083
-0.60551345,-4.621761,2.8615863,0.06519019,5.0,-3.99786,-5.0,5.0,5.0,5.0,-5.0,-4.0374703,1.2773416,5.0,5.0,-0.7352841
-5.0,5.0,-5.0,-5.909409,2.5418997,-1.4387016,0.65442026,2.0739272,5.0,5.0,-0.2949363,0.6241784,-1.1700554,5.0,-0.25226367,-1.9906441
-5.0,5.0,-5.0,10.0,-3.4721556,3.4819162,1.44903,0.6672426,-1.452125,3.6264558,2.4151924,2.6688714,-3.6698637,-5.0,-5.0,-1.5168455
-4.203908,5.0,-5.0,-9.334058,0.83259296,-0.9359423,-0.04510206,3.266496,0.80605125,-1.0020121,-0.9915372,-4.78215,-2.8290443,-5.0,-0.4063576,-5.0
5.0,0.68470424,-1.1261852,-0.6481583,5.0,-4.3045945,-5.0,2.7103815,5.0,5.0,-5.0,-1.4940565,3.4939065,-3.0555205,1.6059636,0.1363295
-1.0871499,-2.6405346,3.8437486,0.5889968,5.0,-5.0,-5.0,-5.0,1.7744751,5.0,-5.0,10.0,-0.21574062,5.0,4.490384,-0.94918835
-5.0,1.8429266,0.57750857,1.4650623,-1.8434048,-0.72708356,0.23689997,0.4225583,4.1074457,5.0,-2.8978484,0.89920175,-2.526625,0.42299366,-1.9435399,-0.08016837
-5.0,5.0,-5.0,8.598766,-4.0844336,1.151978,2.53918,-0.013218614,-3.349976,-1.3370397,5.0,-1.3024526,-3.374413,-5.0,-5.0,5.0
-5.0,5.0,-5.0,-10.0,1.8070903,-1.739197,-0.07784054,-0.11081825,-0.26103854,-4.135035,3.2662408,0.23039237,-2.923676,-5.0,-1.7937677,-5.0
3.6476364,-0.63049984,0.1886673,-2.2671227,5.0,-5.0,-5.0,-5.0,5.0,5.0,-5.0,-1.5685209,2.2122498,-4.2347183,2.9675355,0.07666895
0.31536353,-3.2409906,3.408794,0.50393856,5.0,-5.0,-5.0,-5.0,4.9287243,5.0,-5.0,5.529397,2.4120994,5.0,5.0,-1.3489797
-2.6966712,-0.005159676,1.8623885,2.1379576,5.0,-5.0,-5.0,-3.6189513,5.0,5.0,-5.0,8.964647,-0.6525413,5.0,5.0,-0.09246879
-5.0,5.0,-5.0,-1.5933197,-1.4265037,-5.0,-0.7275654,0.6924815,3.2847471,5.0,0.30357856,-1.5077505,-0.9105332,2.791461,-1.1612904,0.045440897
-5.0,5.0,-5.0,10.0,-5.0,1.0255272,3.0582976,0.5320433,-3.5614321,0.6231663,5.0,0.33012432,-2.1828804,-5.0,-4.992633,5.0
-4.1608987,5.0,-5.0,10.0,-0.35887623,0.373639,2.2966084,0.47799206,-0.16180825,-3.900796,3.4867096,-1.1030898,-3.3060536,-5.0,-0.78080153,5.0
5.0,-2.9316537,0.67930603,0.638986,5.0,-2.1996508,-5.0,1.4811726,5.0,4.5746155,-5.0,1.3840619,5.0,-4.8537793,3.2560506,0.22583029
0.42720395,-3.911407,3.0683708,0.09077464,5.0,-4.346009,-4.7699933,5.0,5.0,5.0,-5.0,0.6171298,2.8883758,2.5480127,5.0,-1.3097886
-2.4285507,-1.7457182,2.7689261,-0.35767263,5.0,-5.0,-5.0,5.0,5.0,5.0,-5.0,2.4354935,-1.9669507,5.0,4.883375,-0.45456427
-5.0,3.535006,-5.0,10.0,-5.0,0.25866202,2.2362666,-0.46234903,-1.1193516,3.0595903,1.7060928,-0.019881748,-0.6522982,-4.1854587,-5.0,1.3645308
-5.0,5.0,-5.0,-4.2783747,-2.520709,0.5605204,2.5332785,1.1074787,-2.9992476,-2.1216726,5.0,-0.17845932,-1.7433844,-5.0,-5.0,5.0
-1.4870095,5.0,-5.0,-9.345609,5.0,-5.0,-5.0,-3.5694463,5.0,-3.5133877,-0.8173258,-0.011669185,-0.18331188,-5.0,-0.23827344,0.26383594
2.124435,-0.94009864,3.1393163,0.78925997,5.0,-3.7495131,-2.7909355,-5.0,5.0,5.0,-5.0,7.0059667,4.2336416,-0.7100189,1.4709971,-0.098087914
0.15813231,-3.2844048,4.270715,0.27627343,5.0,-5.0,-4.4197817,-4.139814,5.0,5.0,-5.0,-8.430839,0.47818926,5.0,5.0,-0.43693024
-5.0,3.9879851,-2.6685653,0.485331,3.594127,-4.3917584,1.5845203,3.059721,5.0,5.0,-4.2312117,-9.448936,-1.7516632,5.0,0.47675654,1.1073668
-5.0,2.7529776,-5.0,10.0,-4.482481,-0.20380549,2.0518773,0.07976578,-1.547467,1.822259,1.0431395,0.018630754,-3.1744726,-3.0345294,-5.0,-0.040140152
-4.480796,5.0,-5.0,-3.9385586,4.5660615,-1.8910519,-2.3104947,-0.41749996,0.96490777,-2.3956609,0.7409011,2.7773616,-0.4143504,-5.0,0.86077684,-0.4642958
5.0,-1.4440902,-1.5051401,-0.068937145,5.0,-5.0,-5.0,-5.0,5.0,5.0,-5.0,-10.0,2.8516824,-2.376638,3.684548,1.1632656
0.60747427,-2.3371465,1.7240093,-0.39662108,5.0,-5.0,-2.5595214,-4.488205,1.6593201,5.0,-5.0,0.7544675,1.2621984,2.387123,5.0,-0.115794584
-4.2834377,1.5541289,-0.626842,-3.5454373,5.0,-5.0,-3.6620994,5.0,5.0,5.0,-5.0,4.645244,-1.8281572,5.0,4.5619564,0.018568764
-5.0,5.0,-5.0,-9.832614,-1.6687106,-1.361372,1.1916171,-5.0,2.524116,5.0,-1.9987512,5.643371,-1.091214,0.8569677,-2.2680917,-0.7244571
-5.0,5.0,-5.0,4.501999,-3.8964562,2.1142135,2.5565743,-0.1555196,-3.5089908,0.23396897,5.0,0.5566414,-3.6101377,-5.0,-5.0,5.0
-3.5764186,5.0,-4.784499,-6.251851,4.751922,-4.4432974,-3.0870323,1.1468657,2.3938086,-4.929832,2.0121999,0.3970446,-0.46710533,-5.0,1.0935639,5.0
4.7402067,-0.84831774,2.0743127,3.3767028,5.0,-4.0274725,-5.0,-1.1578734,5.0,5.0,-5.0,10.0,4.7326393,-4.3040705,1.5585264,0.44944167
0.6565256,-2.733833,1.7310396,1.085701,5.0,-5.0,-4.5388293,0.7494384,3.1807265,5.0,-5.0,-7.4246564,1.9297401,3.4777632,5.0,-0.37442636
-2.225037,-0.1514051,3.6633468,0.55895305,5.0,-5.0,-4.2794137,5.0,5.0,5.0,-5.0,-8.671833,-0.32127476,5.0,5.0,0.657665
-5.0,5.0,-3.6385093,0.75834316,2.4893892,-5.0,0.4443997,0.63112044,5.0,5.0,0.35404664,8.082354,-1.9573983,5.0,-1.4576218,0.35194024
-5.0,5.0,-5.0,-2.9495163,-3.363966,2.5845888,3.0409694,0.6004884,-3.4006073,-1.2241089,5.0,-0.6878682,-1.3886755,-5.0,-5.0,-3.8262105
2.6021433,4.2791324,0.6853001,0.781835,5.0,-5.0,-3.0103865,1.0126946,2.0205922,0.856209,-2.0642793,-0.6679771,1.7740856,-5.0,0.3251387,0.30410367
-1.9033475,-1.4375197,0.69103813,-6.34199,5.0,-5.0,-3.804302,-1.148653,1.9904199,5.0,-5.0,10.0,3.4832687,3.2254338,5.0,-3.4711645
-0.17866325,-0.26413286,1.6293397,2.7059562,5.0,-5.0,-3.0438278,5.0,1.8498399,5.0,-5.0,10.0,0.084246635,5.0,5.0,-0.53084576
-3.1589513,2.480297,1.1296012,1.3103216,5.0,-5.0,-1.6155283,-2.442893,2.609851,5.0,-5.0,-2.9984117,-0.38887239,5.0,5.0,-0.5328255
-5.0,5.0,-5.0,-2.4378133,-1.7613666,0.10119796,1.9991323,-0.12885578,0.1365292,5.0,3.2595263,3.8044271,-2.517696,-0.7663575,-5.0,-5.0
-5.0,5.0,-3.2916923,10.0,-0.83780694,1.4092951,3.5536401,-0.27843007,-1.9778595,-1.8711765,4.921037,0.2530194,-0.40060318,-5.0,-5.0,5.0
-1.0078984,4.96262,-3.353489,3.6824958,5.0,-5.0,-5.0,-1.4901025,3.8596792,1.418337,-1.9761965,-0.12851058,2.9200692,-5.0,1.555927,1.1734359
5.0,-1.670337,2.1352649,0.13949576,5.0,-4.0368643,-5.0,5.0,2.3581605,5.0,-5.0,-1.3631709,2.4359765,0.20088023,1.7562505,0.28380218
-0.9807285,-2.13336,5.0,-0.24143156,5.0,-5.0,-3.9190145,5.0,2.6219013,5.0,-5.0,10.0,-1.4964088,5.0,5.0,-1.0190436
-5.0,2.5117712,-2.595062,0.906351,-0.7530408,-2.8036733,1.9373391,3.8143833,0.06641524,5.0,-2.003358,0.32939625,-3.164081,3.418802,-0.13217175,0.29089925
-5.0,5.0,-5.0,-2.6735535,-5.0,1.2677348,3.723548,0.26522675,-5.0,0.4656675,4.195313,0.6354082,-3.0289073,-5.0,-5.0,5.0
-5.0,5.0,-5.0,10.0,-0.68170595,1.9350779,2.548247,-0.03402753,-0.46452844,-4.3650417,5.0,-1.2161386,-2.577079,-5.0,-3.713945,5.0
4.2762613,2.5937142,-3.6217978,5.3236227,5.0,-1.5709168,-5.0,5.0,5.0,3.058538,-5.0,8.138438,5.0,-5.0,3.3807201,1.0806211
1.7334205,-2.8878639,4.6570296,0.4758703,5.0,-3.507433,-4.853933,-5.0,5.0,5.0,-5.0,6.4628468,3.912089,2.3433237,3.5164847,-0.023697048
0.4262334,-5.0,4.7490335,-0.07299196,5.0,-5.0,-4.402664,-3.4723732,5.0,5.0,-5.0,10.0,0.024875134,5.0,5.0,-0.6454105
-3.80518,1.7082493,-1.1772329,0.5598862,5.0,-5.0,-5.0,-4.2030606,5.0,5.0,-0.9652307,10.0,-0.8719051,5.0,3.8474262,0.5967918
-5.0,5.0,-5.0,10.0,-5.0,3.0056846,3.1914463,-0.03319379,-3.0704885,1.4757538,5.0,0.17778255,-3.2925704,-5.0,-5.0,2.6074896
-4.726595,5.0,-5.0,10.0,-2.113459,1.7611232,3.2229834,0.73026973,-1.352155,-1.8374827,5.0,-0.0072433054,-3.4928927,-5.0,-3.01968,-5.0
5.0,-0.5525528,-0.54973865,-0.17044623,5.0,-4.845616,-5.0,5.0,5.0,2.5345721,-5.0,0.4225191,4.305078,-5.0,0.14962554,0.5930935
-0.16851813,-1.058059,4.888082,-1.8893561,5.0,-2.705347,-1.7092316,1.9652357,5.0,5.0,-5.0,1.9617351,1.1626854,4.460907,5.0,-3.739609
-1.1275115,-1.4144686,3.1684866,0.5602009,5.0,-5.0,-3.8589041,-5.0,5.0,5.0,-3.5968,10.0,-0.8325658,5.0,3.8466778,-0.5859909
-5.0,5.0,-5.0,-10.0,-5.0,1.1500156,2.7047834,-0.73633814,-3.5182705,1.3427387,2.10981,2.9537036,-5.0,-1.0663877,-5.0,-3.652286
-5.0,5.0,-5.0,-1.6332159,-3.3159482,1.8834316,2.6534534,0.07425873,-3.4046006,-3.1520011,5.0,-0.9573655,-3.0638041,-5.0,-5.0,-5.0
2.2987041,1.1364205,0.59062195,10.0,5.0,-5.0,-5.0,-1.584988,5.0,2.4666083,-4.3663273,-0.08866204,4.0751038,-5.0,0.4168917,-0.12884192
0.91080177,-2.5161202,3.2420592,0.21143343,5.0,-1.2426628,-5.0,5.0,5.0,5.0,-5.0,5.066448,4.864109,0.6344657,3.5944693,-0.6392706
-0.577019,-1.229451,3.6508083,0.5448007,5.0,-3.2877822,-5.0,5.0,5.0,5.0,-3.7531147,8.840849,0.6537951,5.0,5.0,-1.3979335
-5.0,3.9262924,-5.0,-8.846184,-2.3900223,0.53035057,3.0218096,3.287582,1.2358409,5.0,0.13846374,-10.0,-2.0454886,0.5838479,-3.7429702,-0.3316121
-5.0,5.0,-5.0,-6.173287,-1.2966894,1.6886312,2.503421,-0.4685527,-3.0099423,-2.9689689,5.0,0.094815165,-2.340919,-5.0,-4.836459,4.749304
1.6677147,5.0,-5.0,-5.8865833,5.0,-4.4818344,-5.0,0.6561487,5.0,-0.39935738,1.2682453,2.9739199,0.1499636,-5.0,1.7565923,2.1309047
5.0,-4.3857,0.09548071,0.55710995,5.0,-5.0,-5.0,-5.0,5.0,5.0,-5.0,-6.53397,3.0151536,0.15333205,2.8975492,-0.2697407
-0.10046649,-1.5039136,2.2564957,1.1629055,5.0,-5.0,-1.9189651,-3.0249696,2.052494,5.0,-5.0,7.759598,0.55423605,3.9711046,5.0,0.07261744
-4.693415,2.4024835,0.34678727,-0.40090927,5.0,-5.0,-0.027424626,4.283616,5.0,5.0,-4.6509,-10.0,-1.8732331,4.2370095,1.6131147,0.24072663
-5.0,5.0,-5.0,-8.818644,-4.778466,0.38831073,2.461506,0.6358729,-3.5480146,0.8358973,1.5242803,0.29257503,-2.3623388,-5.0,-5.0,5.0
-4.6715984,5.0,-5.0,10.0,0.9582255,-1.1265908,0.5643939,3.0744967,-0.08466554,-2.0350018,1.9095066,-3.5485873,-3.2294312,-5.0,-0.5305014,-5.0
2.8585067,-0.5503614,0.27647245,0.6194324,5.0,-4.604453,-5.0,-5.0,5.0,5.0,-4.66726,0.6291695,5.0,-5.0,0.26329327,0.01989936
0.61386514,-2.1233394,3.7039359,0.53673023,5.0,-5.0,-4.052601,-3.3212337,5.0,5.0,-5.0,-7.4678335,3.5802064,4.2524815,5.0,-0.6142689
-2.600308,-0.29451454,1.2692934,-0.14013137,5.0,-5.0,-4.0982795,3.8701062,5.0,5.0,-5.0,-8.468565,-0.28267443,5.0,5.0,-0.6568423
-5.0,5.0,-5.0,-10.0,-2.8477778,0.1617077,0.115202665,0.40446314,-0.24937105,4.674206,0.25323606,-0.15046483,-2.429004,-1.0121735,-5.0,-0.06519453
-5.0,5.0,-5.0,0.31588864,-3.2895565,2.116689,3.7577407,0.56105405,-3.63117,-1.4396794,5.0,0.09511787,-2.0091252,-5.0,-3.8676257,-0.46226788
2.296454,5.0,-4.797568,1.1547642,5.0,-5.0,-5.0,-0.9183421,5.0,0.78310305,-4.1227646,0.48792413,2.9302526,-5.0,1.9874308,0.9697169
1.7778512,-0.21896362,-1.2177484,0.1627735,5.0,-4.0171947,-5.0,-5.0,4.1639156,5.0,-5.0,6.3313413,4.285494,-0.5175729,2.4352288,0.3266888
0.064902306,-0.124572635,4.17852,0.23043919,5.0,-5.0,-1.3644499,-0.70349836,0.07418263,5.0,-5.0,10.0,-0.031798244,5.0,5.0,0.002210036
-3.9222295,1.3026407,-0.27608156,0.2387095,5.0,-5.0,-3.0080805,-2.3080792,5.0,5.0,-4.0115623,10.0,0.73610044,5.0,2.4199457,0.6935373
-5.0,5.0,-5.0,-0.6597395,-5.0,0.034459233,0.00939703,-0.060775086,-1.4835616,2.595279,0.96275127,0.55001223,-0.40957034,-5.0,-5.0,-3.3839767
-5.0,5.0,-5.0,-5.6512833,0.05025816,0.033184573,1.4953698,-0.0734416,-1.4326526,-3.5181155,3.4936795,-0.02348759,-3.06111,-5.0,-1.7367353,0.45351171
3.756989,-0.028230429,-0.45578575,-0.32343644,5.0,-5.0,-5.0,-5.0,5.0,5.0,-5.0,3.2956474,5.0,-4.584614,2.9128904,-0.44339398
0.02976036,-1.5508347,2.6473913,-0.557388,5.0,-5.0,-3.2265005,5.0,3.4633346,5.0,-5.0,10.0,3.2776191,4.2551427,5.0,-0.074235305
-5.0,4.820115,-5.0,0.07731889,5.0,-5.0,-0.82007277,-5.0,5.0,5.0,0.26655412,3.2145624,-2.5600252,5.0,2.1911922,-2.6289423
-5.0,5.0,-5.0,-6.353277,-5.0,1.8553598,3.6272163,0.68155336,-5.0,1.4879179,2.476758,0.69316196,-5.0,-5.0,-5.0,3.7257454
-5.0,5.0,-5.0,6.1226816,-1.3110034,2.339326,2.4353788,0.35590124,-0.8237449,-4.5318656,5.0,-0.2532992,-2.1537993,-5.0,-1.9180092,5.0
-0.46386158,5.0,-5.0,10.0,5.0,-0.9655932,-0.8795686,-0.2550587,3.8251073,-2.4637632,0.7931329,2.8758843,0.57521164,-5.0,0.04583004,-5.0
3.9076402,-0.24531853,-0.6952248,-0.3211169,5.0,-3.7752001,-4.3192196,4.252036,2.5228333,5.0,-5.0,-1.1705518,2.8229084,-0.24561632,3.114571,0.013317723
-0.4323871,-1.062635,1.6973312,2.5614986,5.0,-5.0,-5.0,5.0,0.10395199,5.0,-5.0,10.0,0.12540424,5.0,5.0,-0.92359596
-1.7601036,1.1187832,2.802769,4.10239,5.0,-4.9024343,-1.6824533,5.0,5.0,5.0,-5.0,10.0,0.96325505,5.0,5.0,1.0010784
-5.0,5.0,-5.0,3.8579624,-1.5349728,-2.1825647,0.7085968,-0.39691415,3.0084646,5.0,-2.7330718,4.4427066,0.8015401,0.7021401,-5.0,1.8641512
-5.0,5.0,-5.0,8.8480015,-2.3935375,1.820662,2.8801656,0.76781535,-5.0,-0.21549106,3.9781313,-0.0056783,-2.7749496,-5.0,-5.0,-5.0
1.0890107,4.11767,-1.9793224,10.0,5.0,-5.0,-5.0,5.0,4.5187273,-0.8266134,-1.4246858,-0.45533887,2.6342406,-5.0,1.3645155,0.05818097
1.4092584,-0.7591219,0.27048135,-2.2554903,5.0,-3.2089677,-5.0,-5.0,3.4844174,5.0,-5.0,10.0,5.0,1.8737247,4.930832,-0.5285576
-1.6126366,-0.87517047,4.1333194,0.275174,5.0,-4.9167852,-3.692489,-4.3974886,5.0,5.0,-4.308501,10.0,0.099470854,5.0,5.0,0.7183967
-5.0,5.0,-5.0,5.0549035,-5.0,-5.0,3.302085,-5.0,2.853967,5.0,2.1555085,-5.603897,-2.8453684,2.795538,-3.1201136,4.657665
-5.0,5.0,-5.0,8.500408,-5.0,3.3450549,4.1408596,-0.62779933,-4.9309006,-2.6148772,5.0,-1.020962,-3.2129447,-5.0,-4.7588134,-5.0
-1.1216553,5.0,-5.0,10.0,3.5025535,-0.15930939,1.2380097,0.42804185,0.57750964,-4.2909503,1.9403389,0.44564456,-2.688014,-5.0,-0.30197006,5.0
5.0,-1.005923,1.3868222,2.544874,5.0,-3.1777978,-5.0,-2.1571083,5.0,4.388479,-5.0,9.527979,3.599629,-0.40538156,0.55806947,0.22225805
-1.6172639,-2.6345296,3.7847528,0.74448633,5.0,-3.5551853,-4.4062996,5.0,5.0,5.0,-5.0,-6.9641056,-0.11339843,5.0,5.0,-1.5579983
-5.0,5.0,-5.0,0.6052395,-0.932181,-4.9579296,0.870554,-5.0,4.085736,5.0,-0.83601826,10.0,-2.1843667,3.652812,-3.3299878,4.891615
-5.0,5.0,-5.0,5.3599367,-3.515978,1.2861533,2.6820476,-0.025182383,-5.0,-1.7070001,4.5681314,1.0264426,-3.4057264,-5.0,-3.3635416,5.0
-0.87641907,5.0,-5.0,-3.2692122,5.0,-5.0,-5.0,2.6766977,3.5628045,-1.6957773,1.8745334,3.700722,0.9487439,-5.0,3.3633337,-0.05413781
0.98449874,-1.865464,3.1549544,-0.22107488,5.0,0.12836933,-4.8584514,5.0,5.0,5.0,-5.0,-5.7519064,5.0,0.25866076,1.4432615,-0.25858355
-0.8326657,-2.3820934,2.6678095,0.4486635,5.0,-5.0,-2.9149914,5.0,2.8495202,5.0,-5.0,-7.054954,0.09722185,5.0,5.0,-0.6633223
-5.0,4.562658,-3.9484727,2.691596,-4.8554497,-0.78137636,-2.6104517,-5.0,-1.1314851,5.0,4.0350494,-3.1158931,-0.4480071,-1.53537,-5.0,2.8986075
-5.0,5.0,-5.0,5.8341446,-2.4665003,2.3065765,2.8612778,-0.15415074,-3.0471182,-3.3403049,4.491229,-0.9208305,-1.8082603,-5.0,-5.0,0.46822643
-4.43574,5.0,-5.0,-7.851117,2.5427723,1.4971042,2.3037496,5.0,0.60857654,-3.6672807,4.134867,0.16763853,-2.3257315,-5.0,-1.8152534,5.0
5.0,0.045979306,-0.014813542,-1.6180162,5.0,-0.7774993,-5.0,5.0,5.0,5.0,-5.0,-0.56720686,5.0,-2.1620002,1.982334,0.13822591
-2.9192474,-0.56714886,2.8065042,-4.9223666,5.0,-4.0810065,-4.2080526,5.0,3.991025,5.0,-5.0,10.0,0.15384512,5.0,5.0,-2.5619326
-5.0,2.402885,-0.21368027,-0.6370798,5.0,-5.0,-2.9944444,-2.540057,5.0,5.0,-5.0,-10.0,-3.1138144,5.0,2.7811408,0.40739858
-5.0,5.0,-5.0,-10.0,-5.0,2.9927137,3.6850524,-0.4891622,-2.957296,-0.6875156,4.2565846,1.4674104,-2.1336224,-5.0,-5.0,5.0
-5.0,5.0,-5.0,10.0,-0.0054086447,0.34854543,0.9788139,0.13775204,-1.8965932,-5.0,5.0,-0.45749745,-1.2568665,-5.0,-2.5583484,5.0
1.5842367,-0.41034555,2.4497695,4.6732173,5.0,-5.0,-5.0,5.0,5.0,-0.67254114,-2.5250857,0.14691137,3.0510478,-5.0,-0.105746865,0.41406283
0.41395247,-3.015553,4.543662,-0.04172497,5.0,-0.39630443,-3.177768,1.4194565,5.0,5.0,-5.0,1.9628892,4.9169064,2.7648149,4.555681,-0.21111415
-0.27177835,-1.0435812,3.7329025,0.7020553,5.0,-5.0,-4.798557,-2.1421566,5.0,5.0,-5.0,10.0,0.21221328,5.0,5.0,0.56924754
-5.0,5.0,-5.0,3.5707633,-3.0463285,-3.8299673,3.002639,-2.5360758,1.8616655,5.0,1.5504769,10.0,-1.9677911,3.734962,-2.8639772,4.160624
-5.0,5.0,-5.0,-0.17366946,-5.0,2.2708442,2.4533255,0.025849186,-4.1306744,3.96637,4.3488026,1.742848,-3.9140992,-5.0,-5.0,-5.0
-5.0,5.0,-5.0,-1.0865293,-3.3875718,0.9722244,4.156575,-0.0019292384,-0.92042613,-3.8521345,4.872445,0.72086483,-4.250962,-5.0,-2.97039,-5.0
-0.36611164,5.0,-5.0,10.0,3.986433,0.0013542175,-0.120085955,0.016891181,2.2351055,-5.0,3.142402,-0.017137319,-0.4260471,-5.0,0.76078737,5.0
2.2151256,-1.4983115,0.48103142,0.28783402,5.0,0.91623855,-5.0,3.1672883,5.0,5.0,-5.0,-3.7621162,5.0,0.1212312,2.524073,-0.40232545
-1.3893236,1.8997109,0.99988246,-5.996894,5.0,-5.0,-2.274325,-4.0749073,1.6765627,5.0,-5.0,5.000052,-0.025609732,5.0,5.0,-5.0
-0.95739096,0.93655664,3.2823348,6.9567976,5.0,-4.8481865,-3.950003,5.0,3.1031182,5.0,-5.0,3.5675364,0.8239259,5.0,5.0,-1.2512647
-5.0,5.0,-3.7597637,1.3962936,-1.4226282,-5.0,-2.5434752,-2.5903795,3.2090864,5.0,0.87691754,5.677575,-2.3216262,1.1206367,-0.5249381,-2.4011285
-5.0,5.0,-5.0,-6.0562673,-3.0293343,2.3164008,1.4552264,2.4904766,-3.168924,1.8945042,2.5613196,4.1783395,-1.8630788,-5.0,-5.0,-2.7885578
-5.0,5.0,-5.0,-6.0449586,3.2901266,1.8387532,-0.013992615,-5.0,0.05790531,-3.2052484,2.9242387,0.25540704,-0.9301442,-5.0,-4.6224413,-5.0
5.0,1.2166531,-1.783816,-0.41006187,5.0,-5.0,-5.0,-5.0,5.0,5.0,-5.0,0.9546729,3.4799445,-5.0,0.348001,0.5808816
0.7948572,-2.0197487,4.750378,0.15320529,5.0,-5.0,-2.6875386,-5.0,3.636321,5.0,-5.0,-2.460793,-0.34688488,5.0,4.7736697,-0.17118874
-5.0,1.1830003,-3.0741386,-4.3569827,5.0,-5.0,-0.85389656,-3.3682337,5.0,5.0,-3.156629,-9.420842,-4.512306,5.0,-0.85864055,-1.8944397
-5.0,5.0,-5.0,-7.9633374,-5.0,1.6607587,2.848946,-2.6981387,-4.152066,4.3778534,2.2140267,0.85533595,-1.5808325,-3.992828,-5.0,5.0
-5.0,5.0,-5.0,-0.09879327,-2.963648,0.70925736,1.6905804,3.0846972,-2.9205334,-0.73223394,5.0,-0.0094431415,-2.4443476,-5.0,-5.0,5.0
2.847787,5.0,-5.0,-4.297902,5.0,-5.0,-5.0,-0.054773808,5.0,0.31138802,-2.123763,0.7915566,2.5903425,-5.0,3.541751,-3.8124542
3.2251878,-2.816762,3.8951886,0.39007086,5.0,-5.0,-5.0,3.5973306,5.0,5.0,-5.0,-5.1820774,3.8875203,0.49214995,2.9404943,0.7151254
0.05797279,-3.7367973,4.393464,-0.11094048,5.0,-5.0,-2.326843,5.0,4.281721,5.0,-5.0,-6.151131,0.14948583,5.0,5.0,0.16784129
-5.0,5.0,-5.0,0.47786728,-5.0,0.5809849,3.4402032,-3.603211,-1.1926296,4.508634,1.6981668,-1.6240919,-0.6960124,-3.670889,-5.0,1.0461403
-5.0,5.0,-5.0,10.0,-4.100324,0.9962797,3.0782902,-0.20884302,-2.7714403,-1.1761596,5.0,0.22630614,-1.418586,-5.0,-5.0,5.0
-5.0,5.0,-5.0,-8.664888,2.1613512,-2.7723277,-1.3765446,0.3627101,0.30125356,-5.0,2.8020794,0.45507765,-2.1553133,-5.0,-2.139817,-5.0
3.197203,-1.3795879,3.5188456,2.503541,5.0,-5.0,-3.56929,-5.0,5.0,5.0,-4.6913776,0.4255329,5.0,-4.2741017,4.1778197,0.23214877
0.3773011,-2.1114564,3.9342902,0.53212184,5.0,-2.04618,-2.2023764,5.0,5.0,5.0,-5.0,10.0,2.916925,4.3849006,5.0,-0.49407163
-4.3481574,-0.9719138,0.09100282,-2.8034189,5.0,-4.470089,-3.6098967,5.0,5.0,5.0,-4.8600974,-3.3740501,-0.0038309097,5.0,5.0,0.17862454
-5.0,2.5619125,-5.0,10.0,-2.3582935,-1.3269982,-0.5212233,-5.0,1.0452243,5.0,-1.4168068,-10.0,-2.3621259,2.46349,-2.544069,-0.61266017
-5.0,5.0,-5.0,10.0,-5.0,3.8237944,3.0225568,0.53273636,-4.401994,-0.6765617,3.6104686,-0.38076293,-4.255539,-5.0,-4.160316,-4.3520684
-3.17315,5.0,-5.0,-9.906392,0.67468524,0.45783865,1.2794187,5.0,0.8567604,-3.2498255,1.5756584,0.2742082,-1.1395957,-5.0,-0.12138876,5.0
5.0,-1.2189553,1.3461592,4.533443,5.0,-4.1532683,-4.5516586,-5.0,5.0,5.0,-5.0,0.88729775,4.6639466,-1.2446095,3.9877386,0.09390163
0.26301777,-1.4770952,1.405283,2.83167,5.0,-5.0,-2.4404142,-3.2113857,4.9409423,5.0,-5.0,10.0,3.6205783,2.8548331,5.0,0.20893851
-2.402975,-2.1180842,1.2094662,-0.6789858,5.0,-5.0,-4.377916,4.201444,2.9766774,5.0,-5.0,-7.191556,-1.0252826,5.0,5.0,-3.2650874
-5.0,5.0,-1.576417,-0.4018124,2.4841828,-3.4013388,0.91148686,5.0,5.0,5.0,-0.40656787,6.6990566,-2.168761,5.0,0.050033092,0.22834992
-5.0,5.0,-5.0,0.046522856,-5.0,1.8702478,3.3995552,0.003674373,-4.1999927,0.9954456,1.8656591,0.34719607,-3.294401,-5.0,-5.0,-5.0
-3.7340093,5.0,-5.0,10.0,4.3925147,-2.1716957,-0.4243762,-0.79168206,0.4670486,-5.0,2.1839356,1.2637471,-2.660977,-5.0,0.6102489,-4.130967
4.960439,0.96353716,-1.8390511,0.6626848,5.0,-5.0,-5.0,-5.0,4.912549,5.0,-5.0,1.0485651,4.9413314,-5.0,3.5836785,-0.4594741
0.5522637,-1.2770507,4.003107,-2.5076482,5.0,-2.1256485,-2.458889,5.0,3.891529,5.0,-5.0,-1.2160397,1.8679748,5.0,5.0,-1.0751427
-2.8572078,0.14905238,3.7948067,0.65512824,5.0,-4.6696677,-1.0841148,5.0,5.0,5.0,-5.0,1.8960323,-1.2208326,5.0,5.0,-0.12162318
-5.0,5.0,-5.0,-1.3503922,-3.4517405,-0.095101595,1.8065879,3.3832245,0.51891863,5.0,0.80993915,0.41569847,-0.66412675,1.7413771,-2.992597,-0.5869863
-5.0,5.0,-5.0,10.0,-2.867854,1.153599,3.0742476,0.67644686,-3.0182838,-3.6523483,5.0,-0.2515861,-2.3167212,-5.0,-3.9189653,5.0
-4.6834936,5.0,-5.0,1.6535101,4.4203143,-4.1139507,-3.7343736,0.22517972,3.451924,-4.1484447,1.0646863,-0.30366743,0.24274856,-5.0,-0.20663175,4.3689165
3.3601995,-0.71006435,0.26730466,-0.38057858,5.0,-4.2314043,-5.0,-5.0,5.0,5.0,-5.0,4.7860975,4.6546674,-4.5404754,2.4361544,0.7370645
-0.6463976,-3.3403087,4.3472404,0.5976994,5.0,-5.0,-5.0,-5.0,5.0,5.0,-5.0,-6.6178417,3.3751771,3.577906,5.0,-0.5995199
-5.0,-0.9309697,1.9594877,-0.46348634,5.0,-5.0,-5.0,-0.40032053,5.0,5.0,-5.0,-9.906077,-0.5533445,5.0,5.0,0.965837
-5.0,5.0,-5.0,10.0,-5.0,3.7196772,3.1650784,0.32003266,-1.9763216,2.0228124,0.9795711,-5.949071,-1.0286157,-2.9472852,-5.0,-1.1527853
-5.0,5.0,-5.0,10.0,-1.0901623,2.4857001,4.24805,0.37640396,-1.3373487,-4.5821404,5.0,-1.2767768,-2.1066384,-5.0,-2.7755432,-3.2127552
-1.7900975,5.0,-4.897244,1.8271431,4.7909265,-3.8536339,-1.2153481,0.8131169,4.640939,-1.63537,1.0293094,4.0163155,2.4345694,-5.0,5.0,-5.0
2.3635366,-4.196719,4.7967787,2.7589524,5.0,-4.412886,-4.8588405,-5.0,5.0,5.0,-5.0,-4.0207286,5.0,0.17872894,4.6998005,0.1610007
-0.45289683,-0.012222886,0.03285432,-4.5804996,5.0,-4.369397,-4.647353,5.0,3.5813546,5.0,-5.0,10.0,1.2876521,4.6444483,5.0,0.3080877
-4.0972953,1.2766504,1.3753644,2.5204804,5.0,-5.0,-3.3789747,-4.411487,4.755043,5.0,-5.0,-10.0,-2.279736,5.0,5.0,-0.41189694
-5.0,5.0,-5.0,0.25507653,-5.0,-0.12162924,1.6581438,-0.25847188,-0.41243255,5.0,0.892385,0.34264684,-2.3930755,-1.687688,-3.3631039,0.32456365
-5.0,5.0,-5.0,-8.121125,-2.9620557,1.4803867,2.6823854,0.24832763,-2.490208,-2.490375,5.0,0.2787261,-0.92755854,-5.0,-4.7683945,-4.5384135
2.7443135,0.68991184,2.9697127,6.7505946,5.0,-4.436278,-5.0,5.0,5.0,3.4445374,-5.0,0.38520283,5.0,-5.0,0.29345554,0.33854628
2.3527365,-1.2950484,2.6981075,0.7599481,5.0,-1.17768,-4.590284,5.0,2.2178273,5.0,-5.0,10.0,3.2933733,2.10316,5.0,-0.77435
-3.5651302,-2.7974534,4.423566,0.058514416,5.0,-3.5285182,-5.0,5.0,5.0,5.0,-5.0,-9.270489,-0.34431338,5.0,5.0,-0.11838411
-5.0,2.350363,-1.5236441,-0.08695313,2.0619373,-5.0,-1.6873608,5.0,5.0,5.0,-3.6064558,-2.4193387,-1.2168975,5.0,1.8139386,-0.54991245
-5.0,5.0,-5.0,8.725839,-5.0,2.7075887,2.176803,0.6996805,-3.155532,1.079514,1.9649048,-0.2313824,-2.0320492,-5.0,-5.0,-1.7138586
-5.0,5.0,-5.0,-6.9920793,-1.9059358,0.90479004,3.4489827,0.39410985,-2.545607,-3.8488934,5.0,-0.5105095,-3.2113204,-5.0,-4.2507086,-4.6830277
4.1719794,0.17480081,0.65192235,-0.05514512,5.0,-5.0,-5.0,-5.0,5.0,1.6759863,-2.9845254,0.329664,4.5772247,-5.0,-0.13188672,-1.7851617
1.5837978,-1.5793307,1.8130369,10.0,5.0,-3.413171,-2.8166354,-5.0,4.804224,5.0,-5.0,5.0783896,3.7605038,0.79630995,4.7182097,-0.4280343
-1.1964195,-1.1240809,5.0,-0.03779882,5.0,-5.0,-4.6726832,-5.0,5.0,5.0,-5.0,10.0,-0.65114105,5.0,5.0,0.35454234
-5.0,3.687328,-0.66741574,-0.63532096,1.7841039,-5.0,-1.759378,5.0,5.0,5.0,1.5870849,10.0,-1.3176568,5.0,0.19108778,-0.52350646
-5.0,3.9744272,-5.0,10.0,-5.0,1.5670412,3.389779,0.30293325,-5.0,-1.3222682,3.793021,0.5585426,-2.6361234,-5.0,-5.0,2.719122
-4.8232822,5.0,-5.0,1.5213804,5.0,-4.6873593,-5.0,2.5271475,3.3257136,-3.071449,0.89535785,1.8672614,0.5395667,-5.0,1.7740874,-0.6442969
2.8599176,-1.5758576,-0.4155637,0.03732493,5.0,-4.9655714,-5.0,5.0,5.0,5.0,-5.0,10.0,3.9558203,-1.7966315,2.3596644,0.29349005
0.3446579,-2.916749,4.4722967,-0.46092167,5.0,-4.3224297,-4.4851165,5.0,5.0,5.0,-5.0,-8.190726,2.1870074,5.0,5.0,-0.18420778
0.33464056,-1.5393062,4.371302,0.64470816,5.0,-5.0,-3.200445,5.0,5.0,5.0,-5.0,10.0,0.44475013,5.0,5.0,-0.20968097
-5.0,3.8828053,-2.718868,0.1810761,0.7375835,-4.602172,-2.2062507,5.0,5.0,5.0,-0.5918391,-5.959486,-0.38872778,1.5193675,0.8463652,5.0
-5.0,5.0,-5.0,10.0,-4.392505,0.7000697,1.9723173,0.10598047,-2.4402964,0.020783067,2.8361826,-0.43509287,-0.6752014,-5.0,-5.0,5.0
0.6289797,4.021477,-1.1224517,10.0,5.0,-4.8996835,-4.8775835,-2.9998472,5.0,-5.0,-0.15951,-5.3857374,-2.6621983,-5.0,1.058019,-5.0
4.8185062,-1.2405038,0.24731684,-0.33191964,5.0,-0.83226264,-5.0,5.0,5.0,5.0,-5.0,-2.91267,5.0,-4.1741242,2.0959806,0.2648453
0.49878192,-2.304656,2.2664385,1.4434427,5.0,-4.9006524,-2.4112077,5.0,4.7965755,5.0,-5.0,9.050695,-0.31975245,5.0,5.0,-1.0529758
-5.0,3.11751,0.5701425,0.025701063,5.0,-4.8002787,-2.2652385,5.0,5.0,5.0,-5.0,10.0,-1.8045735,5.0,4.2953925,-0.054565676
-5.0,5.0,-3.880777,-8.67062,-2.409421,0.14811575,0.8094233,-0.31252012,-1.7315321,2.920971,4.44061,5.8014097,-1.9559307,-2.1080675,-5.0,-0.45907235
-5.0,5.0,-5.0,3.3646014,-2.8261468,0.5648209,1.7788609,1.9464266,-2.7953382,-0.0057563186,4.3311634,-0.4480213,-3.0028324,-5.0,-5.0,5.0
-5.0,5.0,-5.0,3.281816,0.5306946,-1.919869,1.7446833,1.4147774,-0.08785874,-2.3420596,3.8338761,-0.04999753,-3.7862763,-5.0,-1.3575051,5.0
5.0,-0.9111268,2.892202,4.0030637,5.0,-3.1490195,-5.0,5.0,5.0,5.0,-5.0,-1.6354405,4.5876446,-3.9004347,2.1049888,-0.044760384
0.6368365,-3.3970811,2.9193325,0.6757929,5.0,-4.993069,-4.2701645,5.0,2.1067748,5.0,-5.0,-3.9299774,1.6450096,3.7174847,5.0,-0.8844133
-3.0967185,0.50560886,0.76292235,-0.04409211,5.0,-5.0,-2.8897302,0.23110504,2.231587,5.0,-5.0,5.373994,-2.835459,5.0,4.332527,-0.04641866
-5.0,5.0,-3.4205818,10.0,-5.0,2.172148,1.8473353,-0.43759203,-4.39404,5.0,0.8995948,-7.2376914,-2.793697,-5.0,-5.0,0.32429898
-5.0,5.0,-5.0,8.102273,-2.0921504,1.2485795,2.7941613,0.13844328,-2.2899177,-1.6995709,5.0,0.16359372,-1.2149788,-5.0,-5.0,5.0
0.34919256,5.0,-5.0,-10.0,5.0,-5.0,-5.0,-5.0,3.5657291,-0.236323,-1.5146725,0.056967583,1.8435197,-5.0,1.8355794,1.9314494
0.46028936,-2.3631113,2.1283686,0.99430335,5.0,-4.3265476,-3.3395708,-5.0,3.3844566,4.5675526,-5.0,10.0,2.4836497,1.8330061,5.0,-0.75510687
0.053985953,-3.0247374,5.0,0.09684617,5.0,-5.0,-4.2125244,1.3117738,1.3120129,5.0,-5.0,10.0,-0.7073288,5.0,5.0,-0.65702385
-5.0,5.0,-5.0,0.5380326,-0.22591221,-3.306624,2.0232108,5.0,3.3906357,5.0,0.7640817,10.0,-2.5363362,5.0,-2.439818,-0.2578325
-5.0,5.0,-5.0,10.0,-5.0,0.9562421,4.2091312,0.07973772,-5.0,-1.7151065,4.122896,-0.9029444,-4.139416,-5.0,-5.0,3.3232722
-5.0,4.5763845,-5.0,10.0,1.0053377,-1.6669304,-0.04657328,-0.30757514,-0.19063036,-4.2020164,3.1235995,0.025238022,-1.4883125,-5.0,0.9262347,-3.7889605
5.0,-0.7280965,-2.500063,-2.109423,5.0,-5.0,-5.0,-5.0,5.0,3.9580302,-5.0,-4.2583475,3.5845046,-5.0,2.0983584,0.39161175
0.04231143,-2.6996346,0.78899276,-0.06096541,5.0,-4.6928663,-5.0,-5.0,5.0,5.0,-5.0,-6.4457283,4.0268593,2.6920714,5.0,-0.39226365
-1.556269,-1.5191572,3.675394,0.65961456,5.0,-5.0,-3.7732291,2.855265,5.0,5.0,-5.0,-8.583934,0.19025874,5.0,5.0,-1.2303292
-5.0,5.0,-5.0,0.26798144,4.763459,-5.0,1.1753546,0.71572137,5.0,5.0,-0.41428897,-0.7217407,0.13930428,5.0,-0.23755896,-1.634517
-5.0,5.0,-4.313634,10.0,-4.210162,0.32358855,3.7640243,-3.9926264,-5.0,-0.2644766,3.587686,0.048098467,-3.568665,-5.0,-4.439067,5.0
-5.0,5.0,-5.0,6.7828326,-1.0051787,-1.5531895,-0.16893673,-0.0071498826,1.2898912,-2.881631,1.8897504,0.36592075,-0.5953109,-5.0,1.2704977,-5.0
3.6404827,-0.43639123,-0.36998904,0.19855975,5.0,-3.4501512,-5.0,4.749098,5.0,5.0,-5.0,1.1425909,5.0,-4.804695,0.36504912,-2.323744
0.23485309,-2.9420881,4.7606945,0.25364417,5.0,-2.6593204,-3.6122983,5.0,2.1152768,5.0,-5.0,10.0,1.1040779,3.8939009,5.0,-0.8471559
-0.7058219,-2.285376,4.96576,-0.10669016,5.0,-5.0,-4.548252,5.0,3.4148264,5.0,-5.0,10.0,-0.16307485,5.0,5.0,-0.22194742
-5.0,4.5302334,-4.3629913,0.9682206,-4.345283,0.17123747,1.4918327,2.4623442,-1.8366071,5.0,0.49172902,-0.6038831,-1.5041454,-1.5668609,-3.9105766,0.56112397
-5.0,5.0,-5.0,8.032038,-4.645413,3.436271,4.537393,-0.9842836,-5.0,-1.4878678,4.7538266,-0.054128654,-2.8790946,-5.0,-5.0,4.4722986
-5.0,5.0,-5.0,-4.6588492,2.29296,-1.0725509,-0.41641736,0.30848202,0.1772565,-4.7664723,3.420782,0.3147994,-1.8562434,-5.0,-0.50657225,5.0
5.0,-2.0658197,-0.24804819,-0.1249275,5.0,-5.0,-4.26874,-4.57542,3.9232583,5.0,-5.0,-2.0528553,3.4567022,-2.5467634,4.2568507,-0.4803686
0.44133854,-2.722492,4.560256,0.5372954,5.0,-5.0,-4.9989996,-2.438356,2.7526507,5.0,-5.0,-5.7643957,1.729462,3.8668072,5.0,1.0459466
-4.126343,0.33432376,2.0714514,-0.5336327,5.0,-5.0,-3.9856334,0.3618496,5.0,5.0,-5.0,-6.788183,-0.01177609,5.0,5.0,-0.48415175
-5.0,5.0,-5.0,-3.1228647,-4.403097,-0.6893898,-0.08574176,-2.3493533,-0.27912402,5.0,0.5150008,-2.3083694,-2.3069284,-4.7742867,-5.0,-1.0819476
-5.0,5.0,-5.0,0.6136403,-0.7358532,1.5400522,3.2552767,0.7206062,-3.7018676,-3.933957,4.7522984,-0.6470833,-2.8932025,-5.0,-0.9788921,5.0
-0.65925765,5.0,-5.0,0.50528765,5.0,-4.6915936,-5.0,5.0,5.0,-0.03147638,-2.0719461,0.34138513,2.1315148,-5.0,-1.1740199,-3.9741697
-1.9346333,-3.7741892,1.9609106,-5.0965085,5.0,-4.3928976,-5.0,-3.9664083,5.0,5.0,-5.0,2.9785047,5.0,3.2022762,4.192903,-1.3366584
-0.91931736,-0.633368,2.6212256,1.5169024,5.0,-4.0904274,-2.2171345,5.0,5.0,5.0,-5.0,-6.596109,1.7288421,5.0,5.0,-0.04886236
-5.0,5.0,-5.0,-5.9529,-1.3554115,0.12234497,1.4551091,1.1503338,1.6147372,5.0,1.679888,4.219881,-1.6470382,0.38313007,-5.0,0.14393191
-5.0,5.0,-5.0,9.143202,-3.4271066,2.529794,2.8623543,0.17581433,-4.3307953,-2.6705563,4.8571224,-0.5902065,-4.708025,-5.0,-5.0,4.7368436
-5.0,5.0,-5.0,-6.798978,0.489856,0.3892895,1.5445697,0.09544403,-0.396097,-3.175312,3.380675,-0.47201973,-4.1720223,-5.0,-0.7498125,-5.0
4.591514,-1.6883482,2.250642,3.0203326,5.0,-3.521154,-5.0,-5.0,5.0,5.0,-5.0,1.474623,5.0,-2.6563199,4.3648396,0.05402693
0.9497088,-2.1387382,0.058053017,-0.4286451,5.0,-4.9714417,-4.056739,-5.0,5.0,5.0,-5.0,4.9094353,3.8546848,3.4529147,5.0,0.7818654
-1.2087853,-0.16905773,4.1490407,0.41151848,5.0,-5.0,-2.7065759,5.0,4.836961,5.0,-5.0,10.0,-0.70856106,5.0,5.0,-0.82273614
-5.0,4.6947126,-3.0004709,-0.017527157,4.0971737,-5.0,-0.1805563,5.0,5.0,5.0,-2.7407846,-1.8079138,-0.0226233,5.0,1.253013,0.08013346
-5.0,5.0,-5.0,-4.327524,-5.0,0.54141545,2.3191893,-0.3184345,-2.632019,0.11769056,3.4212058,3.2361436,-2.799962,-3.7389328,-5.0,-5.0
-4.298554,5.0,-5.0,10.0,1.8416929,-3.0740428,-0.021778643,-3.4297276,-1.7131283,-3.9577732,4.195582,-4.123099,-3.2501132,-5.0,-0.64899325,5.0
3.8206563,0.03302014,-4.779147,2.2848063,5.0,-5.0,-5.0,-1.4351645,3.846672,3.8813808,-4.937607,-0.17343557,3.4420004,-5.0,1.0928109,1.7742198
2.5974927,-2.0739057,-0.13064134,0.35213464,5.0,-3.850135,-5.0,5.0,3.211858,5.0,-5.0,-0.4576528,3.5525548,2.3533218,4.3312693,-1.2671727
-0.5536454,-0.91994876,3.5461316,0.6474166,5.0,-5.0,-4.1874747,0.52297586,2.6726122,5.0,-5.0,9.534505,-0.2409879,5.0,5.0,-0.24597342
-5.0,3.8698661,-2.1404037,-1.2395962,3.4714305,-3.6964822,1.0177073,5.0,5.0,5.0,-1.3307353,6.595171,-3.6945825,5.0,-0.07985018,0.6250237
-5.0,5.0,-5.0,5.903025,-5.0,0.8520752,2.6280577,0.38179806,-5.0,0.9489862,2.6652455,-0.37857184,-0.9093449,-5.0,-5.0,-2.5797467
-4.337241,5.0,-5.0,10.0,2.7015648,-1.5449309,-2.0993085,-4.583061,-0.8618279,-3.281907,1.7769686,-0.053210124,-2.016878,-5.0,-2.1491976,-5.0
4.1608715,-1.8292422,1.9126745,2.3064804,5.0,-5.0,-5.0,1.2061435,5.0,4.0374794,-5.0,0.02648867,5.0,-5.0,0.030183673,0.6079772
-1.4637742,-0.73406386,3.5726416,0.17072521,5.0,-2.8859491,-2.6586204,5.0,5.0,5.0,-5.0,6.351234,1.4870934,5.0,5.0,-0.7419544
-5.0,1.7616255,-5.0,1.4592698,0.07104802,-5.0,0.12560678,1.9221845,4.6908426,5.0,-2.5198534,6.9225426,-3.8771818,5.0,-0.15411629,-0.23854981
-5.0,5.0,-5.0,-7.459813,-5.0,1.4440099,1.5331247,-0.505531,-2.7909493,0.01954484,2.7303548,0.49724495,-2.1522145,-5.0,-5.0,-5.0
-5.0,5.0,-5.0,-5.019362,5.0,-1.6632468,-1.1410555,2.083663,-0.11097619,-4.761832,2.9542208,-4.9942775,-3.5968354,-5.0,-0.7134693,5.0
4.176769,-1.2473438,1.191982,3.0945477,5.0,-4.676085,-5.0,-5.0,5.0,5.0,-5.0,-0.011582077,5.0,-5.0,1.0172479,-0.22907375
0.49075934,-2.492365,2.1272695,0.73058146,5.0,-2.0908964,-5.0,0.58834696,4.492928,5.0,-5.0,-3.2155359,4.723838,1.8819861,5.0,-1.319108
