ancorasir/BennettWheelLegRL/experiment_data/2024-02-13_04-17-16/joint_vel_env0.csv
Joint_1,Joint_2,Joint_3,Joint_4,Joint_5,Joint_6,Joint_7,Joint_8,Joint_9,Joint_10,Joint_11,Joint_12,Joint_13,Joint_14,Joint_15,Joint_16
0.0,0.0,0.0,0.0,0.0,0.0,0.0,0.0,0.0,0.0,0.0,0.0,0.0,0.0,0.0,0.0
1.0822273,-1.3770798,3.296566,3.5167973e-06,1.3203144,-1.4599602,-3.2821448,0.0012451014,-0.8413739,-1.3793212,3.2762933,-7.412935e-05,-0.696666,-1.4626262,-3.2657216,-0.0013683406
0.046153992,-1.8452649,3.3824973,1.2002044e-05,-0.74831176,-2.1305897,5.682723,-21.194138,2.749314,-0.7939212,3.8170033,-0.021503687,-0.16325572,1.0753773,4.967167,-3.967129
0.115236945,0.47070917,3.3365128,1.0299482e-07,-1.3900375,1.671433,1.09113,5.6407614,-0.35293984,-3.066831,0.7284648,10.297269,1.6540496,-1.8517996,-0.035158277,0.015683442
-2.2467248,2.4763854,-0.003971532,3.7578566e-06,-0.3232928,2.236981,0.2675326,7.312133,0.9895574,2.374384,-2.2342343,-9.392924,0.644655,0.34324256,0.028692976,-0.040684663
-2.7577024,-1.1617885,-0.029856399,-2.9865678e-06,0.1835368,-2.587988,-0.74176514,-8.973134,0.21887743,3.614398,1.5743918,24.994488,-0.70392704,-0.027862728,-0.99532217,8.865844
0.9805007,-1.1908013,-0.07878186,5.6297274,-1.1785206,-0.9856917,1.5716773,-0.015727526,-1.9978061,2.8908732,1.915406,-0.015261278,-2.0061274,1.1790906,-1.7236257,0.6012651
-0.7135587,3.7068686,1.3035583,7.1791077,3.247061,0.3982731,0.08537136,-0.06961263,-2.4302974,-1.2666157,0.033607874,-0.0926816,-2.547062,-3.108411,-3.0927098,-1.7843823
1.9718057,-0.10181704,-0.9249278,-1.1312017,2.5074656,2.1773431,-3.5417933,-0.004699765,3.3428419,-3.5287535,-3.4661522,-0.010854693,3.2349474,-3.2640276,3.8719978,0.013054848
1.5452367,2.6912203,-0.008050982,2.6534071e-06,-2.1403685,2.9446797,1.6155193,6.631881,2.5381467,2.2083836,-1.2738416,-7.2893887,3.3975024,0.45970854,-0.08372204,-0.03952224
-3.328458,2.1951895,-0.02697891,-6.967184e-08,-1.1755674,2.5334303,0.07591712,8.551133,2.4670055,2.6750634,-2.7564092,-8.1689205,-0.7058642,1.0452124,-0.010440236,-0.036070824
-3.2919219,0.9906329,-3.3826013,-6.749545e-06,2.1336405,-2.9702556,-1.5490363,-5.823718,-2.71514,-3.4639957,3.2456493,-0.07014251,-3.8112206,3.1431847,0.14299363,0.03445383
1.7458658,3.6752796,3.1690922,-15.542797,-0.9883243,-1.0571791,0.17863545,-0.11235599,-2.9079585,2.930266,-0.10199803,0.0005709678,-1.0320532,-0.26873615,-0.43082032,-0.14656343
0.33798677,-2.6436725,0.33617222,7.3343916,3.261523,1.41521,-3.3116364,-0.025147442,3.402355,-2.96692,0.07808608,-0.032369338,-0.593181,-3.394801,-1.895747,-5.9441986
3.319602,-2.0572517,3.3681636,3.3895467e-06,-1.6413344,2.5957086,2.0548897,8.435581,-0.50863737,-1.6833571,2.0932298,4.9454722,3.6737368,-3.660958,3.509259,-0.031166658
-0.40404662,2.1143138,-0.00069429097,1.7844318e-06,-0.6104643,-1.2860663,-0.14080179,-3.6229856,0.557261,-3.0210156,0.11022571,8.980062,3.413551,0.53414744,-0.0796392,0.024557533
-3.2904963,2.6515033,0.00020928413,2.947044e-06,-0.39947054,2.6847844,0.19165806,0.6772762,0.15057859,-3.3298268,-0.27390915,0.1421106,-3.3188245,1.1415663,-0.0025042389,0.0033339951
-1.2256064,-1.0203116,-3.539501,-1.1927274e-05,2.4900837,-2.1956363,-1.1311934,-14.304262,0.6652763,1.3473274,3.1564064,3.4019241,-3.5731487,3.4373553,0.48845252,0.0070235096
-0.14367998,-1.348531,0.49688292,8.5923195,-0.8580595,-0.1523915,-0.11142816,-0.048932336,-3.100494,0.2028108,-0.008015439,-0.051663212,1.1154592,2.750135,1.8434151,7.3479156
1.415179,-2.9735408,0.86710715,8.767914,0.5869333,2.5646229,-0.13330758,7.99078,2.8311331,-3.1998098,-0.022337139,-0.03770552,-3.1319237,-3.0441709,-3.0312638,-18.170536
3.2524364,-1.5300688,0.0057237744,1.0915106e-05,-0.6653144,2.449903,0.99923277,9.040997,-1.129487,-1.2643415,2.7842882,2.2769945,4.0443563,-3.3322618,2.4444025,-0.05448359
-0.5238765,0.5946839,-0.014477119,-1.0042656e-06,-0.3004107,-1.6870544,-0.3857895,-4.613496,-0.25556517,2.9487424,2.6485171,-14.154465,3.1767535,0.3867434,0.03430296,0.015639491
-1.702986,-1.5522861,-3.4589763,-1.0840071e-05,0.7400645,-0.027517557,-0.899652,-2.7963207,2.3558996,1.9304019,-3.9573417,-0.0045115426,-3.4979925,3.2776012,0.29517272,0.021353465
-0.64782387,0.96784174,1.4237967,-0.1481548,-3.3455353,1.0748162,-0.013376778,-0.0039390977,-3.4878726,3.5432053,3.5044613,-0.02996169,-2.468696,2.236426,-3.5529158,0.023333004
0.47183156,0.53301775,-0.11336768,-2.3229647,0.00015797466,0.9814034,0.07377855,0.0049083615,-3.3292181,0.4710249,-0.048855767,0.00514872,-1.7633747,-2.0600553,-2.2140136,-3.4568145
-1.5153611,1.2174283,0.8269977,-13.350069,3.389046,1.0828207,3.0749757,-0.0026436634,3.5979276,-2.2215488,-0.05454552,0.015809141,0.7076613,-1.280265,-0.63877475,-4.5695543
3.0042403,1.5136306,-3.9354706,-4.908559e-05,-1.9124198,-1.852903,1.7256625,-8.455767,-1.1144307,-0.8726301,3.9307919,-0.4115641,4.376947,-3.2640932,3.1599956,-0.0939274
2.2081506,0.3273627,-0.0062934402,1.2728378e-06,-1.6284739,-1.877207,0.74480534,-10.044751,1.756302,3.0354264,-1.2395729,-12.25086,3.2380514,-1.0925641,0.013134915,-0.006838234
-3.353872,-0.52212036,-0.039059207,-1.1973939e-06,0.22131819,-2.025941,-1.131419,-6.971072,1.1192331,2.8007388,-2.995112,-17.994087,-2.761517,1.002865,-0.017817147,0.005052887
-0.2986058,-0.9107838,-0.25069708,7.904214,0.1418184,-3.4978797,2.9119465,-0.02450116,-2.8831294,2.693023,1.1677749,-0.028317632,-3.4714594,3.671959,-3.3949735,0.05262135
0.30845165,-1.1414053,0.60858345,8.293955,-0.9320765,2.4462216,-0.09465973,-0.046569183,-3.4395185,2.4420843,-0.027587265,-0.056668,-0.52728504,1.714773,1.2429204,7.2198334
0.69174457,-2.7282324,0.61379623,9.683162,3.1460888,2.4512374,-3.390744,-0.0322264,3.6004107,-3.3968153,0.101558216,-0.066101074,-0.8723167,-2.5279443,-0.4029687,-13.604778
3.3321412,-2.3383825,3.257819,-1.335417e-06,-1.2798254,2.381282,1.9855917,8.420248,-1.1693131,-2.1082203,3.467101,6.0798674,3.4273057,-3.5115452,3.4133368,-0.018738274
-0.2589442,1.2205658,-0.001639972,-4.1514195e-06,-1.0431792,-0.76618856,0.22088164,-2.5962257,3.1308796,3.6645272,-6.6453266,-45.094982,2.4595127,0.16164225,0.0127209695,-0.07410218
-3.2318885,2.2425084,0.02989769,3.501027e-05,-0.7299211,0.5010123,0.17822027,4.2649164,3.389428,2.6482751,-6.3027506,-37.122387,-2.011157,1.3056437,0.028127573,-0.006885506
-2.5444107,-1.723112,-3.5060334,-9.418158e-06,-0.79321307,-2.9233155,1.2743034,-3.1914,-0.5636383,3.4906156,-3.295841,-0.014184251,-3.6498542,3.7482224,-3.5439355,0.005006157
0.3646493,-1.6788905,0.9517853,7.8238487,0.015890673,-0.6271946,-0.10321379,-0.043125566,-2.9681203,1.6447483,0.022414586,-0.052351292,-0.62043494,0.79519117,2.2339795,3.7390423
0.46842963,-2.7653441,0.15269709,9.578587,2.4017591,2.3516045,4.7890844,8.775322,1.5289408,-1.2459087,0.05807356,-0.034162287,-0.7722968,-2.3990204,-2.4250722,-8.209656
3.3300724,-3.261129,3.1123307,-3.2055448e-07,1.0857174,-2.8575208,-0.22943819,-7.1371574,-3.6339817,-1.5291858,5.2413383,0.46741295,4.1625814,-3.2230582,2.5781193,-0.03877946
-0.49538124,2.6713502,-0.0024359492,-3.4703062e-06,0.47177958,-2.7163734,-1.5416223,-3.6848547,0.5439326,-2.7491136,0.09541868,11.601265,3.4775712,0.46128792,-0.035441726,0.002126716
-3.3105488,1.0536195,-3.1622918,9.8709904e-08,-0.16967997,0.10870024,-0.58924234,0.35925305,1.0095142,3.7617104,-1.538625,1.705368,-3.5554533,2.592827,0.32121897,-0.01811985
2.1539412,-2.9662051,1.6901357,12.141918,-0.85596293,-1.0686742,3.4687724,0.051694393,-3.3147907,3.4702733,3.4543579,-0.059653755,-0.54643416,-2.1280034,0.68005216,-7.0697255
1.0781693,-0.09144314,0.7287371,-0.17170978,1.4634529,0.13201979,-0.14917362,0.0046504727,-3.3928723,-0.4689758,-0.011904433,0.0017920919,-0.4484681,-0.21654528,0.04770434,-1.4645362
0.21552426,0.7263904,-4.2726393,-6.929296e-05,2.0752735,-2.8998518,-1.6544105,-7.1448283,3.2441137,-3.032833,-2.3994064,-0.021567311,0.70807564,-3.0516052,-3.9268863,0.030799959
0.98302984,-0.76878494,0.0012718681,9.417123e-06,-2.3797703,2.9909213,2.16677,7.3711095,1.4183227,1.1909426,-0.555629,-5.123289,3.0608518,-0.08897711,3.3454022,-0.044938672
-2.1406105,2.972366,-0.0027901717,-1.4709e-06,-0.01191413,-1.0636592,0.028290287,-2.278576,-0.40202785,-3.4394817,0.38136634,1.0400238,0.3253727,0.41184822,-0.0072283996,0.015219551
-2.5440228,-2.8665643,-3.2434375,1.3268511e-05,0.5068948,1.1891708,-0.77213466,1.066405,1.6628065,-0.07439226,-4.3701143,0.00283961,-3.3781903,3.8691766,0.022617996,0.037178718
-0.4566084,-0.4520172,-0.5118339,13.46824,-3.6472487,-0.3214739,0.022053182,-0.0019561201,-1.5833911,3.1227882,1.1710626,-0.06760808,2.895977,1.787442,3.235289,5.145176
-2.3963037,2.2450917,-6.2186966,-86.98494,-0.59715885,-0.5025556,0.16142124,-0.016791195,-0.8883414,-0.7540846,0.10072222,-0.07238207,-0.57344216,1.6528239,-1.4373605,9.546046
-1.9585708,1.5718507,2.0348558,7.670248,3.3131871,-1.2700851,-3.3015044,-0.04257534,2.3639102,-3.5655088,2.473672,-0.032787323,0.087097764,-4.009112,2.1304457,13.08074
3.4026892,-1.9956988,-1.093286,3.2149255e-06,-1.5221013,0.84569025,1.094693,4.0298977,0.6319702,1.5998838,1.1359096,-6.94037,3.5578294,-3.272907,1.446155,-0.032814723
-0.71135724,-0.320006,-0.13074559,-1.0054588e-05,-1.4721221,2.6007478,1.3592205,10.225816,1.6064515,-1.1997039,-1.401367,7.7952986,3.3488886,1.4362974,-0.25927448,-0.009587374
-2.9608588,1.9831793,-0.062218875,-4.1783064e-06,-0.28454536,-2.736069,-0.7383005,-11.265333,2.6069388,2.3635788,-3.693112,-30.037903,1.9700451,0.88177055,-0.024424132,0.026146092
-3.3421175,0.19035286,-0.25409657,6.022514e-06,1.0124058,0.6864026,-1.6156044,4.358449,0.09586537,1.4850411,-0.67124754,-5.820349,-3.5118058,1.7258195,0.32163554,-0.015455867
1.489393,1.4477795,0.6413118,-3.1339538,-2.0339162,-1.2182752,-0.014136106,0.0067127645,-2.9679492,3.4467504,3.3475852,0.0112658795,-0.8290869,1.7274618,0.22480883,10.050502
0.2894925,0.084548324,-0.09825984,0.39913487,3.8104677,0.51602876,0.19437325,2.489317,-1.9263124,-1.1893924,-0.10466409,0.06143391,-0.87476265,0.47923335,-1.30235,0.009536475
3.6549299,0.982628,-5.3488774,-0.0014362335,0.89082354,-2.4691603,0.058659136,-6.961399,-2.1199818,-1.5646135,2.9700634,4.55369,2.7959776,-3.997781,3.871573,-0.026764315
-1.6275165,1.6467308,-0.0017982945,-8.36893e-06,-0.52197057,-2.5228863,-0.5450024,-6.3889103,1.1343534,-1.9971075,-0.25389922,14.165831,3.1329892,0.17013262,-0.019002438,0.051714826
-3.3641286,3.3282526,0.00027105212,2.5524237e-06,0.49668026,-2.234983,-2.0971744,-3.6369586,1.1517794,-0.9388699,-2.0912397,8.833635,-3.4173963,0.7477717,-0.03016159,0.041542966
-1.4511259,-1.2191734,-3.598382,-1.38451705e-05,-2.8464494,-1.7135508,3.9382854,-0.018407002,-3.0075219,0.86050105,5.4991903,23.567719,-3.5415504,3.5601213,-3.6209471,0.030334828
0.3850808,0.6622502,0.1905235,-1.2915156,1.4585454,0.25270864,0.13519433,20.380295,-3.4097943,0.5040937,-0.16385108,0.02717986,-0.08364707,1.536589,-1.2262456,6.4830136
-1.5367978,0.7329381,3.829006,16.052471,3.3271804,-1.5664463,-3.2503536,-0.051136874,0.9100635,-2.4968014,0.0058315247,-0.05278556,-0.061279118,-2.6289754,-0.9983814,0.41246605
3.560081,-3.4639404,3.0367746,0.00082206726,0.4248655,2.7798626,1.1605797,6.34923,3.3794494,-1.52954,-3.5932822,0.03447988,3.7491305,-3.414598,0.4063092,-0.03556046
-1.1086369,1.4823445,-0.011248857,2.4420224e-06,-1.7991933,0.7296175,0.38253164,1.2142404,3.0789924,3.603599,-3.6738951,-19.421986,2.9050233,1.1795365,-0.21344894,-0.0075710583
-3.4170065,0.60544205,-0.005924194,2.7609094e-06,-0.3891595,-1.524452,-0.38436556,-6.6942015,1.5809615,3.6475525,-2.8183565,-3.8516023,-3.6369805,1.0842645,0.057728175,0.009852614
-4.1158333,3.5330572,-8.480381,-83.0849,-3.425934,-0.29781413,2.2893395,0.053269625,-3.4389086,4.283532,3.8737667,-0.039186597,-2.5650842,1.6699164,-3.4609547,-0.0026889145
1.5977379,0.68019646,0.97799134,-4.490958,-1.5264202,1.4233075,0.049050614,-0.0056748837,-3.5027554,-0.24190238,-0.20888048,-0.007993113,-2.23618,-1.8919303,-1.9313222,-4.5781283
-2.2585344,2.334395,-0.90929794,-10.753301,3.350612,-3.2645946,-2.6024368,0.021669611,3.6484022,-2.578277,0.084451005,0.04125084,0.94242483,-0.25373125,1.2480307,0.55507886
2.8372247,-1.6269009,3.6493645,2.242778e-05,-1.5151296,-1.399012,1.346015,-6.4594703,0.76986337,2.0597372,0.29450125,-8.090087,3.4714527,-3.4595256,3.5992594,-0.011461355
-2.470451,0.6632421,-0.022735383,-1.0356903e-06,-1.9747609,2.1859236,1.5181475,2.7090707,3.1902115,3.11207,-3.2134633,-9.477015,2.7806668,1.001821,-7.095188e-05,-0.017758042
-3.0913188,1.140111,-1.2042854,-0.001115799,0.38852134,-2.4989352,-2.0850983,-10.019437,1.4855114,3.394711,-2.897272,-16.713825,-2.3065107,1.0196685,0.04116025,0.015356999
-3.0372548,2.6792822,-4.0432343,-49.606297,-3.1917865,-3.2345679,3.4704225,-0.08295214,-2.0921154,3.2711048,2.141138,-0.0046951342,-3.6755314,4.0286336,-3.901805,0.06526309
3.217291,-3.577732,2.155671,0.05091393,-0.12258308,-0.7211553,-0.07269363,0.031068236,-3.4885159,-0.20602745,-0.464792,-0.022365376,-3.4139624,-2.78595,-2.576209,-5.962678
-0.13663352,-0.3747689,0.13128556,-0.4229647,3.2490256,1.5981679,-3.3233585,0.0030320128,3.452738,-3.3437066,-0.02598549,0.0077436026,0.47537184,-0.7316851,2.8233638,-0.0016670874
3.3910437,-0.6338113,-0.018389888,-3.3821761e-06,-0.43876874,-2.169031,0.28823403,-8.287473,-0.42427707,-2.6523194,1.7625194,9.739702,3.6055923,-3.4255755,3.3696446,0.0075074118
0.5248145,-0.8607835,-0.015690923,-1.9517038e-06,0.29090154,-2.082316,-1.1708287,-4.670395,0.20335181,-3.28644,0.6278936,4.896329,3.4536514,-0.40745533,-0.041155547,0.0053166747
-3.447327,0.9700614,-0.009291896,1.7003949e-06,1.0949985,-2.9451063,-1.684383,-14.984695,-1.0297642,1.7335436,1.5227916,-1.7591591,-3.6219542,1.085527,0.50739986,0.016056478
-2.9978237,3.1718326,-4.424433,-29.084888,-2.4292803,-3.3548775,4.166804,24.27827,-0.601101,2.1343174,-3.135738,-0.018726956,-3.8409119,3.7940793,-3.6114924,0.028900113
0.43408704,-2.0383341,1.1653644,7.1120515,-1.6977966,0.95344377,-0.073399864,-0.03319946,-2.348594,1.4891794,1.8839636,-0.03907836,-0.24146761,-2.343141,-0.7189714,-8.051398
1.2559533,-1.3623227,-0.18967903,5.919753,0.4902498,1.3408573,-0.24496819,5.4897757,3.4796727,-3.2373562,0.019636342,-0.011301315,-3.1264515,-2.695256,-4.1365423,0.017429598
3.3861415,-0.15900964,3.958121e-07,1.6787299e-06,-1.4081695,-1.5057952,1.0181481,-6.1416435,0.946336,2.3404539,0.54690695,-9.448612,3.6794028,-3.3017478,1.0977931,-0.036910348
-0.5773469,1.8961226,-0.0054079485,1.7793991e-07,-1.1792492,0.36644256,0.6323547,-0.015799344,2.1227975,3.16789,-2.6459053,-8.666309,2.9528286,1.3151807,-0.057066992,-0.0105457455
-3.3096259,2.2977226,-3.2526312,2.0934499e-07,0.12831384,1.4432608,-0.5754373,5.142399,1.718159,-0.4788161,-3.9856524,-0.0012351535,-3.5260916,1.5441917,0.6903044,0.010934889
-1.1192479,1.5847605,-1.1545776,2.0114892,-3.2597027,-1.7288506,4.270244,6.905985,-3.2801049,3.509525,3.4486527,0.024471655,-3.0060356,4.112845,-3.7575774,-0.037205227
0.4121015,4.621083,2.3368452,3.2679825,0.3689096,-1.1051896,0.053608313,-0.08413461,-3.4454691,-0.52941144,-0.08176814,-0.083405405,-0.5345506,1.830605,-0.09243581,10.234771
-1.861987,2.7520497,-0.57528615,-9.621605,3.406221,-0.4509953,-3.1936498,0.0055735894,3.699705,-1.3441155,0.031857923,0.021556295,1.2452327,-0.390114,2.4308405,0.31617773
2.9358947,0.39839575,-2.435454,-0.00020337105,0.7046871,-2.9236817,-0.2340212,-6.9121227,-3.282207,-2.3355622,4.8871107,6.675877,3.4188018,-4.1847396,3.9220963,-0.010667017
-0.26786956,1.9818327,-0.004811288,3.479773e-06,-2.2551627,3.1905618,1.6163399,7.0733624,2.4721463,2.9908583,-1.9516113,-9.022931,3.2819316,0.6248427,-0.07939172,-0.044621166
-2.0277214,2.680577,-0.0005882876,-7.999374e-07,0.31670034,-2.8249764,-1.3387396,-6.71656,0.032202482,-2.4467735,-0.42989713,12.486352,0.53263146,0.5313145,-0.02251488,0.048789315
-2.182983,-2.6297653,-3.5557456,-9.505677e-06,1.2118827,1.3861063,-0.5306958,8.317966,-1.8213089,-3.4374552,3.395158,0.07855533,-3.569773,3.2965827,0.049149416,-0.024728052
1.4030437,-1.9345859,1.4573975,6.0519543,-2.111174,0.13423766,-0.017121803,-0.014798875,-3.129993,0.5657971,3.469312,-0.020282019,-0.4909907,0.61163604,-0.44052994,2.7063053
0.36825407,-1.8298099,0.17398763,3.2899585,2.454962,-0.67588586,-0.14927945,-0.03236937,0.500344,-1.4852823,0.047972172,-0.038727928,-0.9117596,0.00022278726,-0.57685244,1.1787864
1.3918626,1.7016711,-1.506648,-0.54639685,1.7753544,-2.8572178,-0.9868369,-5.547116,2.6046133,-2.0433095,-3.4814754,0.0029041432,3.3785226,-3.2639,2.9556344,0.005644247
2.1393178,1.5618968,0.03809835,-1.0792395e-05,-1.8522769,3.0150661,1.8283943,7.6052647,0.6979301,-2.1650684,0.12029171,9.128986,2.0710323,-0.71481353,-0.006346822,0.0009823359
-3.2232084,2.5618775,-0.00040965527,-1.810009e-05,-0.6321728,0.75112927,-0.43371588,3.5238252,1.1876578,0.28543893,-1.9499792,0.62444216,-0.042061653,1.0690594,-0.0038025826,-0.01308069
-3.0020366,-0.5362379,-3.4429283,-7.006598e-06,0.84732217,1.456046,0.013852239,1.3488481,0.02676779,0.5921002,-0.51600707,-2.3159661,-3.5160732,3.2790105,0.37703216,-0.013189951
1.7763168,1.643819,2.0421228,-8.8575945,-3.2024002,-0.05549985,-0.02666974,0.009387229,-2.6368606,3.5424404,3.4859078,0.011070941,-0.59019977,0.33246362,0.44294724,0.6846125
-0.15307859,2.8376112,0.089719296,-11.054433,3.8446934,1.7203074,0.8740766,0.010641098,-0.13399106,-0.90441614,0.09349299,0.12791891,-0.7519243,-0.74571,-0.9411544,-0.3259827
0.29176265,0.25120512,-1.1752238,2.9391773,2.1699378,-3.1587415,-1.9277382,-4.646995,2.4980457,-0.73681754,-3.438859,-0.00505512,1.6017951,-3.3037,3.397227,0.0098803565
3.027501,0.6091358,-0.00045099645,2.0960197e-06,-0.83314866,-2.1085873,0.3372913,-7.852057,0.94458556,2.267836,-0.13915244,-9.653761,3.543016,-0.8577604,-0.08786479,-0.009510122
-3.2839353,1.415547,-0.009012768,4.4036824e-07,-1.4279387,2.007358,1.4289101,11.921612,1.9791203,2.4415655,-2.3174744,-8.162131,2.2370944,1.1298318,0.018650005,-0.03046353
-2.080828,0.42049292,-3.4358227,-9.483716e-06,-0.3017575,0.9041418,0.42983094,0.09002559,-0.16534944,-2.716479,0.18108147,10.170927,-3.3452082,3.07648,0.017548166,0.008986244
-0.1698885,2.1413121,2.5396001,0.0032081604,-0.7704719,-2.1478903,0.42495584,6.8490257,-3.7104993,3.5423295,3.6152864,-0.03620991,1.9748727,0.86001515,2.4097443,0.20787811
0.20456576,0.5431945,-0.31040186,-0.4256605,3.1457777,1.3030263,-0.0046429485,0.0028110796,-3.1674583,-0.5478301,-0.011729419,-1.509639e-05,-1.0366932,2.1993456,-0.519992,5.360447
1.1936212,0.62860876,-0.039682,1.3932085,2.157743,-2.8956356,-1.4400756,-5.2303,2.7131753,-1.3569176,-3.489829,-0.0045200484,2.9881592,-3.5990553,3.6196728,0.011080604
0.9229227,2.6771321,-0.00049443403,-3.3142887e-06,-1.1639771,-1.7157123,0.04461932,-5.8691845,1.0247517,-2.1619349,0.1359123,11.781741,3.1266568,0.07308003,-0.065210134,0.04417514
-3.2615085,2.5947826,0.0073597166,2.9577968e-06,-0.27479026,-2.2700982,-0.918446,-7.290531,0.94665754,0.25331056,-1.5611691,0.79653907,-0.5349669,0.9092461,-0.006052822,0.0115480125
1.3243649,-2.3615978,2.1364796,8.329053,-2.770363,-1.6197591,4.685041,0.12653255,-0.93568134,3.141509,2.1018794,-0.0026616752,-3.5139265,3.6204839,-3.5442874,0.004536015
-0.40270627,4.968,3.487219,12.02326,-2.37143,0.6484413,0.11562434,-0.08912074,-3.6883385,2.72245,-0.18035653,-0.10387873,0.6927675,2.9878297,1.0408223,-1.6673911
-2.3912637,2.6859722,0.81413186,1.047451,3.4557912,3.335483,0.27927035,-0.050263695,-0.29798937,-1.5201828,-0.04018236,-0.05930665,0.1450958,-2.0032732,-1.2286899,-4.9922714
2.8677852,1.2395641,-3.1892996,0.23789838,1.0730686,1.6629256,-0.1278755,11.040456,2.4087672,-3.79152,-3.7056067,0.020568319,3.2870848,-3.45085,3.4381819,-0.014632886
2.036958,-1.2698425,0.0027512887,-8.009272e-08,-1.0743241,2.8933907,1.3067691,7.906461,-0.14172986,-2.6807606,0.83131015,10.918,3.3926458,-1.483869,-0.08643645,0.02412799
-3.150233,2.2464883,-0.0036699725,1.4244911e-06,-2.1716566,2.4582174,1.2490621,0.542981,2.1163042,1.7027175,-1.5998769,-5.4585395,3.2147293,1.1558163,-0.05801791,-0.008792987
-3.0496771,-1.6895065,-3.4908142,-1.1906384e-05,0.8080087,-1.9940319,-1.1821765,-7.5790005,3.285844,2.770182,0.8146645,-0.0028998628,-3.6171484,3.3537745,0.28466427,-0.01731211
0.21956074,-1.3099921,1.0246537,-1.8637955,-2.7575574,-0.75356334,-0.11936153,-0.013019688,-2.92165,1.043249,3.3447912,-0.011196792,0.44748497,3.2983265,3.0667386,15.118652
-1.7967622,3.629547,0.9611727,2.139616,2.0839097,-0.4964665,0.08183717,-0.055038422,-3.330448,-0.91272914,-0.04190799,-0.07876423,-0.057007015,-1.1470684,-0.23415458,-3.0502815
0.45974022,-2.4480224,0.25406754,7.3311515,0.19526164,-0.15926775,-0.82453865,2.1548738,3.1833797,-3.924404,-4.118645,-0.028051853,-0.090316266,-2.222543,4.4913316,12.560793
3.3120584,-0.85038483,0.12800209,7.5607736e-06,-2.8565357,2.8931134,2.175085,5.875474,2.607598,2.1876051,-0.89057386,-8.916289,3.4716694,-3.713972,-0.2376934,-0.053060982
-2.915287,2.572038,-0.008398388,-9.834548e-08,-1.6664073,2.4782996,0.7101865,8.274162,2.221654,2.490589,-1.9445162,-7.437322,1.7534485,1.3035039,-0.047479942,-0.0334642
-2.5570216,-0.6831537,-0.7445661,-5.3776084e-06,0.036727846,1.1015671,-0.23020346,1.7228365,2.8200645,2.451313,-5.7290554,-55.14943,-3.6709898,3.2675545,0.35816646,-0.025751878
-2.0243099,3.9815025,0.9227406,0.41436195,-3.2386994,-3.4389076,0.05877617,-0.041195195,-3.3878758,4.023301,3.8817692,-0.067577735,-3.2254548,1.0632589,-3.706231,0.06472936
-1.5314109,3.9221256,0.9317545,-4.8449497,-1.2144428,1.72535,0.15015185,-0.056434236,-3.4245057,1.1627412,-0.10633923,-0.052027546,1.2087594,0.90505385,0.42538846,2.1836493
3.8653262,0.5445207,-5.126064,-0.0010871887,1.3858312,1.4988017,-0.7048442,9.378808,3.4525826,-3.4537137,-3.1746461,0.07464272,2.842662,-4.284809,4.614362,-0.079912186
3.327208,0.4330538,-0.083609894,3.1504987e-07,-1.3267536,-2.188817,1.1088048,-11.763341,1.2076597,3.673476,-0.21925488,-4.4241533,3.4298182,-1.5739655,-0.23831266,-0.024773963
-1.7717744,3.2537465,0.035082694,4.9194377e-06,-1.528175,2.372541,0.3385182,8.647868,1.2227592,-2.2719102,-1.4550996,11.876034,1.555544,1.2190554,-0.01958939,0.014218015
-3.1971343,-0.081761464,-3.463689,-7.639079e-06,0.29634857,-1.8076524,-1.4194309,-4.0203743,0.47837883,1.04361,-0.7934334,-3.1650193,-3.6351945,3.2025595,0.9946635,-0.008159544
1.2391887,-1.8915582,1.5682502,4.6735363,-3.4651906,2.3902428,-0.18830389,-0.03036046,-2.4971776,1.4561931,3.5178044,-0.064782776,-1.1065882,-1.4784874,-0.6700162,-2.7132673
-1.9005761,1.515772,-1.2552292,-3.7431645,3.4668386,-2.9383976,-3.891573,0.010946274,-1.0089844,-2.041938,0.01126088,0.01788875,1.4406579,1.5199522,0.23111486,6.0909076
3.2303755,-2.3438776,3.869533,4.2215455e-05,2.0077803,-3.4091504,-1.6946275,-4.1828666,3.521835,-0.86155915,-3.785355,0.08203746,3.9682415,-3.1290917,3.4123752,-0.036609173
-0.081022084,2.069886,-0.00062654004,-4.2201036e-06,0.653239,-2.685201,-0.8510574,-5.74801,-0.047524422,-2.684095,-0.23280951,12.0,0.7688488,0.67570806,-0.079107076,0.0296029
-3.2512553,2.6148958,0.008830791,-3.032696e-06,0.06481844,-2.2812462,-1.2479818,-3.890069,0.7578772,0.31252813,-1.2990686,2.4454322,-1.9979458,0.7329536,-0.004938945,0.013503827
-3.1950755,-2.7804978,-3.429803,-5.8288533e-06,2.288722,-2.9594004,-5.498779,-37.03725,-3.3253593,3.241992,1.6119876,0.052010998,-3.6593604,3.4277697,-0.56930304,-0.06356478
1.0195322,-0.5050348,1.4374238,-2.3381581,-2.8672676,1.1372156,0.022875994,0.004605437,-2.1599734,0.8353368,3.489736,0.00719795,-0.6494025,0.9774327,0.8551924,7.945813
-0.602366,0.7123316,-0.4922984,-3.8139803,3.015149,-2.182384,-4.0085435,0.0083786715,-0.7417541,-2.087338,-0.15577397,-0.0039612227,-0.36044112,-2.7182295,-1.169589,-10.613441
3.4876776,2.2750628,-4.4830747,-0.0008468628,1.2867132,2.145545,-0.0035828352,9.659451,3.1794868,-3.1279864,-3.4280443,0.039455205,3.1764767,-3.4374185,-3.0861773,-0.04214526
1.9470897,1.8659441,0.13399956,1.7966331e-06,-0.56465024,-2.5999677,-0.4438743,-6.02404,1.6432459,-1.5709828,-2.137933,13.326855,3.5829332,-2.9385552,-0.16717082,0.022724904
-2.034953,2.902354,-0.00040649297,-2.202929e-06,0.13184857,-2.281211,-1.1278156,-2.2238247,1.8300693,-1.4133317,-3.4044583,13.68455,2.102423,0.39899042,0.008498155,0.005021319
-3.373635,0.47838002,-0.06739068,-2.5143315e-06,-1.1027303,-0.09201194,-0.3255341,0.60560805,1.0903466,3.033498,-0.98619115,-11.304118,-2.6877315,1.2718182,-0.039166782,-0.011234883
3.381904,-0.88101494,3.627273,-3.224323,-3.4944983,-0.60797864,3.3550894,0.020832982,-2.9977705,4.291075,3.827394,0.06344942,-2.5643632,-2.2428043,-0.85620964,-7.160351
2.159505,-1.908432,1.6123236,3.9005356,1.6867149,1.1980917,0.972559,-0.012937546,-3.6994412,-0.33583254,0.09233131,0.06087268,-1.9961748,-0.5524231,-0.5876749,-0.8764398
-0.2672087,0.10157466,0.8078098,12.993193,-1.6507394,2.5449781,1.2689612,9.097,3.4810224,-2.913254,-1.9156681,-0.002743736,2.0416307,-3.0352898,-2.1492708,0.0023619533
2.308579,-0.09127894,-0.0026058443,1.8163105e-06,-0.52546227,-2.2201507,-0.15828806,-8.65341,1.148031,2.483142,-1.4307268,-9.450199,3.507154,-3.0809608,-0.15280703,-0.0139805
-3.4680345,2.0216079,-0.020615444,4.843416e-06,-1.2235286,2.7313137,1.8016862,14.1560335,1.8990364,3.1658385,-3.2560174,-10.318665,1.3722851,1.2876581,0.021299051,0.005626466
0.7692638,-0.90310496,1.0905414,0.67836046,-0.12674779,0.62292343,1.8193296,0.59221613,-0.29686153,0.2707473,0.52916646,-4.2248898,-3.4583933,3.3255308,0.07579452,-0.006944522
1.0830538,-2.129697,1.449872,2.9123783,-3.0444472,1.4408088,-0.042897373,-0.032734387,-2.505701,1.7940233,-0.19978943,-0.034484915,-1.607129,-2.5575142,-1.1094329,-7.5219655
0.3813647,-1.687854,-0.04967475,2.397035,3.519567,1.5131552,4.303061,-0.016778946,0.60623753,-2.0106301,-0.0020571444,0.015878804,-1.612476,-1.7673881,-2.6972203,-1.9981395
3.3695233,-2.2505238,3.2598422,6.2431815e-07,-1.0636208,-1.5576053,1.1707649,-5.7857842,-1.0345771,-0.7889732,1.7160242,-0.019722253,3.6468165,-3.3350096,3.3778706,-0.015343297
-0.69156814,1.4214016,-0.009665795,1.4570105e-08,-1.0241706,-2.4411483,-0.42626253,-9.018396,2.5611873,3.5676684,-4.2492733,-18.047363,2.624086,0.5182191,-0.030873433,0.0059144124
-3.2426193,0.09551762,-3.3713856,-7.4196814e-06,0.19346088,1.0311968,-1.5440514,8.637635,-1.4983792,-3.302873,2.6646974,0.16942596,-3.8164449,1.5587966,0.002866745,-0.028940003
-2.8267086,2.8685975,-5.987997,-56.51229,-3.2106633,-0.16444325,3.4974928,0.027286828,-3.433228,3.4403121,2.659985,-0.018223261,0.37585363,-2.2934976,0.9529935,-8.711855
0.9518386,0.47874564,0.23228991,-1.3740904,0.88870513,2.5323892,-0.052135304,0.0052042613,-3.2465596,0.8492173,-0.009422312,0.0030938345,-0.8390786,0.6444346,0.5995017,1.9993505
0.5428766,-0.3899187,0.72125816,0.03205967,2.5443177,3.2652173,-1.0865424,-0.013432763,3.408923,-3.4222772,-2.565781,-0.014718778,0.0088455975,-3.1222193,-3.0901966,-22.087742
3.340788,-0.7436733,-0.02559651,1.2098101e-06,-1.9286586,2.6888523,1.754634,6.0372715,1.7853961,3.049633,-1.7254493,-10.875475,3.5125747,-3.4185455,-2.9489386,-0.08908455
-2.9752648,2.443947,-0.002117157,2.9105002e-05,-1.2727435,-0.537164,-0.22567263,0.7833954,0.99972546,-0.93657315,-1.1440406,5.2546377,2.334508,0.7869353,-0.029653601,0.08185717
-3.3982692,0.43105364,-0.5791694,3.014327e-07,0.4909969,0.7388295,-1.63921,4.2115617,1.4602318,1.29914,-2.6182795,-0.60306096,-3.6966753,1.8091003,0.47158885,0.007122088
1.7179269,-1.8168949,2.3627028,3.6343024,-3.1804192,-0.18720087,0.017653858,-0.023189584,-2.2481103,4.0162935,3.8682363,-0.028744947,0.022758365,2.8046112,1.8305416,7.2836018
-0.29572546,-1.6419089,0.30162382,2.7471542,3.4064722,-0.891986,-2.7994566,-0.0633564,-0.65091896,-1.283645,0.12965116,-0.05884158,-0.93390214,-1.1508341,-1.2715604,5.1039276
3.7074907,-0.708189,2.6630368,0.14030647,2.3677013,-3.004076,-1.7531973,-3.1915832,3.6298296,-2.1983402,-3.7812486,0.073231116,3.9741995,-3.2077904,0.81519914,-0.05193936
0.32991993,1.9394284,-0.034061,2.5021363e-06,-1.4203902,-0.81416917,0.4263339,-4.3684244,1.7274945,3.6087236,-1.5098709,-3.6030054,3.3463855,1.0504222,-0.18537931,-0.021616183
-3.333411,1.4576224,-3.3410246,-2.6671287e-06,-0.5273268,1.304991,-0.96068585,7.8290806,-0.29320192,-3.1872735,0.1908946,1.0445738,-3.5872238,1.5234625,0.110398695,-0.02704835
0.34034497,-0.68275523,0.87219787,5.262683,-2.7046165,-3.4166226,-1.0540817,-0.011220098,-3.046704,3.2575314,3.3837066,-0.016796038,-3.2512803,3.1322165,-2.5887687,0.03726172
-1.887165,1.667116,0.1721502,-8.119032,-1.7784231,-0.66891253,-0.04669086,0.024276465,-1.8465443,1.0363326,-0.004208684,0.035288423,0.016337037,-1.7007921,-0.22081584,-3.39946
0.7209614,-1.5242326,0.088948384,4.4275846,3.3029866,0.5460513,0.67231154,-0.013806365,1.4941986,-1.4668802,0.10071975,-0.017342646,-1.1008909,0.8193947,-1.3128582,3.2119422
1.9264296,0.52181125,-3.358656,-8.48172e-06,0.6285638,-2.764976,-0.17560858,-6.6002536,2.1673234,-0.4012208,-3.4378276,-0.0023721019,2.6613214,-3.7181392,3.739459,0.004257079
0.11825666,1.5270603,0.0019743443,4.6022295e-05,-1.8895609,1.820888,0.3412953,6.7958922,1.8056465,3.668802,-1.3655442,-7.1622744,2.9156344,1.5004781,3.496436,-0.031079512
-3.5130653,2.3683445,0.008495092,3.1922853e-05,-3.055335,3.6592052,1.5006659,-2.6728787,2.46762,3.4493542,-3.0652723,-7.5324535,1.6013954,1.0593721,0.014636487,-0.03011841
-3.2379391,0.82726055,-3.3578773,-4.6373507e-06,-0.52023023,-1.6269836,-0.55269825,-6.0835433,1.162554,2.0504467,-0.58394307,-8.971989,-3.5581238,2.2140596,0.3633981,-0.012631394
0.8545296,0.360646,1.1461424,-2.5496979,-2.9270997,1.4990609,-0.012601443,0.007548324,-3.3390856,3.6688254,3.6704876,0.010082096,-0.52036726,-2.2293384,-0.28441846,-8.42325
0.31890792,0.19143853,0.25905335,-1.4489326,1.6241429,-0.14653826,0.17018871,0.004011258,-3.3588812,-0.12714362,-0.22080827,0.0049519027,-1.3224335,-0.71967983,-0.59918666,1.1492088
-0.66699636,-0.32514465,-3.8625038,3.1059263,2.4003935,-3.191533,-3.0370345,-1.8144672,3.4483595,-3.5255148,-2.7035952,-0.021131419,1.7032067,-3.13846,2.405178,0.034490414
1.9772911,0.847837,0.080492854,2.4228888e-05,-2.0622172,1.1659204,2.143474,-0.35657287,1.3289217,-0.53398323,-0.28394437,1.4630241,3.0783868,0.9946428,-0.35964766,0.026598686
-3.0957036,2.0014043,-0.048391707,-2.3359867e-06,-0.20044425,-2.380533,-0.92239803,-10.458701,1.5035815,2.9970834,-2.7229204,-10.632352,1.4851911,1.2195102,0.1856992,0.0065810494
-0.6854802,-1.14058,-0.45257354,8.791359,0.039479524,-2.72233,0.6502528,-0.015350317,-2.3986363,2.1141539,6.2288404,11.879139,-3.3488278,3.5003738,-2.0101507,0.040550712
0.8642915,-2.6910143,1.5450399,7.6963825,-0.5777808,2.4937468,-0.033507302,-0.033616655,-2.720221,0.7581669,-0.085243955,-0.051479854,0.0037411526,-0.657905,-0.2268894,-2.428227
1.2691185,-2.4902475,0.13526917,10.313182,2.120205,-2.6826332,-2.4027946,-4.188671,3.2055159,-3.91414,0.011623383,-0.058997143,-1.7611212,-3.1437914,0.027739525,30.671707
2.1892772,0.37906963,-0.0017952286,7.134193e-06,-0.36039746,-2.183474,-0.07252836,-3.7501705,-1.4059567,-1.999192,3.0701587,6.0350666,3.372277,-3.2960715,1.0304065,0.012189373
-2.3580716,1.3921467,0.004330933,6.134418e-06,-1.3307855,1.6231906,1.734347,3.7316904,1.4672269,0.16429064,-1.5711151,1.7801299,3.0377522,0.9699327,-0.03211738,-0.014372649
-3.1607223,-1.2393785,-0.25189465,-1.7674824e-06,0.815964,-2.8015487,-1.2693518,-10.438838,2.3746984,1.8195496,-0.90489936,-41.946087,-3.7515132,1.4470905,-0.16288325,0.14593397
-0.83173174,-3.315348,0.7037086,0.98215,-3.3509436,-0.394154,-0.011448063,0.019369077,-3.4097962,3.7287085,3.5752287,-0.03374063,-2.2630012,1.3133433,-3.4008214,0.0056467317
-1.6283746,2.1593244,2.8104007,6.4275436,3.4185016,3.1591437,0.1481539,-0.066802084,-1.72322,-0.7068214,0.05091314,-0.09065658,-0.35436887,-0.5785693,-0.585064,-0.80359036
3.811822,1.6256418,-4.1472116,-6.757956e-05,3.317825,-3.1763742,-2.5481248,-8.049782,2.8003547,-3.5556698,-3.679759,0.053698465,3.526388,-3.3257062,0.77504075,-0.058541678
1.0384312,2.4163826,0.029485002,-5.230462e-06,-2.0295124,2.641449,1.3659788,8.19941,0.9939004,-2.4205034,-0.05402863,10.797229,3.4247334,-0.57126576,-0.1743362,0.017755333
-3.3614283,0.8198246,-0.0040606074,1.3344018e-06,-0.8450881,-1.270512,-0.3325191,-4.5772486,1.4166173,2.7701442,-2.6150012,-10.175719,-1.0659832,1.0077767,-0.012389017,0.0063318163
-0.4174224,-0.74497247,-0.07020396,9.649473,-3.2158272,-3.4892762,0.18267512,-0.030690193,-3.0638292,3.9396183,3.8060799,-0.052053336,-2.5947938,3.85403,-3.7466779,0.05303517
1.0393867,-1.1109715,1.531377,1.5911716,0.7758318,0.4001996,-0.0008372916,0.008109216,-3.4857845,1.1262828,-0.22060132,0.008629415,-0.84925324,1.8454531,0.24848512,7.2700467
0.035829306,-2.5946414,-0.20507693,9.405993,2.8373697,-0.62646943,-0.02743398,-0.02884941,0.15370268,-1.2453797,0.07041679,-0.06037865,-0.34128118,0.891428,-1.4367551,7.231022
3.4262674,-2.074875,1.6206902,-1.6973354e-06,1.4672911,1.5146995,-0.297444,11.060597,3.1604638,-1.6252204,-3.6485262,0.064309105,3.6537552,-3.6976707,3.6199255,-0.05440295
0.695035,1.8125222,-0.009496231,4.2757347e-06,-1.6452018,2.4766517,2.2810478,14.538439,2.1765904,2.6611037,-2.4924855,-8.923498,2.9046762,0.9410822,-0.2981056,-0.026618594
-3.360009,0.83220434,-0.06744099,-5.198791e-06,-0.98912346,1.3643055,0.08630824,4.4089646,0.7619469,-2.987031,-0.6983106,4.0917044,-3.6337166,1.1968118,0.04987938,-0.01339593
2.63387,-0.20581561,2.6616333,-4.048527,-3.2552927,-0.019657541,3.2893336,0.013451388,-3.1230242,3.812483,3.6749816,0.017604796,-2.4180064,-2.2010024,-0.62661374,-5.1361117
0.30392867,-2.5877094,0.7194936,2.8589866,3.4473534,0.75970924,0.28681096,-0.016648702,-0.6762446,-1.8787254,-0.064961165,0.003538061,-1.1090703,-1.7562884,-1.7087722,-2.5925102
3.3314116,2.5045846,-3.2953885,-1.9467489e-06,2.348993,-2.8418734,-1.270317,-4.442333,2.534529,-0.8646928,-3.7135186,0.03181043,2.8046913,-3.2896786,-0.8170285,-0.01311633
0.89043456,1.6860336,-0.00012223423,-1.3908924e-05,-0.85733193,0.16755691,0.329088,2.1632705,0.075862646,-2.3771737,0.06575441,11.209871,3.5865648,-0.3424822,-0.44974113,0.035976954
-3.2809286,2.7846718,0.1673154,-3.671466e-06,0.67297715,-2.5304759,-2.307797,-4.9287233,0.16590178,-2.0292346,-1.1559081,11.154267,-0.45279688,1.797819,-0.016232587,0.015646048
1.2077594,-3.251802,1.8838654,7.7384195,-2.2750869,-0.9078335,3.2911072,0.04415856,-2.7050586,3.539406,1.6388826,-0.044357065,-3.4061062,3.620012,-3.4042504,0.01079113
1.2322187,-0.8369069,0.9271315,-0.14913094,-2.5106692,-0.41010568,-0.043662503,0.0011835592,-3.503991,1.551618,-0.1739775,0.0003517815,-1.6185017,1.8352869,0.92707115,13.051319
0.6187619,-0.6886048,0.036887914,-0.37977242,3.2485611,0.5386369,-3.2671313,0.003679553,3.4732084,-3.6284575,-0.014011983,0.005282156,-3.491856,-3.4067826,-3.2537076,0.013217985
3.3821793,-2.3942566,3.2851121,2.643101e-06,-0.9496341,-2.1420403,0.541476,-8.265338,0.4050197,0.8448037,0.605783,-6.6659966,3.743805,-3.2646031,2.5844371,-0.030660793
-1.9955792,2.5897534,-0.00048742397,-1.1507245e-07,0.08401072,-2.2564507,-1.1673248,-5.6457453,0.5181538,-2.0766127,-1.3384321,11.357838,1.6969751,0.40688494,0.0010339171,0.020154193
-3.399681,-0.337024,2.2117248,-7.479398e-07,-1.3432801,1.4730369,-0.2942742,7.195538,-0.4852438,-2.3427513,3.0250745,0.8732722,-3.7017045,2.2997606,0.045693725,-0.017694041
0.2486399,0.65637493,1.7477161,-7.6068716,-2.750511,-0.9085582,-0.023227165,0.010797389,-3.0307019,2.7751083,3.4045382,0.01856862,-0.39612755,1.945269,0.68621284,9.600742
-1.689859,0.9292245,-1.7929506,-37.072227,-0.453372,-0.10768056,-0.7276765,-0.011182606,-3.4807425,-0.43221086,-0.03160101,-0.00829494,-0.62974226,0.21739545,-1.3441234,4.78398
-1.5642428,2.2027824,-1.0027231,-9.846786,3.3953776,1.6922166,-0.44058874,0.0019537657,3.6350117,-2.8017035,-0.06407261,0.04360266,-1.0434787,-1.7695516,-2.1209037,-3.1693053
2.9044735,0.29376101,3.4483955,8.645304e-06,-3.7013178,4.026339,3.8401093,-7.951414,1.1920409,-2.345834,0.5883577,8.301907,3.4246871,-3.8647745,3.484784,0.03905879
-1.2760018,2.492675,-0.00028222427,1.159864e-06,-0.8860559,-2.6266303,-0.6379852,-5.79177,0.7865857,-2.2373753,0.5919144,9.683091,3.1536903,0.22854944,-0.015950024,0.031836666
-3.3328574,0.1278006,-0.016901512,1.0424526e-07,-0.50390583,-0.23675966,-0.83273566,0.010923326,1.281718,2.1085503,-2.1513703,-8.954713,-2.17129,0.8318441,-0.012973927,-0.02006302
-1.2694781,3.0208995,2.4807334,14.432961,-2.074778,-1.9401946,3.8107367,-0.053779505,-3.5212808,3.3169234,-1.3130141,-0.051838584,-3.71926,3.5863256,-3.6111035,0.045081943
-0.8875913,2.7191129,0.08740139,-11.529831,0.8584764,0.9266314,-0.6200197,0.009061925,-3.465834,0.20642444,-0.23438495,0.043126337,-0.27272362,-2.5640488,0.12786973,-9.993278
0.6921496,-1.2731614,-0.86384916,13.953063,2.927804,-3.3807628,-3.2526083,-2.6201653,3.3118951,-3.638834,-2.186501,-0.033127084,-0.67694616,-2.5788815,4.031718,1.8732815
3.4782813,-3.1306665,3.2441132,-1.0771403e-06,-1.0895928,-2.346364,0.219549,-6.7493315,-0.1812402,-2.8844023,1.0540681,9.979722,3.7788897,-3.4423032,3.5140066,0.004025057
-2.2335682,2.4951432,-0.00044523878,-1.4489615e-06,-0.23633638,-2.3350668,-1.7285082,-6.4931755,0.6206934,-2.6706114,-0.44600534,11.036335,1.9036106,0.47711742,-0.008321501,-0.0064436793
-2.8416212,1.7934353,-4.6408024,-0.0012187958,-0.08446446,-1.8999062,-1.1782671,-6.95918,2.76561,2.708641,-2.894885,-43.26436,-3.635796,1.4884416,-0.057452448,0.03785576
-0.44527727,0.5297676,0.22737819,1.395789,-3.3416622,-0.68960154,3.3122053,-0.0033204786,-3.4706411,3.8892574,3.7882674,-0.03237827,-3.3787186,3.7350588,-3.6364627,0.010578479
-0.019671133,0.6657959,0.2626251,-10.76043,-0.777445,1.5164664,-0.0033795536,-0.0018268526,-3.3860903,0.72202575,-0.004279308,-0.0047850907,-0.6360924,0.81779546,-0.6497165,9.180731
-0.15091297,-0.74241984,-0.25043288,1.9747088,3.208819,-2.000089,-0.15948308,-0.004691839,3.2360573,-1.6267588,-0.07430514,-0.0047736894,-0.31661952,1.2956369,-1.193246,7.238638
3.2942686,-2.4167783,3.8421092,0.00014352798,0.24242157,2.5715888,1.6188581,2.6579208,3.4112847,-2.0455759,-3.711576,0.07649127,3.810559,-3.328262,3.1615095,-0.05209767
-0.75484484,2.5885699,0.029777307,-4.3710556e-06,0.50688875,-2.301484,-0.97710896,-2.7811103,-0.66813624,-2.2983992,0.9138737,10.743298,3.3803408,0.17245263,-0.018435955,0.059375916
-3.3455412,1.3119154,-0.0012857812,-1.6440888e-06,-0.18944597,1.0446612,-0.5964576,6.1167173,0.18723303,-2.1777923,-2.0771036,12.370341,-3.21006,1.0895634,-0.0050242506,-0.0044190306
0.5570929,-0.22895741,0.39232236,-0.54355586,-0.76291656,0.31378374,2.9368904,0.13122407,0.032164447,1.9314845,-3.7149615,0.0026104357,-3.5632606,3.4388537,0.02369359,0.008341692
0.73156685,-2.3767464,0.98532987,9.704063,-0.91237503,-0.040217996,-0.43060046,-0.04404274,-2.2488275,1.2465793,3.4398708,-0.055442728,0.7516213,2.2719927,0.8087102,8.447952
0.30284375,-2.108457,-1.931223,12.968249,1.3462065,-0.9570167,-1.446141,2.0667734,3.4355917,-3.5864656,-3.5297031,-0.043980606,-1.4836677,-3.3972132,-3.174879,0.055525355
3.4531794,-0.5203234,-0.062898785,-7.905903e-06,-0.5236816,-2.6270142,0.1253658,-5.475326,-0.7921553,-2.566456,2.7993093,12.492776,3.4661307,-3.6301877,3.7448745,0.018276766
-0.93870854,2.331091,0.049891323,-1.207619e-06,-1.1177584,0.9765749,-0.16135406,6.776476,0.5217812,-2.1168444,-0.5146964,12.523298,3.3587782,0.7570358,-0.08590889,0.013713561
-3.8572614,-2.0354786,-0.08054972,0.0008792877,-0.9261574,1.9505291,0.49718225,5.247841,0.61763775,-0.16524623,-1.9188299,0.3531995,-3.2281327,1.8735422,0.050345197,0.035407163
-1.1662962,0.89860195,2.4204228,13.406025,-2.3337922,-0.0925197,1.3832047,-0.04476626,-3.6334856,3.7132845,3.7585428,-0.040521786,3.0089025,0.7416331,4.080578,3.8860219
0.5531831,-1.6334567,0.16810441,4.738182,0.29885882,-0.07767469,-0.11821704,-0.037734244,-2.2874684,0.70318204,-0.007296145,-0.04479054,-1.2544465,-0.8793668,-0.3628226,-0.52584
2.6752768,2.4280457,-4.3868136,-0.00062942505,-0.003701426,2.142951,0.83824474,9.599312,2.8239384,-1.9017464,-3.416709,0.020730145,1.4694228,-3.37545,-0.3179778,-0.024693362
2.6523795,0.031834744,-0.027610399,-1.4336356e-06,-0.81788725,-2.0899115,0.40773106,-6.9310036,0.84094965,2.625436,-0.79521465,-11.28888,3.5472224,-2.987882,-0.07323527,-0.034975767
-2.1006255,2.1127095,-0.001953572,5.6612507e-06,-1.2186377,-2.2255177,0.21906096,-10.005843,1.723195,3.412195,-2.8688536,-11.012123,3.1019056,0.9567244,-0.058004946,0.022726625
-0.85816777,2.0132127,-2.0576482,-2.4270525,0.82802916,0.77977604,-1.2096599,5.139045,0.29474664,1.4793974,-0.053315043,1.8867462,-3.5740592,3.4203043,-0.19043367,-0.0019547902
2.920845,-3.7686076,1.6149209,-0.19616435,-0.45984432,-1.7766051,-0.025267884,0.042862125,-2.7332766,2.6952372,3.4928572,-0.03321439,-2.9358277,-1.9571009,-1.6689732,-3.9031177
-1.2995243,2.3581,-4.278432,-34.869556,3.322879,0.96010995,0.16378906,0.003359571,-0.26363814,-1.1050088,0.03009189,-0.0037540179,-0.23070133,-2.674006,0.93642783,-1.6439209
2.9792478,-2.4385567,3.4105852,6.066739e-06,-0.7413112,1.6604352,1.1859378,6.5498147,-1.1104842,0.725843,1.8776269,-7.702296,3.5691411,-3.365358,-0.6434406,-0.0261381
-0.35537535,1.159325,-4.208088e-05,8.874389e-06,-1.2161676,2.1633062,1.9558015,13.529421,0.9592273,1.9297203,-0.9686801,-7.075485,3.472581,-0.9683788,-0.1822243,-0.02408747
-3.0972195,2.4677615,-2.5524411,-4.480603e-07,-0.9429742,2.2642994,0.6042262,6.054914,1.6906453,0.7558048,0.31448317,-12.5505295,-3.359984,2.1231556,0.13429713,0.023744531
-1.7656181,3.060497,-0.47854042,-2.5787091,-3.3053212,1.3378124,3.3945873,-0.017690085,-3.519328,4.105775,4.071823,-0.024488831,-1.9003205,1.8349574,-3.6519816,-0.002947379
0.093500316,-1.6713445,0.9422965,1.284852,-1.090348,-0.25599593,0.013864905,-0.035168644,-3.6247458,1.1798428,0.020381942,-0.048693508,-0.07398695,2.5853257,1.0973536,9.790885
-1.0236498,0.48565722,-0.6133368,0.061241806,3.3170574,0.13428256,-3.3489685,0.003550802,3.6472507,-3.436754,-0.06425596,0.016927673,-0.5436218,-3.4463143,3.632642,0.08935319
3.2612674,-3.1018643,3.5524898,-4.1350722e-07,-2.3448772,0.5359219,1.8116603,0.15462792,1.1825396,-0.19698471,0.800026,1.7051549,3.5051408,-2.6629503,2.7093978,-0.025935216
0.01617556,3.2077525,0.112537816,2.4931826e-06,-1.8312944,2.733953,1.4574747,8.698196,1.0175344,-2.7201223,-0.71172005,1.8635817,3.395752,0.8229177,-0.1040304,-0.027431414
-2.9309435,3.0233781,-0.00036531838,3.5429669e-06,-1.2707598,2.8780432,0.8026239,3.7613502,1.8967828,-2.3473413,-2.4273307,13.470003,1.3374703,1.202424,-0.011278441,0.014286015
-1.5783672,-1.4115165,-3.509114,-1.0480431e-05,1.2402244,-0.3985399,0.033520937,-4.6255856,-1.1422105,2.3506513,0.32205003,-14.1158085,-3.6683252,3.4253862,-0.008645712,-0.0021634046
0.98059994,-2.0504384,0.9890611,8.706323,-2.1949146,-0.67553914,0.05379471,2.5437603,-2.1236277,3.8672352,3.721441,-0.020879602,-0.81630933,-0.47267628,0.17043632,-0.8658433
0.3463239,-1.1849576,0.11487442,-0.6736942,3.050135,-2.1592305,-4.4580884,0.001285553,1.443962,-2.8709168,-0.034373358,-0.024898198,-2.0118842,-0.83952934,-2.7217288,-1.1833959
3.4767091,-2.6105852,3.0685678,-9.320902e-07,2.126317,-3.3911488,-2.991952,-7.2076664,2.6797738,-2.5488093,-3.7665856,0.10141103,3.8565793,-3.2949505,2.909436,-0.080886506
-1.4103898,1.6702878,0.035593577,-4.888654e-06,-0.90313953,-2.0922337,-0.7182561,-4.6173496,0.18686092,-2.3675525,0.03244245,11.125742,3.4191036,0.022260308,-0.04170865,0.045256436
-3.3169136,-0.17762369,-1.968867,7.720564e-07,0.034785867,-1.8295407,-0.56479144,-8.446135,1.0714774,3.2969701,-3.5505862,-12.195789,-3.564812,1.5492417,0.14989737,0.06326166
-2.3118682,2.4017096,-2.993476,-34.698456,-2.8357754,-0.7626515,-0.0014959872,-0.007288225,-3.3927886,3.6718938,3.4372547,-0.020873077,1.319293,0.43804365,2.5761333,1.5767485
-0.6488805,1.155182,-0.38522458,-24.74419,-0.9725537,0.73736215,0.06096092,-0.024317741,-1.4470955,-0.76509243,-0.0125732375,-0.042952,-1.988581,-2.1597888,-1.3977358,-5.1479526
1.4315813,-3.027778,3.6733432,0.1811668,3.0623467,2.26469,-3.4361851,0.018984217,3.5650558,-3.3958945,-1.8033319,0.0054649413,0.7235874,-2.4993517,4.374311,0.0071201324
3.36979,-1.4713628,3.2942529,2.9198734e-06,-1.4204254,-2.4129038,0.54443705,-7.3464956,0.45858428,-0.56015193,-0.013078246,1.7309418,3.6960013,-3.2429807,3.181486,-0.012035105
-3.2548628,1.7698092,0.037534103,1.1244204e-06,-1.612335,-1.2537665,0.21847856,-4.784495,1.8239094,0.7559562,-2.5205996,-0.6441053,2.2419646,0.703356,0.0033827275,0.00827653
-3.084638,-2.3372793,-3.51172,-1.18795815e-05,-0.13102797,1.0271572,1.5582163,0.8974651,0.9072452,0.67937404,-1.8198711,-2.824984,-3.6067593,3.3352253,0.14394239,-0.016739221
2.3625448,-2.4600084,3.27141,3.7795963,-2.0654387,-0.2741242,-0.46979898,-0.028293444,-3.1618156,2.878005,3.6068788,-0.034663938,-1.1879131,2.4872525,1.0497674,4.621318
0.73067415,-2.2872581,0.6236253,4.169572,4.1286654,-0.05141914,0.21468282,3.9113579,-1.1413091,-0.70426023,0.10873146,0.022762492,-1.2423825,-2.5771222,-0.9345294,-9.68959
3.3559902,-2.010386,3.3362262,2.3552666e-06,0.34890032,-2.9180684,-0.14023831,-5.9546857,-2.9974854,-1.4819204,3.8780825,4.179977,3.6689992,-3.4009304,3.514009,-0.026371844
0.8428709,1.8954669,0.31398815,-7.082449e-07,-1.5737522,1.8849461,0.4235872,9.184286,0.6694691,-2.295759,-0.37882125,10.188542,3.5989635,0.54687506,-0.43914288,0.018443817
-2.6506934,2.939632,-0.0027459813,7.0502992e-06,-0.94051903,1.8169872,1.0801837,5.4435616,2.978353,3.4474623,-8.769125,-61.02977,-2.5193975,1.5199355,-0.0072606,-0.053782783
-3.1672432,-0.75691783,-3.473823,-9.734351e-06,1.8348353,-3.4467869,-0.7028227,-3.8626547,-0.41642928,3.2442033,0.19849591,-0.01398506,-3.6837218,3.4785402,-0.053259753,0.025544696
0.031692147,2.680263,5.7132297,17.298777,-1.5448762,-0.5896504,0.09951648,-0.08272242,-3.3216357,2.0736685,3.5220284,-0.11443079,-0.49401736,0.753559,0.9210805,2.9533925
-0.7994156,1.6058623,2.5899186,8.128208,3.19849,1.9452149,-3.3988965,-0.043771755,3.6450095,-3.4762645,-2.0475254,-0.061764576,-2.3081703,-3.3982346,-2.1649969,-11.838303
3.4138086,-0.84601927,-0.07240915,-1.6841794e-06,-2.6158948,2.6522052,3.0365915,11.803055,0.9509797,1.577216,-0.46616864,-9.802804,3.1506348,-3.4923182,0.7141046,-0.0015193522
-1.124374,2.1392436,0.0494229,-3.5832945e-06,-1.065155,0.87884367,0.27831137,7.673492,-0.09685743,-2.3588507,-0.5655863,11.659036,3.3596404,-0.16316265,-0.040805355,0.008236848
-3.1662295,0.8599877,0.007691698,-1.3503382e-06,-1.4199042,1.754232,-0.15211192,9.577737,1.5216749,-2.5271478,-2.210845,13.024172,-1.6857876,0.868581,-0.0035400712,-0.006898213
-2.0293083,2.185299,3.0741599,12.449114,-1.326004,-3.3901196,-0.4770374,-0.06354332,-2.9134908,4.535091,4.3966355,-0.09480049,-3.7965477,3.3837852,-3.2253523,0.057201304
-0.34131584,2.9129307,0.51509047,-11.288509,3.2124085,3.8460717,-0.022826403,-0.011450484,-1.9749926,0.87624216,-0.0775667,0.06977923,-1.377907,-2.4128373,-0.08805627,-5.121861
-1.3587762,3.695068,-2.0099807,-4.538706,2.1413658,-2.4009273,-3.3052764,0.4563216,3.384932,-3.4841473,-3.1742845,0.0011741519,-1.165116,-0.38700655,0.5225238,0.097599976
3.4397087,-2.8718064,3.3242414,-5.8169917e-07,-1.2999433,-0.682631,0.6442631,0.701553,0.5992967,-0.11269404,-0.4795279,1.0719458,2.9177396,-5.067717,-0.4551468,-0.03633874
-0.18624982,1.8751906,0.0005450994,-8.1858775e-07,-0.87837595,-2.9226217,-0.7404651,-6.530692,0.44164833,0.32561487,-0.24578282,-0.17054859,3.4157982,1.3512648,-0.09192851,0.015545644
-3.4959216,1.4899347,0.5292955,1.623643e-05,-0.55523837,-2.8476043,0.4081223,-11.354209,0.19727576,0.94101316,-0.9272568,0.7961228,-3.5918312,2.3822289,1.2966981,0.025497064
-3.1752636,2.4301565,-3.0255797,-45.36428,-1.9789478,0.16380854,4.187796,7.3822174,1.4294009,3.0877528,-2.3594005,-1.6221522,-3.7181997,3.5635133,-3.5015917,0.024313353
1.1863787,-1.9592032,0.8744355,5.152215,-0.08622753,1.5381222,-0.093158886,-0.013839418,-2.8171792,0.3414157,3.501031,-0.023814555,-2.31439,0.5089668,-0.35219812,5.50817
1.5245783,-2.954669,3.808972,-0.023795545,2.9772506,-0.03606768,-3.362337,0.058981374,1.1691886,-3.1425157,1.31398,-0.0040658414,-2.336186,-2.718773,2.7175384,-0.010964803
3.3503363,-1.9007064,-0.0782706,-7.180851e-06,-0.8893544,-1.5026442,0.40093672,-3.89364,-0.16860127,1.1590152,0.29740465,-7.0242705,3.5774102,-3.5263026,-0.22752279,-0.017220326
-1.6732826,2.5652168,0.13664828,1.5459062e-06,-1.1454097,1.246172,0.10444373,9.208724,-0.051891923,-2.2644045,-0.31571722,11.224521,3.3132424,1.2625227,-0.006547058,0.009828582
-3.0591867,1.7033231,-0.0133613795,-2.4304463e-06,-1.5798352,2.4546597,0.6657077,8.584748,3.0265965,2.7695189,-7.825452,-75.610535,-3.4122345,1.7059354,0.18994021,-0.027187616
-0.24915305,-3.4032402,0.15267822,4.4608946,-0.5492377,-3.1451035,1.4781568,0.030704807,-3.0056067,4.334074,4.2826777,-0.034919284,-2.3936214,3.9064806,-3.6440747,-0.022886293
-1.6515377,1.7647018,-1.6950293,-26.997105,1.091876,-0.5521275,0.06357109,-0.007353872,-3.306433,0.07628283,-0.013179308,-0.021056727,-0.64318895,-0.09451884,0.59199476,4.6735067
-2.2495704,2.1574256,-2.525126,-34.162315,1.5509473,-2.9812443,-1.533059,37.29996,3.1074936,-3.414256,-0.02510728,-0.04060413,-0.87212425,-0.19779131,-0.21522832,1.5648342
3.5767815,-0.93181777,3.115181,6.166177e-06,-4.348889,0.93622947,3.1634192,0.77929074,1.6825094,-1.184692,-0.7229432,3.6362994,3.3493948,-3.4358833,2.5229053,0.05109679
-1.3315575,1.0075276,-0.009541184,-5.396148e-07,0.37232226,-2.3557458,-1.1892157,-4.7214813,-0.31739265,-2.47268,-0.53426075,11.265333,3.399182,0.6025173,-0.076431766,0.05166269
-3.5233378,-1.0736642,0.07516499,0.001285553,-1.2846625,2.8673296,0.7971452,7.4145074,0.7080048,-1.1411799,-3.4998674,5.3647304,-2.80376,1.270046,0.0003561303,0.050566398
-2.7154367,2.6678758,-5.7864094,-70.72461,-2.1818402,1.0881363,3.4850903,0.0002389662,-3.108784,4.0311184,3.6400118,-0.040237032,0.06970388,-1.7537308,2.0682936,-5.0747437
1.190985,-2.8560183,0.42994457,11.279202,1.6323614,-1.4748864,-0.0064649284,0.036944017,-2.399396,-0.5831935,-0.3075179,-0.048799757,-2.2933288,-2.0965037,0.10630059,-4.6414
-0.8960116,2.235584,-1.6589459,-7.2983284,3.3502355,-0.93493086,-3.2539825,-0.012327567,3.4009767,-3.8262622,-0.046172462,-0.012245603,-2.2881436,-2.1058598,2.8001492,1.1536884
3.4965196,-2.2886896,3.169913,7.5605526e-06,-2.0646431,-1.9390898,0.9779459,-7.5887976,1.5300665,0.31355065,-2.0649676,-8.463827,3.7876909,-3.2977753,2.1806471,-0.073447175
-0.8829177,2.2792265,0.07175001,-5.3524254e-06,-2.7730823,1.8755417,1.2507867,10.6684,1.42576,-2.804424,-0.89126635,8.088752,3.2482052,0.5291808,-0.019739684,-0.008658424
-3.121395,-2.720199,1.8602259,0.0012760162,-0.712776,-0.41797408,-0.83995694,0.6455685,-1.199614,-1.8318877,3.7999642,0.7552371,-3.250323,1.5964953,0.37659097,0.017886024
3.005619,-3.7195117,2.2333758,0.052212477,-2.4572985,-1.2105907,-0.047404364,0.037939623,-2.5142195,3.5197392,3.5043468,-0.034941863,-3.3161302,-2.172526,-0.97300017,-4.85571
-2.0776982,1.8839623,-3.1777701,-41.7611,3.1146219,1.4827482,0.07571067,-0.024245083,1.1180532,-0.7862187,-0.20254564,-0.045913927,-0.9797622,-1.5103004,-0.98117566,-4.953346
2.687233,0.5958765,-4.6931176,-0.0016059875,-2.5461342,-0.016705792,1.9835299,-0.87114394,0.2519802,-2.084319,0.20551789,2.8793948,3.4531476,-3.4433064,3.403912,-0.03240368
-0.1451058,1.2864931,-0.0043317247,3.478559e-06,-0.26753235,-1.9710431,0.17922449,-8.97871,0.12932682,2.6243305,-1.8336172,-16.0253,3.4184248,-1.1051713,-0.27290908,0.04223147
-3.0409455,0.42483908,-3.869984,-3.837794e-05,-0.1468547,-2.106222,-1.0156994,-6.244604,0.17191607,1.8791908,-1.240092,-11.534592,-3.5228906,2.3395627,0.07202335,-0.023325495
-2.327287,3.7165012,-4.764471,-45.237053,-1.330162,-3.3296936,0.32099825,-0.042265892,-3.5323231,3.2506225,4.0902634,-0.08563042,1.1299665,0.97186494,3.2999911,6.397189
0.63684046,1.1208602,0.24993253,-6.5057516,-0.7200254,0.019713923,-0.027256401,0.0071425214,-2.4272623,0.52458227,-0.044461787,0.014079541,-1.6137493,0.95093656,0.38526607,5.753275
-1.5558242,2.7618494,-1.3261886,-2.879138,3.2673354,1.2248787,-3.2582977,-0.013062542,3.5336926,-3.4326756,-1.9056569,-3.7599355e-05,-3.1164174,-3.3786714,2.583676,-0.065017186
3.4634843,-1.6381742,-0.07704003,-4.331143e-06,-0.52453077,-3.191363,-0.75403476,-7.1860104,-0.7284359,-1.836391,0.22812098,6.8121367,3.678487,-3.1849818,3.5631723,-0.007856369
-3.2664962,2.1643877,0.05370126,5.3777912e-06,-1.497892,0.11260103,0.12548423,2.3568172,0.8494546,0.88896674,-1.3423915,-4.8406916,3.439043,-0.76228654,-0.0055500865,-0.021556843
-2.248197,-2.2502232,0.8185445,-0.16853489,-4.1305103,2.3533964,1.4225392,-8.359145,3.5961034,2.4875622,-3.3884647,-7.118698,-3.4259048,3.4548228,-0.057563722,0.026162507
1.5094008,0.7069142,3.612296,-14.225332,-0.1708301,0.95259863,3.381284,0.029650189,-3.0345306,3.850737,3.6716862,0.042024218,-1.5912154,-2.266447,0.8082875,-4.24199
-0.18794866,-3.282561,-0.19741304,8.302258,3.4541183,1.0336113,-0.029806137,0.0441508,-0.22751188,-0.78566206,-0.050855517,-0.0068566278,-1.3273299,1.232425,-1.1472952,10.21996
0.19096571,-0.9439509,0.19388817,2.7978587,2.6711988,2.117644,-3.4388068,-0.005125944,3.2949533,-2.7952328,-3.350749,-0.008408381,-1.4637378,-3.227405,4.544309,16.551613
3.323668,-0.6960358,-0.14318338,-4.3514983e-06,-2.1018393,2.5829132,2.0106401,9.183512,-0.13659024,-1.9279634,0.14793181,5.642986,3.6335707,-2.5303385,-0.28986555,-0.014635507
-1.6160767,2.6201506,0.33173525,-8.445377e-07,-1.1065278,-0.9757722,0.11489439,-0.65761125,-0.13824895,1.162779,-0.65712345,-6.8755317,3.3169637,0.68310976,0.00057587586,0.0067694094
-2.7137406,1.4040453,-3.4592073,-1.6359321e-05,0.89577746,-2.8068275,-1.9403462,-5.334351,1.4978886,0.8260901,-2.11591,14.24468,-4.3485613,1.4195746,-0.034599066,0.11282599
-2.7569635,0.8022266,1.858492,7.4261,-3.0735898,-2.521346,3.4539409,-0.046625234,-3.5152013,3.746899,3.7259796,-0.06677906,-3.6564386,3.5914767,-3.5602388,0.02361685
-0.9879831,1.5212984,3.9844131,9.521818,0.34240898,1.6889883,0.09266047,-0.06793637,-2.8769038,1.3312199,-0.09086804,-0.097818576,-0.67023766,0.50390273,0.31225193,6.16254
1.5690497,2.3330708,-4.29308,-8.384604e-05,2.0439067,0.7369424,-3.4336915,-0.06905425,2.8295836,-2.8972797,-3.5383763,-0.021259606,-0.23752569,-3.3960948,3.2355816,0.017963085
3.158576,-0.7188754,0.19522777,-8.2347697e-07,-0.742334,-2.0706654,-0.6978109,-5.017844,0.5056033,2.1523197,-1.1511173,-10.68568,3.5831504,-3.0544314,-0.13062596,-0.015529547
-3.1790936,0.51683724,-0.008930087,-5.5885175e-06,-1.4130799,1.6195246,0.022360452,9.71267,1.0941036,-1.7774426,-2.2351391,13.759066,1.6408395,2.0608437,-0.017479911,-0.016411282
0.403173,-0.7995043,0.32585078,0.96153957,2.8950114,-3.5303044,-2.2226973,-1.2509874,-0.18752095,1.1550072,-4.9805603,-0.0028618313,-3.6264973,3.391902,0.17781945,0.08953549
1.1265858,-2.758212,1.6557643,3.8391857,-1.3847855,-0.9989389,-0.104648314,-0.06959484,-2.1206608,2.2951438,3.537753,-0.069891274,-2.3052247,-2.010006,-0.2123605,-3.790197
0.39006358,-1.9159523,-1.3082218,11.786468,4.114308,0.78391504,0.36906242,-0.021656036,-1.3217487,-0.8094767,-0.093024075,0.025347017,-1.51536,-2.7337525,-0.74582267,-9.5126295
3.2102365,-1.7789667,5.0065384,0.0012683868,-1.1308566,1.6963482,-3.3190565,0.0102621,2.1933856,-1.9908496,-1.0349772,8.636128,3.5948021,-2.9940567,3.3841448,0.0029392173
0.78800654,1.3093704,-0.0032345122,1.9094855e-06,-1.5685872,1.4489093,1.3892785,3.673904,-0.054169178,2.1337895,-1.4907757,-11.5014,3.4643333,1.4668949,-0.0690189,-0.012949366
-2.7033973,2.102169,-0.0007271394,1.7003513e-06,-1.9163108,1.8176451,0.59190226,8.631982,1.6532487,-1.7449038,-3.4039338,7.5965066,2.5218961,0.7525581,0.008378603,-0.024234977
-3.6537375,-0.79976326,0.027548924,16.569603,-0.7353032,-2.3169851,-1.2364429,-5.6664724,1.4544915,-0.34560227,-2.5889523,3.335014,-3.602153,1.5429482,0.421552,0.047200434
0.26794052,-3.5754657,0.17171726,0.2674264,-0.8115292,-1.6097039,1.5064989,0.036271203,-3.688088,4.059112,3.6911407,-0.02890028,1.0011511,1.3392818,3.8036041,1.0444785
-1.5676062,0.95456696,-2.349482,-38.18622,1.0429034,3.1219566,-0.016786188,-0.0041637197,-0.2944572,-0.6983541,-0.08144969,-0.014956359,-1.7027094,0.57718134,-0.72711647,7.7733474
-2.5602877,1.92858,-3.0488548,-31.620815,3.4953105,-1.8785009,-2.8721514,-6.750226e-06,3.631795,-3.5736396,-0.15259705,0.02286287,-0.8109819,-2.0032609,-0.36747172,-4.633456
3.2871983,0.9346145,-0.06508745,-4.383317e-06,-2.494247,2.283893,2.0058448,9.811734,0.0795908,-2.5462818,0.36839056,9.048976,3.6712856,-3.3019617,-0.2650591,0.011591587
-0.7396128,0.52741283,-0.021498226,-5.637942e-07,-0.6054574,-2.2900896,-0.7863705,-6.327179,0.32391712,2.2540655,-1.32393,-10.828432,3.3707821,0.704223,0.0028740754,-0.021770518
-0.7896415,-3.6037328,0.791468,0.2198695,-1.2688665,1.7603177,-0.5339586,10.793013,1.7964294,0.5730742,-3.0504599,2.0433953,-3.3642483,3.257262,0.47185504,0.008302046
0.15003288,-1.7882357,-0.050097227,5.602211,-2.463003,0.8924069,0.88225305,-0.031530917,-2.340747,3.9298475,3.7573764,-0.042259306,-0.119196296,1.6473706,1.7982981,6.635165
0.27654296,-2.3397775,0.4649608,1.3878059,3.550322,1.6492406,-0.14050779,-0.026789881,0.3089743,-0.71363497,-0.05237703,-0.007874284,-2.4981694,-2.8258255,-2.3508322,-5.6162353
-0.44563532,-1.9363618,1.4191487,3.3721318,2.0969002,1.2317382,-3.397292,-0.0068973005,-1.8336976,-1.2501501,2.0648975,2.0386033,1.2315205,2.2233071,3.9270756,0.69198465
1.7877223,1.244341,0.91189295,-7.879248e-06,-1.9450616,2.2639666,1.2030175,10.367682,0.78955853,-2.5099382,-0.77578294,9.4460125,3.6632478,0.100394934,-0.31097323,0.0012141793
-1.6176383,2.7849205,-0.009493614,-2.290958e-06,-2.174386,1.8819809,1.1228312,8.244472,1.0836663,-2.7702236,-1.9740934,11.465677,2.9225483,1.1205835,-0.005649807,-0.007991193
-2.7958934,-0.48738497,-2.8805773,4.893426e-06,-2.6566882,2.5890017,0.6960994,7.58412,3.7216294,2.951901,-3.2313976,-11.995586,-3.875661,2.8827405,0.3409587,-0.061820615
-0.19204295,1.2752298,-0.15016365,-11.278661,-0.9389721,0.4307275,3.393185,0.010395236,-3.6037471,3.7988997,3.5225182,0.014312491,0.62375045,0.8066671,3.0009212,3.5317948
1.9102023,-3.6745074,0.95791554,3.1255517,3.1949103,2.2908642,-0.060233653,0.04397978,-0.85995895,-0.4347878,-0.007455401,-0.028621744,-3.0907102,0.4252025,-1.3241384,9.27902
0.28529716,-2.7265916,-1.024618,12.837519,3.864519,-2.0138776,-0.72068,0.010444954,2.0076082,-3.0236397,-0.10761541,0.025670998,-1.8938254,1.0532008,-1.7773252,9.12729
0.098733425,2.4900928,-3.9907465,-6.466196e-05,-0.2503656,-1.225841,-3.463425,-0.03700874,2.372747,-2.261378,-0.70409894,4.88101,3.4076548,-3.35573,2.8301604,0.018567568
0.013781181,1.3675208,0.4764843,1.9463538e-05,-1.4485162,-1.2536241,0.2108189,-3.852844,0.7733397,2.929711,-2.1307433,-14.089783,3.46279,-0.64209986,-0.16325879,0.03563325
-3.224331,1.2700639,-0.034661666,-7.888136e-07,-0.90311635,-1.9445429,-0.9281856,-4.585199,1.150161,2.3683548,-2.4531448,-3.465496,1.9195102,1.1666383,-0.10225465,0.047626503
-0.5920967,-1.4343808,-0.7423837,11.502721,1.6328984,-3.240055,2.2689164,-0.018995196,-3.3191583,3.3442423,1.0659354,-0.029297836,-3.548904,3.429181,-3.1419888,0.02673003
0.05637473,1.3208997,-0.26627463,-6.703768,-1.9067223,-1.1151373,-0.019632425,0.0065726526,-0.75582296,0.5615879,-0.15508902,0.012302078,-1.7438376,1.2501903,-0.5790535,9.547982
-1.1624869,2.3975177,-1.468744,-6.8474646,3.1826496,1.485579,-3.4588542,0.0044311136,3.621945,-3.4164364,-0.821667,0.01439926,-1.090993,-1.4852605,2.61819,12.116875
3.2499154,-0.13869251,0.013380557,1.2613664e-05,-0.8447899,-1.93995,0.3958435,-5.120477,-0.9367382,0.021070838,1.1653253,-5.2013984,3.6565588,-3.3037834,3.2566097,-0.020569768
-1.2798477,2.879778,0.14373986,1.6269169e-06,-1.6774737,1.518358,0.77626824,9.403137,-0.10350458,-1.7679638,-0.39832628,3.496859,3.2331343,0.69179803,0.018633313,-0.040731445
-2.9358735,-0.9867617,-3.578483,-1.5125255e-05,1.2435818,-2.8551884,-1.5561546,-10.18277,-2.620727,-2.198438,3.9318063,0.40783447,-3.4924479,3.419176,-0.063621774,-0.021075368
2.1678636,-2.6866872,2.7154748,5.3569617,-0.55212814,0.96909046,3.4803932,-0.016432447,-3.1130605,-0.44203302,3.627842,-0.018996105,-1.095587,0.830221,2.717188,-0.30541706
-1.3025379,1.855665,-2.635816,-19.660145,0.8549115,1.5947542,3.4270225,24.53232,2.5490062,-0.39509,-0.054979548,-0.005997807,-0.86689454,1.6284264,-1.0064867,8.80851
0.9354497,2.2629495,-6.4853706,-37.393898,-0.7284605,1.4597083,-0.014560342,12.848452,2.879256,0.5975037,-3.4588053,-0.07812993,2.738428,-1.2370381,3.405486,0.09284669
0.5094792,1.4784247,0.11947718,7.850516e-06,0.74107975,-2.339305,-1.4883775,-5.6595993,0.10377307,0.9590726,-1.3197422,-4.7418184,3.5331736,-1.2164261,-0.10291107,-0.015915837
-3.2623026,2.092276,0.03174351,2.2917664e-06,-1.0953646,1.2179112,0.2995361,6.951418,0.7984897,-2.0458422,-2.6847486,11.601766,2.732823,1.2155411,0.003258437,-0.010328442
-3.3468502,1.6490105,-3.2913907,-3.6367146e-06,0.6176361,-2.460807,-1.30191,-5.9313807,0.85655206,0.2678387,-3.697802,-0.028419912,-3.673768,2.5428827,1.0391763,0.0267957
1.8740709,-2.232453,1.5580091,5.939456,-2.5839136,1.7590408,3.453724,-0.031832792,-2.3568108,4.0340242,3.8747828,-0.039676417,-2.4927137,-2.6256182,0.066280544,-5.177437
0.9427796,-3.6191616,0.14484748,6.0378914,3.2724574,-1.034768,-0.049889088,0.057523325,-0.6490334,-0.8197341,-0.09684026,-0.03529474,-2.7866096,0.6440304,-1.6903818,8.672397
1.0860031,-3.4918735,3.7155008,-0.021503884,2.0815995,0.9282584,-3.5162475,0.06721736,3.4680114,-3.2131522,-3.2779136,-0.028944865,0.9287805,-1.8520921,5.1015053,0.5828266
0.94649565,1.4585121,0.29135633,-3.0364708e-06,-0.45198333,-2.8679972,-0.78512806,-7.281392,0.36249566,-2.0999503,-0.79239535,8.434311,3.4020543,-3.5634885,-0.86625254,0.047274366
-1.2143961,2.5623438,0.07411988,-1.4755581e-06,0.34046346,-2.8401194,-1.2433822,-6.7938404,0.37565678,-1.9961132,-2.2910519,11.688296,3.328548,-0.36801517,-0.00708548,0.025708817
0.0033294559,1.4848472,2.1483734,-10.891129,0.6011342,-2.8764255,-1.8792938,-5.099773,-0.06618285,1.3668339,1.7448487,11.238348,-3.5594409,3.2006807,0.12354827,0.027628403
0.048956513,1.850777,1.2088487,-8.060616,-2.2893882,-0.74505174,0.24215005,0.02910614,-3.3677454,3.6398149,3.4245067,0.039890617,-0.09578985,0.8963278,2.7067838,4.417324
-0.8324691,-0.7519752,-0.13911238,0.8380101,3.3484979,2.1336067,2.4050782,0.00082780304,3.2956586,-2.636682,-0.046301067,0.013636086,-0.174945,1.0394871,-0.16998911,6.1647882
3.3460438,0.02714477,-2.7977204,4.232746e-06,1.586679,-3.1227446,-4.7351055,-20.885689,2.9375756,-1.4076163,-3.7498443,0.08069007,1.012793,-3.3527737,-1.1490754,-0.07334435
1.6467419,0.9589015,-0.10485497,-8.059928e-06,-1.2767771,1.6486402,1.7129548,4.9638577,0.22987297,1.4747818,-1.6937919,-8.088369,3.508605,1.333688,-0.13379765,-0.031281766
-2.4922879,2.1836925,0.09302904,-5.6347167e-06,0.73215467,-3.2690406,-1.131232,-1.3897891,1.3597555,-1.5470049,-3.5506425,13.883831,0.6779748,0.24712794,-0.019483717,0.039388128
-3.1866045,-0.95435447,-3.424598,-1.2068183e-05,1.6740856,-2.3086631,-1.4287184,-4.6414084,-2.4026346,1.6135304,4.0335894,-3.8434296,-3.869813,2.9244852,-0.0452244,0.072125345
1.2517228,-3.177711,1.6246732,4.5781345,-1.8990005,-0.047216374,-0.06872491,-0.0016413182,-2.7919838,3.3598263,3.5235987,-0.027466059,-1.961867,-1.7611151,-0.059852846,-3.7965732
0.13816607,-0.5748008,1.6752367,-10.188694,3.2454863,0.8741511,-0.1357002,0.03431254,-2.1414905,-0.6041813,-0.05153043,0.057908922,-3.0270154,-2.811407,-1.4384102,-4.81808
2.195483,-0.834882,3.1075237,-1.3944409e-06,-2.3213034,2.0781953,1.7619741,9.269746,-0.82729524,-2.4368093,2.180794,4.2261534,3.277516,-3.2293909,3.2439685,-0.00748004
2.4545193,1.7181973,0.018216014,3.236413e-05,-2.10171,2.4068718,1.6352152,9.40793,0.29228866,1.4038858,-0.68684137,-8.106564,3.6887472,-3.3139985,-0.3652478,0.0059818923
-1.9188275,1.3693384,-0.058156796,-7.2995635e-06,0.13337791,-2.4254782,-0.9841663,-7.134354,2.1276045,3.801803,-8.584876,-65.483154,-1.7921405,1.1275513,-0.1553355,-0.04818517
0.029622376,0.737189,-0.54555625,1.2489889,1.7642138,-3.2709455,-0.9044594,-0.0009602965,-3.3003783,3.7601793,5.202467,0.0010185242,-3.2677286,3.4364955,0.85308945,0.020878367
2.0797482,-1.9327701,1.6833168,2.25639,-0.5207086,0.5719041,-0.042074203,-0.0037109884,-0.26840627,-0.33932966,-0.080776736,-0.0067916214,-3.701291,-2.5024285,-1.5756309,-4.5609665
-0.30330575,-3.7963724,-0.07271379,2.6094656,3.4610133,-2.1488507,-0.12201291,0.026916228,0.023860462,-3.3374166,-0.09946489,0.021289274,-0.6454768,-2.778642,0.87243164,-11.735464
3.5821075,-3.481002,3.0758524,0.0008125305,-3.24446,1.742397,2.8620791,0.2804253,2.8795316,2.0918686,-6.235935,-39.944103,-0.38210422,-3.3868299,-0.9207507,-0.060093727
0.753616,1.4996145,-0.0019507781,3.883464e-06,-0.6496571,-2.0234754,-0.3325411,-6.1344943,0.21034682,1.8048425,-1.0800865,-9.30732,3.6001203,0.62246525,-0.13312665,-0.017139345
-1.0267574,2.6379628,-0.07385251,-3.7106483e-06,0.56268466,-3.0526507,-0.37212157,-9.849293,-0.42155108,-0.16355008,-1.3959625,0.1112324,-0.8883701,0.8026025,0.08203213,0.02898252
-3.164577,-1.8151162,-3.4947178,-8.014327e-06,1.9611702,-2.6904693,-2.0519485,-3.7019644,-2.5855134,-0.70481706,3.077103,-2.9984925,-3.7291572,3.4055183,-0.25164804,0.0011735205
-0.9149473,0.7393119,-0.32761428,-12.424732,-0.689998,0.34863034,-0.063879654,0.01046437,-2.264195,1.6794348,3.452361,0.014743935,-1.2284162,1.1005893,0.48742515,8.731767
-0.097430706,1.8814565,0.29279947,13.026972,3.2836328,-0.53798527,1.8341905,5.40361,3.310187,-1.7545234,-0.0902501,0.042644687,-2.0488324,-2.5801873,-2.5431743,-5.4387064
3.3833916,-3.325801,2.4430017,4.6041905e-06,-2.4103003,1.3045616,1.7337279,5.508765,0.38988805,-2.1810243,0.4144902,6.888823,3.9888372,-3.1320777,0.091178745,-0.033266485
0.100471914,2.2276103,0.27374786,-8.229181e-07,-0.053419612,-2.5528247,-0.77752364,-5.0494595,-0.6720394,-1.8640969,0.42924833,5.2765164,3.453499,-1.0154608,-0.07689154,0.04751864
-2.2308004,1.8301911,0.054673716,-1.7090357e-06,-1.960515,1.8059014,0.4821126,9.956857,0.75652266,-1.7034132,-1.540294,8.580309,3.092154,1.2633435,-0.008053768,0.014360494
-0.22778484,-2.1446924,-0.69285315,12.763616,1.3510894,-0.6609582,-1.1391691,0.06345558,-0.0821704,1.3488209,2.5997057,6.8114433,-3.4452548,3.4062016,-0.07583419,0.030490965
1.7268139,-2.4769075,0.35328424,12.350014,-0.21308878,-2.0353777,0.03332165,-0.008570239,-2.8836591,3.9557645,3.7684171,-0.057813942,-2.1595435,0.6453979,0.7044491,7.2675886
-0.40914196,-2.6726437,-1.2023277,12.384816,3.2404666,1.6180613,-0.11680442,0.022281341,-2.6344988,-0.33192998,-0.03231594,-0.034480564,-1.887007,1.6761874,-0.22768521,11.12323
-0.10528777,1.7268912,-1.6077223,-6.8090315,2.4755816,2.4018414,-1.4077024,0.00019415561,3.140637,-1.1585474,-3.8992534,-0.021609843,-2.741127,-3.4460852,0.13416666,-4.0504856
3.2464414,0.99178886,-0.00671352,-9.715111e-07,-1.4313895,-1.6217843,0.8568487,-6.172504,-0.4958315,0.1273098,0.66173506,-5.7490673,3.1784809,-3.1985402,-0.9946375,-0.004011981
0.104174525,2.1577399,-0.035104237,-2.5070622e-06,-1.6642091,-2.2377687,-0.022126436,-8.398026,2.352904,3.3521752,-6.3047104,-56.173782,3.1543427,0.24456124,0.023049101,-0.04306367
-2.9086835,2.6278944,-0.006841466,-1.2192586e-06,-0.9942007,-2.9482777,-1.2106631,-9.098049,1.8471162,3.0797336,-3.0599184,-34.892235,1.8803865,1.3816973,-0.116376854,0.04872814
-3.125887,0.27139556,-3.4416208,-6.901406e-06,0.55790263,-2.5409627,-2.0190916,-5.732855,-0.58604854,0.47249323,0.44619626,-8.347966,-3.4835138,3.4938874,-0.010545213,-0.030162252
1.2612056,-0.8751718,1.6034336,0.76744354,-1.5174843,0.6599548,-0.089052126,0.006240842,-2.903077,3.5370622,3.5011406,0.008052291,-2.3211272,1.300072,1.7517143,3.7533026
-0.6760441,-1.64759,-0.8570869,3.6450558,3.8248212,0.21876955,2.7890038,-0.048871517,3.4075003,-1.928882,0.06540677,-0.0015103277,-1.1304389,1.4990876,-0.92763567,10.044611
3.1108146,-2.0497258,3.5834527,0.9158764,0.2658378,1.5717182,-3.283866,-0.030053072,1.8350238,-2.271104,-1.7548466,8.824203,3.2166164,-3.2298424,3.1049314,0.044342935
0.8848102,1.4117523,0.7046375,1.779359e-05,-1.1292708,1.512189,1.026865,12.82999,0.066501915,0.6004244,-0.23187464,-5.4084907,3.5743546,-1.4050485,-0.2524013,0.027496383
-1.8532486,-1.0589213,-0.096757144,-3.4288505e-06,-0.20041236,-2.3363473,-0.90992916,-7.268491,0.3067548,1.4437664,-2.4424195,-7.610591,1.0494272,1.1802696,0.08276966,0.017834771
-0.8637498,1.0804648,-0.3337121,-7.240584,1.0224075,-3.4531372,-2.8057566,-6.164711,1.4683007,2.8420718,-3.7305357,0.4409065,-3.6058042,2.807242,0.61908895,-0.005194122
1.024193,1.7676572,-0.011305302,-7.04056,-2.1240442,-0.6717876,-0.04966425,0.003526777,-1.3799653,3.5685296,3.5265267,0.0070854872,-2.875412,-2.027867,-0.9625968,-3.6496859
1.0716771,-2.342162,0.24161485,5.9765925,3.7104461,0.21332464,0.07894087,11.292498,0.9168548,-0.795585,0.084200926,0.033117156,-2.4229486,0.87921786,-2.0691917,8.710979
2.7027187,-1.5850788,4.53356,0.14854792,1.4544545,1.9923621,-2.4874718,0.057453293,3.3386865,-2.1758697,-3.6215715,0.042552106,2.7253,-2.1163301,1.9286315,-0.039765358
1.9520926,0.52469975,-0.034342572,1.0696101e-07,-2.577632,2.4827762,2.6370974,8.645134,-0.48104388,-0.38270408,0.57436645,-3.406572,3.4481924,-3.0374355,-0.21549922,-0.018649586
-1.0895455,2.7194016,-0.12988555,-5.646192e-06,-1.0517668,-2.0479646,-0.2090267,-7.0793114,-0.5500543,3.637347,-0.096906126,-9.747056,3.0705526,1.3032644,-0.041045822,-0.004419163
-1.3036495,-0.95110327,-0.41504687,1.4577894,2.5283132,-1.7102392,-3.9812098,-0.004882602,1.06945,2.946941,-1.5434034,-17.582151,-3.5338678,3.4636889,0.11252052,0.026529245
-2.3687024,2.9122548,-2.6817017,-58.924095,-2.25678,-1.2335447,0.019547485,0.041403145,-0.18605968,1.1582025,3.3804145,0.018981375,-0.8110676,0.65553874,0.72977173,2.7093825
-1.9214942,1.5024282,-1.0021286,-13.303423,3.2803245,1.7361839,-0.0079138875,0.009926453,2.4431176,-1.0619582,-0.054334372,0.021099038,-1.170332,-0.32987925,-1.2424173,2.0086217
-1.8295106,1.6043482,-2.3550422,-16.204071,2.65266,2.4859805,-3.4733584,0.005325079,3.3613641,-3.4787927,-0.025441647,0.0011940002,0.57176137,-2.926273,3.1662276,0.03120803
3.4612525,-1.0878745,-0.14532349,-9.330832e-06,-1.01227,-2.2862182,-0.2758608,-5.240311,0.40139207,-0.5427493,-0.21860173,1.9390249,3.7120748,-3.2672956,2.0966647,-0.012742773
-1.066371,2.3048053,0.12237392,-3.1503382e-06,0.2452046,-0.7974235,-0.49847475,0.53725636,0.22933275,-1.8774902,-1.9654315,13.862737,3.452128,0.89619863,-0.13910559,0.016188283
-3.3369284,3.4147446,-0.018578107,3.310227e-06,-1.8673108,1.9144323,0.019528896,9.408796,2.3879652,-0.45618835,-3.8527117,6.924931,-2.5095139,1.2557427,-0.08171359,-0.00478525
-2.8229504,-2.724976,-3.6188776,-1.9556213e-05,-0.580977,-1.1089792,2.4832597,-0.021802615,-2.3085299,-2.3159835,2.582751,0.016347274,-3.653297,3.3904443,-0.673764,-0.0049808137
0.92248154,-1.9588575,0.16147137,-5.608868,-3.2263494,0.7220928,-0.21520129,0.00518398,-0.6426826,2.5365825,3.4531434,0.009088948,-2.6571093,-2.7683756,-0.833075,-3.79408
-0.47364795,0.78133637,1.6640341,-8.767068,3.4511385,0.48848635,-0.16611598,0.0033177063,2.8650558,-2.6808536,-0.09163193,0.051905297,-0.6402284,-2.825701,-0.1686678,-10.615786
3.3253071,-1.7364478,1.4193478,5.706337e-06,-3.0733058,2.656707,2.8382802,6.627003,-0.60228825,-2.7422085,2.632576,0.40380013,3.4236994,-3.6685252,0.07853365,-0.02386999
0.78833187,2.5582883,0.25726762,-2.7312617e-06,-1.2733169,1.5985125,1.5114388,9.148076,0.1937711,-1.6158016,0.1999895,3.7303262,3.465582,-0.9088557,-0.11916682,-0.025227234
-2.873185,2.7200274,-0.036138758,-3.2953926e-06,-1.6243699,1.7783823,-0.20314543,8.367902,1.2942307,-1.0417943,-2.9978228,4.264761,-2.4318974,1.1724639,-0.006063383,-0.016630284
0.6455434,-3.4802167,1.4617493,0.06348795,0.009604946,0.57895565,0.85286033,2.3787203,-1.0525355,-1.0701188,0.7526741,-0.07527914,-3.2331944,3.599578,0.02485042,0.0016659088
-0.3539157,0.68946445,0.40028286,-15.110924,-0.91477674,-1.1948937,0.037060663,-0.013463333,-2.9516726,1.2693979,-0.17330223,-0.021171194,-2.2362897,0.33850572,1.6977932,1.4242964
-2.4746199,1.3176306,-3.1252747,-42.338158,3.6140826,0.8210597,0.25921038,-0.03583657,2.5794992,-0.6697179,-0.014162272,-0.0123006925,-0.77641,-2.7829795,-1.3214852,-6.005364
3.251783,-2.167261,4.4258633,0.0003709793,-3.1483793,0.42744222,2.6622314,-1.1614169,0.44716084,0.04667765,0.5692171,-3.2652879,3.1797771,-3.6016726,0.28340107,-0.00039577484
1.3177491,1.1261501,-0.0104887355,3.2726086e-07,-1.4415852,-2.614967,0.37077647,-8.177851,0.39353073,2.1918974,-1.0210388,-10.106424,3.471404,-0.8350595,-0.23131841,0.0253667
-3.2744322,-1.0551189,-0.036642425,-3.1770612e-06,-1.2996224,-2.360488,-0.7893301,-6.2758727,1.3266098,1.4853097,-2.5181885,-6.566742,2.8482857,1.3337516,-0.007863142,0.0051841135
-0.9723408,-2.0471492,-1.1836331,13.57567,1.1712899,-1.6870213,1.2953256,3.249524,-0.28108868,2.6328528,-1.4271114,-7.495903,-3.5023694,3.5917635,-0.07712511,-0.0025478676
1.9478743,-4.045195,0.91690755,1.0676519,1.0558563,0.42773628,-0.036687482,0.035553932,-2.999478,0.37115914,-0.23484634,-0.024830427,-3.7049627,-1.1429276,-0.9136373,0.61689824
-0.5496886,-1.8842037,-0.92124546,7.5006084,3.464172,0.69542575,-0.033581436,-0.014246583,-0.78265285,-0.65172166,-0.07640487,0.008771572,-1.5171244,1.6266108,-0.8746938,9.776061
3.2648842,1.1370114,-0.36037028,7.3196716e-06,-1.9155242,1.0073884,1.815852,4.6525087,0.0023460984,-1.7329695,0.374211,6.529471,2.6013973,-3.563666,1.8492769,0.0015050322
2.1366186,1.3641645,-0.023520298,-2.9713647e-06,-0.50533426,1.4197915,1.0687885,8.650695,-0.665967,-0.7617236,-1.0401492,2.3746982,3.5187116,2.345375,-0.15476465,-0.00498019
-2.804389,2.6268456,0.00607904,-1.8521898e-06,-0.6547951,-1.1948122,-0.43407577,-0.2613262,1.1069689,-1.2073622,-3.2446485,11.155609,2.6417673,0.4100415,0.0033589266,0.009065136
-2.647363,1.9395862,7.889932e-06,6.613909e-07,0.01977656,-1.3322592,-1.1145059,0.1081799,1.460499,1.0871888,-4.005376,2.9873729,-3.418344,0.7887887,-0.043595187,0.010721242
1.1002762,-1.089045,2.2175953,-0.7574202,-2.2214055,-1.3255631,3.781004,0.0043661594,-3.2930233,3.9887722,3.8692405,0.0029304996,0.22928065,2.077156,1.9568555,7.6432257
-0.6593198,0.69551814,-1.0153649,-1.1952851,-0.24479431,1.4727067,-0.04483223,0.038664516,-1.0823545,1.9870963,-0.030392408,0.0075975396,-0.07959479,1.5075277,0.93965447,7.053586
0.3749113,-0.54829735,-0.30195856,-2.2504213,3.0910459,1.4091308,-3.432742,0.007469603,3.671661,-3.4218102,0.12070441,0.010923988,-3.649555,-3.3068068,-2.0868177,0.016071975
3.3302932,-0.7903583,0.026409615,-1.969931e-06,-0.5010399,-2.6881225,-0.23833662,-8.298813,-0.38353056,-2.2834215,0.050625086,5.1072845,3.554681,-3.5734603,-0.24716997,0.010181904
-0.8490319,1.8289073,0.03702125,-1.9531653e-06,-1.526702,1.3669024,1.2436516,6.2480955,0.5872942,2.9590006,-2.4901555,-15.629799,2.9444976,0.9248517,0.010315504,-0.0070142075
-1.7652828,2.6789224,-0.01599617,-1.3077897e-06,1.0740801,-3.1729736,-1.860573,-4.402968,-0.22426967,-1.4908625,-1.2385771,1.304401,-1.7446105,0.6295935,-0.019070283,0.019531555
-2.9211836,-1.5811037,-3.4132178,-7.3485908e-06,1.9110539,-3.2047,-2.3274674,-7.26882,-1.3169321,1.7320313,4.4856052,29.128157,-3.7110655,3.422057,-0.00086131133,0.0661148
-0.22136188,-1.1922911,-0.7259549,0.14923,-0.73743653,1.1320682,-0.024749845,14.285278,-2.3502896,3.6162593,3.5043466,0.011114843,-0.71637213,1.1309181,0.64186347,5.522175
-2.3335695,1.8389425,-1.3766466,-9.467115,3.4052598,-2.056535,-3.3078527,0.0129648335,3.8096917,-3.0796752,0.31933808,0.045577273,-0.61447954,-1.0074422,-0.27697372,1.2368469
3.285486,-1.8276744,3.3687568,7.010807e-06,1.0430378,-3.2705214,-0.8934677,-4.760384,3.1035435,-1.6849738,-3.61798,0.03827432,3.5849285,-3.3660557,-0.13282812,-0.03304551
0.22223943,1.5987698,0.0075040907,1.08222075e-05,-0.14971408,-2.1970863,-0.6448196,-5.3988028,-0.23335876,1.8208339,-0.8304447,-10.909992,3.5876117,-0.0653231,-0.10862735,-0.03028895
-1.7630548,0.8469744,0.024688642,-6.69517e-07,-2.0342932,1.7988051,0.6599444,9.02908,-0.28092065,-2.1041405,0.54247177,0.33049327,-0.37659076,1.3384316,-0.0066684186,-0.023175484
2.9338887,-3.425224,1.4672811,0.46955097,1.1120726,2.3250835,4.753429,5.4627666,-2.5960839,3.7113178,-3.0188046,-0.008969955,-3.5788815,0.6592366,-1.085158,6.8667407
1.6418213,-2.1957245,0.818622,4.5877037,0.45630333,1.5046272,-0.07940376,-0.014728242,-2.9702377,2.9224448,2.8260422,-0.022775142,-3.0045123,0.9002154,-0.9623417,9.233433
-0.5692514,-1.7774519,-0.28516197,1.8606944,3.358558,-1.0006658,0.5739814,0.0077943504,2.9678297,-3.038706,-0.061744668,0.029831082,-2.590154,-1.8187572,-0.42045632,-18.57238
2.8235066,-0.8383104,0.010231137,5.19557e-05,-2.85145,2.5184078,2.3251061,7.3707137,0.5559325,0.035518825,-0.066033304,-3.2383525,3.5415206,-3.6153579,-0.09417706,-0.007442494
1.9732403,1.454903,-0.01200299,9.478754e-07,-2.169836,2.2931867,2.0052526,13.02423,0.738401,2.0317168,-2.0425963,-9.2823305,3.5661016,0.6342155,-0.2715638,-0.02251599
-2.2830875,2.190298,-0.0049007796,-5.186166e-07,-2.4305081,1.6268618,1.1653919,6.6976748,1.1037561,2.1371827,-2.32474,-8.759141,2.1264362,1.5059305,-0.013784744,-0.022220254
-1.1158416,-2.35599,1.0362704,1.4588968,-2.2230625,2.2844992,0.5841005,7.9288073,2.445547,4.1763763,-6.1708083,-30.788082,-3.5978615,3.1007771,0.17367731,-0.046374936
1.1455193,0.0677989,0.86251175,-0.5706252,-0.45863295,-0.9324367,-0.07272139,0.007944571,-2.823448,1.5133581,3.3995247,0.0088015245,-0.85043824,0.6457806,1.2356114,4.609837
-0.15208387,2.3626885,3.1618786,10.644495,4.017839,1.7326155,0.3123703,-0.06842995,1.4078755,-0.74661696,0.013444841,-0.027253829,-2.4367063,-2.7638347,-2.4760618,-6.5329585
3.3144958,3.1383402,-3.2824855,-0.011438149,1.8253121,-3.0478523,-1.7326639,-4.9999185,2.9168003,-1.8604906,-3.5162597,0.021205923,1.2001137,-3.3070815,-0.97307557,-0.01780099
1.356238,2.1064653,0.109325744,-3.0608371e-06,0.23558336,-2.6607206,-1.4446154,-4.945362,-0.7943474,-1.575587,0.17513514,3.8734052,3.5267324,-0.62339836,-0.122668386,0.021595724
-1.8844603,3.267671,0.20707598,1.7847337e-06,-1.7729315,-0.12823293,0.3604083,0.728654,0.9839477,-1.3738453,-1.8464491,6.297154,3.2659318,1.4365644,-0.04656741,0.017230798
-2.9670568,-1.2292558,-3.2907977,-6.082675e-06,0.50503266,0.04383652,-0.8861463,1.4417784,-2.2909524,2.708259,0.19885984,-0.5520892,-3.582055,3.1187572,0.15264583,-0.0056103524
1.4618375,-1.2745779,1.1445255,1.0343515,-0.015820406,-1.1668415,0.00035473704,-0.0036452697,-2.49955,3.4916384,3.5026114,-0.0021690791,-3.0595107,0.19736156,-0.1850311,5.014741
-1.7938719,2.8622699,0.9697075,-0.5427246,3.340348,0.41893226,-3.2981887,-0.046740696,3.6045415,-3.33533,-0.031557247,-0.056880035,-1.6065367,-3.2316093,-2.2592773,-5.34641
2.9419894,-1.9682178,1.264684,6.4910186e-05,-1.1034656,-2.18211,0.40074348,-6.291219,-0.5623505,-0.54781866,1.0385206,-1.3327986,3.959291,-3.2732992,2.4141903,-0.010800052
0.13070372,1.4876895,-0.0043633617,7.7603636e-07,-2.0750406,1.8520122,1.8566225,9.9359665,0.26922527,1.2541752,-0.400527,-7.571697,3.5351272,0.69626105,-0.058166936,-0.04331282
-2.3789322,2.2174294,0.009936094,1.0987977e-05,-2.983852,1.8693907,0.99368393,6.9846687,1.8216622,1.950261,-2.333953,-10.078003,0.93651986,1.9406672,0.10255137,0.00070830435
0.0127277,-2.330225,0.5977882,1.0002545,0.7147303,-3.0217164,-1.7516805,-1.0506871,-2.5622878,0.34460402,4.8820686,-0.030608177,-3.2978563,3.5420792,-1.1769233,-0.052063435
1.6554987,-1.2673455,0.8883852,3.7322133,0.12487789,-1.8558927,-0.025397316,-0.008102663,-3.2495382,0.52400166,3.3550045,-0.012761488,-1.9360716,0.73894787,0.35259447,6.884699
-0.05648583,-0.3735664,-0.19252473,-0.71672285,3.336159,1.8362694,1.5241908,0.0041404357,2.000653,-1.0140092,-0.041513503,0.01664792,-2.32227,-2.6947403,-2.2951999,-4.650979
2.7224405,-0.65869427,4.4167852,-0.15155275,-0.5523859,2.4707167,1.7229489,9.14489,-3.3380446,-4.7725534,4.025786,9.295858,3.9837098,-3.4657032,1.8573283,-0.008998498
0.32453048,1.3156108,0.288918,-3.0061724e-06,-1.453881,1.5054677,1.0270615,12.6708145,0.72135496,-1.1480381,-0.6389469,2.3034408,3.5983229,1.1605946,-0.18786627,-0.019167587
-1.8667046,2.6083505,0.06079813,4.0486913e-07,-1.2702296,0.82135737,0.49349594,6.355087,0.51571417,-2.082209,-1.237847,10.59856,0.7352331,1.4188628,0.006056726,-0.0004608035
-3.2311535,-3.3362489,-1.9567237,1.6762493e-05,-1.8607906,1.9915264,0.79388386,7.2090197,1.3063624,3.4932094,-3.6017118,-30.671856,-3.2896647,4.113406,0.0050199702,-0.039852213
2.1118884,-3.2794638,1.5864443,1.0197575,0.67073894,-0.78247315,-0.014122903,0.009931024,-2.8003469,2.5070848,3.4955971,-0.024266463,-2.2964184,1.7057699,0.18548894,7.6176076
1.2336168,-2.4653096,0.29235125,3.5165033,3.151334,1.572614,-0.11046563,-0.027987577,-1.6065223,-0.9969009,0.02405045,-0.036419913,-3.5159466,-2.7783165,-1.6383476,-5.079909
-1.4038118,-1.2456772,-0.816574,6.8496914,2.0689678,1.4791995,-3.4285192,-0.007996811,1.4451799,-2.853279,0.04532349,18.014124,-1.1166174,-2.8556902,4.6334853,2.4460964
2.211384,1.363081,-0.15483221,-1.09367065e-05,0.17180659,-2.8188114,-0.78014743,-6.663327,-0.79615813,-2.7741158,0.642671,9.805242,3.5691965,-3.3004289,-0.19384825,0.049424283
-1.0481482,3.3426442,0.48896557,-1.6380909e-07,-1.4048848,2.4819999,1.1389458,6.825346,0.73944867,-2.3618467,-1.3596392,11.0160675,3.2606742,2.7800837,0.0004838789,0.010759644
-2.8905456,2.2877245,-6.6627293,-68.01785,-0.6550591,1.6321734,-0.1423297,3.8744283,2.919046,2.778777,0.018222451,-19.61929,-3.7721298,3.5050938,0.01254262,0.12828621
-0.40383142,1.1667843,0.2937082,-12.0590105,-2.066578,0.5912843,-0.043912116,0.019604832,-3.4415808,3.652555,3.4488628,0.025238741,-0.5710883,-2.229167,-0.13172102,-6.777235
1.2670641,-1.8395422,1.3172323,2.9915917,1.0645219,2.1697164,-0.08149481,-0.010600566,-3.4211984,0.075554445,-0.109626114,-0.016752379,-1.3246815,1.2849422,-0.78609216,8.60328
2.2527602,-1.7250726,1.3854301,4.98279,1.5821754,-1.113448,-1.1879051,1.018915,2.9059958,-3.427791,-3.4539125,-0.010181742,2.5591187,-3.3049698,3.1178162,0.009047715
3.3194737,0.3096851,-0.045859255,-4.683181e-06,-1.10799,-2.03787,0.5292637,-8.377044,1.241467,2.2592602,-0.022022784,-9.246493,3.019844,-3.2142456,1.5188315,-0.026851587
-1.6802377,2.9791374,-0.0011758739,-1.3475619e-06,0.19387054,-2.2190168,-0.7924197,-4.9299483,-0.18924002,-2.3574572,-0.12307292,12.146357,0.5486571,0.9041406,-0.012315631,0.030084733
-3.345138,1.0396855,-2.471189,6.9042585e-07,-0.19709384,-1.566307,0.31793892,-9.008158,2.1411414,2.1054006,-4.849697,-32.55466,-3.7054377,1.3323482,-0.06927563,0.057523303
-2.3404107,0.8560862,0.8529973,7.6502533,-1.4070821,-3.4642878,-0.21875957,-0.041419983,-2.1358469,3.0970674,3.3681388,-0.055144105,-3.5035324,3.1043813,-3.4891896,0.071953624
2.1130133,-2.3430946,1.419688,6.498706,2.1518633,3.4469721,2.0738742,14.895758,-2.9178872,-0.13395995,-0.048468977,-0.007955543,-1.98193,-0.7221143,-1.887568,0.38482094
3.232862,-3.0143566,3.6199412,0.6282603,0.6828464,2.3609326,0.09963876,9.237074,3.6428127,-2.6788402,-3.960698,0.05237007,2.3565564,-0.77656364,3.637974,0.3513509
2.7747402,-0.34174377,-0.4501109,6.949401e-05,-2.6796587,2.6000366,2.4779868,6.6300583,1.2042351,2.8198857,0.012066245,-13.399702,3.4695916,-3.6480596,3.470387,-0.030708794
-3.378705,0.95480764,-0.039022632,-5.5483264e-07,-1.2749981,2.5828087,1.5776179,9.009254,2.0051677,2.2393801,-2.8964837,-8.806446,0.8067323,1.3990865,0.026198894,-0.02975453
-2.1452143,3.1427948,-3.4136722,-14.757204,0.25328302,-1.7881035,-1.0314529,-2.4012873,-1.1566374,-1.9470366,3.8722558,-0.07097736,-3.7728257,3.480847,1.3923286,0.0031563751
1.3206617,-0.21295772,0.8197775,1.5705256,-2.9683747,-1.3420595,-0.009929061,-0.0010233358,-3.0770504,2.6591153,3.5095963,-0.0006542327,-0.49059245,2.0183656,0.03326696,9.717513
-0.07945812,-1.5658966,0.42210627,5.9964323,3.5192714,1.3040446,3.5988545,-0.067910835,3.1502414,-1.9666656,0.043797128,-0.04673654,-0.26705998,-0.40996078,-1.4954885,0.14473262
-0.07348919,-1.0402061,-0.8486138,9.981923,1.1027966,-3.206853,-1.461935,-3.0323584,2.6535795,-1.7755699,-3.5934138,-0.035278164,3.5629694,-3.4126496,3.3524034,0.05161789
2.8675044,0.13710696,-0.01828347,-1.0083531e-06,-0.4421572,-1.5571518,0.2774257,-6.2398176,0.4081586,-0.5211302,0.34282497,3.2251568,3.3842404,0.0504746,-0.04072407,0.008805923
-3.3178124,0.7343519,-0.010739662,1.5351598e-06,-0.10844627,-1.7692232,-1.4150231,-2.6515868,1.5066745,0.5284858,1.340785,15.414071,-3.3319995,0.8886431,0.1871042,0.08730802
0.31242567,-1.9580276,-0.22728273,14.267828,0.838086,-3.6544,3.4700394,-0.035205297,-1.8375907,2.9581175,-3.9691734,-0.042627394,-3.4647467,4.246814,-3.8981023,0.07876223
-0.8021314,2.6436977,-2.5076532,-22.12035,-1.3946466,-0.9420626,0.0808242,-0.015448257,-3.034971,-1.9496185,3.3746986,-0.04164391,-0.8535915,-2.4373739,-0.70267165,-7.5562215
0.92007685,-1.6072458,0.15824842,6.2319164,2.7087638,-0.8507659,-0.9299389,-0.056174528,-0.6015659,-2.0430064,0.059800006,-0.053047195,-0.78958285,-0.3401123,-0.9313165,-0.6646377
2.3550534,-0.47034186,3.5217865,9.973963e-06,0.985605,-2.1329522,-0.5661833,-4.7199764,-1.7213788,0.32951945,2.705819,-3.929284,3.584516,-3.3803651,1.4527425,-0.0103260875
-0.67850137,1.6301024,-0.020054936,5.6950157e-06,-0.70236546,-1.6317201,-0.37324095,-6.6427846,1.8072567,3.6459959,-2.0412378,-2.7570934,2.6590633,0.058293704,-0.04906635,-0.019344755
-3.47589,0.5104372,-0.05144471,1.6606509e-07,0.59368837,-1.7322103,-1.9406245,-7.1047306,1.3118596,3.1028717,-3.052669,-9.595051,-3.692646,1.1848352,-0.027009025,0.015488379
0.043577828,0.6306478,0.47367844,2.126161,-3.3902893,-3.0440257,3.1324005,-0.009916965,-3.4202397,3.8047864,3.7714589,-0.049375456,-3.4928772,1.7356032,-3.4606433,0.030727943
0.66495645,0.2863748,1.5213659,-7.349981,-1.0906904,-1.0047358,0.0054566003,0.009424023,-3.508979,0.4490025,-0.16382551,0.015114833,-1.3808398,-0.2741853,-1.3627846,1.2439423
0.23702759,-1.3500551,-0.2020117,4.519676,3.650675,0.72626877,3.7077074,-0.01730441,3.6569545,-1.7161869,0.0654915,0.009930773,-0.9374171,0.18408687,-1.7698085,1.1124423
3.283002,-1.9204919,4.679289,0.0012969971,-1.5620326,2.9089684,2.666537,7.0572376,-0.4769671,-0.08409196,2.1031494,-3.931625,4.060775,-3.3800607,2.9826198,-0.061542854
-1.8414344,1.5397298,-0.0068544447,1.3401286e-06,-2.086989,2.5857692,1.0115098,1.3402469,2.631107,2.7395332,-1.9235876,-8.302092,2.743348,0.11419217,-0.13314396,-0.019947551
-3.2666461,-2.7674322,-0.4208876,-1.5665662e-06,-0.36830968,0.60767615,-0.37168285,1.0739465,0.9953109,-0.92741394,-2.8148057,6.919386,-2.2148614,1.0740975,-0.009426372,0.008514047
-1.1912061,-0.9477372,-0.10867357,5.1281004,-2.9055946,0.08578764,3.5339015,-0.042114526,-1.4414054,3.7333157,4.860791,0.41091156,-3.3652992,3.454898,-3.6425843,0.053448237
0.9712581,-2.4401178,0.20454085,10.873258,0.407568,1.1761612,-0.8469834,0.017264575,-3.4910603,0.029583678,-0.2355156,-0.023111623,-1.4755291,2.1159716,-1.8702372,7.556079
1.0254009,-3.1918178,1.8724602,4.5901194,3.0712502,2.1512146,-3.445326,0.0048621204,3.3280952,-3.145275,-3.363201,-0.017410617,2.091644,-3.401399,3.3655984,0.010563868
3.3543575,0.39871722,-4.375273,-15.461786,-1.4409072,-1.8019834,0.9152975,-9.822254,1.7891713,2.7501106,-0.28064856,-9.230517,3.2320168,-1.7571303,3.413642,-0.00791489
-2.9794,3.2952127,0.28381288,1.8899505e-06,-0.1392965,-2.3908231,-0.7119304,-7.2235394,0.90473557,-1.834445,-0.8340361,10.482593,-2.4805608,0.64857614,-0.028652877,0.06936128
-2.2025373,0.7572215,-3.4590185,-1.0272688e-05,1.3825042,-1.2193023,-0.73425496,-6.3002596,-0.3980273,-1.5962014,-0.8644417,7.717474,-3.4021928,3.5716012,-0.010821346,0.025883224
0.93191326,0.992576,0.50687414,-3.8445866,-3.3067691,-1.7252187,-0.015435532,0.0075890403,-3.369569,3.669271,3.4816706,0.004716441,-0.3360715,2.0894969,-0.5764257,8.668764
0.40486744,-2.3139863,0.29791927,9.847353,3.1233673,1.523387,2.013864,-0.03173256,-1.3945826,-1.4246994,-0.048888862,-0.027841102,0.4943781,0.88819635,-0.5689497,-0.32734585
3.1764271,2.8283708,-3.8018413,-4.532491e-05,1.4134536,2.869899,0.89671594,3.830284,2.3450046,-3.0444217,-1.010819,0.0089477375,3.4704366,-3.459155,2.3770103,-0.0061284974
-1.7723314,2.470675,-0.013445735,-1.1631682e-06,-0.3754542,-1.0435662,0.022676945,-5.1242757,0.90090954,1.095577,1.3910457,-8.406773,2.7893965,0.12896502,-0.0007917881,-0.019713573
-3.5043368,1.2937791,0.0043521225,1.1800077e-05,1.0604553,-1.9650974,-2.1188307,-3.7642365,-0.8210117,-2.804352,0.45465147,5.081589,-3.519131,0.41309682,0.3111114,0.029566355
-2.881692,2.365686,-4.523457,-59.11579,-3.2576303,1.4006974,4.6185856,4.3355427,-3.3139772,3.7299585,3.5604434,-0.032175794,-3.27866,2.2176585,-3.547739,0.03651033
0.49344552,0.27687758,0.9292202,-3.00016,-2.885507,0.33637473,-0.037640154,0.01056494,-3.5264115,2.3901088,-0.21700752,0.010393405,-0.5012597,1.9002638,-1.5958742,9.449366
-0.4995978,-0.9809557,-0.6041291,5.5401406,3.2882648,1.6729084,-0.0004492998,-0.021615937,3.7543437,-1.6869524,-0.03712827,-0.037638437,-0.030238211,-2.0420551,-1.6243951,-3.3252325
3.511704,0.6795238,4.570663,0.0011501312,-0.82338154,0.13216701,2.4306395,-1.5605711,3.5506198,-1.1337217,-3.7474432,0.061841022,3.751368,-3.9698954,3.942494,-0.03571321
2.594792,-2.0283198,-0.054796115,3.5194125e-06,-2.3104627,-1.7730967,3.1717682,-18.849712,1.9969629,3.6744046,-0.462212,-8.0136385,2.2407496,-0.09514248,-0.32769883,0.036727354
-0.67992693,3.0688627,-0.07520455,-6.2619724e-06,0.45097524,2.1604877,-0.017395377,5.0247507,0.7526171,-2.9713314,1.1521835,10.464661,1.5205454,0.8194834,-0.0061382046,-0.0062930165
-2.7884722,1.4518635,-0.0005828657,9.173002e-07,-0.26817715,-2.7077076,-0.9149223,-9.180225,0.81451213,-2.0294366,-0.31857944,11.129219,-3.3043766,0.36710536,-0.020347536,0.08146476
0.64319855,1.3219662,-0.846893,-1.5195439,1.5634427,-2.4117193,-1.4057422,-4.222123,-0.9352665,-0.98096937,1.0337322,5.075493,-2.9788642,3.7310224,-0.39003515,0.030771162
0.45564687,-1.745872,0.41543984,-12.3822975,-2.4285705,-0.4611806,0.015439153,-0.05119586,-2.7926934,3.1107228,-0.032718778,-0.046997443,-0.15062961,-0.27746156,-1.8473005,1.2243946
-1.4799393,2.2921054,-1.1458683,-6.5669646,0.8620155,1.9091376,2.2865007,0.016361471,0.2781146,-2.4264946,0.06988147,0.017017026,0.8654338,0.15719485,-1.114965,0.056950837
3.5121875,-3.1592965,3.5868216,0.00021028519,0.97921234,-2.855983,0.30507904,-8.473291,3.2030303,-2.0288796,-3.7366405,0.06824151,3.960536,-3.5413022,3.639358,-0.039157722
0.6614882,-0.044490125,-0.026952658,-6.421287e-07,-0.8146483,-2.231852,0.762189,-10.693846,3.1931055,3.159838,-6.1046333,-42.951782,2.504485,-0.8102808,-0.16743287,-0.065432206
-3.367069,0.9017462,-0.043708906,-3.0740769e-06,-0.16053638,-3.3011932,-0.41990447,-8.985496,3.142908,2.221607,-6.085414,-59.609535,-3.640575,1.1059645,0.10188958,0.00883319
-1.4720659,-0.99788237,-3.4983964,-1.0189913e-05,0.18160881,-3.0037332,2.314613,-0.01584363,0.11193222,2.5471618,-4.0451508,-0.0095367655,-3.4002223,4.2105355,-3.8518975,0.01463623
-1.0186707,3.7211084,-2.1095884,-10.627033,-1.2218546,0.9626441,0.27707642,-0.0356369,-3.3638792,1.8331577,0.06675152,0.0048156083,-0.1127069,-2.344291,-2.1008236,-7.2237372
-1.8144596,3.1372826,-1.4926407,-4.2959914,1.1431925,1.4119967,-3.5005584,-0.061438933,3.498683,-3.585915,1.2937568,0.07245876,2.9766128,0.004824847,3.363681,0.40503156
3.2948024,0.07615155,0.00012488011,-2.302123e-06,0.12917066,-2.2678142,0.22480729,-9.911113,0.10918298,-2.0956101,1.1874546,12.688471,3.2433841,2.3328068,3.6113544,0.04165276
-2.6465628,2.8949876,0.032118663,1.5575201e-06,0.16938743,-2.4770095,-0.88032484,-9.416484,1.4279433,-0.66820884,-0.6502588,3.4030225,1.3049768,0.46511465,0.0024843179,0.021640807
-3.2617495,-0.24002972,-2.2726092,-9.9414e-06,0.41123077,2.5324702,-0.60855293,8.380552,2.432475,2.5729625,-2.2710783,-21.846027,-3.4164894,3.0555706,-0.033878192,0.024583995
1.4901257,1.6678165,0.5655622,-2.9386635,-2.2355368,1.0691991,0.042092368,-0.0006937976,-3.1055965,3.3020895,4.0209336,32.503796,0.91964805,0.6730771,1.2139319,-0.3742702
3.603522,-4.010955,2.956064,-6.3529396,-1.8295263,0.40796277,-0.0244805,0.046308566,-3.577347,0.78685355,-0.5027674,-0.009063214,-1.387804,-1.824287,-2.2920728,-8.543451
-1.0893204,3.1753182,0.8133859,1.4698315,3.3251598,-3.2024875,-2.5718956,-0.051063452,3.0602405,-1.7595688,-0.0031536706,-0.06217453,0.21994725,-0.45604217,-0.9605369,-0.7714168
3.475424,-2.948315,0.92506444,2.0546083e-06,0.40400285,-2.5988226,0.55870456,-8.42539,2.7040393,-1.1904944,-3.6507947,0.047355156,3.7554195,-3.5666678,3.5834458,-0.030887214
-2.8227453,2.950184,-0.010354962,-6.021254e-07,-0.47650635,2.852267,0.86656225,8.405275,0.13223082,-2.3126235,1.4955931,10.312069,3.272613,-0.82109064,-0.049814522,0.01362143
-3.3485258,-1.5941302,-0.012013432,2.7651554e-06,-0.8057145,2.9120283,0.43700868,7.1648936,1.3193715,2.493306,0.92489195,-9.942319,0.6936405,0.8324229,0.014193285,-0.049018227
-1.2462206,2.886179,1.0151986,13.41028,3.0754817,-1.8828224,2.4340358,3.256874,0.53904384,0.9949043,-0.10796344,-1.3149097,-3.4316926,3.3072286,-2.4089768,-0.0045980737
1.584578,-1.8532428,1.8823533,7.718752,-2.726329,2.958855,-0.20002767,-0.040359005,-2.4440544,2.9065769,4.182464,17.523241,0.74969715,0.7078866,-0.27914912,1.7735568
-2.5387912,3.0979953,-3.18255,-19.668789,2.2776496,-1.4033839,1.9627922,-0.055330276,1.788904,-2.5918367,-2.900218,0.008106232,0.8348365,-2.867953,-0.48491415,-4.753227
3.5948486,0.40858078,-3.435532,-6.9490206e-06,-1.1715204,2.2595713,1.6299891,6.0005975,1.8658233,0.7364948,0.91895545,1.0030166,3.751828,-3.4687994,3.4649463,-0.06782694
-3.6129212,0.8124765,-0.15365031,-5.757196e-06,0.7098777,2.2298098,-0.853182,7.366695,2.2550764,1.977104,-1.217451,-3.9232183,-1.4817444,1.8175926,-0.106566645,-0.009117216
-3.259039,2.0068915,-0.5097118,3.2914104e-06,-2.3888733,-2.224621,1.9239743,0.00094034616,-0.013421997,1.0264982,0.075483784,-0.6281571,1.3204012,1.7639322,1.8034675,2.108556
1.174768,-2.4805174,2.4946215,10.170027,-3.2370338,0.84843457,-0.018859819,-0.027958617,-3.3728929,1.6866033,0.0013666153,-0.029227037,-0.20877337,2.0640717,-1.2514597,8.1853285
-1.2509167,2.2962446,2.44647,5.281227,3.3276348,-3.1902404,-1.558518,-0.06741073,1.1017138,-3.0798883,-0.011695895,-0.07331948,0.74243057,-2.5568151,-1.764557,-10.407728
3.2218313,-0.63324934,0.3231644,-0.00028467178,-1.3751283,-1.8027475,1.5882769,-10.041323,0.87317574,-0.17819124,1.944267,2.888469,3.1962159,-3.9956179,3.7668939,0.029828154
-1.8466204,0.34458175,-0.0708794,-5.100149e-06,-0.9267031,-2.717316,0.7140876,-9.390064,0.9930619,-1.1854467,-0.24824971,9.442167,1.0017258,0.5875793,0.1045773,0.027476214
-3.622818,0.19664863,0.06998789,3.373825,0.9145679,-1.7048187,-0.6408038,-7.6503925,-0.18500233,-1.3933642,-0.74482656,6.522532,-3.412592,0.39572293,-0.0970315,0.12165879
-0.33081114,1.7625817,-1.3805858,-0.19991833,0.4950881,-1.6536988,-1.6341102,-0.3544742,1.1105893,3.2774353,-1.2866622,-0.0064621735,-2.9961317,3.644265,-3.5281718,0.00019456819
0.7478468,-2.3047976,1.3983212,8.119001,-3.4092903,0.28644276,-0.12829098,-0.043577306,-3.6084857,2.8244035,-0.22342277,-0.0664505,0.9660361,2.2938395,-0.782302,8.673103
1.3721998,-2.4396825,0.6705029,11.123788,2.645388,0.021572277,-0.11754623,-0.02897282,-2.2153878,-2.6266646,0.038775638,-0.044520885,-1.1831131,0.881458,-2.295693,6.1484566
3.4676335,-2.6562355,3.1807587,-1.5228411e-06,1.4463212,-0.44442204,-0.23224105,2.3785493,3.4601452,-1.6952403,-3.5918128,0.05606125,3.4517744,-4.1570444,4.022005,-0.043784805
-2.5934153,-0.66094506,-0.015005298,-7.1996556e-07,-0.9316313,2.7571237,0.7665173,7.1023097,2.1100955,0.845101,0.17996752,-0.8714584,3.2717526,-1.3377912,0.30275893,-0.036696464
-3.5408602,0.34995028,-0.008218527,4.599089e-06,0.4315071,2.5506656,-0.49899906,7.4181685,1.5898243,-0.6226488,-1.0798081,5.6646376,-3.6693199,1.2551398,0.0073170215,0.022971239
2.3826528,-2.3874543,1.9504157,11.812178,-2.0893173,-0.062074184,0.033281717,-0.014401741,-2.8080485,3.5686576,3.4425313,-0.025631726,0.692266,1.3326675,1.1842651,0.6726413
-1.4854853,2.9332023,-0.97323686,-8.362371,-2.0157375,-0.15397176,-0.43627742,-0.0003747344,-3.4416227,1.4202231,-0.15477216,0.028687794,0.8071188,2.0553625,-1.1285855,9.261487
-0.6015352,2.8949852,-4.3092184,-29.041481,1.6618111,-1.8932548,-0.95100737,-8.396476,3.473244,-3.431391,-1.2724171,-0.05104482,-0.38554513,-3.3685882,-0.41803077,0.08328341
2.3839684,1.2915093,-0.06570026,-1.1279921e-05,-1.888501,-4.1313734,5.662318,17.617334,-0.3795405,-0.6434982,1.6972523,3.9812317,3.399158,-3.7290647,-0.102475666,-0.06961545
-2.6644807,1.930433,-0.04192836,-5.040327e-06,-0.5377967,-2.3099544,0.26437652,-8.222907,1.1668856,3.085894,3.3305864,6.8778305,0.14385498,0.584148,-0.110245764,0.08623155
-2.9445956,0.49927238,-3.4262888,-9.705916e-06,1.9764229,-1.1711465,-0.59534436,-1.6751021,0.39652514,2.0920434,4.62171,15.578933,-3.4759622,3.6451898,-0.032880023,0.06526403
1.5841141,-1.3419228,2.6202593,4.7175446,-3.4350078,0.032920644,-0.09668282,-0.043040346,-2.7327902,2.1021197,2.8112888,-0.06938027,0.43293184,0.8029729,-0.023591757,0.97268814
-2.475532,2.964032,-2.4968262,-5.6344047,3.25889,-0.36137402,-3.3267524,-0.00023883022,1.6447914,-3.4427881,2.0335426,0.00790596,0.59972256,-2.9103518,-3.0794423,0.032166045
3.5170631,-2.8518646,-3.3705409,-6.1378473e-06,-1.6809388,-2.2123663,1.1655486,-8.90635,1.42621,5.2086325,6.827699,18.742508,3.1346893,-3.9684222,3.8031235,0.069010764
0.97219217,-1.9591944,0.00096945243,1.8300113e-06,1.0283196,-1.9304235,-0.941977,-13.951152,0.22367948,0.24550895,0.88803935,-0.20704466,1.2798402,-1.2295171,-0.020551793,0.04352425
-3.2894168,1.033648,3.0634265,0.00056552887,0.12610912,-1.2948014,-0.009531796,-8.151939,2.086498,3.5645115,-2.4026456,2.2276173,-3.8216853,1.6770424,0.16579178,0.008920899
-0.37437642,3.3777828,-0.8350954,-10.1375885,-1.6230626,-1.515514,0.017783523,-0.08363633,-2.9667888,-0.21070941,3.5169265,0.07566166,-2.6165123,2.3775477,-3.660756,-0.006275125
1.8465232,-2.4491506,1.6192471,9.450033,-2.6986794,1.6379311,0.043163106,0.0027227327,-3.5910316,2.4532268,-0.35903752,-0.0127385,-1.1221752,2.349322,-2.2410307,7.6848817
-1.0682108,0.0792585,0.3634994,8.623631,3.2219105,-0.0070108324,-3.4054894,-0.02857316,3.4527555,-3.4715376,-0.018723074,-0.018393159,2.7919755,0.485717,2.9230514,0.36308658
2.4682043,0.42195368,-0.32080913,0.000910759,-1.3565803,0.069338754,1.8026788,0.0642696,-0.5219922,-0.8718975,3.822488,6.03803,3.7202954,-3.167474,2.7140331,0.05252836
1.0106465,-1.0517266,-0.28245702,-1.3351033e-05,-0.10147469,1.1101302,0.2862558,0.5862695,2.0602627,3.9706151,1.4572141,-5.111866,2.2762523,0.19108386,-0.1015125,0.0041303895
-3.375506,2.3232095,-0.08434489,-4.382035e-06,0.6382335,2.6832488,-0.7368589,6.1631103,3.1288652,3.3600616,-3.253971,4.2137413,-3.3556242,1.682985,-0.08935398,-0.05483894
-1.3449409,0.30113626,-3.4582808,-5.4455377e-06,2.7734537,-0.6889696,-1.4176295,-3.310182,-1.6091115,-3.2332108,2.3896875,0.16132824,-3.3331177,3.7725227,-3.6106613,0.011784772
-0.040643156,1.4580317,-0.48830852,-6.004592,-1.3756211,0.88484967,-0.035838842,0.0072391713,-3.4877002,2.7551112,-0.20285985,0.011529768,-0.45626152,-1.5108796,-2.4601061,-5.3014283
3.556714,3.3202958,-2.0065856,3.2638995e-06,1.8569971,-0.74884886,-3.2972205,-0.03458108,3.48001,-0.64680415,-3.6534338,0.0750496,3.6063623,-3.373681,3.5009365,-0.062017404
-1.8037086,-0.3771041,-0.03680992,-1.6672304e-05,-0.8940924,0.28588188,0.9331405,-2.0490046,1.0000305,-0.36479366,0.7069342,16.778805,2.8870807,-1.2082705,2.5531332,-0.08790356
-3.3482945,-0.8667069,-0.013586825,23.330969,0.7523651,2.2045097,-0.75500065,7.143917,1.1718845,-2.1220968,0.41052127,10.6060705,-1.8856616,0.98324615,-0.099685386,0.041659176
-3.1568148,2.4933202,-0.9055221,0.00027799606,0.08323419,-1.5247943,0.19055009,-8.882375,1.8991072,2.4303856,-1.365765,-3.8104966,-3.3434067,0.24278411,-0.031644747,0.028064635
1.0219975,1.3483878,-0.018099517,-3.177493,-0.078282475,-2.6508353,0.13080955,0.0017221821,-3.2233145,2.3931446,4.437675,15.236378,-0.92892873,-2.1607862,-0.86180395,-5.1948204
