ancorasir/BennettWheelLegRL/experiment_data/2024-02-13_04-17-16/joint_position_env0.csv
Joint_1,Joint_2,Joint_3,Joint_4,Joint_5,Joint_6,Joint_7,Joint_8,Joint_9,Joint_10,Joint_11,Joint_12,Joint_13,Joint_14,Joint_15,Joint_16
0.22340937,-0.0,-0.0,0.0,-0.18629912,0.0,0.0,0.0,-0.24951151,-0.0,-0.0,0.0,0.12737302,0.0,0.0,0.0
0.21915208,-0.006132233,0.010067942,-8.732813e-08,-0.18577106,-0.0072083944,-0.010794199,7.442042e-05,-0.24065247,-0.005358165,0.008968076,-0.00012591487,0.13830641,-0.0050928206,-0.007856664,0.00019535156
0.19307992,-0.042894777,0.11084373,3.3718268e-06,-0.16104084,-0.044022564,0.0051601394,-0.33375964,-0.15569691,-0.0040680254,0.08899619,-0.109088376,0.16373576,0.0047706277,0.08699077,-0.20340692
0.10183394,-0.07493116,0.37432772,-0.050790884,-0.32828334,0.017992064,0.19096056,-0.4652022,-0.08826937,0.09974955,0.1338086,0.019312674,0.30689764,-0.011740091,0.4000401,0.049639426
0.024656806,0.095316745,0.40000495,-0.050783794,-0.41335616,0.08271695,0.26193282,-0.32963982,-0.033444032,0.094421454,0.074518956,0.16421603,0.43226343,-0.034406602,0.40004122,0.03385002
-0.21468228,0.19593383,0.40001315,-0.13792181,-0.45043075,0.113477565,0.269701,-0.21675952,0.03962465,0.16346866,0.008380081,0.25076947,0.33965644,0.017125042,0.39928117,-0.02917725
-0.16166556,0.18289143,0.3836367,0.013173208,-0.33509803,0.04764682,0.36853948,-0.1324746,0.0155607555,0.30186906,0.16873354,0.17372914,0.11867926,0.039224233,0.3244811,0.085761994
-0.10146841,0.14150745,0.35575396,0.01680335,-0.28706595,0.08134217,0.39354247,-0.2760287,-0.24764104,0.2922465,0.3993146,-0.060653392,-0.016149474,0.07395228,0.17695303,0.54853505
-0.08119516,0.06076504,0.28115657,0.17002557,-0.033782035,0.11459865,0.22398578,-0.15741715,-0.08455889,0.10346374,0.29344115,-0.25227204,-0.03788879,-0.122335725,0.1241111,0.29973313
0.16115086,0.040706273,0.39945158,0.1511063,-0.1609936,0.15122427,0.33599266,-0.29015642,0.06626572,0.017247878,0.1853539,-0.059697393,0.32408804,-0.26606727,0.40002036,0.24387547
0.027883988,0.19624838,0.40001443,-0.08473432,-0.25057143,0.21293819,0.35664278,-0.12909016,0.17723507,0.01636204,0.08867651,0.06802045,0.3401525,-0.20972608,0.39972726,-0.0140807405
-0.20003998,0.27582043,0.30387312,-0.10641866,-0.20114888,0.18418844,0.29453775,-0.07630076,0.17539859,-0.0015450798,0.042997286,0.17936814,0.11009584,-0.09993395,0.39994848,-0.21815388
-0.09245295,0.21259241,0.291206,0.1038661,-0.30354416,-0.041403912,0.39848864,-0.38865834,-0.10988518,0.20875798,0.39998627,-0.1406713,-0.06395634,0.05552469,0.3473964,0.326978
-0.052551616,0.11307027,0.30976498,0.40190527,-0.10800554,-0.08483336,0.31274214,-0.44887218,-0.14665794,0.14554034,0.39992914,-0.3960153,-0.12533975,0.047390793,0.24162394,0.35367727
0.087515615,-0.020606657,0.37732923,0.2178742,-0.09386572,0.0041823676,0.28061545,-0.13042057,0.091643356,-0.036148045,0.22285832,-0.053426523,0.072816044,-0.18382254,0.36823457,0.32888883
0.13829249,0.008634648,0.39869115,0.112896785,-0.22785532,0.060542695,0.35421166,-0.00400036,0.18823273,-0.058932446,0.20297922,0.18621354,0.39730373,-0.21974605,0.4000282,0.15257116
-0.05589775,0.16770285,0.39874795,-0.042100854,-0.28257388,0.09410872,0.3385253,0.22698154,0.27214506,-0.072871484,0.095400766,0.3397908,0.39220804,-0.15927422,0.39988968,-0.17078465
-0.20616129,0.21034254,0.22403418,0.077036515,-0.20729713,0.07310938,0.29091904,0.2070358,0.2839153,-0.013541218,0.049691465,0.32317582,0.07586365,0.0037596507,0.38789052,-0.35050088
-0.08545492,0.12285873,0.33853036,0.16183338,-0.2719922,-0.04005328,0.4001075,-0.3930309,0.013299234,0.20124292,0.400035,-0.02733827,-0.091918886,0.16133136,0.2932516,0.0799235
-0.045269236,0.03553526,0.3687004,0.4365064,-0.068690464,0.025010915,0.35779938,-0.46774146,-0.119518414,0.17556737,0.38605374,-0.40515608,-0.15350044,0.15198429,0.21259949,0.21540682
0.08654401,0.017312529,0.40000913,0.27661154,-0.021430917,0.022801427,0.29147777,-0.21500367,0.16033122,-0.06704061,0.19168603,0.10286747,0.039325602,-0.06282989,0.29642597,0.17808159
0.112485565,0.031181915,0.40000644,0.013968538,-0.1228475,0.04895891,0.3333943,-0.14005515,0.2275599,-0.103761286,0.20702092,0.37844113,0.33394492,-0.19766569,0.3985126,0.0022102103
-0.15417822,0.12653564,0.29471636,-0.050323967,-0.16078128,0.1231148,0.28453958,0.18531232,0.32927477,-0.04724036,0.0886006,0.15691791,0.24892889,-0.065094545,0.39929378,-0.17528081
-0.1376653,0.09691972,0.3174798,0.070490904,-0.20102659,0.064028025,0.40001366,0.005222602,0.21367526,0.14590402,0.25653815,0.08760158,-0.06965596,0.121953644,0.1831261,-0.3224505
-0.06493093,0.10595469,0.39996743,-0.045324,-0.29970104,0.10256635,0.39886793,-0.14922546,-0.18426,0.1797895,0.4000195,0.14686419,-0.14913383,0.18058617,0.15109001,0.018376308
-0.0820052,0.092168674,0.3628047,0.05029852,-0.08682499,0.013099796,0.39479017,-0.20868196,-0.16834247,0.10238329,0.3981133,-0.14064744,-0.20008905,0.17345655,0.04323249,0.38349456
0.012560374,0.08452118,0.31361407,0.087871924,0.026988449,0.008901335,0.2098682,-0.13545498,0.039499104,-0.067066,0.22899494,-0.18002748,-0.019855773,-0.057912394,0.2301335,0.3244098
0.20218427,-0.00049364095,0.4000046,0.11702614,-0.13298984,0.028372679,0.31823573,-0.21675836,0.11357154,-0.08703323,0.27433488,-0.11722105,0.26540354,-0.21110342,0.3997581,0.10675643
-0.028023895,0.13091415,0.40002015,-0.13099562,-0.22449811,0.07830074,0.3198422,-0.10339003,0.22842263,-0.084717005,0.14533052,-0.028525129,0.36714536,-0.16593486,0.39960212,-0.15598306
-0.106886104,0.113979265,0.30592042,0.12346993,-0.1451172,0.016733814,0.28375506,0.1637271,0.19375747,-0.08646032,0.15498257,-0.033299968,0.048280254,0.01395339,0.35164624,-0.248434
-0.07568924,0.09971425,0.33873448,0.228808,-0.26176515,-0.015300876,0.40010375,-0.3698262,-0.17878947,0.13452074,0.40006,-0.16441575,-0.06513605,0.16023284,0.25964108,0.31948557
-0.04889112,0.0154673485,0.34507748,0.3230691,-0.03507826,0.047073435,0.30471557,-0.28300342,-0.16758998,0.028621871,0.39935577,-0.40083474,-0.1657026,0.062206294,0.14482579,0.15356477
0.088210896,-0.0018162057,0.37225932,0.20823024,-0.0041783075,0.068148635,0.318496,-0.048424155,-0.0039536264,-0.061917033,0.20165756,-0.029567253,0.05609916,-0.16224557,0.33104643,0.10999424
0.19868168,0.0022421842,0.39446193,0.09946773,-0.12908675,0.088574275,0.39427003,0.013952595,0.078068964,-0.059897978,0.21834257,0.021771241,0.3592206,-0.27807897,0.39999893,0.009183466
0.019941738,0.16181602,0.4000328,-0.017953603,-0.17833422,0.12512717,0.37657872,0.25389737,0.18142612,-0.089174934,0.085635774,0.42206305,0.35295597,-0.20339748,0.3997921,-0.08913455
-0.2376306,0.1695887,0.26007962,-0.042391453,-0.15274073,0.06499424,0.3346196,0.0074771442,0.18723862,-0.01813304,0.018440846,0.22136192,0.070580974,-0.044865783,0.3626583,-0.2465002
-0.1254681,0.08574628,0.33926818,0.22356957,-0.25080678,-0.013945284,0.4001131,-0.32072747,-0.11026413,0.17429657,0.3996395,-0.07577254,-0.093010634,0.10473537,0.26335582,0.24762185
-0.105007045,0.036055446,0.32948497,0.29858965,-0.11727989,-0.015117096,0.39498085,-0.38470778,-0.21365187,0.13349977,0.39931244,-0.32910833,-0.124080025,0.13524616,0.23004805,0.5039686
0.096072026,-0.060271963,0.38657573,0.23588198,-0.056661822,-0.0069868555,0.34435102,-0.34596273,0.0980414,-0.077765554,0.10171084,0.0118788,0.052602433,-0.15265514,0.30688775,0.17529811
0.14747904,0.04092087,0.3997691,0.06843811,-0.14923793,0.031617798,0.39384294,-0.18365894,0.12461447,-0.11395946,0.15710698,0.1318605,0.32237107,-0.1882064,0.40006825,0.09110165
-0.102564394,0.20219779,0.31843635,-0.06981375,-0.19386081,0.09187788,0.333595,0.24500543,0.23485072,-0.06692072,0.01433757,0.0017217811,0.21208404,-0.088162825,0.3982243,-0.10593203
-0.10912432,0.18535657,0.23362434,-0.013522632,-0.13729204,-0.06268261,0.35615733,0.027139222,0.085035905,-0.019241344,0.15762463,-0.005360564,-0.04103253,0.094923444,0.27473783,-0.14547856
0.014381035,0.115112446,0.31921586,0.11598266,-0.18581425,-0.037693646,0.40006417,-0.30354637,-0.2732836,0.114650585,0.39909673,-0.15439622,-0.13071625,0.1826574,0.21666157,0.41108492
0.06144218,0.04658983,0.2719609,0.052366246,0.024503572,-0.05604662,0.23389988,-0.28959757,-0.1185044,-0.046210043,0.3222376,-0.3640679,-0.1562054,0.054498997,0.12993425,0.19394027
0.23762622,-0.0055812253,0.3945376,0.05895473,-0.028903758,-0.024840318,0.28566435,-0.08782319,0.0011228586,-0.1232125,0.25877383,-0.005076822,0.15328863,-0.17029013,0.36709702,0.09206283
0.13599806,0.113561735,0.40000063,-0.10532496,-0.13144225,0.039808035,0.31641492,0.26029855,0.10968175,-0.15155308,0.17987148,0.31989402,0.39314044,-0.15125597,0.39981374,-0.056226656
-0.09126303,0.14195609,0.25286308,-0.050790377,-0.13707371,0.051872067,0.2740064,0.3240201,0.18583302,-0.10109133,0.057425093,0.087797545,0.1908053,-0.037503973,0.38424996,-0.38724396
-0.058241848,0.14177115,0.23400289,0.0051167086,-0.16947988,-0.028378503,0.39472258,-0.07163401,-0.07415294,0.055692293,0.28388652,-0.06330664,-0.06865877,0.15956162,0.25313807,-0.23468526
0.06404276,0.12782288,0.2957768,0.021613056,-0.20457666,-0.07355818,0.39913884,-0.27258036,-0.3137915,0.028588148,0.39842263,-0.053830054,-0.168815,0.19769485,0.19250764,0.1245238
0.08034043,0.100806594,0.34662253,0.20646307,-0.02367124,-0.14199892,0.29483953,-0.1650673,-0.15898922,-0.0614332,0.385604,-0.40220398,-0.22932099,0.13907579,0.07405161,0.17022695
0.15073116,0.042826973,0.3061837,0.15416734,0.031459894,-0.13379239,0.17760673,-0.03658535,-0.020061783,-0.09746678,0.24623045,-0.20234847,-0.09197258,-0.103938185,0.20339529,0.05325716
0.247378,-0.07281362,0.40005964,-0.07658004,-0.07284779,-0.086831786,0.2421279,0.10968299,0.047887158,-0.14470163,0.23601156,0.1610897,0.15704142,-0.10295267,0.4000929,0.09454367
0.08662416,0.02316198,0.40002802,-0.07656131,-0.16278099,-0.055586565,0.2520654,0.22567597,0.16658019,-0.14319824,0.13917196,0.37735865,0.36161342,-0.05917625,0.3998729,-0.0739818
-0.13862726,0.071657255,0.33678722,-0.13137907,-0.16235635,-0.07045293,0.1903872,0.32122067,0.2097649,-0.1547573,0.044001877,0.12344358,0.21607703,0.0076192636,0.39995795,-0.27700534
-0.09324044,0.065473296,0.30522406,0.066467166,-0.15419492,-0.16977936,0.37908855,-0.15244722,0.009595795,0.0567478,0.27494958,-0.03191361,-0.040284146,0.14827725,0.23171751,-0.04589664
-0.0147239305,0.051802013,0.34817725,0.118828945,-0.049715865,-0.076840624,0.40105247,-0.23211175,-0.24703157,0.06531931,0.39995664,-0.19292057,-0.15338539,0.14452644,0.11375244,0.38547546
0.042972606,0.025778715,0.34696162,-0.0033876877,0.09655215,-0.019004527,0.23425873,-0.106948525,-0.040245336,-0.12889074,0.26192665,-0.055513036,-0.0517155,-0.13539149,0.23718832,0.25119275
0.18903275,0.046091292,0.38597894,-0.039190907,-0.04762578,0.008857907,0.3333989,-0.131346,0.055717267,-0.13339438,0.2592516,0.019352645,0.26709878,-0.19850126,0.3993972,0.14399877
-0.032596745,0.23277129,0.4000033,-0.16388646,-0.13011304,0.050675657,0.3122436,0.110182494,0.20085941,-0.10914662,0.09537249,0.19525401,0.32573053,-0.14961731,0.39991164,-0.19739693
-0.17937718,0.22206016,0.1700324,0.048553985,-0.08992017,-0.05264932,0.34738603,0.04368717,0.1360566,-0.0680522,0.11227706,0.17232579,-0.004728669,0.060059592,0.29501367,-0.20652966
0.0014731286,0.13952875,0.3299272,0.1509367,-0.19255202,-0.020388972,0.4010383,-0.17017102,-0.14704245,0.07649436,0.40004936,-0.14364886,-0.10595596,0.1316489,0.25479338,0.16174757
0.03160915,0.09796852,0.33799225,-0.01693117,-0.034283448,-0.032177113,0.38055956,-0.39924726,-0.31106955,0.0128906835,0.38998407,-0.3552221,-0.1344267,0.15413417,0.21318659,0.35147247
0.15102725,-0.0170122,0.3807665,0.32502145,0.07872377,-0.025770351,0.29084143,-0.0730587,-0.060890134,-0.13462827,0.21206225,-0.1315351,-0.04694408,-0.058464646,0.227142,0.100149
0.19705692,0.031319253,0.4000073,-0.015274016,-0.06835823,0.014202271,0.34445366,0.13372722,0.07539401,-0.1341957,0.19761544,0.06523522,0.33867934,-0.13926674,0.40009016,0.08869029
-0.026738765,0.14379227,0.4000065,-0.15822999,-0.13651626,0.019441148,0.32519826,0.1594692,0.19826989,-0.1034117,0.056846008,0.039033826,0.32853603,-0.07838145,0.39997417,-0.053637624
-0.10434641,0.1821796,0.23688714,-0.07438277,-0.11224751,-0.11532184,0.3845898,-0.077931285,0.04317389,0.052216128,0.16155176,-0.0012724972,-0.038133398,0.13832055,0.23456472,0.016030453
0.04690091,0.16114537,0.32894126,-0.018225256,-0.23420058,-0.06277706,0.39920402,-0.17731799,-0.28626284,0.09700154,0.40009588,-0.10653193,-0.115694806,0.17760788,0.2488287,0.320883
0.08691059,0.16742188,0.32620144,-0.19115144,0.00134312,-0.11683748,0.2929371,-0.2836424,-0.30199534,0.02315758,0.3989005,-0.26314935,-0.17394751,0.13746789,0.18675742,0.39531177
0.21081078,0.07503439,0.3519025,0.024064034,0.058281064,-0.06018893,0.21121804,-0.036346838,-0.07348016,-0.09835701,0.3073854,-0.16482145,-0.0401306,-0.121179365,0.30101654,0.18996197
0.20444027,0.02492993,0.40001148,-0.17789057,-0.060705893,-0.0036471258,0.25486848,0.18767358,0.0576467,-0.09605367,0.23057836,-0.00034555543,0.24316214,-0.07101355,0.3988699,0.21710664
-0.035708334,0.041348457,0.3877085,-0.26310754,-0.11102906,0.01612429,0.22136024,0.27514264,0.15099438,-0.10019665,0.09963271,0.06933448,0.23434828,-0.02529711,0.39955333,-0.03540782
-0.07161721,0.03754393,0.30411074,-0.1768498,-0.063430905,-0.10094767,0.27476138,0.032853123,0.0902736,-0.04456343,0.14278637,-0.10000037,-0.04135336,0.16392978,0.30704558,-0.1812844
0.0071554207,0.013662071,0.34110957,0.03479988,-0.16844301,-0.13793062,0.39999917,-0.26930508,-0.18410513,0.09375078,0.40008992,-0.14702563,-0.15239534,0.22728573,0.2611809,0.07107133
0.038990323,-0.017818246,0.36842963,0.23194559,0.030162366,-0.10645498,0.22418642,-0.33240306,-0.09738824,-0.017699583,0.39959383,-0.34473363,-0.22254692,0.17220211,0.15317412,0.35458332
0.15247938,-0.006478675,0.4000061,0.130075,0.017283758,-0.076647386,0.23709315,-0.24483462,0.043814514,-0.10437734,0.28578466,-0.008249271,0.012086349,-0.057829134,0.30812615,0.1735234
0.22241622,-0.022437053,0.40000576,0.042580716,-0.08981822,-0.020248935,0.2866202,-0.07784398,0.13026257,-0.12272455,0.2730521,0.17202452,0.27930522,-0.2209663,0.40000722,0.01520945
0.017584844,0.12657726,0.400007,-0.22601916,-0.17314191,0.047174353,0.2797322,0.27331954,0.2340239,-0.13424732,0.18601483,0.44793594,0.35388595,-0.17592691,0.3978695,-0.07516291
-0.052740935,0.07996023,0.29681706,-0.11945113,-0.070625395,-0.09903637,0.2983358,0.23505026,0.168702,-0.10394997,0.14232375,0.08743745,-0.025211427,0.035647705,0.30395845,-0.28681818
-0.00050724286,0.009973262,0.34496814,0.22089945,-0.16709949,-0.10020159,0.4000935,-0.04567845,-0.11942967,0.055368528,0.40005973,-0.22783242,-0.08727117,0.099070825,0.23545544,-0.176373
0.037397508,-0.044636898,0.34602052,0.27404848,0.04099468,-0.0559085,0.27356964,-0.18929248,-0.1746719,-0.011350732,0.39998493,-0.2910246,-0.1875327,0.012011448,0.1148878,-0.008312321
0.19915232,-0.075042844,0.39923656,0.1554292,0.03488164,-0.07087605,0.27899107,-0.028870206,0.0051779845,-0.05354449,0.2342114,-0.15668967,0.09410038,-0.20155726,0.31468305,0.0522944
0.20970248,-0.019834675,0.4000029,-0.07997981,-0.06890314,-0.0307952,0.33304527,0.10734352,0.08681542,-0.05982783,0.21438716,0.038283817,0.3646659,-0.16228314,0.40003046,0.10786084
-0.028132055,0.06123431,0.3813388,-0.1574148,-0.1252544,0.012631886,0.33889586,0.22865365,0.18377084,-0.07088513,0.068714604,0.27918047,0.34749052,-0.08610788,0.39887273,-0.052489817
-0.08705797,0.055068456,0.32511213,0.08151097,-0.10243452,-0.06815689,0.36290756,0.2644494,0.0824192,0.04907214,0.06529371,0.31313637,-0.030423306,0.14305356,0.29941204,-0.093689844
-0.02304161,0.06672586,0.3704901,0.11077381,-0.22201458,-0.04603097,0.40014687,-0.21789493,-0.26500562,0.17008817,0.40005746,-0.013513782,-0.16703929,0.19291718,0.18250355,0.23912773
-0.0137650855,0.047692016,0.3715428,0.17003395,-0.029214509,-0.05654528,0.3170456,-0.27940854,-0.2817234,0.09861637,0.39992604,-0.31630522,-0.2356884,0.13871235,0.09220431,0.4398762
0.10826376,-0.0075452044,0.34897545,-0.0054890784,0.042783134,-0.023962148,0.2190034,-0.25866213,-0.014447599,-0.03796653,0.16383012,-0.16304117,-0.07321365,-0.11937609,0.26587817,0.30578443
0.16593704,0.042313118,0.40000644,-0.03702733,-0.1375408,0.06261067,0.33837312,-0.07876186,0.09308254,-0.052529484,0.16702846,-0.06252179,0.2678814,-0.28579053,0.4000765,0.1749775
0.030100504,0.20534508,0.39791477,-0.03706193,-0.21363786,0.088255785,0.33178377,0.123755515,0.18060617,-0.0742473,0.09356433,0.22652985,0.43165106,-0.24332699,0.3999515,-0.08713297
-0.1752492,0.17094466,0.2232756,-0.09613022,-0.19740218,0.116649665,0.2765174,0.34129253,0.20833671,-0.06551174,0.024897486,0.26372954,0.14517704,-0.07993004,0.39997044,-0.25833914
-0.066899695,0.15196839,0.26955828,0.06991122,-0.21765578,-0.023290906,0.39999864,-0.20001803,-0.06182998,0.07842137,0.342205,-0.060032584,-0.07313602,0.13737445,0.24580154,0.18180326
0.0073723923,0.11763516,0.30355093,0.15019558,-0.12281889,-0.040367287,0.40010795,-0.41250694,-0.2941512,0.049751885,0.39948225,-0.18144801,-0.16117057,0.15598492,0.16912383,0.44115087
0.03965214,0.0746379,0.24594805,0.24994747,0.03029819,-0.03750574,0.26573452,-0.20985143,-0.05557087,-0.08388877,0.2795507,-0.3398486,-0.15330082,-0.01716519,0.18236351,0.21258686
0.22203775,-0.013570972,0.3929672,0.12459175,-0.059511665,-0.0050988933,0.35214397,-0.103590414,0.04592956,-0.15466575,0.24486811,-0.019966701,0.2002438,-0.18332407,0.40008125,0.18450548
0.13066249,0.10325944,0.39393735,-0.07946967,-0.14090264,0.033409152,0.35860547,0.07001701,0.14251994,-0.14706828,0.16883096,0.10340452,0.39698002,-0.12692659,0.39258155,-0.07330845
-0.16049033,0.20911813,0.29268512,-0.08344479,-0.15698625,0.061398733,0.32305196,0.21009001,0.22515748,-0.12753774,0.021446567,0.25257498,0.13552068,-0.008907173,0.39927006,-0.30345243
-0.08250625,0.18216099,0.28372848,0.07177429,-0.2036949,-0.07271604,0.3866142,-0.2253981,-0.016814599,0.048180737,0.25911915,-0.05524958,-0.0830605,0.13950372,0.3287137,-0.045510195
-0.011049996,0.11661155,0.34558776,0.17242184,-0.18379056,-0.010393713,0.40102193,-0.26030862,-0.2025254,0.11666513,0.40006864,-0.32659993,-0.1525809,0.18524528,0.31182367,0.34396964
-0.006747798,0.051008265,0.29733166,0.3291678,-0.02429759,0.009350668,0.26815087,-0.19353639,0.019026656,-0.054412283,0.26520386,-0.32927355,-0.16023088,-0.0005030112,0.2599815,0.050441924
0.16684568,-0.0045838393,0.4000016,0.11988568,-0.077541456,0.013931306,0.3082292,-0.14521255,0.10890665,-0.091130726,0.21584696,-0.015968272,0.16109885,-0.17577755,0.40006912,0.084903084
0.02236498,0.11119718,0.40000558,-0.13043162,-0.17853399,0.062452372,0.3289531,0.14645994,0.19917181,-0.0975518,0.16054933,0.14809076,0.38128564,-0.14959611,0.39986587,-0.016114775
-0.17239326,0.14420423,0.30367842,-0.09547905,-0.20128097,0.09903593,0.30799124,0.2842465,0.2463851,-0.10820624,0.061382122,0.12444903,0.26751915,-0.04770522,0.39998177,-0.1478469
-0.14701276,0.12257931,0.27220616,0.049463652,-0.20347744,-0.029444598,0.40146595,0.00034375163,0.09100997,0.03963909,0.18684451,-0.039845843,-0.008452219,0.14967164,0.2701792,-0.18693596
-0.05079619,0.08282349,0.34693107,0.18633081,-0.23360392,-0.030659053,0.39482805,-0.29475012,-0.18808606,0.10689307,0.391133,-0.14967968,-0.095147535,0.17625962,0.22317775,0.12265182
-0.03190138,0.022709524,0.34396607,0.26659825,-0.008625575,-0.01104119,0.25526273,-0.17299002,-0.062131885,-0.061941165,0.27578557,-0.19939442,-0.06298741,0.009926997,0.17248088,0.018411295
0.17915486,0.03453707,0.39742887,0.19878109,-0.1284798,0.011170125,0.3311115,-0.10681664,0.07828008,-0.12659305,0.22424069,0.106228836,0.3362342,-0.20595898,0.4000057,-0.09499165
0.045963332,0.19355938,0.39803725,-0.011927351,-0.1881231,0.013304552,0.31634665,0.0633734,0.16951422,-0.1363566,0.13889094,0.33428755,0.39635795,-0.16042277,0.39999762,-0.21776831
-0.12921865,0.17624275,0.23574069,0.047874272,-0.15564728,-0.0065078815,0.3025044,0.3134968,0.19774854,-0.03852314,0.08026634,0.0031011512,0.10471343,0.0037735067,0.37212417,-0.28017542
-0.04605104,0.16862586,0.31940597,0.055838376,-0.3113529,-0.08847137,0.39997712,-0.22079737,-0.14832057,0.23215097,0.4001189,-0.19336742,-0.06456793,0.12889783,0.26935634,0.066843234
-0.016485969,0.13539176,0.34072438,0.015140863,-0.17411822,0.046015665,0.39838347,-0.30156898,-0.32890156,0.26609418,0.3978372,-0.19480854,-0.14257096,0.13371393,0.17349985,0.35923925
0.052042603,0.041819885,0.2669441,0.28095782,-0.06797545,0.12644063,0.26444334,-0.031242147,-0.0628786,0.04363431,0.22229934,-0.15339372,-0.033843324,-0.039077997,0.18606941,0.28577313
0.2176808,-0.06707372,0.39942932,0.1308063,-0.12520838,0.1027207,0.31112272,-0.029779114,-0.019795803,-0.021392887,0.21700346,0.12031115,0.23014578,-0.24064104,0.4000142,0.0012242689
0.12756556,0.03751499,0.40000263,0.04277995,-0.20821826,0.15366036,0.33288217,0.23500805,0.061616555,-0.021980751,0.1629605,0.24975435,0.4269619,-0.21635662,0.40004152,-0.051366597
-0.12143622,0.15497535,0.33538714,-0.08140977,-0.2420182,0.16132347,0.3059861,0.2979918,0.1646979,0.030260801,0.07331395,0.2113419,0.2809976,-0.109006844,0.39798695,-0.09300967
-0.11983082,0.16726479,0.35274127,0.06889786,-0.2154299,0.024177723,0.4000624,-0.109673664,0.006295583,0.2178448,0.25477442,0.03469617,-0.015333634,0.14017284,0.26930076,0.04222731
-0.09877089,0.09355781,0.37856668,0.0407821,-0.18212621,0.08691224,0.3973785,-0.41097286,-0.24808346,0.22362538,0.40005282,-0.16638078,-0.054214742,0.16864266,0.2194132,0.41444412
-0.0733353,-0.015950667,0.3892934,0.2459717,0.06534958,0.075241715,0.32092282,-0.20683905,-0.17351973,0.07449621,0.3750595,-0.47442096,-0.14146656,0.06783213,0.1442553,0.48979813
0.15221159,-0.0808165,0.4000059,0.09870712,0.066057615,0.07564832,0.31766358,-0.13129158,0.030175667,-0.04722403,0.25811487,-0.095466524,0.10982548,-0.22743587,0.40024784,0.32679635
0.15706739,0.0640792,0.40000576,-0.116060205,-0.033814464,0.09117046,0.3611771,-0.11420055,0.114373825,-0.058260918,0.23698525,0.056870285,0.3118128,-0.26638052,0.40003645,0.00448356
-0.09737464,0.2236936,0.39109334,-0.11641547,-0.07313697,0.15864794,0.32775143,0.21101695,0.20404293,-0.059618734,0.109192945,0.21858905,0.14702031,-0.18393588,0.39164594,-0.23613685
-0.15517402,0.18543603,0.28588647,0.04410148,-0.13345173,0.049226005,0.40009606,0.010167738,0.037885103,0.12023935,0.2441121,0.069538884,-0.1936614,0.053658064,0.19695891,-0.045954652
-0.13389091,0.16235141,0.3429698,0.026510058,-0.22980464,0.12873445,0.3992881,-0.3123458,-0.23599286,0.25054923,0.40005782,-0.12773915,-0.22277398,0.10582545,0.2065442,0.28758985
-0.1282851,0.040727727,0.32842577,0.20148462,-0.008479961,0.07590959,0.30870637,-0.36360502,-0.039512027,0.04973976,0.3264221,-0.4319282,-0.21083204,0.004009349,0.18009846,0.31772658
0.13452697,-0.124461904,0.40004194,0.18537304,-0.050377272,0.0633133,0.37575668,-0.39678547,0.10675553,-0.057502,0.17979431,-0.15859243,0.181931,-0.27761763,0.40014267,0.31842756
0.13291785,0.024296548,0.39597836,-0.04613739,-0.13109268,0.1088636,0.3991504,-0.20784678,0.15538889,-0.09930315,0.15810773,0.10497591,0.41942313,-0.25558376,0.39099523,0.046690933
-0.12034923,0.19261336,0.29636028,-0.122479305,-0.179897,0.12329368,0.33652902,-0.02233719,0.2655711,-0.055381842,-0.014910512,0.10793129,0.19107966,-0.12753849,0.39815566,-0.19290662
-0.06117614,0.14258997,0.30762365,0.12558457,-0.23841019,0.0060654283,0.4001288,-0.20796187,-0.0054325634,0.14019623,0.37587127,-0.17203806,-0.0805383,0.092642754,0.27602988,0.056020528
-0.04093393,0.10157781,0.33142534,0.23429798,-0.033243284,0.0071817525,0.40123314,-0.30127016,-0.22721927,0.08363564,0.40028065,-0.33377123,-0.099454,0.11978218,0.25860414,0.36960462
0.06128462,0.016925132,0.31220162,0.3396596,0.076528504,-0.033742435,0.3174082,-0.29039034,0.0007374854,-0.044662584,0.17154147,-0.262899,-0.017228786,-0.06987098,0.2588691,0.36410433
0.18594779,0.03347012,0.39895222,0.07376591,-0.042228602,-0.026999397,0.38048056,-0.24705961,0.08123718,-0.11876902,0.15717553,0.20626386,0.33807817,-0.19343138,0.40001634,0.20008978
0.048532505,0.17577404,0.39905718,-0.055785794,-0.09508344,-0.0027306145,0.37934646,-0.066817634,0.14967291,-0.09697074,0.03777237,0.305941,0.38409987,-0.15248765,0.39797238,-0.0032148783
-0.17985572,0.13664436,0.29567817,-0.1276748,-0.07168243,-0.016189728,0.3187535,0.08298633,0.1374323,-0.023160538,-0.031874772,0.2703891,0.10088399,0.016785342,0.38587415,-0.069600835
-0.10172534,0.07750856,0.3173504,0.12361081,-0.21853943,-0.059464134,0.39956456,-0.16601509,-0.079472534,0.113444105,0.2963541,-0.11474633,-0.06055097,0.13214876,0.29719353,0.28943443
-0.05316443,0.077584855,0.3358201,0.09858067,-0.11083918,-0.09835925,0.3705785,-0.3535902,-0.29374412,0.06580544,0.39993852,-0.27672225,-0.11663941,0.15183608,0.26532078,0.5285039
-0.014687148,0.012463292,0.28821585,0.11683152,0.06831763,-0.08893536,0.23985532,-0.18121776,-0.08897047,-0.1532013,0.2909805,-0.20911804,-0.1826643,-0.04299627,0.17077537,0.19365318
0.15798299,-0.019487517,0.39643228,0.24698016,-0.020613153,-0.109710895,0.29366666,-0.18873377,0.055523805,-0.21882313,0.19613221,0.040883664,0.18351232,-0.26564997,0.40007567,0.22056836
0.1296599,0.11805779,0.3998455,0.045001052,-0.11348326,-0.0753417,0.3148876,-0.0639781,0.15191226,-0.21239498,0.10892365,0.14669399,0.40997586,-0.21320087,0.39816344,0.08506472
-0.073204406,0.22587937,0.40003425,-0.07883417,-0.18092743,-0.04947999,0.29125252,0.13610047,0.25449532,-0.17581752,0.005107187,0.17289655,0.31578693,-0.16494738,0.3985113,-0.03790787
-0.14941089,0.1079896,0.23633838,0.21889593,-0.13299178,-0.15032661,0.34245574,-0.06214545,0.08538323,0.0007492016,0.16862468,-0.17695978,-0.046903968,0.007060324,0.32542348,-0.22160706
-0.0051269974,0.06452093,0.3464208,0.22615193,-0.19732614,-0.10346095,0.40117955,-0.20406711,-0.16725448,0.11578083,0.39818078,-0.184064,-0.14027153,0.09884892,0.31199825,0.2975789
0.02096107,-0.008082595,0.3493834,0.35349414,0.025412114,-0.091636784,0.27779818,-0.2764683,-0.07065231,-0.033120777,0.37634617,-0.27154645,-0.1920088,0.050135963,0.26375258,0.24298336
0.1890846,0.00410408,0.400004,0.11637074,-0.08243344,-0.10237179,0.33312717,-0.31212136,0.112072214,-0.0776665,0.2275414,-0.13560654,0.15161562,-0.18116304,0.40010342,0.22134669
-0.0026861308,0.13720468,0.4000174,-0.06468391,-0.19181912,0.0085836565,0.34508446,0.14386083,0.23929463,-0.09036322,0.07906796,0.105998866,0.39774677,-0.12443081,0.39980468,0.029585075
-0.17010501,0.15823485,0.20489691,0.0012061289,-0.13880113,0.00881835,0.2889835,0.15397856,0.22487867,-0.06273815,0.018682435,-0.09115798,0.1429132,0.0026536074,0.39751813,-0.3304743
-0.048405588,0.11192702,0.29600328,0.16889173,-0.2572665,-0.07489506,0.40005735,-0.06890274,-0.10885051,0.16424544,0.4001454,-0.10945957,-0.05594412,0.124438494,0.31946796,-0.16523509
-0.0023617933,0.065769464,0.30174348,0.29464242,-0.12359444,-0.08466004,0.39984962,-0.17925267,-0.22113092,0.12488985,0.3994197,-0.17983694,-0.15349294,0.15614364,0.23962915,0.25919908
0.09523368,0.017531538,0.32332575,0.19950041,-0.03993987,-0.04128909,0.25752366,-0.035007477,0.022318333,-0.069001734,0.21760052,0.04165731,0.064551085,-0.106244974,0.3366561,0.18133694
0.13173273,0.04653963,0.40000522,0.001316522,-0.17153154,-0.009212222,0.3099532,0.062407397,0.119191505,-0.06562043,0.15786946,0.08182917,0.34021196,-0.15419278,0.40000588,0.10554584
-0.10831444,0.14830115,0.357559,-0.089678355,-0.2544157,0.033401914,0.28077602,0.32725173,0.21579747,-0.08117114,0.045098513,0.2860524,0.328742,-0.08707964,0.40001193,-0.1781963
-0.14329469,0.121058986,0.25287592,0.10928691,-0.24231592,-0.10872505,0.38216278,-0.044995476,0.06550522,0.043775514,0.1463524,0.04809951,-0.0030157573,0.10217385,0.32668126,-0.25892466
-0.05218921,0.0711066,0.33812523,0.21508753,-0.2837094,-0.04597798,0.40002266,-0.26551476,-0.18082762,0.105257906,0.39880863,-0.112062894,-0.07390605,0.20101082,0.318508,0.33699706
-0.01732474,0.014000329,0.32475632,0.16443662,-0.029031837,-0.0018969715,0.30803275,-0.1811753,-0.10726577,-0.021931468,0.38124394,-0.29342145,-0.14542474,0.16580068,0.250246,0.20028529
0.16585794,-0.043522198,0.40001538,0.118066065,-0.06922079,0.010770496,0.35076275,-0.072692186,0.05466046,-0.104204744,0.23905316,-0.119853854,0.1822791,-0.099336445,0.36747226,0.23828971
0.13364382,0.023097424,0.40003726,0.031949256,-0.15362713,0.051864237,0.3552471,0.23355772,0.14310533,-0.1853859,0.18195067,0.54306006,0.47282228,-0.15966634,0.40004086,-0.019829603
-0.13203876,0.16216175,0.39618182,-0.107163765,-0.2046249,0.06392618,0.33552906,0.30906963,0.2502104,-0.14682475,-0.029587034,0.11207741,0.27958813,-0.07221137,0.39996362,-0.2447358
-0.13706452,0.06766143,0.30956668,0.22094928,-0.2532968,-0.08367749,0.39821154,0.03126245,0.023639759,-0.007551983,0.17389128,-0.0413213,-0.029390967,0.15160212,0.32508475,0.018026559
-0.051053762,0.018782867,0.37842968,0.22700772,-0.13194633,-0.04971858,0.38378385,-0.32145625,-0.18674545,0.046664592,0.3889286,-0.23431471,-0.14334328,0.14626543,0.24668016,0.24835023
0.026323542,-0.06960663,0.3401756,0.50514126,0.035705946,-0.07637013,0.26372293,-0.14042993,0.0073124464,-0.12077533,0.24231063,-0.20567167,-0.08315029,-0.02622403,0.19325525,0.16456316
0.16038719,-0.07157672,0.4000222,0.053863067,-0.05239061,-0.064990215,0.3065915,0.04961642,0.10698707,-0.13879451,0.19585544,-0.06701283,0.28345484,-0.13959882,0.4001204,0.11628206
-0.043512933,0.1127901,0.4000057,-0.13862465,-0.14064452,-0.057888206,0.29891434,0.13153356,0.21942462,-0.13788658,0.04076515,0.13929257,0.3515181,-0.06557911,0.39971837,-0.0048433547
-0.12129649,0.09243127,0.24353251,0.15802531,-0.083027706,-0.15588947,0.27294466,0.07051607,0.14255942,-0.09572171,0.0705211,0.00022639082,-0.008859838,0.12159526,0.30884057,-0.1007894
-0.05892188,0.09276841,0.3076179,-0.0619368,-0.26373586,-0.11830105,0.39228082,-0.21431012,-0.14652817,0.10801211,0.39969197,-0.15992661,-0.08624143,0.18568715,0.28560814,0.09429004
0.011278456,0.0036354254,0.33601213,0.29171765,-0.15963,-0.11047171,0.39257234,-0.2976181,-0.2525403,0.07386157,0.39999866,-0.35577947,-0.18984333,0.20862235,0.18463702,0.46918797
0.028653314,0.016861131,0.32586297,0.21664195,-0.00093959965,-0.053648755,0.19627506,-0.20400055,0.01601212,-0.08205929,0.2583139,-0.2851896,-0.113780685,-0.0024271505,0.21215872,0.24826515
0.18742906,0.008254476,0.400059,0.08946632,-0.1539714,0.01093625,0.30057862,0.002366235,0.10828404,-0.11150278,0.23831528,-0.14148386,0.2497285,-0.13943855,0.3967741,0.0943542
0.03240958,0.17670673,0.40002832,-0.012139662,-0.25335354,0.047257353,0.3053947,0.22825398,0.20424604,-0.12112701,0.13802256,-0.038777106,0.4715831,-0.093970515,0.40008485,0.010983718
-0.18264236,0.22803327,0.3068997,-0.008892487,-0.26820752,0.031790476,0.2637677,0.24913888,0.23071331,-0.12201454,0.06443226,0.035086557,0.28614056,-0.029334817,0.3999931,-0.267819
-0.16262913,0.16939427,0.2941971,0.1592448,-0.23370509,-0.06701425,0.39998505,-0.20278138,0.055117328,0.020922957,0.24602494,-0.039837196,0.050914995,0.11516227,0.3394465,-0.24616906
-0.10471039,0.14329222,0.34777552,0.10859974,-0.20788983,-0.038027003,0.3993744,-0.4064095,-0.20582345,0.13706505,0.40009636,-0.11106298,-0.008449442,0.15703732,0.2914833,0.11890653
-0.085707314,0.08464699,0.28124532,-0.014424674,-0.03777399,-0.07168678,0.29168662,-0.20042548,-0.054665066,-0.08009659,0.32061985,-0.37451753,-0.103295565,-0.026963344,0.18362978,0.09704179
0.12582955,-0.036525257,0.40002382,0.15038462,-0.09384401,-0.044896174,0.3200828,0.11462816,0.0971493,-0.17973806,0.18328315,0.12714568,0.30259997,-0.21662438,0.4002475,0.10388639
0.01208062,0.06715071,0.40002316,-0.12213597,-0.18764241,-0.03335606,0.3481574,0.1286537,0.1713964,-0.17494845,0.11650204,0.19100222,0.47516516,-0.15138647,0.40000048,0.033157483
-0.14275654,0.13106251,0.29935053,0.020892734,-0.16455251,-0.06892735,0.31867707,-0.038797773,0.18011223,-0.14247857,0.08163426,0.2606868,0.14331935,-0.0018117557,0.38574028,-0.09202537
-0.07908109,0.05622464,0.3841397,0.2112841,-0.24464908,-0.029326553,0.40007523,-0.3263103,-0.14196408,0.0912204,0.40008655,-0.15024605,-0.023532439,0.14893413,0.25300142,0.28416944
-0.059841506,0.0046980963,0.3850841,0.3149387,-0.082261615,-0.077761054,0.36360085,-0.42746314,-0.20165646,0.039034452,0.3900655,-0.41049442,-0.095574476,0.10245079,0.16915305,0.23151565
0.06969879,0.010734106,0.4000015,0.2141766,-0.042865057,-0.07897702,0.28901798,-0.031166485,0.063203216,-0.10970309,0.17466533,0.00992888,0.11511777,-0.17539434,0.31353945,0.24300525
0.04407819,0.09102517,0.40000904,-0.009359055,-0.17709422,-0.035802267,0.35922596,0.14774068,0.15349329,-0.12873629,0.14581847,0.18318401,0.42618346,-0.20640291,0.40004995,0.05549631
-0.18301119,0.10930738,0.3510351,-0.0041946657,-0.21825422,-0.015252786,0.33993062,0.28207055,0.24005577,-0.105335645,0.008826459,0.39265004,0.37895936,-0.11710916,0.39989877,-0.046201304
-0.22569782,0.08762231,0.2947573,0.104676686,-0.287485,-0.100724116,0.39199844,-0.09495435,0.035591073,0.07215671,0.17877711,0.08471668,0.05043017,0.10825873,0.25623977,-0.06575327
-0.17787251,0.040048547,0.34506446,0.02934006,-0.24209554,-0.026192209,0.3981759,-0.35755184,-0.2754959,0.17079878,0.39941618,-0.15885548,-0.008794839,0.15399489,0.24656017,0.3738108
-0.07092928,-0.0648807,0.32811677,0.13668254,-0.013817244,-0.029325979,0.27815002,-0.2747129,0.019058175,-0.03969484,0.21964435,-0.18006517,0.015354708,-0.049634777,0.19720991,0.12857541
0.12834978,-0.10850054,0.39484933,0.04728464,-0.12205612,0.008266768,0.35747945,-0.15395367,0.103818014,-0.119289406,0.2337729,0.069258176,0.3209983,-0.20824277,0.40005243,0.16527346
-0.035615124,0.094434895,0.40000382,-0.12900281,-0.24252656,0.078585796,0.3706965,0.13934825,0.24224354,-0.08723838,0.07198643,0.06925873,0.4657001,-0.15873629,0.39805126,0.09480797
-0.12594338,0.09749342,0.27410305,0.19969279,-0.18793383,-0.04465606,0.3595809,-0.11809363,0.1771893,0.024565686,0.12552483,-0.007985852,0.056266297,0.07789021,0.3023966,-0.011050838
-0.09216524,0.14112173,0.35374713,0.12334256,-0.2797609,-0.05708861,0.39992967,-0.23664087,-0.13578524,0.13753428,0.40008062,-0.13148563,-0.0025735802,0.15426403,0.27884135,0.2575892
-0.04771003,0.0663069,0.36891654,0.2211135,-0.06862966,-0.062425543,0.40008122,-0.41487908,-0.3313034,0.09229671,0.39985907,-0.3452322,-0.08457489,0.14765814,0.17347056,0.50456583
0.04117553,0.0089660445,0.33000544,0.17360884,0.06953495,-0.04017919,0.2646318,-0.12935185,-0.026049187,-0.08905884,0.18091433,-0.1502,0.0033567483,-0.095733054,0.22600093,0.2927155
0.17008558,-0.0031871283,0.4000118,0.009841497,-0.053118505,0.008564222,0.34261438,0.016868174,0.061414994,-0.11389151,0.14513437,-0.07408696,0.35341445,-0.16643597,0.4001836,0.24132437
-0.08145344,0.1446782,0.4000314,-0.08636326,-0.14908934,0.019825565,0.3015629,0.25580004,0.19602,-0.13492484,0.017177515,0.22521901,0.289009,-0.11182706,0.399962,-0.040942255
-0.17670782,0.1013704,0.28919217,0.12682052,-0.17643075,-0.10531848,0.3805198,-0.098936215,0.049122397,0.003367325,0.14833917,-0.0024657368,-0.058697686,0.13577758,0.30727616,0.035452742
-0.11050065,0.0777709,0.37205103,-0.011951468,-0.14438574,-0.06463541,0.39991158,-0.30923957,-0.17280024,0.07080075,0.39756292,-0.21378638,-0.12396252,0.1807923,0.3033549,0.38394174
0.006024315,-0.02953853,0.32253224,0.24755809,0.061895996,-0.051351994,0.28209427,-0.13646896,0.04936373,-0.07240575,0.18319663,-0.21295348,-0.056714974,-0.02161237,0.31374982,0.24562779
0.18747017,-0.12150416,0.39148358,0.05756615,-0.04501336,-0.0376745,0.3469423,-0.03924265,0.07075988,-0.1558836,0.25223833,0.11276721,0.26231676,-0.23930061,0.4001651,0.09975306
0.041398283,0.047757857,0.39714256,-0.10747198,-0.1331603,-0.023152828,0.3481022,0.085244864,0.18212728,-0.12723266,0.0919044,0.1990212,0.4924886,-0.13793196,0.39970475,-0.037611604
-0.13966851,0.071457125,0.22534055,0.12588881,-0.11554642,-0.089203,0.3445823,-0.022567565,0.10056289,-0.021475866,0.09615039,-0.0013713859,0.04289319,0.08508524,0.29584518,-0.1573245
-0.023188079,0.024695395,0.3204628,0.188893,-0.2631889,-0.11856156,0.4000257,-0.2873289,-0.17214571,0.09933464,0.40006688,-0.23685378,-0.06766188,0.17644416,0.252942,0.33671442
0.00066467805,-0.0024425318,0.3102471,0.19363554,-0.0026607,-0.10926629,0.2802091,-0.31645593,-0.09150807,-0.034048975,0.3964037,-0.32550642,-0.17010902,0.13500392,0.17444782,0.225921
0.11359439,-0.023495309,0.36537874,0.14508593,0.002888664,-0.09978784,0.25874946,-0.20382018,0.07890628,-0.14012116,0.21088883,-0.1466723,0.056304723,-0.08163758,0.31258297,0.15412194
0.14104785,0.027391478,0.3996673,-0.054266747,-0.123373576,-0.03982218,0.29663846,0.025553802,0.18842,-0.17731452,0.1362714,0.16673031,0.38832393,-0.08879033,0.3978408,0.1300407
-0.11398903,0.16765417,0.38696197,-0.15391618,-0.17591628,0.0070882468,0.2693212,0.2782919,0.25658697,-0.14763886,0.0363597,0.22614081,0.28263783,-0.01653718,0.39996317,-0.20877169
-0.08777722,0.1473675,0.3275637,0.016503435,-0.21159339,-0.068023756,0.39995864,-0.030966567,-0.07455172,0.11620893,0.3551382,-0.07413488,-0.0028974526,0.22126618,0.31256148,0.054138407
-0.048677385,0.13099867,0.37318242,-0.009358615,-0.2655721,0.015095331,0.40049142,-0.20738149,-0.3350927,0.14135037,0.40004846,-0.13743533,-0.072121225,0.2766746,0.27548492,0.50853753
-0.047186323,0.10559457,0.36601314,-0.12636973,-0.021041302,-0.08460035,0.38802728,-0.3232259,-0.2510973,0.06634399,0.3849209,-0.35890645,-0.15272461,0.2056388,0.14881282,0.45833933
0.0635141,0.078362346,0.38060465,-0.0042082933,0.056491267,0.031013394,0.16348438,-0.08522991,-0.025164297,-0.10056832,0.27315584,-0.09625812,-0.038794383,-0.010359241,0.24619804,0.18020661
0.15259978,0.10719729,0.39749786,-0.07795315,-0.13411911,0.07291854,0.27936658,-0.06753589,0.08041155,-0.12567534,0.27605677,0.016809074,0.24592394,-0.14014824,0.39999387,0.115187995
-0.053853065,0.17094435,0.40001,-0.12387932,-0.23914301,0.1319874,0.26034972,0.23444265,0.21111538,-0.08879696,0.1473486,-0.04537897,0.3027531,-0.08665608,0.39991415,-0.17571446
-0.11915604,0.16442636,0.29837072,0.006163457,-0.14888062,-0.048450403,0.33335075,0.010130105,0.0840399,-0.02906086,0.1989926,-0.17620222,-0.011637786,0.09538224,0.3099348,0.0019064397
-0.09484678,0.15376821,0.36114758,0.09407648,-0.19271389,0.0038137555,0.40029812,-0.32375002,-0.2608954,0.18990348,0.4000726,-0.25232092,-0.0726919,0.1653145,0.2970987,0.40443155
-0.08537776,0.092309296,0.29,-0.10009305,-0.014741352,0.0051355427,0.28046602,-0.2597346,-0.14552693,0.025686106,0.32739505,-0.41398028,-0.14884445,0.05314322,0.19831333,0.38061044
0.121870846,-0.060636416,0.39951864,0.2296615,-0.02054223,-0.0015088528,0.26421595,-0.09880349,0.012640414,-0.100784294,0.15707171,-0.04430039,0.15843225,-0.16281684,0.30282772,0.30839515
0.09484906,0.08298232,0.39893076,0.07532561,-0.14785683,0.026589617,0.30430454,0.18860388,0.12854083,-0.12381432,0.07577812,0.1779127,0.45888937,-0.20553517,0.3984136,0.095567025
-0.11484394,0.144756,0.36992115,-0.06726726,-0.20030542,0.022807157,0.28413105,0.21924202,0.22321595,-0.07287071,-0.04513041,0.119141825,0.34782892,-0.13015969,0.39999056,-0.088347085
-0.15001725,0.09084494,0.24942593,0.107544445,-0.20152618,-0.08299475,0.3945157,-0.041820876,0.079464234,0.023713645,0.112182304,-0.027635647,0.008502767,0.07197455,0.25345975,-0.1052103
-0.06828262,0.06710803,0.3242496,0.087418,-0.28571853,-0.03731781,0.40000853,-0.40893292,-0.19562344,0.09943184,0.3992309,-0.13444193,-0.04120941,0.17195767,0.27797434,0.41756818
-0.03149456,0.0169599,0.33425286,0.24055152,-0.091913246,-0.072717406,0.39347896,-0.54820883,-0.16838156,0.043222554,0.3991309,-0.33776656,-0.11049272,0.1698043,0.19823828,0.59554607
0.054645784,-0.06697171,0.3646161,0.29297358,-0.011727993,-0.015656311,0.32444996,-0.118989885,0.09673956,-0.11813612,0.20150664,-0.12887344,-0.042180814,-0.04839253,0.29000914,0.32993212
0.1311986,-0.009098929,0.39922088,0.039127626,-0.113729134,-0.037975606,0.37468535,-0.045267835,0.12996024,-0.16311021,0.28361347,0.068081945,0.34379348,-0.2169171,0.39876077,0.08489725
-0.03698843,0.12967421,0.39999837,-0.1482935,-0.2001545,0.04770872,0.39923877,0.27854747,0.20973891,-0.15624095,0.16082709,0.20074035,0.4305426,-0.14895685,0.39974347,-0.03750148
-0.22798572,0.15347895,0.2511221,-0.0072779716,-0.1780461,0.015928868,0.3459789,0.13569969,0.2465431,-0.08688079,-0.010625812,0.20625022,0.11275243,0.008499293,0.39500493,-0.17317988
-0.1469962,0.09857871,0.3313669,0.22436765,-0.30887693,-0.025972214,0.40030366,-0.10930655,-0.08220571,0.16243482,0.36504915,-0.062327944,-0.057907484,0.11459549,0.28008094,-0.02571381
-0.14288725,0.04606092,0.32315272,0.35629115,-0.09746346,0.0042600976,0.33213758,-0.32104293,-0.12961824,0.07607488,0.38041335,-0.4292367,-0.14097379,0.034013752,0.18902324,0.14140514
0.07636713,-0.037504755,0.40002397,0.26358128,-0.061440904,-0.039457854,0.29989687,-0.12273965,0.101487964,-0.09134,0.20096579,0.00874587,0.19490461,-0.2249841,0.3257396,0.22085878
0.08384616,0.020602854,0.39932385,0.16154355,-0.17450503,0.005367373,0.3326067,0.10855853,0.18634753,-0.09849321,0.1642675,0.16419204,0.45718834,-0.19444293,0.4000051,0.032498904
-0.13047595,0.11043414,0.4010848,0.009943581,-0.23836668,0.052382562,0.33986676,0.3208396,0.24589688,-0.10618868,0.039330855,0.39944747,0.3378568,-0.11692516,0.39836684,-0.20837522
-0.16716957,0.100653954,0.2622005,0.09058393,-0.26289982,-0.04640678,0.40009877,-0.020449892,0.09960269,0.07194388,0.14429608,0.11570878,-0.03120974,0.09664102,0.26083925,-0.20238553
-0.08544755,0.06539671,0.2969253,0.2017338,-0.30893606,-0.039061617,0.40009993,-0.2886449,-0.137132,0.12348186,0.40004683,-0.11115152,-0.116349384,0.17843898,0.2587661,0.28124255
-0.03769333,0.0034682127,0.27598304,0.475433,-0.07539171,-0.055471096,0.27064523,-0.2744138,0.03873775,-0.04494005,0.30866072,-0.25328705,-0.16032408,0.058289595,0.25207615,0.17746775
0.13262363,-0.04241988,0.40001357,0.2235589,-0.15419573,-0.05460049,0.3382001,-0.16465144,0.14765623,-0.080310054,0.20532855,-0.09639306,0.20261618,-0.18263474,0.40006286,0.1427197
0.05718236,0.05922095,0.4000086,-0.0051614256,-0.26622167,0.004149415,0.38258082,0.023266628,0.23613758,-0.08409764,0.13217273,0.03382381,0.45627204,-0.16654073,0.4000432,0.05195367
-0.13105509,0.092197336,0.23143052,0.1353285,-0.21893941,0.08026458,0.35506225,0.2462124,0.22217181,-0.08603198,0.026020747,0.2453859,0.116854236,0.029328778,0.3945515,-0.242849
-0.05645501,0.068818845,0.24156865,0.17299227,-0.2611379,-0.12712687,0.39997828,-0.21515165,-0.008917767,0.097419366,0.25463822,-0.15059853,-0.043531977,0.14206876,0.31485695,0.06533144
0.016985243,0.054157235,0.2356141,0.21918353,-0.16418551,-0.09527985,0.39912972,-0.36975014,-0.16693364,0.08996332,0.3967798,-0.20155148,-0.1480422,0.18941896,0.24909388,0.4320792
0.10101261,-0.02628117,0.33024406,0.2645512,-0.071042374,-0.07009114,0.30661497,-0.06554383,0.11239111,-0.10231324,0.21509595,-0.044979732,0.038057856,-0.03506771,0.29445517,0.15292753
0.13597684,-0.030369386,0.40001157,0.08910672,-0.17103079,-0.039750725,0.35168248,0.15635593,0.15142539,-0.13079897,0.22586809,0.10752454,0.3413995,-0.20650102,0.4001164,0.061545838
-0.104516596,0.07135051,0.37949738,-0.04395308,-0.22792964,0.0034069356,0.35728356,0.34597,0.20849957,-0.11874852,0.103573315,0.2962538,0.3908209,-0.1283233,0.39908072,-0.15634142
-0.14697228,0.07202491,0.32260633,0.10699007,-0.20430657,-0.11862795,0.3608883,0.11818534,0.0855733,0.0011569377,0.1373872,0.048398826,0.03866154,0.11251531,0.28939798,-0.21147333
-0.10766161,0.08121033,0.35862362,0.1063286,-0.2893916,-0.13765663,0.3877432,-0.27610773,-0.22752585,0.1177406,0.39144287,-0.06673032,-0.0064694914,0.16264851,0.27045545,0.13061583
-0.08389417,0.013171614,0.3586641,0.1721129,-0.058384784,-0.018296374,0.31921464,-0.25862777,-0.14454857,0.008785126,0.39941764,-0.38454148,-0.113537334,0.0914779,0.17848165,0.32993528
0.012636834,-0.026176639,0.3733163,0.29598847,-0.02651305,-0.03107093,0.28986356,-0.12699336,0.038679793,-0.08132833,0.2169304,-0.23780896,0.017704487,-0.13013372,0.32237145,0.26102495
0.1583568,-0.018444873,0.3967174,0.09297843,-0.17822571,-0.028757917,0.3779626,-0.11379906,0.10344041,-0.13450468,0.22822694,0.074087515,0.38094413,-0.23353675,0.4000772,0.14802253
0.018760605,0.15585396,0.39715382,-0.016577762,-0.26542947,0.010458773,0.39087743,0.15609671,0.19802678,-0.12357433,0.09132978,0.20947853,0.49530113,-0.18183953,0.39998698,-0.02092442
-0.23441577,0.15155858,0.2206064,0.12415384,-0.21627423,0.012814996,0.34084404,0.16236919,0.2085108,-0.06922881,-0.013804264,0.11674164,0.120911546,-0.010514375,0.38913915,-0.222699
-0.13020515,0.082841925,0.28414023,0.3026675,-0.31512094,-0.120298125,0.40142205,-0.04712568,-0.00932059,0.1544954,0.27543277,-0.08125575,-0.031441737,0.1168401,0.34154028,0.19784907
-0.06812985,0.01203566,0.2952173,0.29306108,-0.108637474,-0.16494498,0.33761615,-0.48256883,-0.13334876,0.1145691,0.3999894,-0.28207523,-0.15012471,0.10470214,0.23787123,0.25888887
0.051261876,-0.042915665,0.35024437,0.31309798,-0.029388951,-0.1380478,0.25157523,-0.16692391,0.15063709,-0.07039016,0.18934311,-0.04805386,0.019704513,-0.057783883,0.27755105,0.27796975
0.10444163,0.026082806,0.39931354,0.11593839,-0.17033488,-0.09366135,0.31170067,0.041750286,0.20021738,-0.13558711,0.2266071,0.13445407,0.41031328,-0.15071876,0.3999939,0.107535794
-0.095250204,0.090378776,0.3813018,-0.08810198,-0.23689914,-0.055105325,0.3015346,0.23208265,0.2661553,-0.12283732,0.09241298,0.12510897,0.41239437,-0.07073292,0.39993307,-0.03872019
-0.13021393,0.055591337,0.29838687,0.13118213,-0.22583686,-0.14243291,0.40008962,-0.025082184,0.07072655,0.06447447,0.22692178,-0.11594264,0.038565844,0.1467361,0.28843805,-0.119451694
-0.078988984,0.020865375,0.35325342,0.09903617,-0.29272577,-0.102560215,0.40004736,-0.1992017,-0.16574842,0.114339314,0.39998448,-0.2707733,-0.03454613,0.19146463,0.28226116,0.30661172
-0.067858,-0.024094176,0.34069046,0.25847977,0.02168309,-0.077173136,0.27761108,-0.2941332,-0.05069951,-0.08054883,0.34291995,-0.32603294,-0.114845745,0.10722118,0.21354893,0.5423309
0.109623365,-0.036168657,0.38923323,0.17117973,-0.06477535,-0.08359852,0.28655687,-0.17736733,0.05893166,-0.116340674,0.21308562,-0.13159575,0.1736271,-0.12207061,0.39925706,0.32327038
0.0035534329,0.11058921,0.39707235,-0.016516583,-0.207498,-0.008546195,0.31765658,0.18868366,0.18318014,-0.15836672,0.097428374,0.25154808,0.46457052,-0.1362455,0.39996263,0.071991935
-0.22015192,0.106420614,0.24730581,0.011012007,-0.21514475,-0.028787479,0.27167824,0.22253104,0.22536534,-0.1371762,-0.021759007,0.17524962,0.26644778,-0.027169533,0.39730376,-0.12507753
-0.14922665,0.039849915,0.27368075,0.26171887,-0.24651246,-0.18200701,0.4002785,-0.19399822,-0.03517361,0.0726921,0.2604966,-0.16312906,-0.0066097914,0.13940424,0.3005965,0.19635323
-0.06715663,-0.020291097,0.3065076,0.28331456,-0.10487615,-0.1636324,0.4013628,-0.29240015,-0.24111201,0.047877725,0.39990884,-0.3032159,-0.11952249,0.15384579,0.25692654,0.48723066
0.032346565,-0.11466234,0.3497468,0.16308135,0.015717292,-0.14573775,0.1977937,-0.22596322,0.045386933,-0.123797745,0.20692176,-0.2023875,-0.08590213,-0.028457608,0.3264076,0.38082987
0.16378999,-0.10053204,0.39938986,0.12504338,-0.1362519,-0.09601931,0.2923232,-0.021816269,0.089539304,-0.17408516,0.2439392,0.05308332,0.26138818,-0.15767908,0.40018034,0.29333305
0.037973173,0.07658598,0.39451903,-0.014562192,-0.23622009,-0.050428174,0.3137035,0.22591276,0.18323328,-0.1482692,0.10383722,-0.06579976,0.44866046,-0.13055754,0.39774108,-0.012711269
-0.20191696,0.1509107,0.2254426,0.04651676,-0.19514152,-0.11731963,0.27059692,0.1238673,0.19180237,-0.0705466,0.00931335,-0.065927625,0.14204231,0.014428126,0.3982189,-0.0076928255
-0.13426384,0.06676117,0.28503442,0.11541552,-0.28073406,-0.19603115,0.39999405,-0.2914165,-0.07563908,0.1259082,0.35475236,-0.1873777,-0.0024553658,0.13477756,0.39862013,0.3063551
-0.059868492,-0.020892043,0.32624048,0.34908238,-0.072534434,-0.18813768,0.29919025,-0.3179003,-0.065994844,0.037904873,0.3828655,-0.3529531,-0.15463698,0.09513496,0.28734177,0.17481823
0.08312429,-0.034773473,0.40003547,0.23299475,-0.113882,-0.14158458,0.27902907,-0.05826965,0.14837901,-0.08741823,0.20581754,-0.19031474,0.066229336,-0.12910733,0.38525614,0.40419313
0.07282917,0.007871921,0.39978987,0.061020434,-0.22938403,-0.08917479,0.32034427,0.24251056,0.2010428,-0.15822142,0.15109615,0.18516436,0.34887287,-0.1707287,0.4000139,0.23585545
-0.18965489,0.17796192,0.399927,0.0031774875,-0.32505637,-0.064668514,0.31146318,0.49725464,0.2840759,-0.16915327,-0.03036899,0.25983447,0.45871654,-0.09602779,0.3984802,-0.15892093
-0.2553235,0.12817563,0.28729284,0.0003274636,-0.27663502,-0.19498922,0.31414443,0.024956075,0.1688202,-0.06608919,0.03395716,-0.058799163,0.13608176,0.104096055,0.34157288,-0.096804634
-0.18612213,0.09001765,0.3851166,0.13278699,-0.30759668,-0.13928092,0.3960622,-0.34007317,-0.120015666,0.11984422,0.39989606,-0.28817606,0.014540902,0.15566564,0.37154123,0.3965687
-0.18832341,0.030980911,0.36820215,0.1459667,-0.11238772,-0.06996756,0.28955573,-0.2671304,-0.037840884,0.011858362,0.36629555,-0.41001594,-0.07726177,0.09386482,0.267157,0.38826475
-0.03765055,-0.075409494,0.34482786,0.24495876,-0.034311164,-0.18770601,0.15728518,-0.21571235,0.106597595,-0.09199687,0.15723948,-0.2166437,0.059755884,-0.14072223,0.4005764,0.53745973
0.046768043,-0.027206609,0.39999995,0.117978826,-0.20069736,-0.17404403,0.2082017,-0.0021132112,0.20068419,-0.1174918,0.07255984,0.045854274,0.39741826,-0.23406844,0.4000293,0.28201333
-0.14574975,-0.022200648,0.40001515,0.1020484,-0.31450704,-0.15235333,0.23285225,0.2607429,0.24565344,-0.12627561,0.00013526097,0.20348984,0.47906426,-0.080937654,0.39996436,0.02260393
-0.22199897,-0.014451594,0.31495988,0.05860883,-0.2699951,-0.20812386,0.21466516,0.3320084,0.16242802,-0.09351797,0.008553971,0.15765232,0.13046873,0.13934988,0.3119252,-0.117006086
-0.13272762,-0.07288753,0.36762068,0.243362,-0.23635267,-0.26908112,0.40007946,-0.32590196,-0.051376984,-0.033909056,0.35440564,-0.18805127,-0.0005781683,0.18836498,0.31402236,0.40377793
-0.116914004,-0.14024077,0.35897097,0.4226096,0.04260779,-0.25557473,0.28553915,-0.4402037,0.0050653405,-0.14740957,0.37047848,-0.36432394,-0.14395157,0.0841965,0.29648188,0.31317452
0.06104386,-0.21940567,0.40003473,0.17045122,-0.04199174,-0.21997024,0.25991583,-0.16127615,0.10716377,-0.20716897,0.30444938,-0.11023731,0.0951833,-0.1576616,0.40018046,0.28946042
0.051322885,-0.15876862,0.3970327,0.100498185,-0.21562727,-0.13970621,0.33812892,0.26065144,0.18616779,-0.25799042,0.25186214,0.1267229,0.46567413,-0.16500916,0.3988252,0.25116867
-0.16793998,-0.040959425,0.40000412,0.05292586,-0.30987465,-0.07926703,0.3456113,0.60346407,0.24859719,-0.23892334,0.10323386,-0.08097471,0.49840245,-0.0898197,0.3999701,-0.15173948
-0.19744822,-0.0916896,0.37875935,0.11763872,-0.2679675,-0.23222841,0.3146571,0.12966359,0.1662417,-0.10549558,0.123614244,0.024297949,0.16338173,0.15449628,0.31334323,-0.01534071
-0.16911995,-0.1035103,0.3835686,0.2154528,-0.23854512,-0.2577212,0.39970335,-0.26220226,-0.14058189,0.034229517,0.39996824,-0.2170821,0.045724813,0.24127197,0.29671478,0.50340796
-0.15173727,-0.15979713,0.3687908,0.24033038,0.01342039,-0.36800486,0.35646185,-0.43506718,0.004120258,-0.1005142,0.39987078,-0.3505325,-0.09165683,0.13681875,0.19769359,0.458989
-0.02083338,-0.1257417,0.36686224,0.10308598,0.040185668,-0.27308115,0.15063995,-0.031690914,0.15056705,-0.23264822,0.32113564,0.0031982176,0.00959011,-0.013071145,0.33312654,0.39099014
0.031036435,-0.08177536,0.40000382,0.013180133,-0.16611741,-0.18981458,0.27876407,0.32455504,0.20957822,-0.28165278,0.28403488,0.2386822,0.41873673,-0.13479899,0.4000042,0.101324014
-0.1513984,-0.028500658,0.40150473,0.06982853,-0.26657215,-0.10923137,0.295876,0.6549835,0.29123023,-0.27323952,0.106878884,0.28750443,0.49136722,-0.06633647,0.39725974,-0.15153953
-0.19442366,-0.03284242,0.32275766,0.18309116,-0.23705946,-0.27505168,0.39620942,0.101614885,0.03983622,-0.030016579,0.28518727,-0.03740989,0.1301922,0.17195185,0.28073162,-0.02981032
-0.15885483,-0.059974886,0.35647258,0.10827495,-0.24600606,-0.23886313,0.3998373,-0.32574588,-0.15987334,0.0036545512,0.40022102,-0.28157693,0.0361955,0.19438402,0.28098366,0.44295198
-0.1389417,-0.081133574,0.32269624,0.19534782,0.08422143,-0.28150016,0.34854978,-0.49919945,-0.069270976,-0.11264346,0.39470503,-0.45417985,-0.12649278,0.1445293,0.18311992,0.70405245
0.033452686,-0.117931806,0.36911467,0.17918359,0.034290753,-0.22601832,0.21702027,-0.20765911,0.13007295,-0.21549118,0.262556,-0.1945746,0.07731762,-0.05631663,0.30762652,0.5082666
0.061702736,-0.006413888,0.39600638,0.11328236,-0.13355635,-0.18169777,0.274805,0.13303323,0.20376773,-0.27354294,0.199343,-0.004258728,0.42457834,-0.09463359,0.39881173,0.32114545
-0.12792912,-0.0222305,0.40109456,0.13431251,-0.23853636,-0.16351485,0.27610037,0.32990175,0.25854078,-0.22751665,0.1034287,-0.046441298,0.3820952,-0.026333604,0.39998108,-0.015680205
-0.08853079,-0.09288495,0.2915191,0.34863174,-0.20290771,-0.34999093,0.39997756,-0.19661415,0.078671746,-0.009367942,0.27842513,-0.32074162,0.025703628,0.14801894,0.303467,0.11047059
-0.017820977,-0.11138839,0.3389025,0.20655672,-0.12510355,-0.37389797,0.3989948,-0.3962119,-0.05032617,-0.013758623,0.40006948,-0.40207958,-0.11090912,0.16650806,0.2458717,0.4331592
0.035603773,-0.15734357,0.3568174,0.0064640976,-0.0054518,-0.28794605,0.16339573,-0.01329614,0.15764117,-0.23565167,0.27125937,-0.008068663,-0.059605084,0.03944799,0.35879079,0.37868196
0.08234751,-0.13215241,0.40000603,0.033742327,-0.11503296,-0.26324105,0.23633535,0.11602178,0.17098084,-0.26395306,0.2599806,-0.011484318,0.24165083,-0.1618492,0.40011477,0.20609878
-0.116603255,0.0013234981,0.3469805,-0.16070281,-0.25028524,-0.1667035,0.2764905,0.58203393,0.23999658,-0.26026368,0.115081474,-0.04330509,0.40381938,-0.12143023,0.39878768,0.0036982598
-0.157115,-0.036916055,0.3016468,-0.015396281,-0.18376108,-0.33014548,0.28806016,0.14871696,0.12594002,-0.18039842,0.1343824,0.009151527,0.11408111,0.101542585,0.29189616,-0.092379615
-0.06415608,-0.07982347,0.33670336,0.18484667,-0.23618431,-0.3195043,0.39950526,-0.24005176,-0.107505016,-0.06652412,0.40002757,-0.33268723,-0.015995787,0.11610834,0.29569972,0.28210786
-0.051550753,-0.12313221,0.31318682,0.3436393,0.0147259375,-0.36425367,0.29491252,-0.3635115,-0.024931252,-0.18095188,0.37821847,-0.34108463,-0.16422656,0.08298928,0.22916476,0.33292115
0.101859726,-0.17552817,0.40003464,0.17125285,-0.050259374,-0.28907266,0.14763957,-0.03222965,0.1384666,-0.29599705,0.25873825,0.04512282,0.03439147,0.02288269,0.3723688,0.4626515
0.04043463,-0.1220008,0.3945307,0.027691266,-0.21152931,-0.19601618,0.22466545,0.41242322,0.20819513,-0.31999248,0.18229845,0.16493337,0.34327143,-0.097840995,0.3896131,0.023286631
-0.20170695,-0.04253221,0.36666822,-0.0073106545,-0.30240124,-0.1761417,0.19856007,0.69924396,0.2677944,-0.28810394,0.06982132,-0.10905654,0.33973333,0.015448078,0.39829293,-0.1673746
-0.17874199,-0.08352076,0.38417402,0.2653553,-0.22038506,-0.340456,0.29525754,-0.038980044,0.047486085,-0.08805881,0.30777475,-0.26387757,0.0797987,0.12676649,0.29294038,0.06454339
-0.16534245,-0.09851209,0.3743685,0.14394775,-0.12474116,-0.20367019,0.3999102,-0.36410937,0.01596254,-0.1073821,0.39968988,-0.386777,-0.065653555,0.17807221,0.234858,0.8050298
-0.19647224,-0.12487049,0.3407891,0.19825365,0.13369374,-0.27261505,0.28865823,-0.45897216,0.12898447,-0.23760024,0.305058,-0.42519924,-0.16118348,0.043765705,0.22932759,0.9988026
0.030593513,-0.20324554,0.40006688,0.13747439,-0.06342859,-0.17173055,0.29312414,-0.1924032,0.2537749,-0.35167098,0.23483616,0.056828655,0.21599151,-0.21075831,0.40012822,0.5901987
0.008285312,-0.0786914,0.39820433,0.08245167,-0.20071864,-0.10685043,0.36813444,0.19251192,0.2573235,-0.38065037,0.19676436,0.12298792,0.5118711,-0.24141204,0.39977923,0.17539257
-0.17421159,0.050375465,0.36512914,0.06349827,-0.28512028,-0.11669805,0.34655184,0.3922606,0.31512484,-0.36947322,0.06750079,0.002467147,0.49555326,-0.15762514,0.40008625,-0.016338434
-0.2238722,-0.0021781342,0.30223212,0.056867864,-0.26478404,-0.24907419,0.34645796,0.13351214,0.16431928,-0.13325289,0.1825149,-0.056654688,0.1302343,0.08848215,0.24926913,-0.059389863
-0.15062481,-0.07200922,0.36141434,0.13019615,-0.256915,-0.22355765,0.39916626,-0.35811815,-0.04979784,0.017086089,0.40011492,-0.3214004,0.028020088,0.138066,0.26966456,0.41947368
-0.14087892,-0.11245367,0.33334234,0.08443861,0.02887219,-0.23641026,0.24474108,-0.31324574,0.08565658,-0.15981545,0.32138845,-0.37071964,-0.09087145,0.019787172,0.2706395,0.4309495
0.052723,-0.1766635,0.39804667,0.13542314,-0.10502896,-0.24417645,0.25151488,-0.12582591,0.17981091,-0.22875382,0.24122392,-0.019448312,0.21614717,-0.23224169,0.40008968,0.4595111
-0.03864948,-0.091701575,0.39454225,-0.005152258,-0.2631519,-0.12480939,0.3107326,0.43239737,0.24892412,-0.26230654,0.13794626,0.1511342,0.50622195,-0.17036457,0.38847256,0.105256654
-0.15319002,-0.10243586,0.36016282,0.06412086,-0.20568568,-0.20977631,0.2343629,0.3535801,0.2175508,-0.21978557,0.040505517,-0.085349634,0.22575927,0.057729147,0.39877316,-0.1291126
-0.10648609,-0.15193067,0.39645544,0.30851722,-0.25983146,-0.28009075,0.40013927,-0.06923122,0.010226951,-0.03907953,0.3500979,-0.19741693,0.012454815,0.18827386,0.26360723,0.08733315
-0.07459762,-0.1991745,0.37203488,0.25702107,-0.068145156,-0.27736393,0.40128058,-0.36184233,-0.05713719,-0.08145756,0.4000519,-0.33687055,-0.109057166,0.22804415,0.22398998,0.6135026
-0.044573,-0.24458946,0.373139,0.30504093,0.07553426,-0.27414894,0.19282277,-0.15931936,0.116422065,-0.24596211,0.26878256,-0.16705929,-0.0908419,0.059364628,0.3149591,0.48291603
0.08930092,-0.17433257,0.4000033,0.15576372,-0.14566538,-0.19994828,0.33327535,0.13242939,0.19246441,-0.30773726,0.2351466,0.05688006,0.34926584,-0.14745611,0.40006167,0.32815388
0.006996942,-0.047892008,0.40000042,0.15097342,-0.22827388,-0.18076192,0.35329127,0.3193658,0.2244652,-0.32801425,0.13810569,0.15791646,0.5983951,-0.10333399,0.39768133,0.18972798
-0.18151513,0.045148578,0.401242,0.17847587,-0.28411144,-0.18955001,0.3185114,0.44661182,0.29252535,-0.3290354,-0.0046419054,0.32314,0.46128362,-0.033480052,0.39988104,-0.11278822
-0.23940735,0.008658181,0.315656,0.010738604,-0.28547677,-0.33519197,0.34644634,0.3147858,0.138909,-0.13978408,0.113047235,-0.00671678,0.124417566,0.17269254,0.3166093,0.011694126
-0.17089336,-0.07938773,0.3509918,0.2128644,-0.31363067,-0.30853486,0.40006837,-0.33619204,-0.1525512,0.012748703,0.39999557,-0.21443266,-0.026327012,0.21410559,0.3412715,0.49163783
-0.18402635,-0.12063934,0.31257325,0.29269317,-0.045824993,-0.25239295,0.33540702,-0.50607276,0.039585106,-0.10400918,0.3992464,-0.34768444,-0.13590916,0.15885271,0.260396,0.42583323
-0.043938402,-0.080698825,0.40002874,0.113169916,-0.14443181,-0.2259064,0.24608263,-0.26160637,0.17381261,-0.24363405,0.28280222,0.062441826,0.11701196,-0.11390361,0.40014985,0.36373112
-0.043248817,0.0008364771,0.4000111,0.03763906,-0.3019285,-0.16873255,0.2990429,0.12768005,0.23564686,-0.25285062,0.22431009,0.09251716,0.44044554,-0.1747128,0.40001455,0.27259934
-0.2191318,-0.035909317,0.35704848,0.11301513,-0.38319582,-0.13331303,0.27107993,0.51521665,0.2743731,-0.2644057,0.06302101,0.15658313,0.36703473,-0.03841827,0.39673594,-0.04479495
-0.190686,-0.080051064,0.36810255,0.30621454,-0.33559942,-0.25635698,0.3814486,-0.06306571,0.035195097,-0.019320486,0.21836276,-0.15741451,0.1406343,0.14483896,0.3568782,0.28120723
-0.12548125,-0.14996842,0.3869527,0.3244219,-0.15633634,-0.26398507,0.40011007,-0.41533795,-0.16044578,-0.02134789,0.39894688,-0.2326402,-0.041306436,0.13112581,0.30536547,0.6517636
-0.12509033,-0.18615885,0.34084153,0.18120761,0.052011818,-0.2239058,0.20088622,-0.17943333,0.061145317,-0.15658513,0.2755181,-0.27204686,-0.11808027,0.04716155,0.29502472,0.4053822
0.09110166,-0.2298493,0.39954334,0.24150465,-0.14396599,-0.20425053,0.24469788,0.066741176,0.15625586,-0.24621935,0.22608383,0.2193512,0.28852522,-0.12820916,0.40013123,0.3640918
0.0040253466,-0.10896864,0.40000165,0.11916953,-0.271234,-0.15120758,0.29510152,0.39116794,0.21460618,-0.27257168,0.12572016,0.37462938,0.5325304,-0.10645098,0.39918897,0.049727395
-0.28761318,0.043457355,0.31811795,0.09115456,-0.39263773,-0.13622528,0.2687968,0.6165702,0.33575433,-0.15578745,-0.09468147,-0.1668246,0.44955382,0.004460442,0.39940104,-0.16054787
-0.2564413,-0.014717998,0.30641988,0.19762935,-0.31235972,-0.2896654,0.33409673,0.20088078,0.081248455,0.059359152,0.142727,-0.019758087,0.16210043,0.19397834,0.36563757,-0.12262239
-0.1738747,-0.05444951,0.37178183,0.1523919,-0.35534886,-0.24834913,0.39998293,-0.24728242,-0.109667294,0.12239805,0.4000524,-0.23032825,-0.0069220043,0.2417409,0.35472602,0.44957814
-0.12313248,-0.12011738,0.33228925,0.30698565,-0.030676467,-0.2851059,0.4004296,-0.48805708,-0.014619546,0.015147151,0.39969468,-0.36511466,-0.16341436,0.23148532,0.2608739,0.8074126
-0.07107396,-0.16553457,0.26869917,0.08247366,0.050372314,-0.28905046,0.12843038,-0.2648622,0.15205447,-0.16021556,0.30454412,-0.13497004,-0.08230492,0.051002163,0.3778247,0.5728684
0.058427155,-0.1475562,0.40001896,0.08845343,-0.14000113,-0.2500702,0.25687227,-0.087249,0.1757356,-0.21212536,0.33208457,-0.0958332,0.3116112,-0.16323353,0.40011844,0.30107298
-0.06784701,-0.026044542,0.40001684,0.01823692,-0.29173365,-0.17414045,0.3050584,0.31599882,0.2551489,-0.21673055,0.21381058,-0.024957752,0.5305144,-0.1087561,0.4000436,0.12583062
-0.14588134,-0.0817173,0.34085804,0.1728676,-0.20504206,-0.27858534,0.27119955,0.30993405,0.17026992,-0.07405311,0.1478434,-0.047862124,0.12749541,0.1599605,0.32227606,-0.11718709
-0.09619644,-0.08007064,0.3571297,0.087580524,-0.27628586,-0.34998292,0.39939728,-0.18425818,-0.06703407,0.053819757,0.40007824,-0.24800067,-0.02149705,0.17630513,0.27525064,0.24911298
-0.09054283,-0.11152276,0.30233178,0.089963056,-0.005882172,-0.31068105,0.25356168,-0.44150412,0.01606985,-0.11993376,0.3711716,-0.3686086,-0.19037892,0.1307809,0.20527487,0.45728645
0.048064705,-0.11294841,0.40001118,0.06223068,-0.039194528,-0.25564376,0.15095767,-0.031750634,0.12400498,-0.20910765,0.26595145,-0.06647028,0.05507653,-0.08726171,0.38986033,0.39243215
0.0628477,-0.0513492,0.3973847,0.027939368,-0.22461987,-0.1493086,0.2675382,0.40783453,0.18019041,-0.25941548,0.19679539,0.10317065,0.42021245,-0.13146736,0.39835075,0.22495167
-0.13010636,0.017410593,0.2714624,-0.021607006,-0.23492277,-0.21337548,0.22501208,0.44568944,0.18010831,-0.23010753,0.1170916,-0.044468,0.29546142,-0.005553275,0.3994816,-0.07515823
-0.06095496,-0.056149498,0.34010464,0.2950191,-0.20949021,-0.30105102,0.36373255,-0.2697257,-0.14536974,-0.026547248,0.3519527,-0.33876222,0.08835541,0.13682713,0.36862627,0.24918118
0.015357618,-0.10170673,0.37299865,0.25977862,-0.07999497,-0.28083873,0.36826017,-0.30019626,-0.20503551,-0.06521229,0.39675412,-0.34634417,-0.037608027,0.18565752,0.35646787,0.64431816
0.030949596,-0.15374811,0.33383855,-0.05987682,0.06229661,-0.30277517,0.17008673,-0.20114167,0.038166933,-0.21482363,0.3349282,-0.27070135,-0.17108217,0.025766583,0.3077769,0.48977387
0.1991257,-0.23997708,0.40000594,0.13990532,-0.06658839,-0.32001376,0.20624761,-0.055558007,0.14575084,-0.25031522,0.1886866,0.044975862,0.20350428,-0.1546688,0.40005732,0.41087586
0.063227594,-0.13525163,0.39647427,0.13992572,-0.20116161,-0.19138539,0.28451726,0.4587707,0.2152143,-0.28662115,0.04149933,0.17315657,0.46244493,-0.06410576,0.38826588,0.08436432
-0.22138505,-0.014583325,0.31705406,0.12698562,-0.24066961,-0.25091553,0.23542191,0.5805243,0.2636228,-0.24215722,-0.068725444,0.083467714,0.28225365,0.057020858,0.3981654,-0.08403744
-0.17481655,-0.06899427,0.3607509,0.27920842,-0.23766232,-0.33964038,0.3168154,0.029432345,0.06771696,0.0014310328,0.21026015,-0.18888761,0.075178176,0.18632066,0.39048722,-0.092264846
-0.08463208,-0.113558866,0.3767831,0.20453902,-0.16855563,-0.31401342,0.39995366,-0.39617166,-0.10697914,0.04074664,0.40005597,-0.26119256,-0.12431183,0.25740704,0.35346428,0.65613264
-0.08620365,-0.15718196,0.34977517,0.24096178,0.07374359,-0.31121877,0.24907434,-0.38570097,0.10029244,-0.14488545,0.305352,-0.3603331,-0.21321169,0.15526652,0.29503986,0.60653293
0.07355083,-0.2222791,0.39999086,0.18296865,-0.10589691,-0.23746915,0.25921297,-0.07102753,0.1957883,-0.24776424,0.2555066,0.06299092,0.20283814,-0.13915622,0.40046155,0.3904012
-0.028074995,-0.1164885,0.3999222,0.083303325,-0.22193047,-0.1625723,0.3081282,0.32613727,0.23000433,-0.27137193,0.17942248,0.22105867,0.47284925,-0.17620687,0.3999674,0.10149137
-0.18165313,0.01967507,0.32995287,0.14601818,-0.26987982,-0.17899005,0.2698022,0.4564221,0.27054542,-0.21747085,0.036585305,0.05565459,0.2983054,0.0042169825,0.3999791,-0.06467227
-0.20016572,0.0017615337,0.35491487,0.2237282,-0.3266537,-0.29585025,0.39949462,-0.21378566,0.0048168427,-6.292303e-06,0.2714221,-0.26013207,0.13878879,0.17535454,0.3320331,0.2755752
-0.18465957,-0.075661406,0.36827758,0.24917744,-0.08550001,-0.2062579,0.3861654,-0.38073394,-0.11691391,-0.0113530895,0.39968768,-0.47620118,0.031860754,0.16132,0.3081125,0.4437661
-0.06674559,-0.1762117,0.37956142,0.2885267,0.019027054,-0.24975148,0.2518014,-0.2987453,0.1485087,-0.17307006,0.17775404,-0.30025968,-0.02519877,0.016279686,0.30981624,0.49445298
0.0693114,-0.17778413,0.40004718,0.25114742,-0.12877092,-0.21578102,0.31347573,0.06385354,0.17982993,-0.26342493,0.13561293,0.08256199,0.3454709,-0.14171588,0.40007383,0.36639884
-0.02583194,-0.038088694,0.3965943,0.25108826,-0.21729587,-0.21195741,0.3296643,0.19753018,0.23233224,-0.29297087,-0.0037289641,0.2521186,0.5607653,-0.094781,0.3994783,0.041102383
-0.28424716,0.01848308,0.3015878,0.13280718,-0.24568096,-0.23181316,0.27934924,0.40220353,0.23919058,-0.22336292,-0.13268828,0.14604104,0.30351967,0.035880137,0.39995182,-0.013890477
-0.2610964,-0.042186856,0.35219696,0.21470484,-0.32086483,-0.30459782,0.4000409,-0.12185158,0.031305254,0.02067439,0.1745533,-0.017852494,0.14559783,0.14801303,0.38241878,0.18718901
-0.1933698,-0.12839933,0.39877063,0.29694468,-0.22033338,-0.27113956,0.39997122,-0.52722937,-0.12971453,0.034871034,0.39991212,-0.32679445,0.007944001,0.16621466,0.37243873,0.5209504
-0.15376727,-0.15957414,0.3644976,0.16144978,0.022209127,-0.21118288,0.21815309,-0.2198213,0.16246772,-0.17764066,0.2427507,-0.3113981,-0.061877742,0.031939816,0.34121227,0.40746814
0.004137542,-0.122492015,0.40002906,0.20271914,-0.112666674,-0.19015786,0.26997575,0.013050177,0.20914495,-0.21803918,0.19993663,-0.04698727,0.2743345,-0.2358825,0.40026963,0.25473824
-0.11966155,0.025422797,0.40002367,-0.061372846,-0.24427114,-0.12380607,0.32445666,0.35488158,0.2727147,-0.21584448,0.029743543,-0.035232726,0.5326708,-0.18954891,0.40001863,0.109959505
-0.17347401,-0.050915577,0.3443561,0.09861348,-0.17401694,-0.19731283,0.26096392,0.26718637,0.21754116,-0.07743927,0.034167804,0.19750854,0.22886153,-0.0070599243,0.3989332,-0.08375951
-0.115277,-0.08573227,0.37783793,0.21517211,-0.27301586,-0.22576298,0.4000218,-0.18944094,-0.006860354,0.051626567,0.40003854,-0.2604715,-0.02582815,0.14161393,0.25196126,0.24598005
-0.087038785,-0.121087305,0.36612058,0.2284434,0.00616792,-0.26858413,0.40000573,-0.4404083,-0.021867653,-0.044468004,0.39973247,-0.24221852,-0.11737329,0.13019003,0.21803966,0.4892753
-0.06475207,-0.15270619,0.3586777,0.2709417,0.107484154,-0.21365564,0.20293817,-0.25177526,0.106637254,-0.13795573,0.29530734,-0.32390836,-0.15423949,-0.034524195,0.2987123,0.36908042
0.09677094,-0.1251075,0.40000567,0.1114079,-0.11788022,-0.16626264,0.314635,-0.047589008,0.20932873,-0.2106063,0.21582504,0.031215351,0.2881146,-0.2474267,0.4000949,0.33766863
-0.034456387,0.07005971,0.40003315,0.06859982,-0.22993538,-0.13962366,0.34168813,0.18420956,0.2711397,-0.21753567,0.045354232,0.14212142,0.51642644,-0.16456886,0.39839324,0.20097882
-0.31320232,-0.005575928,0.22630486,0.22016978,-0.1966819,-0.20236644,0.24839741,0.21536687,0.25947815,-0.24101174,-0.046301328,0.20789127,0.16340026,0.042617735,0.38593164,-0.09639041
-0.25112012,-0.0631924,0.2981396,0.28091913,-0.2749629,-0.28148606,0.39999416,-0.3613743,0.0325161,-0.07277599,0.3059116,-0.32352105,0.001298906,0.124352776,0.3940438,0.47908118
-0.21504292,-0.12377243,0.28443104,0.39851338,-0.05686523,-0.29797843,0.32278067,-0.4198836,0.033796966,-0.11103826,0.39933518,-0.53773886,-0.1769279,0.12234962,0.29514706,0.85488516
-0.07857767,-0.17014013,0.31774738,0.14863802,-0.0794163,-0.21410695,0.19519356,-0.14593302,0.24284044,-0.25013512,0.2687107,-0.3616663,-0.034199413,-0.11283374,0.4008014,0.7675214
0.026555471,-0.20050313,0.39905095,0.19661653,-0.22788715,-0.21372081,0.27351764,-0.0075741336,0.26422164,-0.3541575,0.27731416,0.09666033,0.3549368,-0.29060146,0.40001804,0.37816662
-0.069018476,-0.07705365,0.39999917,0.04986238,-0.36990994,-0.111769415,0.34251463,0.45149365,0.31161454,-0.38682458,0.21365659,0.26783094,0.6038175,-0.25265908,0.39773598,0.10159056
-0.21142824,-0.1119945,0.3732628,0.004057228,-0.3593452,-0.13838133,0.27177626,0.7244202,0.329011,-0.3797381,0.10997683,0.116986245,0.39136368,-0.10514142,0.3962692,-0.25926456
-0.19172437,-0.13106595,0.32773533,0.18731219,-0.30488586,-0.34286755,0.3999721,-0.18191731,0.10449875,-0.18309513,0.30239296,-0.20334868,0.15655528,0.09323972,0.30650365,0.27835223
-0.14061074,-0.14985937,0.31063998,0.2714243,-0.20383197,-0.31007951,0.4000532,-0.44393522,-0.054307614,-0.124790035,0.39998323,-0.4092862,0.022567865,0.17218514,0.28314674,0.9513747
-0.14022434,-0.16673271,0.2773444,0.27071664,0.07856721,-0.30553335,0.2923959,-0.38365123,0.07914274,-0.25581273,0.3636965,-0.5611064,-0.11017179,0.059133135,0.23463969,0.8805158
0.02063744,-0.26500565,0.4000025,0.22776458,-0.029060042,-0.24171239,0.23947002,-0.20204285,0.17677721,-0.31085524,0.32445902,-0.16442254,0.07478519,-0.17054223,0.4006469,0.7073719
0.069733754,-0.14322236,0.4000157,0.15202083,-0.15960932,-0.2121816,0.29158825,-0.04231862,0.23945667,-0.3209231,0.24297686,-0.024826117,0.37936172,-0.20985521,0.39279133,0.19311795
-0.0854348,0.037644282,0.40000165,0.07913572,-0.29693526,-0.18139929,0.29674956,0.27511767,0.3134632,-0.30250522,0.13437852,0.0013911317,0.57649195,-0.13993067,0.3999731,-3.8788727e-05
-0.2702179,0.061298806,0.30157742,0.14292437,-0.32525262,-0.16284549,0.24305251,0.49199685,0.33749595,-0.323251,0.013494187,-0.026843008,0.3182984,-0.0025805763,0.3996659,-0.25671065
-0.19445314,0.009898108,0.32334813,0.24403399,-0.30270907,-0.25865608,0.4000281,-0.18846633,-0.0116390195,-0.09002586,0.3785917,-0.3922402,0.051956225,0.1446219,0.3665594,0.26055527
-0.14565907,-0.058920715,0.34554225,0.40008947,-0.101612136,-0.21754692,0.40015578,-0.57056254,-0.013156087,-0.07311199,0.39920586,-0.44621852,-0.099051386,0.23830128,0.31114608,0.9556546
-0.1264595,-0.05846109,0.3008439,0.40215528,0.035499945,-0.22189422,0.25937283,-0.3464318,0.14672866,-0.1968612,0.31333324,-0.44107306,-0.09067911,0.10024908,0.31682158,0.7427518
0.031772897,-0.054269124,0.40002143,0.113810286,-0.1681302,-0.10708238,0.33744162,0.12906425,0.24999699,-0.29923576,0.23843345,-0.0045407373,0.3305066,-0.22574286,0.40013102,0.24732645
-0.07169032,0.018189665,0.40004456,0.026451891,-0.24874154,-0.09174417,0.3518384,0.3305251,0.26573017,-0.32282162,0.16918837,0.09191953,0.5308268,-0.19594607,0.3985432,0.12628625
-0.20142254,-0.0015565067,0.33927873,-0.020795535,-0.25979835,-0.11942462,0.29052687,0.38812074,0.27347705,-0.28593102,0.04696643,0.06440069,0.29101297,-0.07107696,0.40001592,-0.066784725
-0.1530921,-0.02540766,0.35271418,0.008456175,-0.29541826,-0.28640622,0.4000029,-0.28021517,-0.016518828,0.015465896,0.3910372,-0.2947142,0.00094512705,0.08566762,0.2967803,0.16131811
-0.08356105,-0.10416218,0.3454875,0.28354135,-0.13735808,-0.28102708,0.40129918,-0.37147477,-0.09795045,0.006597948,0.3991893,-0.3623529,-0.13849947,0.11538384,0.22841531,0.6641281
-0.070502795,-0.14045894,0.31418067,0.20675483,0.110506915,-0.29993388,0.28129044,-0.2601123,0.008523202,-0.1452013,0.362784,-0.35771188,-0.28088343,-0.0034906638,0.16801165,0.5135409
0.10229615,-0.21794394,0.40001833,0.09888881,-0.058720503,-0.17834765,0.21628706,0.101897225,0.17001192,-0.25856262,0.25795472,0.007095478,0.08754086,-0.26503843,0.40005118,0.43962923
0.0054180184,-0.035008542,0.40005922,-0.013609188,-0.2560001,-0.06570571,0.33359456,0.48811415,0.23559119,-0.29604852,0.16962574,0.05711667,0.4359422,-0.22547986,0.40001103,0.08565149
-0.16848594,0.027465684,0.31604856,0.1073503,-0.25908706,-0.12077149,0.26162383,0.5541415,0.2675745,-0.27092832,0.037900563,-0.16460258,0.26656583,-0.07930518,0.39949027,-0.2545239
-0.15708208,-0.013974303,0.32039505,0.065214545,-0.28130075,-0.28268737,0.39911,-0.36944467,-0.040138576,-0.037366126,0.3801562,-0.31766552,0.025238289,0.108185135,0.3186632,0.23889038
-0.08862295,-0.088688225,0.37152866,0.18450372,-0.1749584,-0.2535644,0.39697388,-0.60984397,-0.084387414,-0.04033919,0.3952099,-0.5026928,-0.10313056,0.15508235,0.2739959,0.6168888
-0.10959786,-0.16848944,0.35006317,0.28010178,0.06605564,-0.2297272,0.25328216,-0.34249756,0.09259794,-0.18749924,0.34430277,-0.5193646,-0.18442774,0.071353376,0.21923617,0.62457514
0.053508442,-0.21373619,0.4000639,0.24423763,-0.017049551,-0.24843007,0.2850123,-0.17222928,0.20996453,-0.2756063,0.19958669,-0.11690405,0.09264743,-0.15024593,0.3374834,0.57819897
0.09939852,-0.15449283,0.39638692,0.24424888,-0.11351921,-0.19953476,0.34565574,0.091853924,0.24830341,-0.3613332,0.13470173,0.34969598,0.4037377,-0.115120135,0.4000556,0.2895544
-0.08640551,0.03306714,0.40001285,0.101671904,-0.21430139,-0.13856782,0.35348406,0.44980684,0.32097125,-0.3368278,-0.056149933,0.4468634,0.5212689,-0.058436405,0.40004158,-0.14809425
-0.31565088,0.0588884,0.2574577,0.101684414,-0.20034789,-0.20997575,0.28464326,0.4476753,0.2789276,-0.28474674,-0.092152454,0.33603874,0.22647095,0.07858697,0.3847936,-0.270885
-0.2569721,0.0045611225,0.32752064,0.24414974,-0.2754867,-0.25175235,0.40008548,-0.17023836,0.11282962,-0.09476495,0.1890091,-0.22568356,0.03650403,0.1589659,0.3585092,-0.020079577
-0.22942184,-0.010848973,0.3177528,0.28283313,-0.047093607,-0.18263072,0.40007243,-0.4684414,0.09398982,-0.15291703,0.39659008,-0.32556358,-0.12837888,0.1932694,0.32080916,0.5740988
-0.102844246,-0.11495369,0.3152244,0.22893089,-0.021350078,-0.1310236,0.24874192,-0.07215274,0.22839811,-0.25568226,0.3281971,-0.14837188,0.020331856,0.040574055,0.39869067,0.37799537
0.017093722,-0.07369186,0.3981876,0.18475707,-0.17277062,-0.11516566,0.3146882,0.19356823,0.24198431,-0.31984273,0.34090894,0.11012873,0.41135326,-0.20101486,0.40008104,0.21825309
-0.10990468,0.06160483,0.40001553,0.032723345,-0.290438,-0.05548157,0.32282117,0.4883276,0.31579646,-0.32045937,0.2331083,0.14292948,0.50820464,-0.14781459,0.40000728,-0.0054475255
-0.20527528,0.015887596,0.32335734,0.11479863,-0.26735625,-0.08074922,0.25543332,0.5974552,0.29913515,-0.26842767,0.16349763,0.077733345,0.20073192,0.03489974,0.39505684,-0.31420732
-0.16653892,-0.023466077,0.3544079,0.1343157,-0.3304179,-0.25843164,0.39850152,-0.23227064,-0.06161424,-0.01719546,0.40007368,-0.2828639,-0.024026522,0.16102089,0.31923524,0.3222755
-0.13247947,-0.06408872,0.35652387,0.19882742,-0.15741216,-0.15024018,0.40013924,-0.39493248,-0.078479156,-0.044130158,0.3969427,-0.39927444,-0.15118015,0.1761751,0.27624872,0.74901223
-0.04818675,-0.12950866,0.3620026,0.26859805,-0.038349617,-0.13895623,0.15265441,-0.107086174,0.1292856,-0.21361092,0.28972325,-0.11807756,-0.036614057,-0.08009855,0.4001101,0.5577524
0.07279344,-0.15467915,0.40000567,-0.00020682761,-0.18162161,-0.1156389,0.22733808,0.1027602,0.13840869,-0.24583754,0.3113403,-0.090942405,0.24694979,-0.27884895,0.4001224,0.36345035
-0.05776311,-0.06933922,0.40001774,-0.14230889,-0.31891254,-0.07957509,0.26451546,0.4124086,0.19450931,-0.24498798,0.25047943,-0.05831174,0.48955998,-0.23513989,0.39999294,0.15605074
-0.12567115,-0.16038673,0.37529868,0.041223887,-0.2666159,-0.16804524,0.2253714,0.54567486,0.19137277,-0.23597372,0.15457916,-0.09690717,0.2284966,-0.057501175,0.39427787,-0.026842544
-0.098165065,-0.19516203,0.3410549,0.31510153,-0.25496218,-0.26684356,0.3999639,-0.18265046,0.029384963,-0.096937,0.40018046,-0.32175606,0.054936357,0.07317798,0.31872004,0.3403322
-0.060945418,-0.21350132,0.31616962,0.36443833,-0.042083163,-0.24807727,0.40007484,-0.53217953,-0.036007635,-0.12032826,0.39914525,-0.41207,-0.0764244,0.11930673,0.28272215,0.81952524
-0.016867958,-0.24850085,0.34959868,0.20113082,0.08488881,-0.26084754,0.24773812,-0.30060104,0.17407006,-0.28287032,0.2808774,-0.25649574,-0.06207256,-0.06020883,0.35406774,0.5784079
0.13523608,-0.22905286,0.4000104,0.20117506,-0.06607155,-0.18049681,0.35733828,0.09915192,0.22581665,-0.35790464,0.21885176,0.1672655,0.3461693,-0.22931543,0.40008098,0.30982068
0.02766543,-0.09060435,0.39967766,0.12748171,-0.14228173,-0.13116984,0.3925996,0.43234038,0.23455435,-0.39217526,0.11809958,0.30587298,0.5484437,-0.16432282,0.39213258,0.02148855
-0.15675099,0.08734084,0.39849332,0.12748435,-0.18083805,-0.1392858,0.3657399,0.6239776,0.2899448,-0.3847577,-0.06864331,0.23105913,0.44686365,-0.09996642,0.40003973,-0.17974605
-0.28016746,0.07071345,0.27496287,0.19030868,-0.18699272,-0.26476598,0.35388628,0.29551557,0.19821672,-0.21865359,0.0315609,-0.008840642,0.15124997,0.13408536,0.3350996,0.03579872
-0.18523268,-0.018836686,0.40866116,0.22574285,-0.26872513,-0.29048795,0.38876405,-0.35227588,-0.07368595,-0.010911142,0.39996412,-0.2734521,0.05471654,0.21365812,0.39416143,0.4572238
-0.167134,-0.092445605,0.3675472,0.28657073,-0.037241764,-0.2323594,0.30937767,-0.35437545,0.03877613,-0.11108264,0.39130864,-0.3524112,-0.10555491,0.15358952,0.2874278,0.47961622
-0.05237441,-0.06000386,0.39875537,0.21270749,-0.029812615,-0.21460925,0.24716926,-0.048216518,0.2114421,-0.23944017,0.2500582,-0.030908035,0.1020787,-0.09369209,0.40020955,0.47979003
0.04801834,0.039360914,0.3917471,0.13768752,-0.15548503,-0.17562683,0.31522495,0.12922624,0.270055,-0.26182264,0.17202023,0.06810392,0.41858393,-0.14430712,0.39404398,0.12623508
-0.09226609,0.19176975,0.4000065,0.062590204,-0.2105647,-0.15289488,0.31381574,0.3066699,0.2952547,-0.26335967,0.06857285,0.14322467,0.4088543,-0.08407788,0.3999435,0.041333612
-0.27586418,0.12628014,0.22325546,0.13213679,-0.21387902,-0.17846061,0.2536163,0.37444955,0.2994893,-0.19008248,-0.051741887,-0.031722914,0.14854544,0.064197995,0.39547852,-0.1268921
-0.22689885,0.04268856,0.28462955,0.27025443,-0.3048669,-0.23292673,0.40127465,-0.19736382,-0.058761913,0.11235795,0.3563044,-0.27097043,-0.041236557,0.18913363,0.35790384,0.33193034
-0.22743951,-0.041793246,0.26270592,0.12732019,-0.15468904,-0.26686937,0.29991463,-0.58183235,-0.06429076,0.078701966,0.3998976,-0.41363922,-0.17084658,0.1640302,0.25565764,0.36616054
-0.11652686,-0.124042474,0.39782995,0.4301816,-0.0976029,-0.26381037,0.2177577,-0.39187858,0.23987494,-0.11865004,0.09361437,-0.17186572,-0.0738251,0.03345624,0.31832457,0.491203
-0.04008645,-0.030395932,0.4000074,0.18345737,-0.2832724,-0.20984957,0.32060084,-0.01245942,0.27116993,-0.21796392,0.073709995,0.095576815,0.37552753,-0.15604155,0.40007928,0.3639065
-0.14979644,0.0637045,0.39890757,0.099948436,-0.40266868,-0.1392533,0.37019902,0.36957106,0.29419902,-0.23924431,-0.009570966,-0.023324657,0.5437758,-0.07106017,0.40000892,0.004153111
-0.24829239,0.029931748,0.31200033,0.23267338,-0.34283605,-0.20465077,0.3066146,0.37799364,0.15329044,-0.17689714,0.022822084,-0.23728438,0.23424642,0.11254954,0.3952509,-0.02579483
-0.14408158,-0.031744245,0.38397047,0.32562006,-0.38082245,-0.21676761,0.4000639,-0.26496905,-0.06362532,-0.012132614,0.40002593,-0.3068864,0.07117997,0.19945101,0.39041874,0.59834254
-0.14278743,-0.093525834,0.3592655,0.3610557,-0.11322457,-0.15983492,0.3525192,-0.44731146,-0.0027455632,-0.061055426,0.39963132,-0.41003454,-0.07943194,0.1583895,0.30085444,0.9066326
-0.044014685,-0.13571644,0.40006062,0.1609277,-0.10772565,-0.12003351,0.2863811,-0.20699798,0.17710416,-0.18223934,0.24298172,-0.19882746,0.007668118,-0.06037892,0.4002404,0.6341041
0.06423114,-0.16423753,0.40001214,0.16932039,-0.23758364,-0.0788275,0.33675984,0.11014578,0.20131825,-0.22268979,0.22036663,-0.041271538,0.33080992,-0.2547193,0.40015548,0.37239644
-0.027556915,-0.03350279,0.40000173,0.027151406,-0.3544765,-0.051161163,0.37720212,0.34754992,0.24213646,-0.21861774,0.123593815,-0.055533186,0.5520481,-0.22213456,0.40001583,0.17864655
-0.22246052,-0.0097682215,0.35866374,0.053217236,-0.38978174,-0.049136102,0.3541328,0.5258062,0.25847796,-0.20313916,-9.93009e-05,-0.1204139,0.35226092,-0.11706091,0.4000285,-0.017439432
-0.21444552,-0.070125155,0.35745642,0.27572855,-0.3634596,-0.21560577,0.40002117,-0.11558193,-0.015737075,0.039480176,0.31351337,-0.14817345,0.11314524,0.11657516,0.39860174,0.27633184
-0.15501273,-0.12989746,0.37553495,0.23357569,-0.2105279,-0.17649251,0.40134653,-0.32863486,-0.07526366,0.0072436794,0.39815003,-0.30924726,-0.058459103,0.10570325,0.31466553,0.5309356
-0.10162959,-0.12011223,0.29523885,0.28867984,-0.04599837,-0.16957507,0.24548627,-0.30582288,0.13466202,-0.16551821,0.25173432,-0.37934032,-0.13723028,-0.04147259,0.3173641,0.53242004
0.101391144,-0.14974031,0.3995916,0.28137764,-0.19104631,-0.16581835,0.30130878,-0.13035335,0.20959316,-0.27451247,0.19822967,0.06947801,0.29255655,-0.27073574,0.40006152,0.4611792
0.027177753,0.0145379,0.39792913,0.16136576,-0.3280656,-0.097272344,0.34346405,0.22617978,0.27083343,-0.29539937,0.10484621,0.18727626,0.5448075,-0.22656803,0.40001342,0.11684432
-0.19141515,0.14966926,0.31700483,0.040692322,-0.36957854,-0.09995697,0.3007851,0.4047405,0.3025978,-0.29160547,-0.00214482,-0.013110549,0.37298283,-0.14533336,0.3999539,-0.16475758
-0.16382359,0.086405545,0.3185827,0.19138445,-0.3626045,-0.24920197,0.40001446,-0.20495823,0.0050665005,-0.000940353,0.33854985,-0.23646967,0.09497274,0.035097763,0.36776257,0.18870087
-0.12933406,0.009559983,0.32712963,0.17743173,-0.119007945,-0.13397606,0.32224503,-0.31320983,-0.072936445,0.015886214,0.39975142,-0.47773716,-0.047875255,0.028354593,0.2991798,0.5199238
0.002304074,-0.0849612,0.40005487,0.23286696,-0.06944107,-0.16547199,0.25757363,-0.1993191,0.12943034,-0.16416894,0.22332387,-0.076939106,0.03859547,-0.19988455,0.39874867,0.52219296
0.026227342,-0.034169402,0.4000031,0.15540166,-0.22446227,-0.11398169,0.302797,0.1793018,0.18801166,-0.19383278,0.20223437,0.016254352,0.3684463,-0.3595637,0.40005374,0.36483923
-0.07002552,0.09298316,0.40001106,0.045770977,-0.34420744,-0.09096166,0.3284009,0.43079573,0.23672676,-0.18252395,0.10498713,-0.034535907,0.5581507,-0.30458778,0.40003616,0.15327151
-0.23509018,0.03894564,0.28152806,0.17113076,-0.366495,-0.1085111,0.281666,0.48753345,0.25451747,-0.13493708,0.05197717,0.04928105,0.26706547,-0.14081368,0.39319724,-0.27865392
-0.20222802,0.0206481,0.3072397,0.114823624,-0.34042695,-0.24818473,0.40003258,-0.20497577,-0.094854034,0.05980046,0.3916167,-0.15525171,0.09159244,0.069000736,0.3982784,0.25371793
-0.12141054,-0.05347948,0.33716214,0.30640906,-0.16971202,-0.21330665,0.39055336,-0.47821006,-0.17480446,0.047816902,0.39918703,-0.46675986,-0.07706236,0.09632488,0.3355945,0.71392083
-0.035248235,-0.09815329,0.3626434,0.4345253,-0.015675806,-0.14908081,0.20884603,-0.11253005,0.10159409,-0.17571595,0.24471827,-0.2807193,-0.11117507,-0.11301068,0.312595,0.48826298
0.086846955,-0.111028224,0.4000217,0.17205869,-0.17928907,-0.15323904,0.26930377,-0.029047625,0.1873554,-0.20712642,0.18991268,-0.09453641,0.27143347,-0.2286822,0.40007558,0.38151395
0.0073499535,0.012983459,0.39835703,0.13486905,-0.29629365,-0.1442129,0.2928172,0.22275409,0.22029057,-0.2415527,0.13974273,0.15588076,0.48721197,-0.16531484,0.39981186,0.21651725
-0.20963717,0.0557358,0.32392734,0.077560954,-0.35773155,-0.16651352,0.27348357,0.3461009,0.2593985,-0.20697671,0.036177356,0.010768472,0.34588408,-0.048577465,0.3999013,-0.037609436
-0.1778724,-0.03176617,0.31580958,0.23847735,-0.31749535,-0.31226337,0.38147828,-0.1914794,0.10267048,-0.016758844,0.24012308,-0.1790005,0.099312164,0.09128768,0.36750638,0.05383338
-0.09856531,-0.09564968,0.3313755,0.2575058,-0.20501176,-0.25777757,0.40012866,-0.3992899,-0.049708772,-0.011006805,0.3981002,-0.30547464,-0.069697306,0.18987738,0.3591776,0.7815303
-0.0977135,-0.15433697,0.29272348,0.26290026,0.047598924,-0.2706215,0.25011262,-0.380427,0.09385581,-0.17507142,0.34992564,-0.37176412,-0.20902011,0.086455084,0.31752646,0.92118526
0.09546377,-0.1675669,0.4000668,0.23761113,-0.13886607,-0.18834788,0.258863,-0.014119379,0.22378473,-0.29932398,0.29392192,0.2058312,0.1657759,-0.22556414,0.40006396,0.34738025
0.04384381,-0.014384975,0.39999855,0.09344038,-0.263192,-0.09524801,0.33349013,0.2759306,0.28302962,-0.29272142,0.22424406,0.21702994,0.4440226,-0.19197641,0.3998078,-0.015561271
-0.1754776,0.119347356,0.26124248,-0.010902516,-0.2438107,-0.08990453,0.24722375,0.276367,0.34455895,-0.21469167,0.100006655,-0.124262914,0.22533765,-0.034554034,0.39936137,-0.38718385
-0.16463698,0.124072246,0.28030488,0.08278515,-0.25830698,-0.1650393,0.39998883,-0.09887408,0.07232943,0.0050085136,0.36271024,-0.25326717,-0.013731993,0.052686896,0.27069443,-0.17858261
-0.091248095,0.07528202,0.34767565,0.16322589,-0.24697296,-0.025653994,0.4000492,-0.4492032,-0.20833777,0.17035243,0.40004477,-0.26324582,-0.09383423,0.108584605,0.20947728,0.25836167
-0.07620675,-0.021843601,0.3371751,0.25181547,-0.03463107,0.0054985555,0.3197386,-0.29638192,-0.059362873,-0.018112224,0.35494646,-0.32298654,-0.10301255,-0.005600557,0.16832615,0.24390604
0.13444906,-0.0673783,0.40001783,0.17577454,-0.07458056,-0.0030770372,0.35347936,-0.20661868,0.10135148,-0.07157291,0.26540184,-0.11775553,0.25609195,-0.24820533,0.4000966,0.17475544
0.1256371,0.025250372,0.39843777,-0.045820028,-0.14811999,0.052790087,0.38067174,0.078597195,0.14781457,-0.11613336,0.27841604,0.1615618,0.48830914,-0.24804325,0.3963103,-0.0144177405
-0.12990613,0.16376558,0.3539421,-0.08843145,-0.2045381,0.10178958,0.37088117,0.26564482,0.24107836,-0.116943754,0.13810587,0.14250456,0.32785338,-0.1573749,0.3999521,-0.19656178
-0.19028118,0.13201837,0.23913418,-0.018186755,-0.16929966,-0.039840374,0.36102843,-0.01356218,0.17114264,-0.055897128,0.20052665,0.11078839,0.0051543196,0.0377547,0.27435192,-0.32295066
-0.1282853,0.08439054,0.29696074,0.24639335,-0.23159227,-0.023333643,0.39382687,-0.40259218,-0.15128653,0.14857697,0.39964792,-0.18264294,-0.03750345,0.14842191,0.24378766,0.23029333
-0.066160545,-0.0029279082,0.3151013,0.27599332,-0.04552349,0.030503685,0.30928195,-0.139809,-0.090567455,-0.018870095,0.34132594,-0.42918858,-0.112309195,0.046210047,0.14458808,0.26436797
0.13833395,-0.032191515,0.4003238,0.22648984,-0.0375274,0.0227169,0.32151958,0.048986282,0.060329534,-0.06653815,0.2066068,-0.13595939,0.1816249,-0.20058247,0.37780747,0.0357119
0.0011764942,0.07643009,0.40002093,-0.22351812,-0.15065952,0.050533924,0.3565462,0.18609358,0.14648832,-0.082673445,0.14671415,0.038254086,0.38908878,-0.2060262,0.39998394,-0.094343536
-0.09117543,0.1169438,0.3103792,-0.1403011,-0.111413255,0.06891088,0.30733386,0.27759945,0.13946155,-0.08787384,0.11338809,0.22439441,0.13257578,-0.02039726,0.39137402,-0.22020222
-0.03572469,0.104899146,0.34106016,0.078559086,-0.2703575,-0.018577728,0.40001693,-0.056964375,-0.19149075,0.15822583,0.38559464,-0.09317447,-0.025831237,0.11156215,0.28385732,-0.17695929
0.01980879,0.05967914,0.37884158,0.21999948,-0.16239451,-0.0002990669,0.38035575,-0.14931233,-0.26480743,0.12623161,0.39916146,-0.22382003,-0.1232616,0.14447995,0.15933354,0.288839
0.05907557,-0.027934726,0.2949106,0.10684584,-0.03889617,-0.022067368,0.21746038,-0.091507934,-0.016130941,-0.015365397,0.24154952,-0.100028366,-0.021972215,-0.029662834,0.2051125,0.19318315
0.2523418,-0.17736974,0.40000975,0.14944507,-0.11238239,-0.041320615,0.26451427,-0.08626488,0.042548757,-0.04862686,0.25140753,0.2003774,0.26801637,-0.17679046,0.40002573,0.12314088
0.0012629117,-0.014296004,0.400007,-0.10881711,-0.23196925,0.0007806289,0.24598365,0.22978193,0.21682279,-0.025149962,0.12579623,0.24581747,0.40287885,-0.11541995,0.39967847,-0.043811724
-0.0781785,-0.01788187,0.2250331,0.13295095,-0.14294016,-0.07820283,0.24207596,0.11981296,0.21688537,0.01706368,0.056676958,0.11427361,0.039430484,0.09424475,0.36096787,-0.22946133
0.04564025,-0.0021987632,0.2631213,0.14323652,-0.2384845,-0.08769788,0.40003467,0.0919214,-0.08832078,0.07561265,0.3963402,0.012276704,-0.087045155,0.19766954,0.30591476,-0.09737719
0.14688852,-0.043684408,0.2862075,0.33350033,0.0073690126,-0.12552625,0.33089703,-0.28572935,-0.23821291,-0.009823297,0.39959797,-0.19647738,-0.18631637,0.20648007,0.21057916,0.123301804
0.2097102,-0.033375304,0.31711778,0.13541853,0.04793563,-0.080442965,0.27876577,-0.07470962,-0.0029191552,-0.116520815,0.21086687,-0.10772036,-0.024682248,-0.018621115,0.2796321,0.16684303
0.22539632,-0.0054944926,0.400025,0.012497928,-0.032658454,-0.05194877,0.32159382,-0.0035581084,0.05931876,-0.11041245,0.19886334,-0.09581862,0.27030814,-0.06773999,0.4000856,-0.014248365
-0.016502526,0.1412581,0.40002722,-0.1729224,-0.09916226,-0.0268235,0.29075104,0.14966449,0.18624794,-0.10683455,0.04136611,0.12696911,0.32375565,0.0040672664,0.39959878,-0.14979742
-0.11064432,0.13174795,0.24120598,0.12655248,-0.11527117,-0.1320799,0.3248189,0.037413277,0.11319079,0.024069322,0.16859289,-0.020341111,0.0070083705,0.17204691,0.27208364,-0.21161342
-0.033079803,0.114630304,0.33832112,-0.004226377,-0.23785287,-0.08866,0.3960624,-0.152105,-0.26570714,0.16814946,0.4000717,-0.03420904,-0.023591733,0.2537355,0.2481483,0.0057352567
0.0054836962,0.08185681,0.36001942,0.1940106,-0.09626008,-0.08017222,0.38088158,-0.28485224,-0.29857373,0.103340365,0.39924914,-0.24066725,-0.118312344,0.27072948,0.11252827,0.4031691
0.091347165,0.08287344,0.3653577,0.32579792,0.026669204,-0.023217436,0.20146886,-0.07702469,-0.059497476,-0.027969453,0.25329143,-0.18610825,0.046354614,0.044248436,0.23757496,0.09168983
0.16025272,0.09529713,0.40000564,-0.04638686,-0.12443148,0.03838004,0.30752465,0.038492177,0.02709693,-0.058825623,0.28031835,-0.020698398,0.35368735,-0.10301566,0.40007707,-0.100109
-0.0491489,0.12455644,0.39719346,-0.061786663,-0.18505381,0.091086544,0.30450442,0.21568148,0.12399384,-0.11155038,0.1948486,0.38959882,0.4052893,-0.055201158,0.39986786,-0.14861375
-0.119298875,0.085531406,0.35021642,0.11252373,-0.09939465,0.00074734475,0.39165777,-0.111727506,0.15218942,0.051153053,0.25165555,0.20139839,0.051367268,0.1597231,0.30986628,-0.029110406
-0.108576566,0.08268131,0.3573659,-0.052752484,-0.18820292,0.08033703,0.4000016,-0.22669327,-0.11618248,0.17699131,0.40012166,0.034142517,-0.059634294,0.16817528,0.16754481,0.07714033
-0.060443785,-0.028810259,0.36875775,0.15537205,0.047805976,0.017983932,0.3043056,-0.22295564,-0.03205594,0.008484524,0.31591833,-0.22960804,-0.10110057,0.017540328,0.07272236,0.1567593
0.16259529,-0.023362633,0.35610014,-0.07897675,-0.0317791,0.06725205,0.33074573,-0.29415008,0.109385386,-0.040018473,0.29800752,-0.06791281,0.19807456,-0.19812056,0.36801526,-0.007329486
0.056005597,0.061364524,0.39856294,-0.14616647,-0.13512598,0.14188027,0.38024408,-0.13436477,0.22571625,-0.099863395,0.3075515,0.39416307,0.3374215,-0.15996487,0.39999977,-0.16248931
-0.15072455,0.12669833,0.28154096,-0.15638307,-0.09662259,0.14107452,0.33459005,0.080740675,0.27641967,-0.13882989,0.22172384,0.22362766,0.07081123,-0.04152829,0.39623988,-0.23516145
-0.04598251,0.08696244,0.3200911,0.07008749,-0.13581006,-0.03649763,0.39040592,-0.262266,0.07240498,0.0642459,0.30396894,0.07170499,-0.15316108,0.12373735,0.23897721,-0.13304542
0.0011172586,0.029053878,0.34286445,0.31336164,-0.019107703,-0.026521329,0.36310393,-0.24110174,-0.19624576,0.12991622,0.39912117,-0.27615237,-0.18266286,0.18396713,0.14011177,0.33628282
0.097603805,0.052923437,0.23518662,0.14729589,0.08322905,-0.018493883,0.25164092,-0.050164238,0.04793076,-0.07478921,0.20620485,0.016210243,-0.028922586,-0.016503079,0.20890978,-0.0013538802
0.21681811,0.03167586,0.40000638,0.02406386,-0.0008580774,-0.015204698,0.31130618,-0.05945258,0.13591683,-0.14201333,0.25504342,0.38657066,0.30938187,-0.11868997,0.40002498,-0.11477076
-0.011809048,0.14151902,0.40001306,-0.21979308,-0.022425575,0.04483828,0.28029624,0.20971122,0.21993612,-0.18548673,0.17095241,0.40962073,0.27761754,-0.07543884,0.3986599,-0.2693914
-0.113322526,0.15218246,0.28083903,0.013150835,-0.042880945,-0.022388395,0.38667092,0.048449043,0.14068209,-0.038390838,0.2703489,0.075287916,-0.113560766,0.13832508,0.17135246,-0.2810356
-0.06786024,0.11453101,0.36629584,0.040287904,-0.16986209,0.019478723,0.4000066,-0.15556224,-0.19996363,0.13877434,0.40007767,-0.012241245,-0.11592191,0.19322431,0.1559366,0.019942187
-0.031667944,0.06276443,0.3851128,0.1445514,-0.116120115,0.07734554,0.39317283,-0.3475573,-0.39474675,0.16247953,0.39991206,-0.22017552,-0.18208651,0.18694714,0.01451372,0.40613684
0.097704336,0.057967845,0.34805453,0.31654185,0.04188075,0.109770104,0.16956663,-0.2588205,-0.06692251,0.028496943,0.1883822,-0.21774046,-0.011595725,-0.06550241,0.1652061,0.12111093
0.27093372,-0.0026150318,0.40003255,0.04057556,-0.08761211,0.14220247,0.31771153,-0.44530135,-0.032788247,0.034663867,0.32208452,-0.35502574,0.2244164,-0.15657331,0.3999876,0.028594084
0.18700092,0.04765277,0.40003228,-0.110334754,-0.1424985,0.205647,0.35358083,-0.31831723,0.049750272,-0.02083901,0.3416928,0.042461287,0.36760995,-0.16444293,0.39995515,-0.14869449
-0.011772311,0.12808765,0.39883906,-0.15358226,-0.19208074,0.26519358,0.34359542,-0.1569277,0.18531111,-0.040592916,0.29240355,0.3785322,0.26251975,-0.10346351,0.39995885,-0.2783915
-0.14984772,0.23474367,0.25657892,-0.11509438,-0.10594811,0.23052631,0.27343297,-0.21938136,0.19221316,-0.0440445,0.26498598,0.3101897,0.0004507231,0.034730993,0.38977724,-0.44794077
-0.04480798,0.17938551,0.29401153,0.12570074,-0.16136856,0.14163211,0.38759843,-0.30975783,-0.00022471977,0.08952532,0.38368735,-0.00032596168,-0.104353465,0.10921239,0.24131677,-0.1986854
0.01031779,0.12789643,0.29368684,0.23041372,-0.10494556,0.11311141,0.36973748,-0.3257446,-0.26077244,0.1664521,0.39998904,-0.18703374,-0.15386666,0.121014506,0.11277867,0.12563254
0.14478941,0.008277954,0.2280907,0.3294538,-0.0032364838,0.11946486,0.28867975,-0.29864293,-0.008810142,0.010802971,0.1688533,-0.02044293,0.007994751,-0.12833957,0.2132947,-0.08416086
0.28446108,-0.098315336,0.40001374,0.05581913,-0.07857935,0.13467075,0.38686848,-0.40864715,0.03802096,-0.011876072,0.25084212,0.20149864,0.25603065,-0.22539654,0.40003723,-0.3480908
0.08055618,-0.036556415,0.40001923,-0.26544765,-0.11397692,0.13337591,0.37339684,-0.42645934,0.13807787,-0.0143454,0.19403659,0.22945157,0.26460695,-0.17952995,0.3999045,-0.25778133
-0.15811351,0.03769467,0.24875136,-0.17802617,-0.018232524,0.084304035,0.34393737,-0.33183116,0.15682329,0.0152426055,0.13351183,0.15572111,-0.08378591,0.053474743,0.31033626,-0.2859897
-0.013922939,0.0028384747,0.33427536,-0.10914629,-0.11809642,0.12848409,0.40134552,-0.1322486,-0.064899966,0.110559896,0.399907,0.08847945,-0.17514893,0.111195795,0.17850131,-0.07558454
0.023552982,-0.03676746,0.32794285,0.0047936896,0.050090563,0.06652801,0.27210003,-0.21084563,-0.10482792,-0.024324685,0.39277095,-0.12950668,-0.1934208,0.03287558,0.099640444,-0.09664098
0.26318115,-0.0052859457,0.40000466,0.113124095,-0.0063728495,0.082162164,0.36887366,-0.22024935,0.06509397,-0.09443986,0.24948213,0.01576445,0.11230609,-0.16071914,0.3142352,-0.25918666
0.17429851,0.09480366,0.39968535,-0.11369704,-0.043631867,0.094323315,0.38364118,-0.2865833,0.17103426,-0.119614094,0.2314633,0.44501412,0.3138934,-0.08045943,0.39856517,-0.23304291
-0.08892267,0.21885496,0.38432992,-0.18182881,-0.034869257,0.16093853,0.33774397,-0.074596934,0.27902457,-0.10308162,0.09573764,0.4040405,0.1775024,-0.038061198,0.387741,-0.4729935
-0.1679241,0.26546958,0.15944278,-0.04116255,-0.05502104,0.08173104,0.39880458,-0.14480342,0.17885941,0.04864309,0.23631676,0.35314426,-0.111449726,0.14728473,0.22364771,-0.2605184
-0.021210283,0.21706593,0.26308793,0.06638442,-0.17873062,0.106774524,0.40000185,-0.20455474,-0.1094626,0.11212857,0.40023756,0.19555944,-0.16508321,0.15959896,0.17750564,-0.19343887
0.07267152,0.15758216,0.29302853,0.05893042,-0.08774963,0.010302811,0.34917304,-0.31460768,-0.27663994,0.0808088,0.39964134,-0.17407344,-0.22316761,0.16352378,0.052488856,-0.014272317
0.19722706,0.108429804,0.29210582,0.21990173,-0.026980877,0.042532325,0.25508535,-0.2883384,-0.0149018355,-0.06512635,0.20747052,-0.082477205,-0.01875974,-0.035988614,0.1638789,-0.23668596
0.21635635,0.13575625,0.40000507,0.050082017,-0.111481324,0.11387494,0.35842606,-0.17224792,0.012121843,-0.08634178,0.3152692,-0.035280216,0.24099146,-0.14495292,0.40000877,-0.29816335
0.014005053,0.21355928,0.40001047,-0.18830393,-0.15306132,0.20253271,0.3753055,0.053342715,0.1176103,-0.10232793,0.30014113,0.3034999,0.35814592,-0.11319101,0.39985755,-0.31919307
-0.13029335,0.26528114,0.2802396,-0.10569994,-0.02489834,0.15879956,0.33652782,0.17267402,0.18114495,-0.06754874,0.2224693,0.15512156,0.083043076,0.09309982,0.36448812,-0.34298396
-0.096908264,0.2600266,0.30539733,0.096372865,-0.048498698,0.17920469,0.4001748,-0.23824306,0.020592678,0.0960818,0.35036725,0.12244975,-0.07614657,0.18579826,0.19106406,-0.387662
-0.05722178,0.2275506,0.3116671,0.18281351,0.024308305,0.28139973,0.40108728,-0.19362792,-0.13179754,0.032488372,0.38328007,-0.27249363,-0.088909276,0.19453058,0.06884933,-0.40574187
0.13290647,0.1338858,0.24363297,0.20139721,0.11675282,0.26049355,0.34776613,-0.25045058,0.013299198,0.0010601799,0.24554011,-0.004602789,0.0634595,-0.016229957,0.25922784,-0.4605413
0.24831107,0.014786168,0.40007892,-0.13241649,0.06879766,0.2258109,0.3798533,-0.5817472,0.13046508,-0.024943706,0.23946452,0.382077,0.20266595,0.012756084,0.39880323,-0.34498712
-0.05027339,0.1897936,0.33916438,-0.42902243,0.09448017,0.18132073,0.36807182,-0.52681226,0.14143862,-0.027647674,0.23210905,0.4989866,-0.08638675,0.13108683,0.31796536,-0.34306848
0.046851587,0.15580702,0.3421375,-0.2501046,-0.090126224,0.24218778,0.40006286,-0.3183109,-0.1378968,0.18891135,0.39994627,0.2522958,-0.1546546,0.2629711,0.30413157,0.0043656332
0.11936998,0.06598208,0.36230537,0.012746303,0.006037,0.22926965,0.33871078,-0.30190697,-0.2980808,0.14537801,0.39996263,-0.03721747,-0.17775264,0.22076096,0.16465943,-0.09228082
0.27383915,0.04636756,0.32258877,0.27321753,0.04815128,0.2845496,0.35454333,-0.17544709,-0.07248531,-0.025259402,0.21692866,0.17034848,0.06405838,-0.032831986,0.2638191,-0.369849
0.24920326,-0.0007629577,0.40003175,-0.07739593,-0.014665706,0.27457103,0.3928696,-0.3332171,0.03826841,-0.042376813,0.23984466,0.2685707,0.23855138,-0.09452232,0.39773387,-0.36466467
-0.04651815,0.15326479,0.4013771,-0.13496909,-0.002324157,0.28041038,0.37467197,-0.2110708,0.17747524,-0.060494844,0.13551006,0.44575763,0.15307134,-0.024743436,0.39974627,-0.40832216
-0.17223133,0.24230695,0.24613306,-0.118932396,0.10663331,0.27395794,0.35924852,-0.14317477,0.17542906,-0.027683176,0.12558183,0.33492628,-0.11245,0.17291208,0.30519205,-0.42900085
-0.062986925,0.20766926,0.34526888,0.09111051,-0.0729463,0.30752978,0.4001404,-0.25960526,-0.14788713,0.23509568,0.40018725,0.03636526,-0.16393778,0.2758363,0.15404874,-0.24239285
-0.021906585,0.15120347,0.36613056,0.31922162,-0.061328206,0.3178274,0.40012047,-0.43539095,-0.37319052,0.2597002,0.39999926,-0.066005856,-0.1732024,0.30851683,0.05705832,-0.05568383
