ancorasir/BennettWheelLegRL/experiment_data/2023-12-27_22-47-53/joint_vel_env30.csv
Joint_1,Joint_2,Joint_3,Joint_4,Joint_5,Joint_6,Joint_7,Joint_8,Joint_9,Joint_10,Joint_11,Joint_12
0.0,0.0,0.0,0.0,0.0,0.0,0.0,0.0,0.0,0.0,0.0,0.0
-3.304221,3.1340024,14.631181,-5.088217,7.9774456,-8.895638,-0.62893146,-3.0943544,2.5028439,3.589631,4.479375,-6.5887914
7.461627,2.840221,-9.6913354e-05,-0.306805,2.0081427,0.6723163,0.30263782,-1.3921528,-1.2488691,1.2223064,-6.1265125,-2.786618
-1.7272991,1.9894053,-4.2811117,1.3628013,0.9312037,3.003072,-0.25150836,-2.2596776,-1.8682464,-1.879933,3.992563,8.520924
0.12941886,-4.5351195,3.1349251,-0.8240257,2.492612,1.9710224,-1.9248197,-2.93887,0.0029465444,1.8745662,5.3274446,-3.6600645
-0.09476605,-4.8820405,0.73352844,3.4367323,0.116329074,9.832891,-2.5177963,2.1201952,0.0035650693,-0.3502365,4.717785,0.77902675
-0.94482,-2.7027988,-1.6075602,-8.836511,6.802604,-46.355556,-6.7523923,7.015961,-0.006475456,0.19063967,3.1820323,1.2578584
-0.2307122,-1.874536,-3.3720183,-4.632297,-6.2067795,-6.413453,1.5286614,9.821937,0.002033539,-1.6409056,0.83291733,4.5693274
10.853101,0.8320205,-0.00040143618,-5.471273,9.319075,-9.067463,23.2052,-15.635615,-4.9302664,15.060442,-7.407146,-3.3645632
-2.7193477,11.513063,-0.0001743595,0.7550737,3.5817645,1.5157701,-0.35226884,-2.561303,-1.0074695,-3.153707,-10.855959,1.9575574
-2.8744402,0.8687735,-1.3123662,1.3097878,1.7649145,3.5485106,-1.0935963,-2.7120337,-0.8571069,-2.0289433,3.4504902,5.188604
2.400334,-6.103324,4.888865,0.00227803,2.8697815,2.1904,-5.340454,-5.8120294,-0.017366346,0.59584284,5.779029,-4.295981
-0.29337808,-4.285911,0.60106,0.81807655,0.3550691,4.3717155,-3.973214,-0.41823092,-0.0042218957,0.0806903,4.7174315,-0.9590159
-0.06623003,-2.916543,-1.439938,-4.2081747,-0.88011354,-12.126544,-4.064361,6.8183393,0.0029047541,-0.74010575,2.5175176,2.0362346
-0.75824744,-0.85881424,-4.304929,-1.5214745,-7.0130825,-4.1826115,5.317105,10.090316,0.0067379205,-1.7040936,0.3895467,5.032449
11.489263,-0.23872982,-0.00043677853,-4.510378,9.019396,-9.190336,24.323826,-12.746761,-5.733631,9.314615,-6.712862,4.6201844
-2.9987197,10.00014,-0.0001993406,-8.1327744e-05,3.9965177,0.82695377,0.44138575,-2.3990066,-1.0060458,-2.356683,-8.542712,0.12861156
-2.5197244,0.77609646,-6.1229906,1.1330662,1.2708789,3.7774394,-0.22044036,-2.083918,-1.3197478,-3.5460572,3.5640328,6.1433043
3.9347625,-5.5194874,6.139515,1.6789342,-1.9592191,-4.8668585,-7.7748675,-10.495904,24.075249,4.3595223,7.90093,-13.728106
-0.17266634,-4.0205727,0.43028137,1.2158132,0.02206051,4.6652937,-4.000246,0.31439707,-0.003210743,-0.2811597,3.6553278,0.69364583
-1.2017218,-3.0918007,-1.6584729,-2.898718,-4.2468476,2.034318,-3.988679,6.481057,0.0048960326,-0.11711946,2.8183186,1.3782697
-0.67285734,-1.5424198,-3.8098633,-2.3473022,-9.088669,-7.953565,4.4466186,10.680963,0.0072083273,-2.0077822,0.34593737,4.9365344
13.042151,-0.19208232,-0.00043629424,-5.001927,8.997577,-9.009277,24.906822,-14.33421,-4.465496,12.90088,-9.040737,2.0641248
-2.264454,11.542593,-0.00020891576,0.28389442,4.249888,0.9797355,0.109149076,-2.6317677,-0.9921866,-3.1214738,-10.154734,0.6563008
-3.90862,1.2040457,-2.7208407,0.03813664,3.5838432,2.104101,-0.31199852,-2.7033465,-1.6216638,-7.00959,0.7719883,4.9908433
2.422654,-5.951456,5.949571,-0.700868,-5.060061,-4.8126245,-0.061178576,0.23222658,-0.2196845,2.3860283,5.841233,-6.9670305
-0.13923083,-4.1057186,1.0196244,1.0527253,0.3857702,4.2378244,-5.6342793,-3.042765,-0.011847964,-0.056586847,3.865166,-0.06745672
-0.37950623,-4.0040693,-0.16362108,-2.4842176,-6.31975,-1.3888767,-6.9176106,4.910823,0.0019807708,-0.16689204,3.4514914,0.70482063
0.33371222,-3.4524686,-1.4479995,-4.1826954,-3.4431636,-4.756239,-1.115816,10.3498745,-0.00017290446,-0.81682086,2.5407455,2.3539698
-0.10967764,-1.2273886,-3.8494449,-1.2230188,-7.23369,-7.09669,7.112115,10.58183,-0.045211837,-2.6132796,0.045660064,5.231837
17.377491,8.597589,-0.00043563568,-1.4792708,9.193163,-10.288846,-6.6767073,-3.9460773,6.7354474,14.313071,-14.26427,-4.5807867
-3.8906207,12.027391,-0.00016872844,-0.47780225,4.54851,0.047443762,0.83536124,-2.6990106,-0.67082065,-2.399542,-13.302856,2.673246
-2.879353,2.3113494,-1.2283403,0.3650579,2.6394026,2.7211788,0.16750173,-2.5443172,-1.5109074,-6.058638,-3.6241977,2.5422316
-7.1706657,-8.797959,-0.6409032,-0.7344968,3.5148044,-7.338084,2.7695246,-5.494166,-3.6775417,-4.2999578,13.7799,6.0682926
1.0862489,-4.528047,2.632155,0.3566776,1.8180056,2.7627056,-8.8886385,-6.39447,-0.011911668,0.4663282,4.832557,-2.3948462
-0.13069944,-3.9955316,0.36409944,0.6984092,0.78771865,4.1925325,-5.196315,3.5269563,-0.0043959524,0.0075648706,3.8329422,0.3573091
-0.11732252,-3.1491916,-1.0368145,-3.7889624,-4.8126607,-0.78574216,-4.9813213,6.2704473,1.1648834,-0.50379527,2.8177288,1.1083105
-0.627403,-1.7372451,-3.4496205,-7.4599643,-5.5712466,-7.5570054,0.001779452,9.547705,0.010894652,-1.2311462,1.4361906,3.6732788
0.034286786,-2.5675368,23.759054,5.894459,-5.719382,3.0296938,14.402483,7.2757444,-7.697065,-2.6588814,-0.09137581,5.7281437
2.4570403,11.913035,-0.0003736099,0.20872502,4.481459,-0.8150642,-3.8730624,-6.7086477,7.4211903,8.712554,-13.237838,-9.472771
-4.133003,9.323152,-2.5313323,-0.09972757,3.8730347,1.1487443,-0.019941002,-2.743683,-1.5857087,-6.2907786,-10.492331,7.812833
-6.9703608,-7.4061193,0.72205603,-2.0570207,4.316392,0.38505173,1.7473359,-2.364271,-2.1270635,-2.9556131,11.462126,3.825438
0.056428447,-4.6570477,2.2229717,-0.290031,2.5297039,2.3554518,-7.7081203,-6.3648586,-0.011824032,0.9165169,4.922232,-1.9324998
-0.45096833,-3.7179675,-0.24076639,0.5180259,2.297567,4.696328,-4.301324,4.052797,-0.011690415,0.3261587,3.7633603,0.54756546
0.260157,-3.4469206,-0.96492493,-3.1772733,-3.3350089,-8.068019,-3.0143983,8.0581875,-0.00035954476,-0.52335215,2.600741,2.0325248
-0.26630336,-1.2665365,-3.7361739,-0.5256295,-4.681454,-7.1095204,5.071794,10.546037,-0.1597035,-2.0884154,0.29670691,4.982775
15.355653,3.4901085,-0.00043901883,-2.1375382,9.23641,-9.833385,20.90565,-18.409601,-0.3154228,10.597686,-5.757675,-8.586958
-4.2424026,9.683235,-0.00012675172,0.7496864,2.473073,2.1051767,-0.57593954,-2.4696245,-0.4329868,-3.355639,-10.239677,2.1996534
-7.1115594,-4.2505093,-9.089922,0.9256464,2.3985357,2.6597002,-1.0438861,-2.7420795,-0.38516834,-4.169138,6.520464,9.264988
1.151097,-4.938551,3.2910812,-0.4059715,3.3252475,1.263518,-10.1794405,-5.2359724,-0.0082357805,0.89400256,5.0573854,-3.2620246
-0.21520686,-3.8379185,0.3224789,0.488005,1.0853608,3.419067,-5.159103,1.7779483,-0.01671355,0.00076183677,3.5644405,0.31610227
0.30302048,-3.2637224,-0.79162306,-1.0677208,-0.4648447,-2.7915673,-2.2916222,4.377662,-0.00020041363,-0.613006,2.736991,1.5000842
-0.3287462,-1.5819789,-3.1102288,-3.0878267,-6.8299227,-7.6463475,2.814259,11.9454,0.0031609058,-1.5616331,0.81298757,3.9842303
9.466593,-1.3245035,-0.0003647175,14.204942,-4.7703547,25.055334,26.460249,-3.2689195,-24.55863,10.2578745,5.629362,-38.52526
-2.3393397,12.151768,-0.00013434561,0.3272165,4.2304587,-0.15858668,0.73177797,-1.6633835,-2.1428697,-1.4703863,-14.322592,6.7134147
-3.4368918,1.3616518,-6.101564,0.07213203,3.3622954,1.3350773,-0.25697532,-2.4893057,-1.2918562,-3.552654,-2.1940644,3.5295808
-0.2079129,-4.9851384,2.2931058,0.621404,0.8418973,1.4528975,-8.445303,-4.925463,0.0017848115,1.2652007,4.9786577,-1.6065698
-0.29159266,-3.5392783,-0.75854397,-0.21215425,2.0599694,2.413527,-2.6502252,4.0418806,-0.024335798,-0.38427293,2.661119,1.5224438
-0.02069769,-2.0862408,-2.6398418,-4.703153,-6.440485,-6.941651,0.5681127,10.013207,0.0058878185,-1.361101,1.3534462,3.166536
7.11427,3.7439303,-0.0006132695,8.636539,-7.4903746,49.523308,24.553284,-4.827863,-18.920652,11.215594,12.195417,-50.181236
-3.6428893,10.390954,-0.000267028,-0.43472758,4.7420745,-0.9869853,0.84531516,-2.1347399,-1.3035005,-1.7092412,-9.006605,0.47735912
-4.445238,2.4074416,-6.6129937,0.44259033,3.4071276,1.4445322,-0.6323865,-2.4524827,-1.0322864,-3.5157595,-0.29249826,7.484391
3.3627498,-5.0206556,5.2974935,1.985306,4.7529945,4.9240594,-4.8944507,-9.035275,19.347977,4.9992156,8.1794815,-13.44392
-0.20059405,-4.337916,0.69676906,0.9808716,0.4353159,4.2855425,-4.4832263,-1.4610919,-0.005715858,-0.16003034,3.7954319,0.33383918
0.34738553,-3.990674,-0.42210725,-3.5667808,-3.1203287,-3.4488416,-5.6643047,5.113922,0.0054066572,-0.89733434,2.8837059,1.6371557
-0.16795087,-2.1728315,-2.796262,-3.8115826,-6.13714,-7.721047,2.0508602,12.040421,-0.0005413741,-1.2182537,1.392291,3.5276785
6.761564,0.47842637,-0.00026983256,12.555807,-4.588509,13.379542,20.665861,-5.9407277,-3.5745296,1.6748834,-6.999743,8.3454
-2.6577027,10.428199,-0.00018135086,0.29342672,4.143845,0.24389696,0.3191702,-2.171858,-1.6129452,-3.3060591,-10.262816,1.0481158
-2.9510128,0.89733696,-7.404707,0.358081,3.153067,1.9314824,-0.34427363,-2.5305274,-1.3385406,-3.7097452,1.8887819,4.4059353
6.1249304,-6.1510744,12.171771,-3.4093814,-1.8502454,-5.778313,1.1853889,-6.160443,10.979708,8.261021,7.8697047,-16.649292
0.2866425,-4.057836,1.0662081,0.9000308,0.69569683,3.8532643,-5.561419,-2.7884116,-0.005764719,-0.2655769,3.8490467,0.05790496
-0.58449,-3.5188017,-0.7107935,0.89476883,-0.15532687,4.712698,-3.0888903,6.0874085,-0.0015683281,-0.13472597,3.2782416,0.9158889
0.00465626,-1.9791181,-2.980202,-5.5631704,-7.928573,-8.313659,1.5057738,11.813964,0.0074100345,-1.5285287,1.068346,4.0320783
9.002467,1.2752815,-0.00031320943,13.415869,-3.809073,12.931419,19.38375,-5.96385,-3.5929213,3.5601268,-6.8535557,7.2174907
-3.8607612,11.002133,-0.00020586327,0.53068656,4.1035323,0.5937275,-0.18182746,-2.4341378,-0.8550324,-1.3824271,-9.175116,0.5900574
-2.6481545,-2.0288327,-1.3248112,0.45288914,2.537185,2.7902021,-0.28620306,-2.6164966,-1.0310965,-2.7275298,5.507709,5.2879868
1.4303014,-5.01663,2.988873,1.6109407,1.0436954,4.0707006,-6.8415103,-7.5218697,-0.007097801,0.29784447,5.4898424,-2.803141
-0.18611366,-4.496779,0.10993609,2.9179683,-1.4239675,6.9567986,-3.999756,4.148985,-0.00027782004,-0.25856194,4.337952,0.42704886
-0.71799535,-1.637676,-2.9603603,-8.345734,-5.9667554,-17.291502,-3.890933,9.237833,0.003482757,-0.9750017,1.9475225,2.440239
-1.7452552,-1.3066025,14.29511,4.327691,-6.2220297,2.3675187,11.260317,8.451599,-5.772006,-2.37337,0.04374841,5.307837
6.634161,15.469703,-0.00033043494,-0.5217616,5.83992,-2.5512743,-4.407216,-7.1066794,8.742808,10.148843,-14.097396,-14.628589
-5.229487,8.490037,-2.628587e-05,0.6921702,3.2493901,1.4559168,-0.05108464,-2.0823765,-1.9651736,-4.115398,-10.578113,2.7824466
-9.350354,-6.6038737,-11.795932,0.97315025,2.376963,2.958404,0.7702277,-6.3028092,9.102259,-7.0335417,9.794152,13.670141
0.17730865,-4.510557,1.4071921,1.0752203,0.82480085,4.2735934,-5.759676,-3.875014,-0.009908633,0.44722018,5.1016903,-1.469496
-0.43180138,-3.3114758,-0.90998036,-2.261339,3.4538093,-16.152487,-5.0494657,5.299226,-0.00016949908,0.17261681,3.656232,0.62034553
-0.39399123,-1.4142443,-3.580447,-3.3359501,-3.9969964,-7.1152177,2.3308294,11.489564,0.00096772984,-1.1546075,1.4923627,3.6337013
10.643794,-2.2055025,-0.0003846535,16.806938,-0.48234668,34.393433,25.308964,-13.597506,-17.316055,16.207888,5.1295424,-38.336662
-1.570656,11.95677,-0.0003107696,-0.30694792,4.8302503,-0.5052952,0.9699096,-2.2074213,-1.7481911,-1.5261365,-9.973666,-1.8456124
-3.1868653,-2.095019,-2.6116726,0.55817944,2.922592,2.279278,-0.50683755,-2.5896177,-1.3641503,-4.1699543,-0.8123077,1.9114276
2.5467277,-5.914822,5.1523666,-0.09653399,2.0501227,2.601158,-5.9425473,-5.940768,0.9800801,1.0857934,5.703616,-5.3975263
0.013591826,-4.3262887,0.64127606,1.3100717,0.12816754,4.7529683,-4.7630916,1.4118365,0.0020685378,-0.04321845,4.2929873,-0.06969774
-0.4418041,-3.2608356,-1.2640018,-1.5262415,-2.8596015,-8.040115,-4.0960207,5.114763,0.4433688,0.07689744,3.161979,1.0844916
-0.12394113,-1.5929534,-3.396425,-5.108056,-8.196413,-8.044069,-0.7767107,10.431514,0.0081631765,-2.0069277,0.6018569,4.1828437
10.528327,5.158409,-0.0003653993,-6.6879187,9.029465,-9.809652,28.309286,-11.892541,-17.887396,19.610243,-2.409626,-32.67551
-2.7997205,5.693398,-9.305212e-05,0.07595428,3.5531065,1.6875516,0.23413312,-2.748361,-1.4296641,-4.9550977,-8.282764,0.51335335
-4.095404,-2.8181083,-6.195845,1.2945223,1.5342537,3.8451939,-1.1028914,-2.9235325,-1.0490977,-3.6907504,11.697015,10.152463
1.1433365,-5.1705027,2.9096446,0.0986788,3.7639217,1.4080168,-10.760735,-4.730625,0.0014341827,0.4568525,5.3400893,-2.2053359
-0.19394912,-3.922665,-0.37308836,0.3724947,-2.1005268,0.04302118,-5.9143815,3.5993533,0.0013368322,-0.44991177,3.4223218,0.9750651
0.034727946,-2.413271,-2.608949,-4.4073305,-2.9907632,-3.511772,0.08939623,7.8198943,0.5611847,-0.8761445,2.0992384,3.12194
2.3083708,4.32617,-0.00022085087,10.7982645,-2.2501674,9.385389,20.906893,-1.805629,-4.132406,-1.8043038,0.50275064,4.443524
-1.0824666,10.833678,-0.00031975366,-0.46703067,5.659223,-1.9635069,0.6840492,-2.2980413,-1.1945171,1.0760761,-11.190105,-4.1246743
-2.148054,1.6378412,-0.994087,0.45642513,3.3304944,1.4570763,-0.8122618,-2.6932921,-0.45836174,-3.0174568,-3.7970638,2.271423
-4.174974,-3.376211,-3.3473597,0.33882967,1.8518739,2.7205017,-0.2469849,-2.1808124,-1.0693426,-2.6057124,3.6931272,4.2238903
2.1551068,-4.9321046,4.4252744,1.9906846,-3.0047326,-3.9232783,-10.557077,-2.7986856,1.0139745,3.9425666,7.548146,-12.271189
-0.16953707,-3.3931584,0.09304406,0.95807767,0.6591935,3.5171585,-4.1321063,-1.7552584,-0.011287559,-0.778079,2.2906682,1.8799778
-0.26152045,-3.5752842,-0.23871449,-1.9488358,-3.3534572,-2.169378,-4.325164,5.2644815,0.0050899056,-0.099263996,2.6545796,1.0637666
0.14637952,-2.363709,-2.2259493,-3.8428216,-2.8904548,-5.035198,-1.02397,8.037501,-0.0002814564,-0.86053973,1.8133029,2.9115932
6.016878,3.7525911,1.6260246,12.31452,-5.258258,9.95221,21.244007,0.28196988,-7.1662564,-1.3991154,-9.044035,10.858308
-5.3203297,6.927586,-3.366766e-05,0.5669883,3.6302,0.8448664,0.058566302,-1.9993179,-1.906114,-3.5540733,-8.058356,2.987822
-3.756849,-2.5656948,-7.1490736,1.0546814,2.0739553,2.33355,-1.6448725,-2.794517,-0.15088195,-3.7798162,8.159276,8.149811
1.6998464,-5.2366805,3.6260412,-0.084963,2.2825806,2.038435,-10.188366,-5.469617,-0.0086732935,-0.06519057,4.302642,-1.8629358
0.08794752,-3.894625,0.0677054,-0.55701905,-3.1546328,0.046955813,-4.809244,4.692522,0.009142427,-0.49945796,2.936435,1.022357
0.57287604,-2.986905,-1.5482098,-4.3785048,-4.134145,-6.170286,-2.638535,8.740644,-0.0005763525,-1.2235677,2.1219018,2.6082554
-0.12837791,-1.142047,-3.7143886,-0.610229,-5.9106417,-2.938743,5.3075237,11.577984,0.20708807,-2.3897002,0.26350167,4.991
11.692422,7.141841,-0.00044895464,1.451414,4.3541064,-2.1184764,22.045338,-12.344344,-8.875946,11.861685,-6.9237366,-27.380745
-2.6515298,10.0704,-0.00023036764,-0.3978979,4.3943677,0.024453767,0.8418486,-2.1209776,-1.3086329,-2.6994631,-9.123324,0.9372225
-3.7843416,-2.6675773,-2.0092187,0.622649,1.5412402,3.0590189,-0.23324367,-2.1981657,-0.9808379,-4.0819793,3.0207794,5.155248
1.3096153,-5.212486,3.7641098,-0.10929541,3.7924488,3.472001,-9.133757,-3.634821,-0.009426998,1.6284384,5.4832287,-4.4454503
-0.44135663,-4.2688847,0.45371264,0.5757738,0.91271913,4.051069,-4.4716396,0.16061373,0.0012105852,0.15284982,4.0520205,0.17725684
0.416991,-3.689236,-0.91485167,-5.1889663,-6.2257094,-5.3842325,-3.7247214,7.752017,0.0018479094,-0.6831303,2.9157152,1.6312119
-0.70483494,-1.2068464,-3.919067,-1.8965734,-4.355304,-4.2678895,5.712403,10.12326,1.0041175,-1.8293041,0.2660005,4.9405727
7.7149935,7.024867,-0.00044915825,0.33448908,6.4286523,-2.8036509,-1.3765321,-4.0593605,1.200818,6.1604505,-8.560178,-10.698017
-6.078041,7.338751,-1.2179678e-05,0.5994572,3.2682312,1.6224395,-0.14970194,-2.2720222,-1.4733202,-3.7214108,-8.932144,3.3896673
-6.9320326,-3.0034592,-10.95428,0.6039251,1.9106791,3.1744874,0.49025494,-3.2963698,0.04213214,-4.181205,10.855685,14.801135
1.6343472,-5.4771037,3.819803,0.28701723,5.861389,5.947057,-8.731871,-5.379465,0.015487805,0.40021455,4.880336,-2.506849
-0.16992132,-4.423076,0.62893355,0.4996973,-0.32715756,-0.77682424,-6.143306,1.923249,-0.00054573733,-0.22473212,3.4781227,0.5084848
0.020710818,-2.6688805,-2.1243727,-5.798056,-4.0309405,-5.941361,-4.109787,9.557786,0.006691545,-0.8441072,2.4630864,2.4527836
-0.27709037,-1.4586787,-3.7473886,-1.931298,-10.410193,-5.2265058,6.144943,10.626259,-0.006150148,-1.8799037,0.8054218,4.4823837
14.62481,7.0625606,-0.00040364638,-1.2853813,8.652024,-10.064683,-7.006265,-4.7806745,7.7677116,9.194177,-10.915711,-10.923686
-4.1870227,11.805362,-0.00019553947,0.84205127,4.507544,0.35406587,-0.13272718,-2.3932776,-1.3018167,-1.4010991,-8.652683,0.29327723
-5.5948467,-2.9281228,-6.815749,0.41298565,2.6192734,2.5398202,1.5637497,-7.6930685,9.906388,-5.0460057,3.384119,21.077738
0.5524853,-5.9692335,4.2352867,-2.737199,-2.9604688,-2.0113146,-9.962292,-3.671448,0.0009498552,1.9555023,5.639285,-4.089053
-1.2545152,-3.1845117,-1.1871336,-0.57272077,-0.47437954,-2.485321,-4.5526834,3.781652,-2.3785093,0.55264103,3.8029523,0.31550777
0.2035254,-2.3336794,-2.1104999,-4.8739877,-6.4894743,-8.808556,-0.5473293,11.118639,-0.0006972321,-1.0105122,2.110407,2.3178022
-0.72142136,-0.8128942,-4.1606865,1.398975,-3.1413987,-1.572849,7.313821,6.349523,-0.6880919,-2.146403,0.20046481,4.9536505
2.4261208,11.017101,-0.00037813617,-0.18548167,6.562228,-3.4657135,-1.32254,-3.9821098,2.0063257,3.325492,-10.475092,-4.649084
-2.9919837,6.908605,-3.6910016e-05,-0.25809848,4.2777643,0.71677166,0.20640129,-2.5268595,-1.4459662,-3.5917313,-6.879447,1.8159479
-3.2866292,-2.0918992,-8.031498,-0.21723962,1.3913296,3.8214931,-0.4370244,-2.4691179,-1.188098,-5.180179,7.2865243,4.464451
1.7152935,-5.3562074,4.4307485,-1.548375,-1.5319717,-2.6498291,-8.800755,-5.0582314,0.0011991367,1.4021331,5.105521,-4.612142
-0.20891999,-4.0560665,0.34502006,1.4732835,-0.21874431,5.0157657,-2.238756,-1.3665122,0.08029281,-0.325534,3.7267919,0.48016575
-1.0408885,-2.934446,-1.3796849,-0.5356797,-5.719103,0.077679075,-3.591265,5.4602513,0.0055119633,0.14652921,3.1819277,0.6986033
-0.7183196,-1.5454129,-3.3382227,-5.022913,-4.845815,-5.603924,2.2033188,11.980328,-0.00180039,-1.3139341,0.80830365,4.306978
9.942178,3.2015712,-0.00039250933,-6.465734,8.3962345,-9.069585,25.746548,-15.254982,-10.874656,15.475989,-0.7562246,-32.00053
-4.284253,11.612672,-0.00019413873,0.39509356,3.6090248,1.1994748,0.21036057,-2.0949273,-1.5989983,-2.6745608,-8.822113,1.0103936
-2.4027643,-2.7587292,-1.7081306,1.0165898,2.044823,2.940598,-1.0876466,-2.6436422,-0.86941123,-1.9952415,3.6207416,4.7343245
1.2603803,-5.2791557,3.0751295,0.35439485,2.649673,2.3461618,-6.9493303,-6.9545827,-0.012335805,-0.00029277802,4.787798,-1.7257049
0.12166027,-4.1336136,-0.25171065,-2.3675642,0.945306,-10.082095,-5.085579,5.2044845,-6.8381196e-05,-0.26401278,3.9229684,0.5238075
0.0040401155,-2.3464,-2.7207885,-3.1680763,-4.026955,-4.214761,-0.71917784,9.6593895,0.00045750826,-1.1812444,1.8850654,3.4875464
11.384086,1.6446795,-0.00047132035,17.478867,-0.031588044,31.718964,22.743217,-10.902029,-6.6165743,5.8182025,-7.9252267,8.731792
-3.5547216,11.8105755,-0.00018319895,-0.22368652,3.9367216,0.95949465,0.6274477,-2.3391695,-1.050175,-1.8354268,-7.5651736,1.3402377
-5.272211,-5.286511,-1.9872031,0.6192606,1.6507794,3.4608238,-0.36976808,-2.297996,-1.5009688,-3.1411324,9.1281595,9.114779
0.5721849,-4.925962,2.1982608,0.40683877,1.8488203,3.46032,-7.9905033,-5.4157405,-0.012780836,0.5629816,5.490372,-2.0873775
-0.17901042,-4.155651,0.10676567,-2.209118,4.322191,-22.467459,-6.5850797,5.397388,0.00013312278,-0.10838104,3.8190603,0.27966684
-0.15200995,-1.9732302,-3.2223234,-4.419817,-4.7731266,-8.182283,-0.79141605,8.471408,-0.0042467136,-1.2614564,1.8021258,3.5012317
-1.0165266,-2.2513752,26.110157,9.000361,-2.344982,10.545545,16.47505,1.1808053,-11.145448,0.34536377,-1.0701671,-1.8800797
-0.08621527,11.669091,-0.00031013758,0.7625484,4.2395816,0.09683852,-0.37013593,-2.226015,-1.0955677,-0.72180724,-12.566612,-1.0202172
-3.2238288,5.271358,-0.120256424,0.51057875,2.3207378,2.679744,0.0125679,-2.0474675,-2.053146,-4.062153,-3.520676,2.2039375
7.1217375,-6.9394045,9.370834,-0.62147444,-3.3558218,-5.2364883,-4.7648644,-10.6424885,20.012035,0.029150963,6.2977853,-7.5633526
0.34394228,-3.6335912,0.53037345,1.8320788,-0.4121995,4.688801,-2.965572,-1.317988,-0.010900572,-0.33620775,3.8731558,-0.57042956
-0.733421,-3.085981,-0.95000154,-3.3772616,-0.05368685,-15.299034,-5.6625657,6.9535613,0.0060406583,0.2404979,3.2136796,0.8883368
-0.15947467,-2.1500318,-2.8843307,-3.800132,-7.6247196,-6.347648,0.95771337,9.494736,0.002671604,-1.5121307,1.1261818,4.0137734
14.269008,-0.969805,-0.00043365394,17.265354,-0.39041352,24.967958,24.219439,-15.586553,-3.3813858,10.344256,-10.589983,6.589399
-3.5164785,11.382503,-0.00013899143,-0.9315857,5.0116706,-0.9068065,0.95424056,-2.3831453,-1.3222364,-2.3929894,-11.693629,3.1505563
-4.8413835,-0.09199639,-9.026667,0.49874744,2.2649324,2.7036917,-0.41485187,-2.4977207,-0.89484453,-4.835164,6.695412,10.160988
0.88179386,-5.054389,2.9784088,0.11563946,2.6942124,2.306184,-9.38506,-5.274847,-0.0093625,0.49508375,5.1951528,-2.0980735
-0.5780871,-3.917792,-0.038018476,0.8110972,-1.3132269,3.3563232,-5.2729716,0.50434035,0.01933344,-0.08221632,3.6055694,0.5988517
0.5229001,-2.7497377,-1.8212721,-3.73482,-4.4442763,-5.1119976,-2.158712,6.2804585,-0.0007211078,-1.7674686,1.6536733,2.9890566
0.09816731,-7.694868,25.480688,1.4745116,-7.541086,9.967961,10.361586,11.148766,-12.720626,-2.417697,0.24279907,4.8659935
-1.0344132,13.051992,-0.0002474488,0.7075505,3.6260808,0.34270462,-0.29545534,-2.3972878,-0.11356298,3.1149487,-12.5534115,-2.645701
-2.5428095,2.4542813,-4.4506817,0.7182101,2.2094522,2.5049064,-0.7574477,-3.339858,-0.034547508,-2.7315824,-0.3147659,5.772778
6.153158,-6.5303297,8.34331,-2.122595,-4.354109,-6.1662307,-2.9707277,-10.264196,17.397142,0.5110006,5.6792583,-7.0947323
-0.5736575,-4.157039,0.5708135,0.6644386,0.14392841,4.6544857,-4.495087,-0.27961004,0.61712515,0.19159971,4.1550765,-0.33523163
-0.27685806,-3.3747168,-1.20252,-4.0444427,-4.7225065,-1.9305379,-3.7783246,5.729728,0.37891996,-0.25769705,3.286637,1.0388423
-1.669069,-0.85066766,-4.179644,-4.300781,-9.695061,-6.102657,4.2763877,11.958516,0.1430861,-0.8444398,1.1279682,3.5705326
15.60067,10.671342,-0.00040920312,0.5432208,7.478571,-6.204079,-7.3740535,-5.6561904,8.183813,7.6433563,-13.691671,-6.2980585
-4.9033203,9.954809,0.37079823,-0.47240612,3.9682763,1.1132553,1.0040075,-2.1112792,-2.461334,-5.100808,-8.826529,3.6162877
-6.1494293,-6.5828047,-1.2431144,0.22015035,2.4519985,2.6463559,0.086708546,-3.2318602,-0.26577473,-3.7913435,8.692939,5.571781
0.14509512,-4.698772,2.2684484,0.7380808,0.93777907,4.1140943,-7.0007076,-6.0278144,-0.0037616063,1.0430816,5.4586344,-2.6594489
-0.038277928,-4.342415,0.5014275,-2.287932,1.8627907,-15.390644,-5.6048245,5.033485,-0.012782133,0.0598462,4.148514,0.23752484
-0.36645657,-3.0044777,-1.8544118,-4.4259367,-5.952756,-5.0305147,-3.66779,5.686706,0.00902579,-0.60635775,2.2478974,2.630635
0.20667055,-0.9929819,-4.313506,-0.2547804,-3.643558,-4.0519557,7.7849503,10.198553,0.7521506,-3.216321,-0.4858244,6.4505806
13.483496,7.437617,-0.0004138493,-5.8780513,7.9853163,-9.230412,23.695242,-16.087652,-1.6181775,17.08305,-12.684107,-5.6333094
-5.165825,13.524917,-0.00016924218,0.72104543,3.3731563,1.242136,0.4996273,-1.5305915,-2.273772,-3.458789,-9.343884,2.8780432
-3.351304,3.8972661,-1.9668211,0.7136888,2.9095452,2.2010345,-0.3482248,-2.2081978,-1.8872912,-4.0617657,-2.3406103,5.575004
7.6614695,-6.8885455,9.576279,-1.4320102,-1.6512729,-5.4363956,-3.153122,-0.9532663,-8.576306,1.0581338,7.357374,-9.869399
1.0223273,-4.5402145,2.0452302,0.7760003,1.9429675,2.8064597,-7.0045257,-7.553906,-0.011087848,-0.59734565,4.1961317,-0.6479068
0.043270394,-4.319807,0.73229957,0.20126311,-0.7393038,-1.2732981,-5.6454897,1.7288313,3.4267848,-0.313263,3.6297278,0.13669449
0.36177444,-3.0972626,-1.1630487,-4.3996572,-3.8816178,-6.186371,-3.6642356,7.7985187,-0.00078788074,-0.65662587,2.8394325,1.9201425
0.17063734,-2.2215726,-2.6633534,-3.4013786,-6.7037964,-6.256288,1.871128,9.73794,0.5522209,-1.6368114,1.2184576,3.8402483
6.5043836,0.9335507,-0.00047104573,15.966333,-1.9290313,28.290749,22.568354,-7.986842,-6.068472,4.6434793,-7.4875793,12.184196
0.68448526,10.870367,-0.00028388167,0.16765112,3.9305406,0.021157846,-0.4272222,-2.7683256,0.42260867,3.4629312,-15.272888,-3.0729454
-3.773605,5.353458,-2.0287857,0.097031444,2.6499867,2.2402632,0.54958916,-1.9802784,-1.7730579,-5.667692,-5.4783244,2.3845124
-2.2443225,-3.601944,-1.7139348,1.2621298,1.1721945,3.6916838,-0.90895,-2.3079197,-0.94588536,-3.7370484,6.9745793,4.1141844
1.5028272,-4.5156064,4.2903285,-1.2632822,-0.6410192,-1.5493524,-9.48224,-6.3329215,15.853507,3.3823466,5.8994412,-8.505629
-0.18156612,-3.553211,0.1221036,0.63169664,0.629452,3.592848,-3.4741879,0.70739233,-0.009126596,-0.31517944,3.213454,0.4712475
-0.57907945,-2.3330724,-1.7007091,1.8131139,-0.6135128,4.75318,-1.7064322,4.089017,0.011786222,-0.5473688,2.4517426,1.324036
0.42088938,-1.9627029,-2.7292764,-3.6397681,-4.6232743,-5.8961105,1.8556601,10.401732,0.005867449,-1.8865776,0.8370827,4.15619
0.44967175,13.082573,-0.0003325562,-3.9400012,9.007153,-9.430236,-1.8775604,-5.58082,5.5616493,6.6784844,-13.5154505,-6.7679615
-3.4912155,4.2701225,-1.0254953,0.49723536,3.371044,1.5719372,-0.43715784,-2.4897032,-1.3376317,-3.4443955,-2.3079515,3.8120437
4.259527,-6.2472925,6.455223,-1.9064105,-3.2424862,-3.0521572,1.2943213,-2.646395,0.7466041,0.4170304,5.872008,-6.268541
-0.580177,-3.6246693,0.7381395,0.31692553,1.1282178,3.2129557,-8.216967,-3.582674,-0.013391015,0.6831789,4.1998367,-1.1077567
0.21588163,-4.130268,-0.1048516,-0.2551046,-0.92686677,2.2349215,-4.035508,4.587883,0.035232536,-0.49118057,3.1631417,1.7986389
-0.36136147,-1.8796108,-2.7769573,-5.565095,-5.4086423,-7.10481,-0.39974174,8.720187,0.008350749,-0.8152437,1.6771032,3.2296278
8.423592,-16.610933,43.792465,7.399702,-10.472041,37.598915,19.26744,3.0232668,-21.509546,2.5217695,5.474442,-30.608105
-0.9207066,13.803518,-0.0002546697,0.16381593,5.2067704,-1.1798602,0.48800507,-2.245646,-1.5593128,0.47166097,-10.899328,-1.9602417
-2.876002,0.2433814,-1.8345989,0.25378823,3.3345664,1.6466432,-0.36614105,-2.3262043,-1.726591,-2.70546,-2.5924628,3.6610565
-4.3455067,-7.713538,-1.6711783,2.6553931,-1.6911925,2.8261726,2.952226,-7.249357,3.0590792,-2.1150637,12.496375,10.586113
0.60828537,-2.9565375,1.018791,0.26043415,2.5120625,0.88939714,-10.878266,-5.821271,-0.006253885,-1.0602634,2.7215593,0.39922222
-0.57177246,-3.6849787,-0.1458357,0.65031075,-0.117517784,3.7500165,-5.502972,4.618449,0.0009070365,0.0011718003,3.5544794,0.5058571
-0.2789593,-2.6494312,-1.6454868,-8.104088,-0.8259112,-22.733994,-5.7069755,8.369938,0.0042912103,0.037974752,2.8488994,1.5995001
-0.9450636,-1.854959,-0.4133427,-1.2202653,-7.229756,-0.0012080288,7.891059,10.715937,0.18683904,-2.5031872,-0.45233315,6.0662165
2.5486596,12.712491,-0.00040418556,-0.86633813,6.586413,-3.4316056,-0.40161887,-3.8795156,1.4225941,2.9512541,-14.166434,-4.85675
-2.9534757,4.3921313,-1.3650334,0.20792304,3.5314274,1.5385475,-0.06650893,-2.4420736,-1.5679514,-4.8965497,-4.5329633,1.881347
-2.4334152,-2.7603724,-0.5889472,0.27763134,2.3896441,2.7490664,-0.43381977,-2.420957,-1.5443573,-2.4873447,5.672701,3.6870027
1.2745864,-5.211029,4.075468,-1.9287428,0.9589543,-0.93366337,-9.923543,-3.984248,0.0012250738,1.0151573,4.3695593,-3.7021239
-0.5443691,-3.7492483,0.011359621,0.97895604,0.69782513,-1.3869439,-5.0628495,2.5067267,0.1146908,0.33308074,3.8435695,-0.033915363
0.4844788,-3.0918157,-1.4532641,-3.5771475,-3.30461,-8.119567,-2.5548472,8.986038,0.0014257776,-1.0593181,2.445699,2.0053532
0.082408145,-1.4073192,-3.6783962,-1.7788043,-3.7710216,-4.1303225,2.8975728,9.144016,0.0067921435,-2.1256444,0.7277594,4.628877
6.093747,10.129177,-0.00038990058,-2.4328802,7.5224004,-9.060035,-2.1651335,-3.3593316,2.322435,12.929881,-15.747741,-9.741184
-5.0827155,6.8387275,-7.878842e-05,0.14671643,3.7850559,0.98620266,0.14889292,-2.3919272,-1.284325,-4.968588,-9.780368,3.2641609
-7.5462623,-7.276782,-4.943075,0.6566317,1.4421773,3.245265,2.5621953,-7.4071245,7.6521406,-4.6903324,10.316176,15.605204
-0.028059214,-5.279756,2.661346,-0.63954264,3.5056288,2.7353072,-9.241576,-5.158819,0.0017615939,1.3720418,5.1795244,-2.8833294
-0.06520626,-3.4150448,-0.68506557,-0.10260809,3.1036294,-6.103055,-3.1787848,3.7373123,0.0010349117,-0.11691847,3.4791248,0.8107406
-0.29289886,-1.8538946,-3.1619024,-3.9441853,-3.000171,-6.5639014,-0.7923791,9.874744,0.0020084362,-1.2718755,1.4096992,3.7059724
4.728449,-11.95558,42.348408,5.0601096,-10.341649,27.527763,17.332937,5.2718396,-22.289259,0.92640156,2.2782865,-15.580231
-0.50785744,11.732785,-0.00032465608,0.3605384,5.2555842,-1.0832406,0.15974149,-2.2136397,-0.98051,-0.3897967,-9.335582,-2.6219354
-4.920768,5.1130185,-1.8752315,0.47200313,3.478197,1.8650452,-0.29186404,-2.4909492,-1.55633,-4.8860297,-3.052275,6.191887
11.352846,-7.7795477,14.068053,-0.7639636,-2.9601138,-6.5303254,-5.8361697,-10.045992,20.894217,1.6331341,7.8369236,-12.395298
0.025118265,-4.135865,1.0340903,0.8408992,1.3339876,3.4175673,-5.503726,-4.651631,-0.010220531,-0.25167352,4.0153775,-0.27998573
-0.017886482,-3.9662347,-0.2347429,-2.429801,-3.6787333,-3.0092068,-4.8488398,5.6224504,5.876529e-05,-0.24198471,3.4015262,1.0340022
-0.14943945,-2.4299586,-2.357208,-4.45906,-1.8593829,-5.1408644,-1.2090789,8.500486,-0.00070469396,-0.8958597,1.8486975,3.229199
5.728848,0.63750166,-0.00025584182,12.177224,-2.2520752,12.002106,20.239803,-6.606638,-5.279999,1.479374,-6.5360165,6.1227202
-1.2857041,11.084064,-0.00017834661,0.87172884,4.0998964,0.53569216,-0.44903648,-2.5686734,-0.945233,-2.732383,-8.665251,-0.7131349
-3.6834893,-0.10698184,-6.48735,0.6123333,2.9235091,2.1413026,-1.1287959,-2.8650763,-0.8061298,-4.8226705,4.5016503,3.8818421
1.8437955,-5.0441184,4.3719993,0.4021042,-0.6004262,0.21092808,-8.287152,-3.7657852,0.017476507,1.4119294,4.8877463,-4.87116
