ancorasir/BennettWheelLegRL/experiment_data/2023-12-27_22-47-53/joint_position_env2.csv
Joint_1,Joint_2,Joint_3,Joint_4,Joint_5,Joint_6,Joint_7,Joint_8,Joint_9,Joint_10,Joint_11,Joint_12
0.29468158,-0.0,-0.0,-0.21603143,0.0,0.0,-0.25374186,-0.0,-0.0,0.32446957,-0.0,0.0
0.12694149,0.08191526,0.09275074,-0.013686898,0.20934467,-0.1679355,-0.1688256,-0.14478731,0.102293245,-0.059540648,-0.33591017,-0.09283181
0.21669431,0.053422935,0.17890918,0.038814455,0.17006814,-0.16199645,-0.3375661,-0.23298964,0.3065364,-0.065572694,-0.28648514,-0.36545962
0.57395536,0.26809916,0.40000007,0.1014949,0.2600227,-0.10357082,-0.38121143,-0.34717572,0.3165153,-0.046015315,-0.30562353,-0.59842926
0.6040114,0.6224352,0.3479668,0.16862282,0.30763435,0.102408685,-0.37191465,-0.49036777,0.22406653,-0.021713652,-0.31979626,-0.39551565
0.47926372,0.30622974,0.2588747,0.2947284,0.43274587,0.17211154,-0.5765462,-1.1016756,0.39999965,-0.1187146,0.14460947,-0.60442835
0.50119364,0.011941247,0.29417706,0.45841372,0.46551326,0.41121337,-0.8229275,-1.0142125,0.400036,-0.12784769,0.4923082,-0.5947823
0.48677725,-0.16036166,0.12250755,0.07192356,0.45317045,-0.5386441,-1.2927417,-0.5995739,0.39993256,-0.20765522,0.6795841,-0.42101702
0.42472032,-0.28049383,-0.016894534,-0.26584926,-0.19134663,-1.1181487,-1.1464832,0.17807467,0.34337848,-0.37073186,0.7062287,-0.02394655
1.0396266,-0.04519471,0.4000002,0.02348916,-0.11483084,-0.5549009,-0.35804757,-0.10503844,-0.007757643,0.23519108,0.37935778,-0.862641
0.81745833,0.6901256,0.40000007,0.05019053,0.16049148,-0.52725166,-0.3587807,-0.27728945,-0.049922537,0.15333389,-0.3721299,-0.7294313
0.36807272,0.8059166,0.03042818,0.08355021,0.3045802,-0.43136767,-0.3625564,-0.6263743,0.21894859,-0.103402376,-0.35409972,-0.05700475
0.5060634,0.41859066,0.26214826,0.11822692,0.3398658,-0.4931298,-0.62043786,-0.9121922,0.40000665,-0.08174002,0.027514923,-0.3307799
0.47055385,0.05900829,0.28304073,0.13213626,0.36989594,-0.30855462,-1.1556562,-0.9620242,0.39847136,-0.069928125,0.39759123,-0.34699687
0.46374387,-0.18479168,0.1422851,-0.23417842,0.05536407,-1.0566747,-1.3585656,-0.22360629,0.39997822,-0.12755652,0.6086655,-0.17308344
0.548213,-0.33894974,0.40000013,-0.09265467,-0.5073805,-0.8110861,-0.5614206,0.26058933,0.0022819166,-0.16497128,0.5582872,-0.05505342
0.7878855,0.51228076,0.40000013,0.05010254,-0.03913796,-0.53585815,-0.28988826,-0.23631606,0.08348998,0.21232949,-0.24454142,-0.69572526
0.5846792,0.9315306,0.25752068,0.05397052,0.25682396,-0.45319498,-0.28146765,-0.44548595,-0.016461072,0.007901088,-0.7297552,-0.5255507
0.4329621,0.6338947,0.07991213,0.08552081,0.37383384,-0.35223913,-0.3240943,-0.7700668,0.25905785,-0.24230096,-0.2695765,-0.089238584
0.5295633,0.2253568,0.32656932,0.08667121,0.49728093,-0.24035022,-0.8981003,-1.1799098,0.3952848,-0.16346996,0.1660666,-0.36485285
0.49916753,-0.011083121,0.27985308,0.15068945,0.4826309,-0.19559671,-1.2089853,-0.93738276,0.39999902,-0.1531547,0.44870022,-0.3837401
0.4943505,-0.19911113,0.11790851,-0.17758287,0.11152969,-0.87713784,-1.3903519,-0.30890858,0.39995465,-0.21542573,0.63800186,-0.23021175
0.43854132,-0.28081995,0.28760064,-0.16076376,-0.23058982,-0.9880727,-0.8505262,0.27718306,0.21017468,-0.33809817,0.682051,0.055065762
0.8707685,0.108631164,0.40000018,0.026918095,-0.028740466,-0.576124,-0.30601007,-0.2401092,0.1606327,0.3456623,0.08997549,-0.70152915
0.7877341,0.72382075,0.40000004,0.035897374,0.20117879,-0.5334103,-0.30426216,-0.40699646,0.12307209,0.16123149,-0.4698085,-0.6730721
0.56008554,0.8719831,0.14938027,0.08233576,0.3788716,-0.34758925,-0.32142693,-0.58530027,0.02542423,-0.12834887,-0.52886146,-0.3338608
0.5039327,0.5227602,0.20088375,0.0329918,0.3335501,-0.42099243,-0.598392,-0.9679389,0.40000114,-0.14209534,-0.05847003,-0.24656023
0.5320281,0.25783324,0.31516263,0.0589874,0.4180856,-0.25192386,-0.98726296,-1.1749182,0.3999848,-0.11125647,0.21429493,-0.34842378
0.5169482,0.031381328,0.30777743,0.055062994,0.45481867,-0.37208375,-1.2693458,-0.94592655,0.39999935,-0.09325436,0.45788336,-0.35269684
0.51622295,-0.14678313,0.20869909,-0.12609264,0.27172285,-0.6485246,-1.395188,-0.55179405,0.39997378,-0.13167849,0.6203748,-0.2391574
0.47747573,-0.24914311,0.08087343,-0.3502723,-0.14081381,-1.1298424,-1.2691659,0.09256711,0.3582086,-0.24283957,0.6578712,0.02878249
0.9068577,-0.19873151,0.40000024,0.058637235,-0.23469998,-0.35142162,-0.16756901,-0.06955504,-0.19246376,0.054480962,0.64936864,-0.70445853
0.9595873,0.5073965,0.4000001,0.041916896,0.07877977,-0.49066028,-0.29491246,-0.31515813,-0.034189917,0.21585786,-0.087752245,-0.9230849
0.66441756,0.9687713,0.26968503,0.05296107,0.26194194,-0.3883424,-0.290308,-0.46252108,-0.10917928,-0.018923653,-0.6017278,-0.5207361
0.37543002,0.6464777,0.074231155,0.046917137,0.40240374,-0.46128857,-0.33074865,-0.7752891,0.2729883,-0.17113142,-0.27182913,-0.102101736
0.46653843,0.36095625,0.29291835,0.05161617,0.41539997,-0.43803746,-0.78935856,-1.0225712,0.4000064,-0.112678744,0.015583949,-0.29926252
0.4691414,0.13922316,0.30774426,0.1308055,0.43361765,-0.18502715,-1.0193591,-1.0833904,0.3874855,-0.121869594,0.252559,-0.327973
0.44652432,-0.07323039,0.26611868,0.12613511,0.41761002,-0.30966532,-1.2387573,-0.7943309,0.3999633,-0.11776197,0.4717047,-0.32086742
0.4272154,-0.2035336,0.12964815,-0.24130556,0.060209904,-0.97192466,-1.3532271,-0.17962658,0.39999953,-0.15903056,0.60333776,-0.20101644
0.5011296,-0.31836,0.40000018,-0.053911723,-0.3993209,-0.6861565,-0.5580809,0.20333892,-0.021781268,-0.12918079,0.64759237,-0.24793436
0.907089,0.39602646,0.40000007,0.060816236,-0.043171115,-0.56774884,-0.3933921,-0.17344385,0.047587056,0.25882816,-0.12745284,-0.75119597
0.54150766,0.92496616,0.1883517,0.089127414,0.29692495,-0.45585746,-0.40668896,-0.43395528,-0.05735182,-0.080275185,-0.58503383,-0.35008773
0.4590799,0.5748745,0.19596301,0.077618,0.33623824,-0.39840657,-0.39817023,-0.8365848,0.3841438,-0.08897256,-0.1503759,-0.31094152
0.48116726,0.22164892,0.3419344,0.12099688,0.42621985,-0.13864608,-0.9191594,-1.1613424,0.39261654,-0.06776753,0.21743147,-0.41894725
0.46506304,-0.022268353,0.33098993,0.15513143,0.4428569,-0.051206145,-1.1703259,-0.93838406,0.39993763,-0.065227136,0.46843824,-0.4174447
0.450602,-0.21588919,0.1490589,-0.26404482,0.101855844,-0.9497004,-1.4462119,-0.23734652,0.39997816,-0.13811475,0.6549256,-0.24080953
0.45713603,-0.33447886,0.40000007,-0.1629619,-0.3841655,-0.94485486,-0.79514796,0.29342648,0.13975924,-0.24709839,0.6612601,0.009402276
0.9451725,0.3376316,0.40000015,0.052246798,-0.027086968,-0.5327681,-0.3540859,-0.27680913,0.036320735,0.2247384,0.03781999,-0.91594666
0.5939435,0.9327755,0.2102886,0.08421292,0.24899547,-0.43815145,-0.34960866,-0.4647539,-0.07164608,-0.10482458,-0.55453503,-0.30529416
0.45968157,0.5457545,0.22181158,0.052190904,0.20931609,-0.5137603,-0.47278214,-0.79771453,0.3999944,-0.17642258,-0.09155599,-0.29647863
0.4743735,0.260779,0.32846746,0.09007328,0.3146956,-0.31660888,-0.8550559,-1.097299,0.399992,-0.16594723,0.19819397,-0.38416618
0.44072506,0.010925067,0.33057168,0.072176725,0.27532092,-0.43866116,-1.1938586,-0.8792908,0.39998138,-0.14148054,0.44670558,-0.37315825
0.43171003,-0.21643436,0.20790854,-0.22250487,0.033770952,-0.82464087,-1.3659039,-0.31447786,0.39996406,-0.17340736,0.6344183,-0.19084094
0.4628443,-0.37019333,0.40000272,-0.16533011,-0.30527335,-0.8738846,-0.8514745,0.22236603,0.17837788,-0.2748424,0.6778024,0.055238698
0.9098703,0.21353967,0.40000013,-0.053829312,-0.013133002,-0.6025124,-0.2965626,-0.1439329,0.030292483,0.3555352,0.055239726,-0.72840804
0.68699276,0.85059744,0.32746616,-0.02859609,0.24833535,-0.5310836,-0.304355,-0.3281557,-0.038692866,0.09704557,-0.661965,-0.6121807
0.4699377,0.5563998,0.1584081,0.06662457,0.42491475,-0.37944242,-0.45167306,-0.87233126,0.40000227,-0.19268511,-0.14219435,-0.21010686
0.48150012,0.120248556,0.28289267,0.17072248,0.4373809,-0.014815448,-1.0319066,-1.0598052,0.40000096,-0.14884241,0.32290083,-0.3646197
0.45147517,-0.12283137,0.18773054,0.02227407,0.3352209,-0.6073469,-1.3702557,-0.5617216,0.39995828,-0.17062305,0.5472451,-0.24534395
0.4013041,-0.26315305,0.108520776,-0.29408443,-0.115692064,-1.1091179,-1.2515241,0.09251433,0.34241188,-0.27751154,0.605157,0.025456334
0.9034538,0.041980863,0.40000024,0.06557506,-0.13428557,-0.5012898,-0.22259675,-0.1711597,0.052345183,0.21007892,0.2119516,-0.79129684
0.6883948,0.8881206,0.3318453,0.08889906,0.17210002,-0.47824636,-0.24820854,-0.39562246,0.013114013,0.06383186,-0.5608139,-0.5608794
0.341001,0.6981657,0.04477559,0.13045046,0.36331508,-0.37965778,-0.26609638,-0.7698586,0.2537716,-0.15329607,-0.23095858,-0.10857769
0.44367826,0.3461305,0.3108676,0.07872639,0.38266575,-0.33800247,-0.77178395,-1.0550408,0.39999738,-0.06751416,0.14433376,-0.39938846
0.44737807,0.06841612,0.35726008,0.088795714,0.43107662,-0.24863845,-1.1420965,-1.0266086,0.40000004,-0.07553675,0.39764908,-0.38865536
0.469774,-0.16532724,0.2649709,-0.0838142,0.23069169,-0.63719195,-1.3853177,-0.5830859,0.399978,-0.14085159,0.5906091,-0.24609785
0.43441644,-0.27470908,0.061558694,-0.3407548,-0.1898332,-1.1183784,-1.2379384,0.07591795,0.38996628,-0.22826888,0.66274774,-0.008901828
0.88255274,-0.029850323,0.40000018,0.038531367,-0.20742796,-0.48398477,-0.23181827,-0.10651288,0.03862316,0.26195922,0.30416083,-0.69036627
0.7025143,0.8030265,0.3936521,0.06757285,0.1490847,-0.49367213,-0.24678002,-0.33519077,0.015624417,0.14490584,-0.6025135,-0.62482744
0.53162575,0.81964004,0.12783721,0.09609613,0.34204233,-0.37705883,-0.289645,-0.5175679,-0.024987096,-0.096833535,-0.6375408,-0.36767995
0.4924517,0.453556,0.21135631,0.060454804,0.44716433,-0.342029,-0.5988753,-0.97916377,0.39999527,-0.17019142,-0.011623651,-0.28342113
0.52945673,0.17253217,0.3063642,0.12875523,0.4779988,-0.07709812,-0.9966343,-1.1550627,0.3999991,-0.14346312,0.299207,-0.40113
0.4913486,-0.11901165,0.20761716,-0.08626749,0.29900748,-0.7149981,-1.4273441,-0.6106557,0.3999717,-0.14901496,0.6029778,-0.31335863
0.51007414,-0.26311168,0.012839104,-0.2548039,-0.14663725,-1.0887562,-1.1973292,0.13536508,0.35432133,-0.27518442,0.682946,-0.030292356
0.97838163,-0.068409644,0.4000002,0.09744638,-0.074634776,-0.5742098,-0.3738626,-0.17167708,0.023887495,0.13751626,0.21810763,-0.86741537
0.69888604,0.8483303,0.37696925,0.1368966,0.20922121,-0.5180678,-0.37056544,-0.38846615,-0.03309304,0.021517282,-0.5917792,-0.5737674
0.420385,0.6618872,0.10413744,0.21129122,0.3180306,-0.3820302,-0.35444838,-0.84123504,0.34205505,-0.0974969,-0.20529225,-0.22419319
0.50070983,0.2482329,0.3604208,0.21168713,0.4642737,-0.16284148,-0.9332488,-1.1342242,0.40000194,-0.042259287,0.21200661,-0.4100792
0.49293864,-0.0630234,0.3466402,0.19947888,0.49783123,-0.2554902,-1.2265787,-0.80744463,0.39995545,-0.04190808,0.5229901,-0.38333106
0.47284287,-0.20225325,0.1204544,-0.308333,-0.0028124822,-1.1169266,-1.3835894,-0.070772015,0.39999875,-0.14475521,0.64485234,-0.12864248
0.5603671,-0.2852506,0.40000027,0.028630054,-0.4120488,-0.5452497,-0.5154894,0.17420696,-0.07688023,-0.13035579,0.6965774,-0.30865324
0.87015134,0.3195596,0.40000015,0.09690315,-0.07834647,-0.576707,-0.40210792,-0.2088447,0.08866889,0.24377269,-0.049691048,-0.793008
0.653044,0.8989188,0.3474857,0.113074094,0.247133,-0.54459083,-0.410015,-0.41212043,0.014953575,-0.009176051,-0.62437177,-0.51436305
0.47263056,0.66095245,0.098070905,0.13068293,0.37381682,-0.44609007,-0.44658816,-0.7973157,0.3999995,-0.15525784,-0.27085218,-0.30814403
0.5533378,0.26581657,0.29817656,0.1812986,0.46096423,-0.17583057,-0.86719215,-1.1609083,0.40000454,-0.16152829,0.16914618,-0.47874287
0.5054387,-0.03896309,0.24953286,0.2088633,0.4363541,-0.29508895,-1.1972991,-0.89046127,0.39998347,-0.16020717,0.51185256,-0.43924898
0.45682633,-0.20681658,0.025485555,-0.24344482,-0.03556365,-1.1555175,-1.3366538,-0.028251588,0.39999264,-0.24492013,0.6447977,-0.16989052
0.72917795,-0.23575881,0.40000024,0.07450417,-0.3448988,-0.4380085,-0.28872368,-0.008721176,-0.038362518,0.07579017,0.47261202,-0.52043
0.78489673,0.6592561,0.4000001,0.08180296,0.08282039,-0.5201627,-0.3461058,-0.31369382,0.02198556,0.16991816,-0.41866884,-0.69715446
0.45389146,0.8205175,0.12058959,0.12903592,0.31505373,-0.34072262,-0.38122413,-0.5410873,-0.04922929,-0.1405879,-0.4136626,-0.21518123
0.48476008,0.3810412,0.30253398,0.12563123,0.39038092,-0.3365284,-0.70365477,-1.006745,0.39999345,-0.11548382,0.039012913,-0.35623384
0.4698511,0.018345784,0.38650295,0.11331487,0.46599793,-0.1563584,-1.1657504,-1.0388346,0.38478166,-0.08359183,0.38043487,-0.40085006
0.45598862,-0.19143869,0.2839244,-0.05774572,0.35150155,-0.60015327,-1.3933989,-0.5869484,0.39999896,-0.10176381,0.5908692,-0.30103773
0.416595,-0.3937308,0.4000048,-0.22957079,-0.34977746,-0.99226534,-0.91354764,0.2999865,0.18021041,-0.21301822,0.65514934,-0.0037071544
0.97512853,0.28599682,0.4000001,0.047118403,-0.016409602,-0.5543844,-0.3358656,-0.22038291,0.039070256,0.2014421,0.077747315,-0.87625843
0.6447799,0.93449295,0.2942056,0.049189642,0.27405685,-0.4402006,-0.33029476,-0.44580626,-0.040307704,-0.05552299,-0.6534408,-0.53986394
0.46863326,0.57659656,0.14792785,0.06997855,0.347617,-0.42643702,-0.3946251,-0.82900065,0.3979252,-0.1466624,-0.2539497,-0.22072251
0.51696175,0.2305632,0.31738314,0.09965041,0.43168816,-0.23453362,-0.9180512,-1.1359396,0.3999989,-0.09110203,0.13311435,-0.4028493
0.48801032,-0.061857346,0.26630214,0.053136226,0.43161014,-0.35770512,-1.2930067,-0.8249207,0.3999989,-0.07838401,0.47631794,-0.3862943
0.486224,-0.23447321,0.06618841,-0.2513658,-0.02197564,-1.0635902,-1.3432497,-0.072708964,0.39994946,-0.16085815,0.64098376,-0.17024101
0.5811702,-0.29399607,0.4000002,0.04780662,-0.2937846,-0.43403345,-0.3375,0.03847937,-0.03221418,-0.07068123,0.6260749,-0.25622395
0.86008775,0.45612875,0.40000015,0.055706225,0.10474962,-0.5571111,-0.3226899,-0.30268127,0.06501883,0.3289935,-0.2723613,-0.68529046
0.71267724,0.8771624,0.33139336,0.0564685,0.28578156,-0.47319302,-0.31953195,-0.4448232,0.0026177017,0.026665838,-0.680463,-0.56879735
0.46595016,0.6541152,0.07812502,0.098257735,0.40197566,-0.31934515,-0.29498515,-0.8328011,0.25801867,-0.22364183,-0.22621125,-0.1311469
0.5545687,0.33152437,0.31417376,0.099368796,0.4726013,-0.22634844,-0.8097049,-1.217314,0.40000042,-0.14297868,0.11468654,-0.36799663
0.531632,0.06637814,0.35480967,0.12566218,0.49023232,-0.11088952,-1.0939974,-1.0780548,0.39998513,-0.1062435,0.39082623,-0.41263145
0.49201384,-0.13688736,0.22653261,-0.073032014,0.30324832,-0.7668823,-1.3858374,-0.49177286,0.39999062,-0.14128697,0.5917016,-0.29427865
0.47307914,-0.35261035,0.3927594,-0.1694688,-0.27022946,-0.93356895,-0.92014074,0.23876919,0.18568406,-0.24423443,0.6531366,-0.021182101
0.8085517,0.6246743,0.40000004,0.04706996,0.09263872,-0.51601756,-0.33307827,-0.2729316,0.039921284,0.19289893,-0.3633725,-0.65253335
0.45522922,0.869727,0.09036119,0.08521921,0.32110006,-0.33655894,-0.34768304,-0.5171025,0.0020440887,-0.1502943,-0.50416905,-0.073577516
0.4807088,0.40716007,0.29266086,0.08408646,0.40909547,-0.33563742,-0.6907509,-0.98361015,0.3999979,-0.09826719,-0.03635885,-0.3616788
0.47946262,0.08775077,0.34249493,0.15745409,0.44860992,-0.13625127,-1.0986009,-1.0601879,0.3752972,-0.07380069,0.33550462,-0.44808656
0.47748673,-0.12706111,0.27215764,-0.0034244596,0.33917964,-0.55433905,-1.3612846,-0.6749228,0.39995944,-0.09921647,0.5647967,-0.3952061
0.49924985,-0.24816407,0.0934203,-0.273518,-0.004048165,-1.0272931,-1.3295444,-0.086236455,0.3999997,-0.20414023,0.6587568,-0.17830159
0.55637234,-0.3292787,0.40000024,0.01836776,-0.34825367,-0.47412625,-0.54819304,0.15031585,0.029769374,-0.13561387,0.7214835,-0.31471795
0.87728053,0.24978861,0.40000015,0.04153922,0.025857577,-0.6071758,-0.40064618,-0.18092336,0.062519215,0.3722612,-0.028920667,-0.73444647
0.69878584,0.8743982,0.35331857,0.060258295,0.3003206,-0.4867863,-0.39693993,-0.39333573,-0.02188855,0.010398478,-0.6822531,-0.55365366
0.4439359,0.6922423,0.06108664,0.08199913,0.39063707,-0.50983924,-0.4500878,-0.71615964,0.3313645,-0.1703534,-0.2824374,-0.16121323
0.5137875,0.36517894,0.27180767,0.07302481,0.446647,-0.3695943,-0.8203986,-1.1366228,0.3999997,-0.13465655,0.047495145,-0.3489258
0.47566763,0.055381745,0.26754835,0.12261567,0.3680689,-0.3865719,-1.1789254,-0.9779863,0.40005252,-0.12904438,0.38256547,-0.38188365
0.48928067,-0.17745851,0.12764697,-0.073841706,0.18777701,-0.69961053,-1.3512374,-0.4822909,0.39993283,-0.18825534,0.61192226,-0.22242193
0.43663245,-0.3440267,0.19516982,-0.20919386,-0.25970167,-0.98658425,-0.8558525,0.29634726,0.18359526,-0.32583597,0.67819124,0.12380262
0.93273383,0.2779638,0.40000015,0.1023007,-0.019898843,-0.5623688,-0.39625826,-0.11869661,-0.050921217,0.28530496,-0.019569756,-0.84536666
0.6425009,0.905229,0.3455935,0.112335645,0.24793209,-0.48733068,-0.40558034,-0.3166982,-0.11281676,0.026778251,-0.7211412,-0.5201479
0.352351,0.69621676,0.0219368,0.13234612,0.3334892,-0.3513814,-0.39279747,-0.642611,0.14603491,-0.19135779,-0.3071091,-0.08562377
0.5113251,0.32613692,0.34453028,0.13368352,0.37970096,-0.36183962,-0.7703385,-1.1232809,0.39127398,-0.12634122,0.060360968,-0.36218584
0.4649039,-0.018632792,0.34678605,0.11081122,0.38282695,-0.34243548,-1.2296082,-0.90932727,0.39998445,-0.0973202,0.42889765,-0.40736637
0.47533897,-0.2015054,0.2486133,-0.14588603,0.126899,-0.7947807,-1.3913386,-0.42240965,0.39996803,-0.13989438,0.5948261,-0.28029305
0.4681987,-0.33087727,0.05954477,-0.28006127,-0.22467823,-1.1014456,-1.0419651,0.24531688,0.3458088,-0.25443593,0.6580999,0.034683168
0.8326082,-0.101065256,0.4000002,0.00647562,-0.22632644,-0.4836456,-0.28951842,-0.12731528,0.03369455,0.18595229,0.46570104,-0.71630794
0.7643301,0.81113195,0.3805108,-0.00857029,0.17151679,-0.5114027,-0.24913757,-0.34148893,-0.051600657,0.12912554,-0.5120012,-0.69217175
0.46854472,0.8194698,0.07864014,0.044196267,0.3575482,-0.32592213,-0.29154143,-0.5384615,-0.109133884,-0.16287318,-0.5526265,-0.2632629
0.49893767,0.4647582,0.21358933,0.021445163,0.35363066,-0.39296815,-0.62762165,-0.94658035,0.40000007,-0.18460491,0.03560778,-0.3253783
0.54001033,0.1524017,0.29100904,0.09813589,0.4295046,-0.16968754,-1.0607574,-1.1231625,0.4000023,-0.18779773,0.37087038,-0.38876936
0.51589435,-0.068742864,0.24119137,0.09168446,0.4304647,-0.26926693,-1.2563264,-0.8180415,0.40006214,-0.19261286,0.5844834,-0.33788335
0.4999243,-0.24902107,0.052921675,-0.30590972,-0.016281955,-1.1267284,-1.3367049,0.015565734,0.39999563,-0.2924275,0.68650293,-0.052198116
0.9213838,-0.1174009,0.40000018,0.0291859,-0.11020286,-0.54564834,-0.31649533,-0.11999618,0.042493932,0.1350722,0.42152268,-0.73770535
0.7536347,0.8258999,0.35435396,0.025727479,0.2616038,-0.5287529,-0.29751995,-0.34739673,-0.008152865,0.111565836,-0.55770916,-0.6142861
0.46478817,0.861764,0.09585787,0.100212395,0.348007,-0.35835618,-0.3345228,-0.533144,0.0014053739,-0.15612048,-0.47659558,-0.11556572
0.46397603,0.49297807,0.2408414,0.120888904,0.40424797,-0.36983272,-0.5677156,-1.0035651,0.399993,-0.11802069,-0.111601576,-0.23863061
0.49617875,0.22780055,0.32811904,0.20577027,0.44328022,-0.11211771,-0.92427,-1.1710967,0.40000552,-0.09757533,0.18059807,-0.3425149
0.47304845,-0.03318942,0.29020575,0.075101465,0.3346294,-0.5979805,-1.2783905,-0.7135077,0.39999902,-0.08801137,0.46672967,-0.3435569
0.4753925,-0.24248764,0.10452094,-0.33254468,-0.08242083,-1.128964,-1.3161016,0.03500291,0.39912978,-0.1868754,0.61138827,-0.0776056
0.6971094,-0.31864768,0.4000002,0.07345305,-0.37086737,-0.38981295,-0.2507158,0.0022240928,-0.11121895,-0.013306453,0.6424979,-0.39621472
0.86957777,0.6011138,0.4000001,0.02350093,0.084323935,-0.56072176,-0.3394365,-0.32038754,0.02960512,0.18926753,-0.21942477,-0.7553961
0.55529803,0.8837506,0.1574408,0.075531624,0.32156894,-0.38919222,-0.37158257,-0.5193819,-0.08545432,-0.12554523,-0.5868692,-0.3641854
0.5274053,0.35293075,0.27067158,0.15148984,0.44676706,-0.23677485,-0.73389626,-1.106271,0.40000278,-0.15972309,0.023056468,-0.38829124
0.49655828,0.084507816,0.298246,0.18514138,0.447026,-0.1571182,-1.0997094,-1.0384915,0.40001586,-0.11998436,0.34371376,-0.45950717
0.5138192,-0.20341554,0.18244697,-0.15699694,0.11812996,-0.8297129,-1.4017704,-0.37689728,0.39996207,-0.17966983,0.6066195,-0.2841949
0.67187554,-0.4077841,0.40000018,-0.008084847,-0.39458415,-0.6872004,-0.5794141,0.20419295,-0.01156245,-0.2140031,0.6729496,-0.20253019
0.83829033,0.58918214,0.4000001,0.07933445,0.001993951,-0.5527125,-0.33189163,-0.29446217,0.02838784,0.17757867,-0.25841525,-0.7691621
0.5318245,0.9063549,0.11207638,0.106835335,0.30680606,-0.43471316,-0.34245056,-0.51415,-0.07338826,-0.12872058,-0.54972464,-0.1784761
0.43390775,0.4832185,0.23660405,0.06368783,0.18029562,-0.45162997,-0.53810555,-0.8981763,0.40000114,-0.08667007,-0.049600713,-0.27817208
0.42884454,0.10072814,0.32237,0.046732657,0.33344975,-0.36860502,-1.1480291,-1.0136868,0.39999998,-0.07584658,0.31684864,-0.31733346
0.44155806,-0.16900642,0.23432815,-0.11951907,0.29599783,-0.65367854,-1.3750944,-0.54159325,0.3999762,-0.124596566,0.5494615,-0.19796863
0.36992598,-0.3135481,0.32003623,-0.3065991,-0.35065517,-1.1823717,-0.92307115,0.31523407,0.20225655,-0.25443092,0.62282807,0.13791883
0.8938267,0.08301365,0.4000002,0.06636541,-0.25977844,-0.48226467,-0.30556697,-0.07684248,-0.016642848,0.35200486,0.17193548,-0.7553602
0.6611184,0.8195513,0.3806859,0.045981713,0.11199874,-0.5286337,-0.29839194,-0.30625567,-0.041412883,0.102633335,-0.59968585,-0.5835101
0.44850373,0.82221264,0.068724446,0.08801463,0.33924696,-0.35603225,-0.33939055,-0.5599697,-0.05610268,-0.19058277,-0.42894015,-0.16225891
0.5124255,0.39314154,0.30355588,0.096536875,0.34073654,-0.46594664,-0.66698945,-0.97161424,0.4000031,-0.16406326,-0.0028557046,-0.33994976
0.48327866,0.06267236,0.3489629,0.10937877,0.33796233,-0.38791212,-1.1352623,-0.9494961,0.40006223,-0.13575758,0.34761953,-0.41472095
0.5019185,-0.20561597,0.25430346,-0.1229224,0.0937464,-0.73443156,-1.3356798,-0.38562116,0.39996043,-0.18252671,0.58583456,-0.2685342
0.46946055,-0.3426316,0.3394937,-0.24074163,-0.26273122,-0.9926038,-0.9341509,0.27075282,0.2632159,-0.333613,0.63820016,0.08774024
0.9255531,0.17690676,0.40000013,0.010684822,-0.034068976,-0.5044471,-0.256694,-0.22912736,0.13154367,0.39702597,0.055256136,-0.7646217
0.66933095,0.8524384,0.34659076,0.014344658,0.23404627,-0.4217248,-0.25093114,-0.443236,0.06446896,0.07624656,-0.7171137,-0.5669974
0.4958397,0.8090848,0.07144709,0.028068997,0.4038432,-0.22178271,-0.2563667,-0.6346021,-0.033364218,-0.16063198,-0.5909938,-0.309798
0.49895132,0.40704677,0.28691202,0.021854684,0.3769755,-0.43512374,-0.71247476,-1.0440834,0.4000025,-0.14031194,0.04951274,-0.2643514
0.51563436,0.06381298,0.34597132,0.07773124,0.4503613,-0.25538707,-1.1446737,-1.0406936,0.39811006,-0.12864499,0.3896625,-0.32087603
0.49487877,-0.17913905,0.18181431,-0.2382454,0.15597959,-0.9195127,-1.4349618,-0.33030298,0.39995962,-0.18530543,0.60409915,-0.12785688
0.5965758,-0.28593114,0.40000024,0.033781905,-0.37097248,-0.43201065,-0.46787357,0.18549463,-0.067553654,-0.15869294,0.6750953,-0.28446195
0.9348897,0.2951411,0.40000015,0.08681235,-0.06964929,-0.5183765,-0.32818884,-0.13909274,-0.011767722,0.3009877,-0.05928341,-0.7675405
0.6242512,0.96401197,0.24633162,0.09277232,0.25613317,-0.47448677,-0.35543442,-0.37682912,-0.040882975,-0.015534652,-0.6531763,-0.45162338
0.48550373,0.53493214,0.2312516,0.087424,0.25465313,-0.46693775,-0.46927574,-0.85925,0.400174,-0.14994253,-0.11999227,-0.3224963
0.50458306,0.15449715,0.37033984,0.09805729,0.41184962,-0.2586305,-0.9648638,-1.1728956,0.39706367,-0.1343942,0.26303452,-0.42008117
0.47666198,-0.13497287,0.3209874,0.018377673,0.3512423,-0.51021993,-1.2873272,-0.77500296,0.39998564,-0.14400087,0.52608734,-0.3435052
0.43383917,-0.2878284,0.0794966,-0.34745687,-0.13105083,-1.0826895,-1.2642536,0.10085334,0.39063358,-0.23321861,0.6403028,-0.038962048
0.8567747,-0.1851756,0.40000024,0.056015156,-0.26085985,-0.36732742,-0.24122937,-0.119700365,-0.0008245915,0.2180896,0.47134233,-0.65237826
0.81889933,0.75496155,0.40000004,0.05187486,0.09640286,-0.44025177,-0.2779802,-0.3535483,0.014339803,0.19439593,-0.45534867,-0.71081936
0.5527435,0.8856684,0.124033734,0.051705405,0.3428278,-0.32160687,-0.2991374,-0.5586464,-0.064746104,-0.119693644,-0.65095115,-0.34576645
0.48098722,0.43966886,0.25116807,0.06043674,0.39763987,-0.37870124,-0.5623158,-0.99205744,0.39997274,-0.15907845,-0.08545466,-0.27392232
0.5120513,0.12000111,0.34212524,0.13440901,0.4711349,-0.13201188,-1.0204569,-1.1585376,0.38666964,-0.123419374,0.27666956,-0.40476784
0.5014684,-0.062049054,0.29040855,0.12870488,0.4660003,-0.308324,-1.2227666,-0.91741604,0.39864248,-0.12067782,0.502102,-0.4059862
0.48806596,-0.19953254,0.13858409,-0.21386267,0.12621434,-0.8953901,-1.3841293,-0.31885505,0.39995286,-0.17604911,0.6488445,-0.2753447
0.4259279,-0.27869353,0.13105956,-0.29590163,-0.22978704,-1.1526403,-1.030418,0.2822241,0.2959455,-0.28370464,0.68550444,0.0048839585
0.8950049,-0.027850581,0.4000002,0.061163593,-0.15037872,-0.5002123,-0.296556,-0.13388349,0.14690977,0.24308129,0.32661626,-0.71304494
0.82261527,0.65425086,0.40000007,0.057578225,0.17449854,-0.56429434,-0.29357573,-0.32027888,0.12255338,0.17930369,-0.37096843,-0.6844226
0.61840796,0.9704549,0.23097813,0.10527167,0.33491728,-0.43075594,-0.31918877,-0.4759251,0.053996153,-0.030670904,-0.6715154,-0.41521755
0.45437968,0.5693843,0.17861432,0.10527961,0.29068115,-0.4211913,-0.38066188,-0.8871569,0.35414422,-0.09851852,-0.18978779,-0.23179585
0.50365883,0.26897272,0.34173277,0.07587406,0.41050717,-0.324413,-0.8669533,-1.0961323,0.4000253,-0.050307035,0.1317623,-0.4031171
0.50429595,0.029564556,0.34917453,0.10374795,0.4628515,-0.2222515,-1.1784221,-1.0071515,0.39999402,-0.056130674,0.38487902,-0.4151378
0.51378083,-0.13658096,0.26404837,-0.031166632,0.3719607,-0.5725217,-1.3648685,-0.6449598,0.39999878,-0.103785895,0.54900515,-0.32236117
0.5111431,-0.24922232,0.06672091,-0.29731247,-0.032186016,-1.0565698,-1.3052272,-0.05309485,0.39999825,-0.1937236,0.6467116,-0.10420926
0.5273392,-0.30090547,0.40000024,-0.011907344,-0.33548817,-0.55475986,-0.57028246,0.16632688,0.05870199,-0.19459523,0.66651785,-0.11052533
0.9322612,0.24375163,0.40000018,0.037761565,0.011894668,-0.5741384,-0.31584346,-0.27521628,0.084229566,0.31452563,0.023279095,-0.7922032
0.69312215,0.91954523,0.31831846,0.07006355,0.25551933,-0.47161156,-0.31899524,-0.45014834,-0.003816578,0.053050302,-0.63301164,-0.5415854
0.39164817,0.6822189,0.043655135,0.09600406,0.38337192,-0.33074072,-0.3520054,-0.7833112,0.21034779,-0.20045194,-0.2754664,-0.10538777
0.50242513,0.2844758,0.33904284,0.12846315,0.47126594,-0.074357085,-0.8564449,-1.2370738,0.40000397,-0.10314993,0.1377305,-0.40554366
0.4936152,-0.11416217,0.3222242,0.15127139,0.5100166,-0.21822704,-1.3267943,-0.81944394,0.40000615,-0.09842505,0.55777085,-0.41186753
0.43839428,-0.2500462,0.03820736,-0.29678804,0.068308555,-1.0674851,-1.4115536,-0.08678828,0.39999828,-0.2032511,0.68826324,-0.14720781
0.81753653,-0.23193564,0.40000024,0.053157777,-0.28312412,-0.40861443,-0.27046806,-0.042657197,0.0070744213,0.20784515,0.50470406,-0.6434946
0.84717333,0.5453483,0.40000004,0.06039902,0.07937461,-0.50957763,-0.3173944,-0.27053347,0.027044687,0.30687895,-0.36163595,-0.69358873
0.51679754,0.9458165,0.16031161,0.08847025,0.3259,-0.36558825,-0.32132655,-0.46331802,-0.091260426,-0.055927325,-0.65444535,-0.305419
0.4650186,0.5220216,0.21427429,0.08894679,0.41032082,-0.43152186,-0.5791503,-0.9243503,0.40004203,-0.15312946,-0.07343255,-0.21475345
0.5100124,0.23996462,0.31266326,0.17304051,0.4569433,-0.16995785,-0.9231265,-1.1552233,0.39617813,-0.15314353,0.2127924,-0.29918474
0.46584174,-0.03247282,0.29813755,0.14765231,0.44529864,-0.341448,-1.2555518,-0.8553477,0.3999535,-0.13180126,0.46239161,-0.28586623
0.46826133,-0.23928706,0.13284811,-0.27681634,-0.0016461371,-1.1066073,-1.3669217,-0.050286673,0.3958407,-0.2137218,0.6099175,-0.057309113
0.6788749,-0.25937706,0.40000018,0.06667787,-0.12456546,-0.5109158,-0.3616462,-0.074390106,-0.033514746,0.023693584,0.6146022,-0.53120106
0.7888101,0.5253788,0.36970118,-0.038892627,0.11842257,-0.60254735,-0.21877714,-0.31078666,0.05055884,0.20883153,-0.4654315,-0.70388263
0.48054925,0.6701234,0.07357832,-0.051710125,0.34658054,-0.5187901,-0.2246759,-0.48803228,0.011026081,0.06592423,-0.8459025,-0.5385752
0.4566538,0.5597536,0.12512429,-0.033716615,0.45863023,-0.3129705,-0.22530249,-0.65507925,-0.02454914,-0.15843013,-0.5930472,-0.433153
0.44713703,0.3785573,0.27410492,0.004138968,0.30569488,-0.39474115,-0.6249739,-1.0579344,0.3999887,-0.26678264,0.007188562,-0.22656588
0.45081514,0.11998849,0.32705176,0.0557762,0.33919743,-0.23231158,-1.0159489,-1.037159,0.40002123,-0.24956784,0.25835526,-0.26526153
0.4144705,-0.151209,0.26459277,-0.087571,0.17086783,-0.5704037,-1.3308505,-0.5326898,0.39993513,-0.23655315,0.49741492,-0.17351016
0.39718992,-0.25008237,0.06948864,-0.28303224,-0.09518444,-0.94742024,-1.1660624,0.0720016,0.38381633,-0.3164049,0.5859218,0.030696733
0.89376754,-0.08169039,0.40000018,0.055567373,-0.1363203,-0.4518019,-0.07202874,-0.2128765,-0.092429005,0.19073692,0.33544528,-0.7115847
0.71464986,0.87688893,0.34349322,0.08372151,0.15888926,-0.45426834,-0.14156888,-0.43981943,-0.040558636,0.07612044,-0.61002,-0.5588945
0.35289422,0.61038667,0.08543564,0.10061431,0.29079393,-0.41239887,-0.12508169,-0.84237117,0.28653997,-0.21235773,-0.2031248,0.00538049
0.4160098,0.3424017,0.2698509,0.04741926,0.3038089,-0.4088914,-0.7772086,-1.0455488,0.40000424,-0.105372146,0.0991878,-0.24065699
0.46225226,0.03329848,0.31226742,0.06629352,0.3325046,-0.31788898,-1.1102712,-0.95603937,0.3999993,-0.12682693,0.38784838,-0.262512
0.46554726,-0.19275926,0.19402444,-0.25006872,0.09838213,-0.9383727,-1.3760177,-0.31000355,0.3999972,-0.17574956,0.5735261,-0.10469393
0.6790052,-0.28893074,0.4000002,0.022506604,-0.3110739,-0.39932686,-0.30752134,0.044802774,-0.04458703,0.040644895,0.60954666,-0.42862526
0.863403,0.5578969,0.4000001,-0.0027837872,0.057660963,-0.5176377,-0.22761463,-0.2541156,0.016152004,0.22483598,-0.26660725,-0.73871064
0.54078215,0.94488037,0.11980534,0.039679635,0.31541142,-0.39738306,-0.28691053,-0.48144504,-0.033761937,-0.070604414,-0.59299713,-0.3288371
0.44860554,0.47741896,0.22809246,0.10927912,0.42743146,-0.39184907,-0.5585489,-0.94929844,0.39996573,-0.13490291,0.0148380175,-0.30114076
0.46729556,0.19892782,0.31298253,0.17196335,0.4554238,-0.17477418,-0.9952801,-1.0997655,0.40000173,-0.11907535,0.3031683,-0.3657635
0.4427014,-0.065399915,0.25414515,-0.00979883,0.27874297,-0.5723578,-1.3277472,-0.65785974,0.3999677,-0.14704877,0.5316946,-0.27492303
0.43846422,-0.20494947,0.059334952,-0.33922562,-0.116224505,-1.0650789,-1.2640206,0.10787149,0.3777275,-0.26275542,0.60853136,0.00092500664
0.79271144,-0.20800608,0.4000002,0.05263211,-0.21242182,-0.37115255,-0.21844707,-0.06772784,-0.043017056,0.1084443,0.5395492,-0.59322315
0.8701032,0.5528223,0.4000001,0.053539064,0.08788046,-0.48264375,-0.31365278,-0.28487477,0.03839205,0.2803153,-0.3108993,-0.75065815
0.44140062,0.8292962,0.09466436,0.06665879,0.33679646,-0.34037519,-0.32414284,-0.5357302,0.0036402629,-0.13138586,-0.47902983,-0.12678155
0.4458449,0.49661708,0.231251,0.0872487,0.33072007,-0.38227165,-0.42197713,-0.8941772,0.39999726,-0.119233385,-0.07641739,-0.22078194
0.45436528,0.16038908,0.33908543,0.14219783,0.39788738,-0.10909675,-0.98436266,-1.1468588,0.4000013,-0.08973405,0.24830653,-0.28753176
0.44136518,-0.13118416,0.29655793,-0.05223824,0.29544613,-0.6004119,-1.3482908,-0.63707185,0.3999689,-0.084748544,0.516154,-0.23966984
0.37915602,-0.29898444,0.21417452,-0.32109493,-0.23533855,-1.1601826,-1.125772,0.1922695,0.33355218,-0.1773755,0.6077039,0.030496713
0.91909945,0.04812379,0.40000018,-0.0035218336,-0.20481545,-0.49186912,-0.28648648,-0.12955856,0.029987097,0.33383152,0.1764283,-0.7682687
0.74257314,0.7654189,0.40000007,0.0022609087,0.08627864,-0.4995417,-0.3088177,-0.33511335,0.017884612,0.17256276,-0.46671906,-0.6900562
