ancorasir/BennettWheelLegRL/experiment_data/2023-12-27_22-47-53/joint_torque_env9.csv
Joint_1,Joint_2,Joint_3,Joint_4,Joint_5,Joint_6,Joint_7,Joint_8,Joint_9,Joint_10,Joint_11,Joint_12
0.0,0.0,0.0,0.0,0.0,0.0,0.0,0.0,0.0,0.0,0.0,0.0
3.9450197,-4.156611,7.916515,0.2828188,0.3468628,-2.1861176,10.29935,2.112191,-13.018337,2.1833317,2.0576944,-1.203416
1.8670855,-0.7249933,7.5895433,6.3454556,-0.76484,12.21542,6.279774,-10.423273,-16.923286,0.9450296,-2.923575,0.8686985
-0.22183704,-0.7161441,2.3257496,1.0894334,-3.1418216,10.382424,0.24049824,-8.918428,-17.064753,0.5891154,0.25118792,0.17185712
0.45386457,-0.85155225,0.6332338,-1.1931115,-4.452422,7.1323347,1.7568991,-7.697588,-11.126316,0.18377966,-0.027955592,-0.31115556
-18.885191,0.26276112,-13.832478,0.42576993,-6.6867037,-1.2375935,-0.7080879,0.45173,4.583679,-3.4882119,10.553637,17.753838
-9.567581,-5.2567754,-4.257676,-0.5677124,-12.262972,-2.4426093,-1.3120459,2.6983867,0.013112992,-4.0299797,10.181522,12.892279
-8.7825,3.39822,-3.7946246,-0.17052007,-10.46127,9.59106,-0.1709528,-1.1365042,3.4501705,-6.8019753,-2.378605,15.413597
-10.545343,0.12294048,3.0158796,0.9133067,2.1160216,0.9269705,0.31981117,-1.0532241,2.6258807,-5.9060216,-0.6845046,9.218813
2.0167246,-0.50774014,9.4023485,1.1416664,-0.4359007,1.4059134,3.6751604,-2.9126542,-2.6438675,1.8442456,-0.67647123,-5.863366
-0.73725057,-1.9922705,11.029034,7.3845377,2.971572,15.656359,9.379735,-6.333934,-7.6230097,0.031782866,2.543573,-0.42274135
1.1272708,-1.1300504,-1.0743219,2.8963451,-0.40538096,8.739967,6.7111998,-3.9627934,-2.024199,1.0502276,1.2369574,0.7062359
-16.937265,-4.619293,-9.840202,-0.15847218,0.021210909,-0.34917998,-6.8257613,-2.829437,7.0074167,-4.2512193,5.267686,15.359349
-8.697298,-1.6023016,-7.3545933,0.18552993,-2.6022801,-0.8904369,0.24057245,0.25006002,1.7288076,-5.324825,4.162041,11.423073
-8.610478,0.2280761,-2.7216907,-0.15647197,1.0173676,0.35693955,0.41254365,-0.85599446,0.17482102,-7.321025,-4.3504114,6.438832
-11.290319,0.71641755,1.981951,0.014424205,1.1257036,0.26055026,-0.37263846,-1.4919662,0.41615802,-6.492378,-9.56805,5.4800663
-2.4797366,-0.026481152,15.410111,7.7029514,3.8433156,18.11027,18.294567,-3.7072105,-10.9147415,-0.7314429,1.523782,3.9246902
1.6363106,-1.7793772,0.81822693,6.837862,2.1793537,13.260804,9.66179,-5.5327597,-6.09464,1.4854662,1.2936273,-0.71046734
0.083681464,-2.311215,2.2189646,1.9404944,-2.886733,2.701034,6.5299935,-2.1627924,-2.3538446,-1.2388111,1.3953264,-1.4891167
-11.157743,-3.3945057,-9.084322,4.791188,-8.597841,6.7624903,0.069283485,-0.55811286,2.900089,-6.409226,7.9357777,9.2113695
-8.172752,-2.2516937,-3.1624522,0.005806409,-4.5895066,-1.9052562,0.046699047,0.18113548,0.9118889,-1.8782238,3.8525493,10.58827
-9.250177,2.4060822,-1.6709847,-0.43375182,1.2041554,0.20513403,0.022480309,-1.3885036,0.36198127,-7.2376604,-5.4814854,7.4874754
-10.633993,4.169415,1.5829245,-0.044962645,0.8060074,0.6249554,-0.6813984,-1.5896049,0.78332686,-5.853621,-6.7435703,7.6781273
-4.438347,0.8101444,15.216914,7.033306,0.9587896,19.223158,14.689451,-4.3971133,-12.061429,0.44789696,2.143847,-4.080701
-0.13081324,0.7036667,6.1324806,5.1411057,1.9783503,11.141547,8.92514,-4.3719153,-6.2700486,-0.9817028,-0.3515215,-2.4199908
1.2449865,-0.8631619,0.88735354,4.6028852,-2.8735633,5.7426834,6.313441,-3.660442,-4.9332647,1.4113152,1.097145,-0.3304559
-11.243133,-3.9092104,-7.332037,-0.3759824,-0.90648365,-3.551208,-3.5736997,-1.9175627,8.599077,-9.445364,-1.3445625,14.619556
-8.329732,-2.5756695,-7.276256,3.1950746,-4.932721,0.33685184,1.2185419,0.977752,2.1063251,-4.3098507,6.1310434,9.589041
-7.2806954,-0.07375431,-4.762826,-0.55529976,-4.128497,-6.3720117,0.48912907,-0.38575816,0.1830002,-3.4787216,1.2093551,11.706271
-8.590182,0.104001164,-4.951442,-0.86552405,1.6200535,-1.1784239,-0.12879157,0.09882593,0.26484996,-8.016566,-0.6129347,9.508176
-10.137728,1.2565062,0.93304205,0.3446262,0.9945719,-0.21466875,0.23956919,0.11402798,1.5092906,-4.834182,-6.8358126,8.234323
1.6466289,-1.5521116,11.118462,2.089098,-0.022864103,1.2591858,5.097006,-4.48573,-2.940039,4.737069,2.6370342,-12.070305
-1.6322503,0.98473454,10.781997,5.5328474,3.301919,17.069874,12.111589,-7.400191,-6.108748,-1.5070955,1.074264,-2.0022511
1.5592287,-1.1799462,0.6303533,5.0090723,2.2857754,9.959063,7.7398496,-3.2721448,-3.220354,0.9643928,0.78362536,-0.064944744
0.34463,-0.1603756,-0.666507,1.5239868,-3.910721,0.8144201,4.4937057,-1.6176555,-0.47169387,-0.22639608,1.1062427,0.9988711
-18.27762,-1.2007179,-11.804804,0.5467998,1.4578085,1.0360988,-2.8610044,-2.5688365,5.1791606,-5.7262096,5.894555,18.494762
-10.222758,-6.817039,-4.515479,1.2091892,-5.9663353,3.8299398,0.3545308,0.93993175,0.7698472,-2.8399749,6.4630303,9.304788
-7.1662755,2.238312,-4.1650047,-0.49754792,-0.9325871,-3.4983287,0.599694,-0.18334842,2.0276072,-6.552772,1.589302,9.190371
-11.510728,0.17352939,-3.5781584,0.33105803,0.97212553,-0.3504846,0.2092166,-0.080929756,1.5314884,-8.939992,-2.0671802,9.077372
-5.998506,4.8761034,6.704255,0.75596285,0.43749118,0.52224916,1.7703781,-1.4056301,-1.0108341,-2.7738986,-5.725795,3.913296
-3.3358352,4.3953137,11.109478,10.491221,4.7440677,18.757944,12.613122,-6.1016717,-4.864027,-2.0292501,-2.3135715,3.0932615
1.2581038,-1.8523506,0.8827373,3.8476996,-1.9462705,7.7295437,6.9888115,-3.4573958,-2.0516965,1.1614071,1.2948623,-0.7058668
-9.600397,-0.22333646,-8.525744,-0.45958605,-0.9979644,-0.00979054,1.5343268,3.0123322,-7.1129894,-8.040076,-0.57363963,15.72991
-8.887341,-5.120677,-7.168742,1.5532225,-4.64706,1.9964744,0.86894774,1.0450172,0.8080504,-4.317278,6.972782,10.275865
-5.786292,0.04538417,-5.5714374,0.3409455,-3.4930556,0.3985026,0.4390533,-0.21804583,1.2583683,-4.117159,4.846423,10.221239
-9.025702,0.99140507,-3.3369002,-0.45421457,1.2084818,-0.612864,-0.018119097,-0.37516212,-0.041858822,-8.621824,-3.063188,7.047289
-9.306283,1.4928808,3.384726,-0.00044453144,1.451256,0.33118963,-0.12539959,-1.0725956,0.5799042,-5.2526217,-8.834874,4.8828244
-1.0113491,-0.93632936,14.62941,7.990173,0.7652254,20.0,15.201857,-6.321264,-6.671233,-1.5917286,3.2897978,0.032634735
1.3847164,-1.6954143,0.5079145,5.854453,1.3438364,10.365739,7.7581444,-4.6505055,-3.715777,1.8526325,0.9260111,-0.39367306
-2.0653648,-4.0797234,2.736034,0.4014097,-3.2246919,0.6082761,2.3980772,0.97365856,-1.8428841,-2.541507,2.4045842,-5.570665
-10.457495,-5.2599187,-8.299066,0.3041948,-4.390262,-1.8711592,-0.027222157,-0.37083602,2.5672586,-6.852368,4.664646,11.03729
-7.528132,-2.0989976,-6.5848556,0.27071995,-5.743835,-0.9569427,0.23479605,0.11401689,0.5384784,-5.9180365,2.9865437,8.148336
-10.167871,0.03173697,-5.1924605,-0.005681038,1.9487476,-1.1301165,0.07880247,0.239532,0.58461434,-8.333461,-3.4203148,6.4513845
-8.52302,4.1266193,0.6714858,0.22498834,1.0490074,-0.23879719,0.48100662,-0.54286003,0.9415594,-5.1430287,-5.585377,7.0883894
-0.770802,8.098486,14.891392,10.807233,3.8477976,18.544296,2.2323227,-0.97272825,-2.9616265,-1.429606,-2.462615,-5.79585
1.3148017,-2.545267,1.8730912,4.705287,0.44968116,13.906237,9.774756,-6.022481,-2.3950746,0.90882397,1.4552808,-0.81513906
-18.069508,-0.86175156,-10.783951,0.10016912,1.2234519,0.25686967,-2.3781583,-1.0702049,4.898735,-7.0001044,4.372581,16.95568
-7.778632,0.77163935,-6.5828466,0.025776327,-1.287878,0.801684,0.8629234,0.2180965,1.467876,-6.617143,3.320251,10.694236
-7.402322,3.3172212,-1.9245867,-0.48236096,0.6850482,0.7940798,-0.18664932,-0.6616225,1.770506,-5.738448,-1.9015082,8.026187
-8.336088,2.9399557,3.3640685,0.88812923,-0.042702198,-0.06348848,1.5246878,0.011492252,1.3986694,-4.6540504,-8.187954,5.7658076
-4.437115,-0.11607838,15.576711,5.4771957,0.61117506,20.0,14.919233,-6.5437117,0.9744183,0.84063435,1.0543628,4.787036
1.2354393,-1.774154,4.2135196,6.367552,1.5589697,13.346249,9.467674,-4.9768343,-3.1894298,1.5218142,1.2773924,-0.43711323
0.7264757,-0.9833383,-2.3383431,5.157312,-0.42774403,4.8086843,6.539419,-2.2539964,-4.8032503,-1.3957195,0.35340726,-1.4973963
-8.824996,-3.642782,-7.516384,0.25342935,-1.0166361,-0.1048609,-0.9399517,1.6635997,-5.9387145,-10.396589,0.892004,18.319572
-7.5057178,-3.8133743,-8.012153,1.8961506,-4.202592,0.63258374,1.1684091,0.72971916,1.2574809,-4.4659395,6.411864,11.562153
-8.129827,0.43469453,-4.007556,0.12033582,-1.2938623,1.7782311,0.071150064,-0.6882224,1.6230652,-4.411176,-2.266459,10.777879
-7.89263,1.368978,0.08459234,0.1488967,1.3059156,0.52025723,0.8853974,-0.92689276,1.3204708,-5.7481813,-5.7573643,6.9211807
2.3155737,-1.837096,14.849143,12.904928,-3.4376192,18.676695,-1.4499121,-4.031471,5.3048687,-0.39890766,-3.487524,11.248122
0.5511836,-1.8251071,6.640406,5.5913615,0.791443,12.532872,8.674898,-5.584342,-4.491274,0.8027544,1.6822705,-0.4613273
1.6434848,-1.440339,1.0855548,5.028023,-0.38580382,5.8318596,7.143638,-2.2169542,-3.1422412,1.264013,0.3994143,-0.24558532
-16.606182,-4.901325,-11.706092,0.4371019,-1.9085869,0.2932937,-1.6113253,1.1491301,-3.8566918,-8.163105,4.532509,16.90028
-10.049987,-6.701666,-7.442759,1.2592252,-5.215738,-2.3088856,0.60473347,0.697288,0.86350495,-5.908533,6.785893,9.360721
-8.162792,-0.7168349,-5.352574,-0.4385469,-0.31295168,-3.4836826,0.13770485,0.33691216,0.7575405,-7.0817595,0.89286923,8.99518
-8.390212,2.5804498,1.0992587,-0.06342554,1.6140122,0.6778815,0.40082085,-0.8853369,1.6665506,-5.1761193,-7.092316,7.1145883
1.762341,-1.9950465,14.351169,1.0326071,2.226728,-3.7010727,-1.1411915,-3.230801,3.6960616,0.10632992,-2.675149,10.328912
0.4237808,-1.535435,7.191267,6.1191854,1.2857981,11.353267,8.787778,-3.8848243,-4.6773224,0.42530167,1.3741102,-0.45869064
0.9457114,-0.7763518,1.6347663,4.7941904,-2.0835812,1.3756515,6.015486,-2.0733185,-0.8833261,0.7769798,0.084240675,-0.14047992
-12.655205,-6.754512,-9.164916,1.7734958,-5.4422445,-0.9248359,-0.23193216,-0.9059489,3.0421576,-4.8078194,7.597021,13.999004
-7.788396,-1.6290617,-4.3356104,-0.99084,-4.9096193,-7.022938,0.6032767,0.2297082,-0.12033208,-3.3307984,1.0617609,9.505165
-10.269748,1.7330046,-3.4562428,-0.011548758,1.1580825,0.8040035,0.24785364,-1.2718124,1.4108819,-8.289481,-3.7179961,8.679668
-7.9368567,3.9843664,5.559352,0.13828856,0.6216531,0.45098817,1.4691825,-0.27627277,-0.76352066,-4.205634,-8.483977,6.175536
-0.65560365,0.068145275,13.413796,8.935771,1.9332955,19.153772,20.0,-2.0577254,-10.50264,-2.0747375,1.8872676,2.1124287
1.3861502,-1.9184968,1.9127289,6.793973,1.6835773,11.318924,9.197785,-4.2148285,-3.2250698,1.4566925,1.4220979,-0.37209547
0.7548146,-0.6101911,2.1458735,2.4540462,-3.9721107,-0.7170646,4.6636963,0.07099986,-0.5422721,0.06277728,0.16337442,-1.9815173
-10.368441,-5.3216753,-9.128596,2.1034977,-5.657473,0.37027812,0.69624925,0.591908,0.33856887,-5.730133,9.488357,10.012937
-8.107211,-0.8906821,-7.279776,-0.055256605,-0.63672596,0.9981272,0.2019763,-0.62094045,0.055469815,-7.947391,3.304883,10.014569
-12.266305,3.3051836,-1.2256253,-0.60755587,1.2530168,0.66498137,-0.93671036,-1.3944664,0.40064344,-8.59441,-6.403622,8.175424
-4.8576097,5.197022,-1.435725,0.11849868,0.79688454,-0.72982407,0.018025875,-1.8674612,0.90720046,-1.4997932,-9.397857,3.4659557
-0.76297075,-1.8019171,10.313769,6.6268764,2.8779373,17.25974,11.695699,-7.4181705,-5.090887,-1.0813311,2.7511272,0.07031679
1.7048523,-1.4185978,0.73119366,8.436724,1.2830454,10.482719,10.60435,-4.1380386,-2.8875055,1.2483562,0.75990486,-0.43397903
1.249244,-0.22606206,1.518843,1.6699693,-5.24295,-1.6623355,5.552587,-0.1107831,-0.75193,-0.98258567,-0.2233324,-2.947872
-9.8382435,-4.522236,-7.866699,3.5845273,-3.669652,3.0682182,-0.046966076,0.16683316,1.6422437,-4.1155453,9.976095,8.458932
-7.2400765,0.42959237,-6.6721225,0.57212496,-2.141645,-5.0510964,-1.3534203,1.9976463,1.1592969,-6.0991874,3.6493435,10.066289
-9.160275,3.6536481,-3.64964,-1.8449886,0.7113322,-3.9283884,0.76480377,2.332271,1.8041881,-8.319523,-4.863987,10.13329
0.45790243,0.6406106,12.192825,1.2080283,1.122014,-2.3225193,0.16133213,-3.7811081,6.009636,-0.52831054,-3.9458451,12.219732
0.5956582,-1.8533492,8.408512,5.3047457,1.4429469,15.246081,10.022648,-5.602847,-4.5750604,0.35313398,1.4242463,-0.4160789
1.2833607,-0.9757605,1.7290685,4.6776476,-3.0754488,5.2075596,7.894127,-1.814375,-1.3388696,0.91394424,1.6287129,-1.0621052
-14.4861355,-5.739811,-9.634997,0.5229861,-5.8566594,1.1077235,-3.9235728,-2.9133425,1.2334719,-6.9773207,5.977187,14.220055
-5.6418223,-2.8163538,-4.5159173,0.3002416,-6.007624,-3.205696,0.4809333,0.85673094,-0.21058518,-2.1832798,6.0807014,10.748339
-10.360887,0.2560823,-5.462728,0.2668624,1.7149537,1.826211,0.103001595,-1.0748804,1.3602464,-9.047146,-3.4589255,8.125249
-8.368108,4.1090865,2.3345184,-0.2677911,1.3279896,0.6606772,-0.34386492,-1.7844896,0.45960984,-5.4951816,-5.690139,6.3442736
-1.6336036,-0.76125765,14.886331,10.2588625,1.648036,18.310505,13.989001,-4.8378553,-4.437438,-1.1991564,2.9622645,0.17206645
0.6361344,-0.9047432,4.5531235,7.380888,-1.0195261,13.925105,12.11054,-3.4839232,-4.6176877,0.30901015,0.5434184,0.2407223
0.045722842,-1.2448096,-1.2126606,3.2163186,-4.969365,1.0533912,6.3472743,-1.2660289,0.50648206,-0.14785361,1.1839321,2.1086483
-13.632002,-3.2674203,-9.333091,0.97921115,-5.482651,-1.2571926,-1.1577663,-0.954684,3.5277565,-5.0142927,6.8033037,12.920043
-7.262805,-1.0260015,-4.798132,0.85480857,-6.4280124,-3.4682853,0.7471926,0.89102197,1.5379314,-3.17566,3.843629,10.46878
-7.91941,1.5543358,-5.31711,-0.56037354,-2.5477753,5.0238886,-0.50549245,0.2607231,1.0908322,-7.208264,0.84891284,10.083741
-9.775521,4.827082,1.2183568,-0.2527101,1.2620957,-0.10455537,-0.16739273,-0.6747899,0.14707309,-5.676029,-6.6240654,9.7827
-0.81097686,-1.0782876,13.75772,9.04403,4.224208,19.265715,15.008809,-7.191513,-7.2552457,-0.9300984,3.346037,0.02178955
1.4541473,-1.4212577,0.27068776,5.3228197,0.91614044,12.032509,10.012461,-6.163379,-2.4230144,1.325285,1.000418,-0.66836286
-3.228551,0.25043964,-1.5662062,0.15949947,-5.1446543,-2.9826217,-0.32359797,-2.230373,9.540252,-5.3306904,1.7240803,20.0
-7.1881514,-3.9191194,-4.681845,1.8344508,-7.7392797,-1.369852,0.9644325,1.6383351,1.3542917,-2.3588202,6.731735,9.929566
-7.0744715,0.43365836,-5.625046,-0.8338102,-0.08780646,-5.679156,0.01796174,-1.2452962,2.8541987,-3.6878178,0.37061644,13.215772
-8.484077,3.755259,-2.0603542,-0.04516673,1.4882123,-0.013237715,0.15966582,-0.15758896,1.6180862,-5.305187,-3.8445854,9.093151
-7.7742047,3.0188112,4.8309646,-0.12408781,0.96352315,-0.31136107,1.3498247,-0.24027586,1.4260733,-4.5935736,-11.0988245,6.4083776
-3.4269323,-0.43165827,14.287398,10.275052,-0.64925194,20.0,12.600122,-8.87299,-5.106042,0.5699434,0.8135345,4.7276564
1.3573886,-1.5697875,4.4363203,5.8622046,1.7877686,12.520433,9.767661,-6.4642973,-4.376755,0.770765,1.1566529,-0.46030122
0.6126015,-0.94585836,-0.54197997,4.3551884,-4.1262054,5.1749744,7.865688,-3.776484,-1.8677006,0.62948084,1.214528,0.94123054
-10.400735,-2.984299,-6.623582,-0.43295753,-4.680015,0.051481962,0.4518956,2.1461375,-6.4787173,-9.14186,-2.4823475,17.39017
-7.978946,-5.9019947,-4.628319,0.129852,-6.9966683,-1.10675,0.63610077,0.6406224,0.42699397,-3.6859057,5.5981665,9.597731
-8.772305,0.6021249,-3.6703248,-3.148419,-0.8548384,-8.470986,-2.1722336,2.2538576,1.332126,-5.9651175,-1.1156658,10.867714
-9.984681,1.3822973,1.0866039,0.45970201,1.760267,0.6673372,-0.041469276,-1.4058006,1.1056917,-5.60786,-5.185203,7.344695
-0.6397195,-0.9686239,15.779603,10.224163,1.7144873,19.85604,-5.1613607,-0.96940184,2.6087432,-1.9971986,-1.388523,7.0802474
1.3527825,-1.224585,3.3284843,4.220137,3.5355673,11.4178,8.26228,-4.388893,-4.4827642,0.15797186,0.29292583,-0.1280725
0.7837906,-1.2557939,0.98672557,1.9415455,-4.6549015,4.5797043,4.2302895,-1.4714644,-1.2020688,1.1767466,1.5804689,-2.4118714
-12.165192,-4.3006496,-6.7557325,1.771263,-5.228216,2.7440095,-1.3413043,-2.0065274,2.4555833,-5.8070073,4.274455,10.318063
-7.1451797,0.075659275,-3.4648905,-0.337184,-0.8782693,-1.1719708,0.4426191,-0.100120306,1.1445314,-5.663635,-0.10172486,8.658387
-11.230896,1.1601198,-4.548046,-0.88936627,0.9635455,0.2456156,-0.18458438,-0.38586664,-0.06599879,-10.740099,-2.8997512,8.272927
-10.27979,1.6657618,2.840733,-0.143008,1.2148604,0.72074914,-0.4080714,-0.91673183,1.0415509,-5.3974004,-7.517161,5.587924
1.1251645,6.199004,16.937023,11.684296,4.8729153,20.0,5.536689,-5.222285,-1.4347723,3.8355784,-1.0122242,-16.819805
-0.3310132,1.7098784,3.592782,5.607447,2.1557858,11.892776,7.797466,-4.56446,-4.1572356,-1.0531368,-2.577602,1.3226197
1.4966781,-0.56314623,0.44478476,5.9166346,0.047245383,7.4538774,7.567423,-2.9247682,-4.451187,1.2576073,-0.034031928,-0.22133982
-13.662022,-5.9143333,-8.459475,1.5653377,-3.889188,-4.7713113,-0.64096117,0.62259173,-6.0093384,-7.400034,3.935909,15.158672
-7.2121406,-4.3480053,-5.791606,1.7407037,-5.2266192,-2.199712,0.82401156,0.2542621,0.67448527,-4.308734,6.323565,10.392502
-6.1950436,1.4427007,-3.434917,1.054137,-5.9474854,1.5473499,0.067053735,-0.32635045,-0.1360001,-2.7583253,2.825231,10.551729
-10.095336,1.2840569,-0.3185476,0.27053547,1.8751438,1.0166676,0.4142537,-1.1064596,2.1018403,-6.098825,-7.3223257,7.567972
2.7863503,-1.9938625,15.67902,1.8154259,1.7232921,-3.811079,0.55058,-4.1481757,6.726354,0.111403465,-4.449874,14.906008
0.16768813,-1.0159793,4.5249376,6.3402214,1.0180483,13.964909,9.27883,-6.344019,-5.2723455,0.06784868,0.6059847,-0.18860054
1.2680954,-0.7472585,0.8547666,5.5476475,0.013955712,6.5413146,6.470722,-2.883587,-5.311652,1.1965443,0.52348685,0.0049773753
0.9948238,-0.077364564,1.0645392,3.7135043,-5.596002,-0.8545941,5.6284328,-0.060908318,-2.0993357,0.54713494,0.013962984,-1.4838173
-14.095686,-3.5833087,-10.800144,-0.76520836,0.18469882,-0.2041322,0.2722788,-0.72123253,4.4507337,-8.567549,0.73265123,15.547855
-7.3944993,-2.150476,-8.545657,2.145163,-3.572414,-1.7506007,0.7193322,0.03697616,0.2665415,-5.426618,7.590881,10.35602
-8.601823,2.2202346,-4.696788,-0.5506798,0.83226454,1.2423861,-0.14479816,-1.0552626,1.2007079,-7.5874386,-2.041626,7.521587
-8.766142,2.4985857,2.2175553,-0.041034818,1.2482827,0.34335065,-0.12901402,-1.322406,0.8597252,-4.747315,-7.557911,4.92076
-2.6658099,0.27895117,15.764411,6.0104523,6.667115,16.575113,16.559118,-4.4468565,-5.092661,-1.7737904,1.798212,2.005044
1.072972,-1.9487138,-3.1041229,4.5476623,1.7614082,8.023077,7.596075,-4.090786,-3.4131753,-0.6557944,-1.9429669,2.175856
-16.564745,-4.302015,-9.285216,0.47222722,-5.449925,-2.2354064,-1.4251335,1.9158695,-6.9922466,-7.555588,4.3947606,16.372879
-9.8075075,-7.2117896,-6.7019863,1.3598174,-7.1444535,-0.21897185,0.9871502,1.2446892,0.6990752,-6.640035,7.1200047,6.769968
-9.152795,0.6641954,-5.513133,-0.4395908,-4.882516,6.3373246,-0.9936092,0.9919517,1.3723228,-6.5198083,-0.62906325,10.090819
-10.198028,0.90688574,1.9222419,0.27847087,1.4790518,0.33934546,0.19745767,-1.0944896,0.36110657,-6.1338825,-8.147841,4.0018888
-1.2524443,-0.078038216,13.726401,12.211593,1.4961491,20.0,16.013481,-5.8568277,-5.695738,-1.226181,2.677321,-0.581651
1.2382303,-1.8313997,1.4337089,5.582857,1.6103073,10.121842,9.073098,-4.1443977,-1.2332473,0.9802766,0.94753337,-0.25603968
-3.1191518,-3.4255044,2.1455903,0.37231404,-3.699839,0.40512133,1.9223716,0.88834476,-8.414824,-0.9451599,3.1599164,-5.044429
-10.689561,-4.5435486,-7.903442,1.5864768,-5.623236,1.6383382,0.7082448,0.84744406,1.3127874,-6.3900948,7.613518,8.868779
-6.5712214,-0.09742355,-4.758738,-0.36794627,1.1171675,-0.6469878,0.18667984,-0.61342764,1.4910096,-5.9050574,1.7402383,8.214241
-11.105941,0.08105838,-2.1519783,-0.029974937,0.71193695,-0.41094208,0.23011261,-0.4121194,0.7449208,-8.289384,-6.6853523,6.23702
12.434682,-5.2582283,15.575706,10.585706,1.0644479,20.0,13.766344,-9.856972,-6.6073227,9.347221,0.34373152,-15.222101
0.004237175,-2.0182738,8.878788,6.7654724,2.1387918,19.095226,12.803802,-6.4695916,-6.468904,0.20038274,2.3932996,-0.45328242
0.9076742,-0.8050811,0.4992075,3.1139362,-0.25447834,8.955559,6.5578027,-5.399824,-4.4340916,1.1777507,0.96262825,-0.10409212
-14.002253,-2.4196754,-12.030418,2.354094,-1.6181517,-2.2058806,-4.9309835,-0.8960731,7.8122272,-8.775813,-2.488311,19.32213
-8.75428,-4.914605,-5.107642,0.11069286,-5.9683056,3.1600437,1.0056033,0.46960586,1.0298378,-4.787931,2.0418406,9.186008
-7.666423,1.6580739,-3.7102714,-0.43708324,-1.0764616,2.4566977,0.2956729,-0.48244,2.552654,-5.45447,-3.9206572,9.07253
-9.269494,3.8027794,4.5319257,-0.18504679,1.5904758,0.46087098,0.540555,-1.3208451,0.7425728,-5.0250487,-9.881728,6.6822195
-1.9859486,-0.2751174,12.385712,10.142075,-0.652606,19.908356,14.611059,-5.835465,-5.0166745,-1.7496521,2.3144312,-0.09546161
0.98124933,-1.2990274,-0.9358253,6.579613,-0.1483897,9.97994,9.711493,-5.011775,-3.2243047,1.028445,0.70178175,0.25504827
0.8142177,-0.32103825,1.9861093,3.347163,-4.752795,-0.5289401,6.4523597,-1.0012887,0.1622197,0.29840934,1.1561315,-2.0239244
-10.18274,-1.9518375,-10.660867,1.7769327,-4.0930185,0.36327553,0.94316673,-0.40150166,2.7481482,-7.7184305,6.4612446,11.5433855
-6.755652,0.9625212,-4.3549304,-0.2935605,-0.8935589,0.057643294,0.4222827,0.26479053,0.435917,-5.636501,0.58406854,8.637219
-9.614225,1.6815548,-1.492574,-0.7252821,0.8789071,0.65594125,0.33137918,-0.8410106,0.11757213,-8.534079,-6.6960983,6.8848047
1.4214727,-1.5543514,9.758068,1.4370477,-0.62288046,1.3807867,3.4970684,-2.2492487,-2.1007833,1.690271,-5.280468,-3.4968197
-2.0394123,-0.28003168,15.382842,7.837921,5.112577,17.93488,11.356751,-6.7277255,-3.6533911,-1.8460361,1.708426,0.5660775
1.3708978,-1.2285843,0.39908183,3.3779602,0.58331215,8.074561,6.608625,-3.6975842,-2.2386785,1.1097691,1.2530112,-0.710757
-17.17983,-1.7790451,-14.577824,-0.6058386,-1.3931773,0.9351363,-0.7816194,2.4158304,-6.0799584,-8.654341,1.0822728,13.672465
-10.056042,-3.9318492,-9.265334,-0.3290841,-3.099176,-1.2112024,1.0083127,0.817474,1.7499597,-9.256697,2.7242548,8.881842
-8.194508,-0.047077894,-4.2727146,-0.92994964,-2.258319,0.19355118,0.5028871,0.07535672,0.14655434,-7.976485,-1.7204647,7.0577793
-10.6319275,-0.7697866,-1.136049,0.18827748,0.46645832,-0.4627025,-0.08474356,-0.2643695,1.9035226,-8.076246,-7.1354113,3.9096127
0.6706207,-0.3782847,8.258205,1.3815689,0.722662,-2.1430473,0.7286234,-3.1474097,4.4126744,-0.43360162,-2.3672142,5.651732
0.78685534,-1.7940979,8.764581,3.8675268,2.9099479,14.806391,9.487876,-3.8374155,-5.5078626,-0.32148492,1.5736299,-0.34967625
-0.07212615,-1.8022323,-3.5428045,3.1375847,-0.80734396,5.245062,3.5001779,-3.3491569,-3.2245722,-0.21897101,3.8031821,3.4224942
-13.9200325,-1.7976696,-8.262195,-0.4487105,-0.27246737,0.68005514,-0.648612,1.8369071,-5.394967,-8.848555,-2.5456934,15.821096
-8.745497,-3.811518,-4.919507,1.7605742,-4.764579,3.2596254,0.47824407,0.8079369,0.7460732,-1.8196464,7.1480446,11.176305
-6.7434196,0.5845766,-2.3780272,-1.0956495,-4.5558386,-0.9946721,0.6245589,-0.36668515,0.8024626,-5.49638,-1.6575426,7.606304
-11.989509,-0.70855653,-2.5864704,-0.46522164,1.1410162,-0.2159493,-0.29479867,-0.57984114,0.8716916,-8.892131,-6.5747213,7.327403
-4.697136,3.1834645,5.648567,0.59942436,0.7765248,0.34097028,1.6527257,-1.0026264,-0.46584493,-2.3628833,-5.2767262,5.806603
-5.3971195,1.0798182,14.661889,8.942054,1.4444213,20.0,15.856714,-3.5066192,-10.428,0.2772355,1.3896289,-2.1122098
0.9430325,-1.2086716,5.5346475,3.3620315,2.1263692,11.857639,7.354873,-5.082307,-6.4142637,0.08142638,0.52654505,-0.2274839
-0.14045501,-2.5308,-3.718338,2.9012501,-4.0932183,4.8679333,3.765575,-2.093339,-0.38458002,0.64144015,5.3893027,6.9403763
-16.82377,-3.2311506,-9.958124,0.68697256,-2.3826487,-1.528255,-2.8137846,-1.3547509,5.246233,-6.405443,5.2138367,16.023148
-9.16104,-6.3413925,-6.1214247,0.46373397,-5.7340126,-1.4445167,0.63455486,0.39606702,1.4305367,-5.237082,5.256613,9.010679
-7.2631125,1.5076549,-5.325301,-0.42240077,-2.0500128,2.043202,0.09017825,0.42120647,2.1566145,-6.0946426,0.56755316,9.280359
-9.73734,2.0665379,-3.7397213,-0.00903964,1.484457,-0.700361,-0.116502404,-0.6645198,2.2884567,-8.647084,-3.9377646,6.660164
-8.606826,4.1535873,3.2624164,-0.53746,0.9479809,0.5393791,0.021599531,-1.2915759,0.69186264,-5.3691344,-5.800262,6.6268015
-0.8550606,1.6172717,14.694874,9.934728,0.5680213,20.0,-2.9244614,-1.5687084,0.8630227,0.2323618,2.1310763,-9.997878
0.50204337,-1.526936,7.275034,6.9714913,2.0539482,15.014932,11.658682,-5.0946693,-4.001881,0.34804577,1.6579928,-0.49409395
1.0667576,-1.097924,-1.1767147,4.1000876,-2.3398843,6.1961436,6.7095385,-4.076889,-2.686088,1.1559255,1.4346948,0.90795803
-14.898304,0.33850145,-12.080016,-0.69004464,-0.34535182,1.292315,0.24734378,2.2579212,-5.328029,-8.430361,-1.8489537,18.549534
-9.051205,-3.3449302,-5.2014475,0.7476647,-5.240399,1.257887,0.6168361,0.9665042,0.9257558,-3.0452058,4.5296645,11.20176
-7.5427666,2.0077558,-3.0796332,-0.30736947,0.6926802,0.9850819,-0.020947814,-0.82505393,1.1356273,-6.0225587,0.87761307,9.100124
-8.878719,3.765351,2.564791,0.169918,1.0710013,-0.028377771,-0.08537507,-1.1395345,0.62717247,-3.4456844,-8.562613,5.5439878
0.62097716,-0.2935419,8.642467,0.24914569,2.622202,19.478378,19.375654,0.8238785,-12.615107,-5.1050963,2.7294636,0.8086128
0.9345093,-2.6660109,2.9001822,5.0265102,1.2247189,7.089753,5.100281,-4.6031346,-4.013281,1.6065509,1.6095316,0.25765395
-8.257816,-1.1118805,-7.051923,2.6552558,-5.0880737,-1.6808512,2.1116369,-0.27477026,-0.98376256,1.0079131,0.11864662,-1.8043594
-10.544798,-3.4784644,-10.5431595,2.669172,-3.1981418,0.6550534,1.1116486,-0.01080358,3.778759,-8.245687,5.249728,10.39023
-7.336895,-3.6864865,-5.281823,0.59824395,-4.635379,0.20850801,0.52193713,0.3172319,0.47854888,-4.988497,3.112125,9.931923
-8.820188,0.46909195,-4.965225,-0.5241523,1.9703481,-1.8916874,-0.13024163,-0.2655692,2.9288468,-7.439882,-2.1502461,9.410046
-1.9596586,3.8014603,-4.8306465,-0.4207667,1.4637942,-0.45279238,0.5431485,-1.8018107,2.0196853,-1.0332221,-9.984364,2.741137
-2.3652654,0.2230463,11.706318,6.321902,2.8192184,20.0,14.281897,-9.48035,-3.810363,-2.302473,2.7626662,-0.55769634
0.9386637,0.68887544,-0.24503118,2.335877,5.858885,20.0,6.9400773,-5.762624,-5.1867557,-0.06819892,-0.3111093,0.29247594
0.3102013,-0.27388412,-1.9876945,0.922138,2.8586907,15.310466,5.8890157,-4.1761017,-4.99605,-0.8684586,-0.09960127,0.39903003
-11.732486,-4.5565453,-7.24461,-0.4509431,-0.84960866,3.0941908,-5.043087,-3.9911952,4.4569855,-1.4423995,7.166612,17.900229
-5.953687,-3.364893,-1.3061026,-0.51109266,-7.339732,4.2408986,0.4828664,0.4146358,0.6232131,1.579798,6.556123,11.980289
-7.6071925,2.3419957,-3.2106557,-0.32810616,1.0855873,2.5378034,0.2903037,-1.4701838,2.409883,-7.6112328,-1.2514025,8.877551
-8.394113,2.5184796,6.475778,0.3845427,0.88317585,0.268723,0.59090877,-0.76114607,1.9166723,-3.3586211,-10.116622,6.9517775
-4.9585905,-0.3634262,17.047592,7.005422,-0.7402935,20.0,13.590344,-3.0379853,-6.890811,0.4832945,1.366746,4.558106
1.1597961,-1.6342039,3.5885375,5.706483,1.1063066,9.6498165,7.2942333,-4.352709,-4.8065534,1.4982761,1.3517518,-0.6240871
0.61828613,-0.57524693,1.3125987,2.1572604,-4.8114843,0.59813106,3.5514748,-1.0997963,-0.9387672,0.9614309,1.0035172,-1.6979203
-11.046716,-5.2144165,-9.7502,3.3742795,-5.755783,3.0140867,0.5587089,0.08684921,3.322558,-7.628289,6.0563583,10.4856
-8.611315,-3.4964552,-5.113806,-0.22783196,-5.656281,-2.9886184,0.3826275,-0.216506,0.50909483,-4.6594644,3.1210985,9.409052
-11.072665,-0.3358358,-2.996223,-0.692477,-2.1085017,-2.2119274,1.3184683,2.4633455,0.7937576,-6.6681714,-5.697626,6.5684276
0.33138025,0.5575799,6.9717298,1.1005652,0.20761085,0.73794436,3.3038387,-1.8403006,-2.0271153,-0.68163013,-7.9993243,-1.4557065
-0.6165793,-1.6070886,9.023576,5.156223,2.2318609,14.373522,8.063083,-7.005459,-5.0551877,0.38085383,2.2104492,-0.6699879
1.5362577,-1.5022832,0.82763326,5.9526315,-0.5381217,9.033295,7.6244946,-3.4364676,-3.8458467,1.6822293,0.76433146,-0.34090567
-15.503147,-2.3662663,-10.115124,-0.31147766,-0.78896284,0.18748736,-1.8141251,2.1454237,-4.1555185,-8.314012,0.6425855,19.60622
-8.72905,-4.267311,-7.658887,0.9017923,-5.4140244,-0.60140467,0.7001138,0.97848153,0.4046648,-5.9428344,5.8781157,8.737784
-6.419069,0.76787305,-3.6060996,-0.96230626,-3.9021122,3.2830255,-0.23133636,0.055932283,0.85873866,-6.6041985,-1.4419799,6.8672714
-8.817246,2.3081307,-1.2440577,-0.15967119,1.162221,0.71293545,0.22828016,-1.3777184,0.6730584,-6.777608,-5.3996706,6.569944
3.0245757,-2.5922906,15.820135,1.7105303,0.3973763,-0.12857246,6.059248,-3.4486394,-2.8677397,4.937112,1.6730568,-15.77219
-0.15901339,-1.1519771,9.654873,7.253118,3.5600235,19.604654,15.543706,-8.108358,-3.3902383,-0.76683646,1.440033,0.46728697
1.457724,-1.203166,0.66072595,6.8872867,1.162322,10.669248,10.095044,-4.3853445,-2.8832572,1.3122848,0.79458547,-0.41035628
-0.8574798,-0.17931485,1.5263159,-0.25921845,-4.866175,-4.3180857,0.5210378,2.1183562,-5.6013265,-7.221116,0.30071926,16.605747
-10.535509,-4.7560816,-7.9045215,1.7129248,-5.3610277,0.40332747,0.7434337,0.4679625,1.7137159,-5.7285395,4.860255,10.555433
-7.106316,-0.9337776,-4.9884944,-0.3615387,-3.1631727,-1.0712225,0.4429648,-0.5090077,0.46818933,-5.1898427,2.132578,10.826585
-10.14875,2.5757794,-1.4024866,-0.10502887,1.0242188,0.96289253,0.31569892,-0.53988934,1.5281312,-7.329652,-7.4872737,7.506963
0.69713616,0.59264207,8.766232,2.1222854,-0.7457175,1.4321156,4.244795,-3.3786345,-3.4222968,1.8936384,-4.20643,-3.7656643
-0.30583453,-0.7373209,10.1389675,6.1767607,3.17976,15.775622,10.6292515,-8.759339,-4.406245,-0.011027098,1.0077267,0.15586323
1.5813658,-1.8947577,0.45383513,5.2521367,0.024694085,8.909,8.7630625,-4.540194,-2.7292433,1.1276885,1.209497,-0.5865152
