ancorasir/BennettWheelLegRL/experiment_data/2023-12-27_22-47-53/joint_position_env45.csv
Joint_1,Joint_2,Joint_3,Joint_4,Joint_5,Joint_6,Joint_7,Joint_8,Joint_9,Joint_10,Joint_11,Joint_12
0.40094042,-0.0,-0.0,-0.39041266,0.0,0.0,-0.3530271,-0.0,-0.0,0.19776121,-0.0,0.0
0.043205354,0.32971692,0.09468416,0.016610578,-0.04867281,-0.07407994,-0.12853087,-0.12941985,0.11829133,0.07684813,-0.18715388,-0.21836966
0.26023316,0.46415275,0.3472889,-0.03956681,0.045414638,-0.32723197,-0.2939351,-0.14743611,0.24035756,0.016868716,-0.70874745,-0.48772722
0.6624144,0.5620075,0.40000004,-0.015812358,0.22708063,-0.36893892,-0.3218913,-0.29271924,0.19746588,0.064411834,-0.46649772,-0.6517833
0.661426,0.7341206,0.36528268,0.042015616,0.3368015,-0.26560804,-0.38526845,-0.4379458,0.15820464,-0.008597558,-0.5682363,-0.5781791
0.45275217,0.5696394,0.13592695,0.1433752,0.40338546,-0.11337154,-0.41652486,-0.7564006,0.2506177,-0.07643893,-0.24753436,-0.3845596
0.5431803,0.24458669,0.30953473,0.25985137,0.45954114,0.17816836,-0.68359417,-1.1546512,0.3980684,-0.081471555,0.13393334,-0.5417111
0.52155995,-0.04608397,0.29613915,0.31645668,0.5125058,0.13200936,-1.098202,-0.9540473,0.399958,-0.062380027,0.5118041,-0.57448107
0.49800974,-0.19256385,0.07927112,-0.12905067,0.23496686,-0.8587214,-1.4207196,-0.33665496,0.39999768,-0.16971241,0.67398727,-0.37627667
0.48469508,-0.37586242,0.37363034,-0.17075405,-0.28117046,-0.94470483,-0.9195883,0.26082435,0.1857022,-0.2761804,0.67279536,-0.073393814
0.9493573,0.10468816,0.4000002,0.026080845,0.011503737,-0.5494662,-0.3765598,-0.26112297,0.04550277,0.2690773,0.1937872,-0.82815593
0.71737236,0.9129832,0.30891475,0.048476078,0.2733224,-0.42871502,-0.35458487,-0.4340481,-0.098243944,0.03947834,-0.5697163,-0.5353635
0.37613538,0.69906104,0.07685443,0.13143836,0.37745985,-0.34234837,-0.4433014,-0.7385584,0.3028001,-0.096262,-0.28216234,-0.22420442
0.45951867,0.21993619,0.354089,0.18285148,0.48589253,-0.023400359,-0.9575237,-1.0994006,0.39998302,-0.043149833,0.22558238,-0.46732503
0.46641386,-0.09039584,0.3198082,0.13572428,0.5040912,-0.2520644,-1.2707251,-0.78343225,0.39999717,-0.069828995,0.5511269,-0.4344318
0.46871623,-0.23248164,0.16219471,-0.2312541,0.07481662,-0.97844297,-1.3988751,-0.251243,0.39995685,-0.15311417,0.663342,-0.24607524
0.6255488,-0.31545728,0.40000018,-0.011144142,-0.3340168,-0.4125431,-0.36080298,0.03979069,-0.040397674,-0.017110653,0.6781607,-0.35455683
0.8677208,0.4575754,0.40000013,-0.020737043,0.068388194,-0.5394219,-0.3168574,-0.29768014,0.014099685,0.34917256,-0.21291967,-0.71765506
0.58646184,0.92263424,0.17127967,-0.014503317,0.31078696,-0.42744178,-0.32132947,-0.4818638,-0.0626339,-0.0497671,-0.688286,-0.4506097
0.4834511,0.49836013,0.21517546,-0.0076022046,0.33513632,-0.40514296,-0.5703666,-0.8955674,0.4000033,-0.14704908,-0.04091065,-0.27652168
0.5120179,0.1926212,0.31576928,0.05013326,0.41068685,-0.16799107,-0.9536236,-1.1164876,0.39999405,-0.13878621,0.26721612,-0.35600722
0.49971524,-0.06319809,0.25733,-0.017955154,0.2871516,-0.5976266,-1.3267426,-0.7181637,0.39994198,-0.15719844,0.5165763,-0.28558978
0.48981822,-0.20043652,0.086422615,-0.2689678,-0.015328002,-1.0013124,-1.3412445,-0.12244055,0.39999875,-0.22610073,0.6316539,-0.08053572
0.62787265,-0.30703175,0.4000002,0.06594002,-0.31887516,-0.3469692,-0.39516833,0.09546431,0.020087013,-0.14009108,0.60844666,-0.24167402
0.8987399,0.35449302,0.4000001,0.022263596,0.048172988,-0.56555694,-0.20584212,-0.23211342,0.030479072,0.29433042,-0.08740107,-0.7767876
0.60967845,0.9177484,0.2485792,0.08531493,0.26696333,-0.45267138,-0.24867389,-0.41431043,-0.03146746,0.00944309,-0.61885965,-0.38516748
0.36649373,0.6103503,0.1290047,0.12969147,0.32494813,-0.3882288,-0.35188982,-0.7968015,0.35617828,-0.15425448,-0.1897273,-0.1800915
0.42750016,0.32532802,0.30398768,0.13467082,0.42922676,-0.25962153,-0.8300869,-1.1131489,0.39999926,-0.10479425,0.11330532,-0.3676193
0.44833454,0.06497195,0.3426677,0.18814436,0.4705216,-0.05462041,-1.0940211,-1.020503,0.3999596,-0.11342068,0.3751364,-0.3916022
0.4525338,-0.123882085,0.28311333,0.013662601,0.40344998,-0.5075445,-1.3667138,-0.6819292,0.39998546,-0.1408226,0.5644547,-0.35071138
0.46528378,-0.25308233,0.11702332,-0.27390808,0.05500722,-1.0622782,-1.3735529,-0.10030925,0.39814824,-0.23812778,0.65704614,-0.15426435
0.64967847,-0.32966828,0.4000002,0.025020918,-0.37606317,-0.3725738,-0.42106542,0.17610537,0.029900514,-0.09303751,0.6124633,-0.33317173
0.89893454,0.36441454,0.40000013,-0.010481543,-0.02217963,-0.5429129,-0.21957326,-0.16948932,0.05064198,0.29679337,-0.08295898,-0.7617235
0.6255364,0.8726476,0.30784652,0.0115613835,0.18669116,-0.47420236,-0.23605515,-0.3436866,0.020629115,0.0564261,-0.6598409,-0.52006024
0.36878392,0.7595342,0.0342307,0.044690795,0.33870304,-0.31988683,-0.25762227,-0.5561857,0.02088641,-0.21157959,-0.43413746,-0.13601772
0.4224943,0.45305106,0.25508213,0.027100138,0.2963544,-0.4127124,-0.57382154,-0.901909,0.40000334,-0.16965283,-0.017452596,-0.2351472
0.44831264,0.18033288,0.36852032,0.03423559,0.39665142,-0.25288087,-0.98767453,-1.107988,0.3873739,-0.13772713,0.24268085,-0.31901756
0.43199992,-0.03246663,0.3417189,0.018508306,0.36753857,-0.4042048,-1.2850279,-0.8638983,0.39999065,-0.12194376,0.46434253,-0.3081858
0.43907225,-0.1817409,0.21692753,-0.19552618,0.11405077,-0.87229866,-1.4047966,-0.34582636,0.3999992,-0.17603584,0.5990014,-0.1608305
0.41860932,-0.32662565,0.40000188,-0.23590848,-0.3476151,-1.010924,-0.9316458,0.3166093,0.19559205,-0.30875024,0.61934793,0.14557078
1.0131438,0.11251665,0.40000015,0.053209838,-0.10883158,-0.4867304,-0.24587268,-0.22523373,0.04550654,0.29843152,0.24873859,-0.9019891
0.6505505,0.8936048,0.26619107,0.06498799,0.23441558,-0.41912276,-0.23912606,-0.45089313,-0.05955648,0.009223038,-0.6495206,-0.56036484
0.33392426,0.6946949,-0.029971866,0.087296925,0.3488848,-0.34910586,-0.2678137,-0.69597346,0.10173371,-0.23280266,-0.30832103,0.035273697
0.4927411,0.2971667,0.31397152,0.06254744,0.4376359,-0.2921812,-0.8522321,-1.1098518,0.4000015,-0.11251768,0.10510716,-0.32517642
0.48357844,0.05840724,0.32844564,0.10752809,0.43099377,-0.22388192,-1.1293287,-1.0582981,0.40000013,-0.09663776,0.36071846,-0.36813986
0.4560653,-0.19560306,0.20761758,-0.13982533,0.21549499,-0.7768957,-1.3989462,-0.51820004,0.39997593,-0.1231159,0.59939855,-0.2530915
0.4136314,-0.32166353,0.07435284,-0.30204922,-0.26840279,-1.1999521,-1.0855908,0.2351157,0.3024716,-0.2232311,0.6715374,0.009178589
0.9270293,0.1739911,0.4000002,-0.0007269029,-0.06300129,-0.5949567,-0.2698843,-0.22397819,0.08186049,0.27676353,0.16102868,-0.80369705
0.68273145,0.9012556,0.3450266,0.053165868,0.2350227,-0.51301616,-0.28262532,-0.41360542,-0.020552674,0.015962161,-0.6185581,-0.5760172
0.35612667,0.70479554,-0.040569723,0.09433441,0.3835372,-0.4236933,-0.2949335,-0.7827436,0.23124467,-0.17730145,-0.22904053,-0.10463346
0.50924355,0.34979907,0.265751,0.03788358,0.31532148,-0.4577503,-0.71749264,-1.0950493,0.40000775,-0.12525368,0.114626855,-0.32743847
0.49342108,0.09082733,0.29464623,0.06900639,0.3266668,-0.36228296,-1.0774634,-1.0407034,0.4000563,-0.11775228,0.36127752,-0.33058095
0.5033169,-0.15259889,0.20847918,-0.15931082,0.18905607,-0.8763612,-1.3790929,-0.4702429,0.39996815,-0.15569796,0.5745961,-0.20374691
0.42291403,-0.25382525,0.10001506,-0.3311641,-0.15843259,-1.1556883,-1.1865201,0.1817508,0.34261295,-0.2450304,0.6271843,0.0473823
0.9279933,-0.10202868,0.40000018,0.07597978,-0.2728197,-0.44236094,-0.3038628,-0.07702783,-0.0061001014,0.26098627,0.35017136,-0.76474947
0.75065935,0.7849545,0.40000004,0.08355626,0.06942584,-0.4930099,-0.32588893,-0.29612914,-0.017897306,0.14630932,-0.4683082,-0.62658143
0.4222317,0.55464655,0.2232779,0.11266013,0.32860702,-0.45374343,-0.49486467,-0.77965546,0.40009335,-0.13773972,-0.11897519,-0.27626982
0.44598365,0.07749729,0.374365,0.11256201,0.39797685,-0.33677912,-1.1573594,-0.97053856,0.4001135,-0.10690217,0.36030996,-0.37994188
0.44727027,-0.18308014,0.29297137,-0.18149209,0.0717519,-0.8476208,-1.3803965,-0.37179726,0.39994764,-0.13548723,0.5827301,-0.2464752
0.43823612,-0.3273293,0.26663184,-0.2534842,-0.29721335,-0.9796133,-1.0411223,0.18671398,0.2651405,-0.23461336,0.6396181,0.012247283
0.87811947,0.12227238,0.40000024,0.005416252,-0.07460419,-0.5430594,-0.29011148,-0.18995968,0.04085931,0.30860907,0.09844544,-0.7472412
0.68946546,0.8556144,0.3207604,0.01652977,0.21287087,-0.49871528,-0.28564876,-0.37420294,-0.03435432,0.052305833,-0.5980042,-0.583957
0.46366024,0.8055991,0.03647523,0.033479698,0.3933173,-0.34174255,-0.29958338,-0.57048815,-0.029022945,-0.20051295,-0.54265594,-0.16501771
0.44333947,0.4664786,0.22401427,0.03197015,0.38982302,-0.3801844,-0.6319608,-1.0389577,0.4000027,-0.14450884,-0.031341165,-0.2851204
0.4562968,0.20111355,0.29949534,0.08015667,0.45021093,-0.14617893,-0.9857285,-1.1812098,0.40000328,-0.13471833,0.23888841,-0.3388256
0.4553474,-0.043767776,0.25050625,-0.017896848,0.34281418,-0.5339197,-1.2990934,-0.7302136,0.39996585,-0.15577662,0.49206877,-0.30807522
0.44819984,-0.19369237,0.094380625,-0.3176597,-0.0022292093,-0.9667012,-1.3508047,-0.11837708,0.3999664,-0.22334306,0.6167367,-0.12263323
0.6631935,-0.30257818,0.4000002,-0.009158923,-0.2615246,-0.3774864,-0.2606522,0.009797314,-0.08363828,-0.04633485,0.60363597,-0.43316287
0.82577544,0.6661108,0.40000004,0.02578495,0.08629355,-0.45828122,-0.26338494,-0.2988859,-0.06349706,0.19992715,-0.34239867,-0.7081668
0.52648294,0.9050123,0.1254381,0.07599755,0.26601323,-0.34176898,-0.2807999,-0.50131357,-0.055748858,-0.10590409,-0.50264215,-0.2797621
0.40477973,0.45534927,0.24766648,0.045165367,0.23337151,-0.49954572,-0.56805253,-0.84227014,0.39999488,-0.07097112,0.0022580063,-0.2891788
0.42770058,0.1862835,0.31690943,0.07373097,0.33277294,-0.37890267,-1.0193256,-1.0265106,0.40000138,-0.093110554,0.25034574,-0.31864405
0.44560045,-0.13792542,0.2579063,-0.028887538,0.23172177,-0.5647976,-1.293347,-0.69246596,0.3999726,-0.14916828,0.5238704,-0.22074048
0.41687793,-0.24577853,0.036811374,-0.3652348,-0.13916245,-1.1268255,-1.2596638,0.075653784,0.39903978,-0.22847381,0.62017065,0.022489235
0.85711545,-0.0025395472,0.4000002,0.02169278,-0.20439428,-0.5063958,-0.24133013,-0.10802709,0.0130135305,0.30139667,0.21138169,-0.6547703
0.6710752,0.8153137,0.39564347,0.043334913,0.16246805,-0.53084904,-0.29274303,-0.35839218,0.01693187,0.09561386,-0.58789486,-0.5781029
0.46625283,0.8343286,0.06613386,0.07581303,0.39609897,-0.38053104,-0.3326542,-0.59239775,0.0028356449,-0.16160016,-0.51006407,-0.24127862
0.505795,0.4091796,0.316531,0.08116383,0.46394888,-0.30557504,-0.71900344,-1.1433048,0.3999893,-0.12248635,0.035488345,-0.35573515
0.49665815,0.10239272,0.3633297,0.16059315,0.47601777,-0.2189865,-1.1197768,-1.0652181,0.39788014,-0.09622332,0.37435555,-0.41581553
0.49822664,-0.16838098,0.27378654,-0.10401274,0.26858902,-0.74172866,-1.4414722,-0.5278563,0.39994678,-0.13499835,0.6123359,-0.28242698
0.49046388,-0.2834565,0.08379717,-0.3213021,-0.1286169,-1.1495773,-1.2574352,0.12635311,0.36817694,-0.2252062,0.6811379,-0.041862916
0.8751503,-0.13638473,0.40000024,0.038773198,-0.16057019,-0.5269578,-0.2464683,-0.106495775,-0.04392919,0.1425044,0.5149441,-0.6936357
0.81605524,0.73490673,0.40000007,0.049741477,0.16140899,-0.5268339,-0.30858606,-0.36096805,0.037783954,0.15575966,-0.40648574,-0.71349126
0.51514393,0.8499149,0.06450099,0.06923261,0.36555672,-0.33500606,-0.32093143,-0.5909218,-0.01312019,-0.18225975,-0.46223179,-0.13662632
0.487485,0.42043135,0.26565143,0.05611594,0.461159,-0.3627317,-0.76867425,-1.0703422,0.39999682,-0.12825933,0.055176858,-0.31818554
0.50597036,0.106231816,0.3163921,0.13867234,0.48854062,-0.15705805,-1.1485558,-1.007891,0.39255032,-0.11890283,0.39601603,-0.38026747
0.49298897,-0.120121,0.20062114,-0.05223522,0.3981858,-0.61978394,-1.4058962,-0.5430293,0.39995548,-0.16939072,0.60246515,-0.24724738
0.46015266,-0.2071691,-0.0050260336,-0.35820487,-0.062409732,-1.1107477,-1.3186867,0.07130986,0.39998507,-0.30492875,0.64350224,0.03183132
1.0239054,0.066921666,0.4000002,0.073657066,-0.15996215,-0.4500632,-0.22538681,-0.12430443,0.033986174,0.22534712,0.27991915,-0.8815733
0.6782759,0.8784347,0.3659598,0.08691545,0.17683989,-0.44172275,-0.2259094,-0.34066632,-0.03619511,0.06458653,-0.69494283,-0.5884151
0.36511362,0.6653519,0.059329186,0.10175692,0.38349175,-0.34545743,-0.27513272,-0.6764617,0.14604971,-0.29249758,-0.19302474,0.11129941
0.44342247,0.34633806,0.3132429,0.08073185,0.38957483,-0.42329463,-0.81433386,-1.0944226,0.40000594,-0.12640107,0.17396143,-0.2668093
0.43000805,0.09578884,0.3268067,0.13148655,0.38440186,-0.23256834,-1.077178,-1.0182104,0.39999285,-0.13075764,0.39696884,-0.2655029
0.42984295,-0.16376093,0.22104615,-0.29151163,0.13598605,-0.95161545,-1.4228876,-0.28535682,0.38942426,-0.19253626,0.57867444,-0.078335844
0.7254547,-0.2289421,0.40000024,0.08250369,-0.25395554,-0.40646043,-0.24447522,0.0030620336,-0.09565156,0.15839373,0.5517113,-0.5451026
0.77374554,0.68921846,0.40000004,0.06331291,0.1465876,-0.5104421,-0.30111974,-0.27416283,0.002302951,0.21481138,-0.5540665,-0.59322906
0.4748224,0.86688435,0.056767687,0.08920389,0.37211686,-0.32243788,-0.31575102,-0.51957947,-0.052059587,-0.17590763,-0.5279227,-0.2214064
0.47369075,0.4141719,0.25344956,0.10399197,0.4008855,-0.32087672,-0.6042775,-1.012491,0.40000102,-0.1701489,-0.0009337049,-0.2999385
0.46115875,0.06196651,0.30052453,0.14629178,0.43771386,-0.21677901,-1.1048856,-1.0027127,0.39998126,-0.15175624,0.36410198,-0.36095676
0.47201532,-0.18069108,0.19861232,-0.14917238,0.17050333,-0.75964904,-1.3556014,-0.42439446,0.39994225,-0.1953041,0.59123117,-0.24322659
0.43916252,-0.30567774,0.061268114,-0.30598918,-0.23656394,-1.1999993,-1.1034172,0.18258977,0.34638304,-0.29697144,0.64978206,0.023108877
0.90104353,0.08536907,0.4000002,-0.014809682,-0.09232694,-0.53599983,-0.32535803,-0.22159833,0.0515842,0.3122113,0.18649405,-0.74957323
0.8035826,0.6781428,0.40000007,-0.01563719,0.14209026,-0.52535117,-0.3356272,-0.37890527,0.019708851,0.1989676,-0.4470581,-0.65328395
0.5522811,0.9382561,0.11197373,0.02028432,0.35865596,-0.35020217,-0.34599468,-0.57563466,-0.06102769,-0.16623269,-0.54751146,-0.21432462
0.50602263,0.5471075,0.1989296,0.02215537,0.42234316,-0.39300957,-0.60804904,-0.9368728,0.40003726,-0.15104192,-0.08955086,-0.27805176
0.53629386,0.2932009,0.31308672,0.069876686,0.46810478,-0.18697557,-0.9274875,-1.1844034,0.39179894,-0.1252241,0.18154104,-0.3766177
0.51825947,-0.0009780765,0.31877977,0.087868385,0.47664195,-0.31120992,-1.2285138,-0.894609,0.39998472,-0.10702389,0.4870416,-0.39034978
0.49891266,-0.20929308,0.14330858,-0.25020856,0.07028124,-0.9366532,-1.399196,-0.29373905,0.3999644,-0.19484839,0.6342504,-0.15526167
0.911026,-0.0772903,0.40000024,0.061712608,-0.20714407,-0.47472134,-0.31563014,-0.14084558,0.00372367,0.24103028,0.34395105,-0.7627505
0.72382474,0.8422937,0.4,0.04837658,0.14820345,-0.4858975,-0.28512263,-0.34196338,-0.07935009,0.09004767,-0.60009474,-0.6300142
0.40990275,0.8341684,0.034259938,0.0871746,0.336174,-0.38796592,-0.30719653,-0.6036157,-0.006806892,-0.20770243,-0.42328212,-0.03799716
0.45944476,0.3936189,0.27765802,0.0719484,0.39462993,-0.37737128,-0.7050471,-1.0653511,0.4000025,-0.14983216,0.008985154,-0.30441588
0.43454427,0.13809948,0.29528475,0.1381624,0.4108979,-0.10442333,-1.040518,-1.096277,0.40000066,-0.14919938,0.26795214,-0.3237424
0.4398075,-0.086106114,0.26577944,0.12654802,0.42196274,-0.16482645,-1.2153842,-0.79959476,0.3999734,-0.16902696,0.46661195,-0.26534808
0.40770182,-0.21109313,0.12278424,-0.19411246,0.18364215,-0.8464378,-1.3674893,-0.29538524,0.3999255,-0.19532813,0.5981829,-0.14449455
0.38096437,-0.2747462,0.3146748,-0.20833057,-0.32856756,-1.0707698,-0.79273695,0.33513656,0.1781867,-0.31825784,0.6200248,0.16268617
0.9342579,0.40384716,0.40000015,0.04565183,0.0012689108,-0.5001819,-0.29028434,-0.1745206,0.0777872,0.31243995,-0.12285606,-0.8416084
0.594899,0.8535488,0.26986796,0.03776585,0.27909967,-0.40081644,-0.27869663,-0.40799034,0.0219817,-0.026686465,-0.7492528,-0.5089147
0.40222976,0.72965723,0.019938545,0.094090626,0.39070427,-0.21808775,-0.29906595,-0.6494379,0.039729774,-0.22024524,-0.35510376,-0.111848034
0.52728677,0.33042935,0.27415252,0.09785825,0.45947334,-0.2581315,-0.81785274,-1.1573682,0.40000135,-0.105749354,0.110687524,-0.38715294
0.52515566,0.008464936,0.29966548,0.16690308,0.4726499,-0.087109044,-1.140144,-0.9971624,0.3901013,-0.09242239,0.45098877,-0.40346137
0.5381274,-0.2226058,0.14648764,-0.23665175,0.17326985,-0.8702518,-1.4135365,-0.34372172,0.39999992,-0.17365131,0.6361651,-0.19259354
0.63419217,-0.36673295,0.40000018,0.023340657,-0.31188127,-0.57099044,-0.54498273,0.18025151,0.017090421,-0.17320342,0.6787034,-0.13621616
0.905723,0.46100143,0.40000013,0.084354855,0.051698804,-0.5285155,-0.33299583,-0.24877296,0.052768838,0.2187351,-0.24946408,-0.7855301
0.64290726,0.9396019,0.2951908,0.107937574,0.26004818,-0.4358943,-0.35661647,-0.4233,-0.009490427,-0.027331091,-0.67202556,-0.50197065
0.44078612,0.6674085,0.08739611,0.07100818,0.31265563,-0.48050702,-0.40450177,-0.78032434,0.4000038,-0.15909792,-0.20384255,-0.15279166
0.5297142,0.26911956,0.3107198,0.12451217,0.4330279,-0.25393313,-0.90395314,-1.1671942,0.39999676,-0.11849705,0.2064463,-0.3552868
0.50848365,0.043209136,0.31605405,0.10123307,0.40058002,-0.3274558,-1.2119462,-0.96546584,0.3839749,-0.09463631,0.43969026,-0.3583705
0.5335753,-0.1819619,0.2283675,-0.13102132,0.22669838,-0.71899617,-1.3978244,-0.46901685,0.3999907,-0.1330455,0.63338345,-0.21717848
0.49310672,-0.28082314,0.063690044,-0.29718095,-0.18794608,-1.1619792,-1.1209785,0.22471216,0.3060052,-0.23369554,0.67411786,0.05959984
0.9869538,0.19234008,0.40000015,0.052603133,-0.052380886,-0.58486545,-0.31752986,-0.10002948,-0.008544552,0.18944736,0.17629077,-0.911978
0.6924475,0.8413819,0.3703933,0.08552259,0.23422651,-0.5067054,-0.3203574,-0.30076945,-0.07026114,0.038651418,-0.5659818,-0.6791747
0.32624552,0.6531189,0.008447478,0.10791685,0.313214,-0.38160282,-0.30977347,-0.67812043,0.16443132,-0.17825544,-0.31357032,-0.04383593
0.46848756,0.2498653,0.30962574,0.13888995,0.40832463,-0.23901604,-0.8334602,-1.1251149,0.3999996,-0.0920515,0.1062578,-0.35372865
0.44329798,-0.0014202162,0.2907496,0.16716382,0.45112884,-0.16525292,-1.1519582,-0.9787587,0.3980793,-0.074075125,0.39012885,-0.3696563
0.45509407,-0.20569997,0.12332326,-0.16163178,0.109079,-0.7817691,-1.3673989,-0.34796482,0.3999764,-0.15174682,0.6066955,-0.2306377
0.4448051,-0.3413225,0.40000486,-0.18068388,-0.35814905,-0.8755164,-0.74550533,0.30170128,0.130073,-0.24924839,0.61568195,0.028798748
0.93169034,0.42067018,0.40000015,0.014764996,0.013567795,-0.49740127,-0.29045177,-0.2135064,0.01292119,0.2183654,-0.08063344,-0.83921546
0.6487792,0.9350486,0.25155658,0.021329898,0.24045855,-0.4417131,-0.30569905,-0.3821495,-0.046418045,-0.03443641,-0.63910943,-0.50749326
0.40868565,0.67185724,0.09034509,0.07016483,0.34266463,-0.4086993,-0.36437082,-0.7440017,0.2695686,-0.2068618,-0.24159424,-0.17090295
0.50556475,0.3822332,0.294317,0.09926927,0.4396804,-0.26280513,-0.7439676,-1.1625788,0.4000008,-0.17971371,0.05824289,-0.361767
0.4927266,0.050556973,0.34917757,0.17596969,0.4523665,-0.11260481,-1.0685197,-1.0751289,0.39997274,-0.15135942,0.40679735,-0.42788512
0.47297302,-0.1781139,0.20919646,-0.19303966,0.2526765,-0.8899956,-1.3969675,-0.3571697,0.39998356,-0.2010223,0.6183707,-0.26593137
0.42042482,-0.27609953,0.31441596,-0.19173041,-0.31237635,-1.0792454,-0.88529533,0.2822276,0.22960249,-0.3030997,0.66539675,0.03250632
0.85064703,0.3496234,0.40000015,0.056411035,-0.1017693,-0.5438926,-0.37492996,-0.15673004,0.07130916,0.34936112,-0.14533919,-0.69964004
0.6029505,0.91304827,0.28350633,0.031408336,0.24831252,-0.50546694,-0.36842945,-0.4072391,0.018575212,-0.011913403,-0.7123211,-0.49129072
0.45706177,0.6381758,0.11271754,0.031471778,0.41346726,-0.4151126,-0.42590746,-0.8041006,0.37476256,-0.148363,-0.1946044,-0.27794734
0.52576536,0.31635955,0.30072865,0.063639864,0.48631942,-0.20268713,-0.8581283,-1.190336,0.40000242,-0.13182421,0.14189593,-0.43765867
0.49399447,-0.034320604,0.29952917,0.114764534,0.4636511,-0.19395722,-1.2312775,-0.92011005,0.3999635,-0.12227639,0.50822455,-0.43064547
0.45817006,-0.22759981,0.07682953,-0.2901091,0.0015560461,-1.0984324,-1.3381373,-0.047356635,0.39999917,-0.2079561,0.6702605,-0.18181007
0.86801535,-0.170445,0.40000018,0.09186845,-0.16247353,-0.5353966,-0.38941827,-0.058616105,0.013775844,0.2191661,0.404332,-0.6838965
0.7126241,0.8176209,0.3622663,0.087542206,0.24610387,-0.5271422,-0.38800928,-0.3283435,-0.017334001,0.08355278,-0.5487524,-0.59702206
0.34647045,0.7847286,0.013778627,0.14059062,0.39631635,-0.35698026,-0.3984575,-0.6204383,0.22029887,-0.111256875,-0.34544715,-0.13342835
0.45063376,0.2651844,0.33978334,0.1898911,0.46301645,-0.20293377,-0.95318407,-1.118976,0.400001,-0.06890027,0.14656916,-0.4164314
0.44583142,-0.041923396,0.32593647,0.21134421,0.47280902,-0.19932748,-1.2247838,-0.83594155,0.39996627,-0.07470023,0.47324014,-0.40619963
0.4448658,-0.2251859,0.12985985,-0.23333499,0.07624232,-0.96430093,-1.4040693,-0.22257671,0.39999652,-0.16225807,0.6441205,-0.19266127
0.53096193,-0.3502639,0.40000013,-0.024382452,-0.35606128,-0.8171506,-0.62686014,0.20747216,0.027040862,-0.17741947,0.65243095,-0.106272876
0.86888486,0.38202906,0.40000013,0.1227945,0.03574789,-0.62271637,-0.38008973,-0.2009995,0.04404603,0.23702994,-0.14712086,-0.7160163
0.58522135,0.9419216,0.2311,0.17546865,0.32215303,-0.5073297,-0.3918027,-0.434137,-0.017498164,-0.051616654,-0.6378951,-0.27775398
0.4446869,0.57219964,0.22881125,0.09796213,0.2287182,-0.55755234,-0.492395,-0.8152391,0.39997754,-0.095474236,-0.0827642,-0.29922444
0.42138487,0.2516656,0.30158818,0.14810918,0.34217834,-0.29948467,-0.9828425,-1.0632389,0.40000206,-0.095671155,0.23955287,-0.33367467
0.4348249,-0.07580325,0.294237,-0.0072129783,0.24266827,-0.6030732,-1.3449994,-0.64242727,0.3999483,-0.12975638,0.5063268,-0.25206906
0.4120748,-0.29244608,0.2553183,-0.32228222,-0.25788775,-1.0983508,-1.1658559,0.18638834,0.3247009,-0.2445875,0.61455643,0.03935578
0.8617788,0.21825789,0.40000015,-0.051157422,-0.040679213,-0.50258124,-0.2315398,-0.15867841,0.044517502,0.32865697,0.036201157,-0.7167635
0.6353188,0.8786419,0.30592543,-0.036364075,0.21768105,-0.413654,-0.23813441,-0.37646082,0.012333744,0.09575934,-0.67304254,-0.5415934
0.37473506,0.73729473,-0.03041048,0.024345791,0.3921192,-0.28001824,-0.24016857,-0.64671934,0.056953833,-0.25581378,-0.35930657,-0.020261815
0.4841942,0.38565975,0.2719895,0.016921077,0.4114507,-0.3223017,-0.825439,-1.1458058,0.40000644,-0.15375604,0.07811247,-0.25704122
0.4685335,0.03985186,0.32242617,0.062172256,0.457059,-0.31329757,-1.2192092,-1.0048012,0.39998832,-0.114752814,0.41645992,-0.30186406
0.4795529,-0.21895587,0.18511629,-0.3156184,-0.04612436,-1.0215584,-1.3335633,-0.072875515,0.38038936,-0.18109061,0.6207086,-0.11428019
0.8221181,-0.19046864,0.4000002,0.007926149,-0.17107044,-0.43514246,-0.2644181,-0.08735506,-0.012005542,0.15995502,0.4690448,-0.5301138
0.8755586,0.44361618,0.40000013,0.007778438,0.11651646,-0.5085777,-0.3456389,-0.30194375,0.07833802,0.32248867,-0.26586002,-0.724061
0.6422101,0.98170495,0.19883461,0.0045492225,0.404746,-0.36270556,-0.32245177,-0.50586385,-0.070317216,-0.054740287,-0.71257347,-0.43224314
0.5314013,0.5134805,0.20120382,0.0709456,0.41530067,-0.37098533,-0.47612107,-0.97605145,0.4000101,-0.17495228,-0.08805547,-0.26322535
0.5392815,0.17282028,0.30686274,0.12674274,0.47242728,-0.07956695,-1.0075741,-1.1922798,0.39998105,-0.13029328,0.28431877,-0.3861204
0.5147926,-0.07753804,0.24976678,0.09140872,0.46761262,-0.38107222,-1.3064159,-0.7632825,0.3999797,-0.12369628,0.5575965,-0.3600301
0.48376983,-0.2370235,0.054930437,-0.29965883,-0.1339465,-1.1527399,-1.2117568,0.14360094,0.36477205,-0.2386941,0.65142405,-0.07335369
0.8930988,-0.062015507,0.40000024,0.05406078,-0.19558814,-0.53281385,-0.34708524,-0.024972985,-0.058004055,0.122614756,0.45813307,-0.7567609
0.7866096,0.6861434,0.40000004,0.05478642,0.14079456,-0.5421905,-0.3671806,-0.25613904,-0.045542482,0.14344881,-0.32670522,-0.738755
0.5666547,0.9153824,0.11742279,0.069542944,0.35915923,-0.39281452,-0.3811672,-0.462186,-0.08804442,-0.11264511,-0.60800713,-0.28630123
0.47606727,0.5371676,0.18524429,0.07230874,0.39422587,-0.3986048,-0.5628079,-0.87525934,0.39997843,-0.16137992,-0.13221914,-0.26418403
0.47455817,0.20089853,0.2945568,0.12348073,0.43943933,-0.08547364,-0.9802444,-1.0973486,0.40000394,-0.1321351,0.2172966,-0.371442
0.47034466,0.0012664293,0.2702467,0.13920243,0.42711544,-0.21911663,-1.1939386,-0.88513464,0.4000003,-0.13655874,0.43526804,-0.36281118
0.4706743,-0.16916461,0.1598561,-0.11689205,0.29725155,-0.8006655,-1.4165956,-0.44959068,0.40000144,-0.1891185,0.58961344,-0.2437172
0.41085622,-0.3050223,0.17761019,-0.29672956,-0.21494517,-1.1290089,-1.1403089,0.21301362,0.29904437,-0.2837175,0.64664483,0.006609871
0.8815634,-0.025354328,0.4000002,0.039541543,-0.14266998,-0.48743024,-0.31051084,-0.059306193,0.047771208,0.2817944,0.34584162,-0.72962457
0.7645462,0.6326024,0.40000004,0.0154128065,0.16579925,-0.532928,-0.31603888,-0.26674622,0.06369056,0.2607715,-0.47796878,-0.6792137
0.5892269,0.90565217,0.26610646,0.023006128,0.32415462,-0.4161037,-0.3200681,-0.42928898,0.03576971,0.010394278,-0.7625781,-0.42860496
0.4233335,0.6662217,0.03304328,0.06052481,0.40078858,-0.27786025,-0.33378136,-0.6821234,0.12230512,-0.2716087,-0.30955324,-0.015612884
0.5161608,0.3733342,0.26615575,0.075322784,0.4217431,-0.28937283,-0.72104764,-1.0474286,0.4000024,-0.17010574,0.005648585,-0.31977284
0.5067355,0.12347312,0.31550473,0.12214145,0.4353563,-0.12094718,-1.0308429,-1.0699979,0.40002936,-0.13928114,0.28232896,-0.40985665
0.4850202,-0.061965577,0.2610951,0.00366924,0.24598886,-0.6316335,-1.3231001,-0.71636945,0.39996028,-0.13841115,0.49340644,-0.38046658
0.50507355,-0.22165799,0.11113918,-0.2741648,0.005916164,-1.0123005,-1.3657475,-0.123342834,0.39994726,-0.20567706,0.63977206,-0.19304624
0.52129805,-0.37407643,0.39148062,-0.16638787,-0.30646303,-0.84250724,-0.8244961,0.28385514,0.15959531,-0.30582267,0.6480406,0.007723684
0.9116952,0.21102835,0.40000013,0.02494238,-0.1415855,-0.5384825,-0.24082614,-0.22118835,0.062378664,0.244094,0.093483806,-0.85105646
0.6663081,0.8366271,0.35228783,0.08217194,0.13141121,-0.5018738,-0.27473804,-0.4105639,0.0005164114,0.014221113,-0.67361814,-0.5860299
0.38603795,0.7074878,0.013392322,0.11783969,0.30661547,-0.350006,-0.31706738,-0.61232996,-0.039489817,-0.2196263,-0.33124164,-0.15554646
0.4547329,0.32296583,0.30319375,0.08623783,0.32958883,-0.43026537,-0.74846995,-1.0309422,0.4000051,-0.15021104,0.10562397,-0.28711373
0.41891667,-0.054680664,0.29039937,0.046641856,0.3099578,-0.471162,-1.24378,-0.75842816,0.3999595,-0.14034228,0.45597303,-0.2520874
0.42018798,-0.2562476,0.11758237,-0.33038962,-0.0646511,-1.1218402,-1.2519968,0.0034199217,0.39999935,-0.21667498,0.6016229,-0.010500825
0.9007632,-0.083888404,0.40000024,0.09258403,-0.26397285,-0.37927458,-0.27074453,-0.14261578,-0.012163054,0.18764858,0.38609207,-0.7754049
0.78302264,0.778502,0.39048013,0.047629166,0.045883723,-0.48225635,-0.28094622,-0.32873127,-0.02902124,0.14625035,-0.5382823,-0.6665381
0.3943199,0.8592811,0.06884857,0.08720794,0.25866613,-0.34866813,-0.32386607,-0.5252289,-0.088296026,-0.17704095,-0.41036966,-0.1334588
0.43061635,0.43339038,0.2835855,0.12016862,0.3905252,-0.19817394,-0.6229548,-1.0194618,0.39999676,-0.1154365,0.05526869,-0.3581818
0.43732414,0.13748796,0.36207712,0.18915531,0.44278687,0.025628863,-1.0166961,-1.056046,0.39550006,-0.07895917,0.3760791,-0.41730624
0.45205945,-0.09188084,0.31262052,0.09043685,0.45344374,-0.35753554,-1.3201728,-0.69797206,0.39999378,-0.11026528,0.59236395,-0.34598085
0.437596,-0.23200677,0.07313951,-0.34512326,-0.10377643,-1.1510757,-1.2980285,0.100032516,0.38086942,-0.24577977,0.6725427,-0.054353986
0.7793761,-0.0735398,0.40000015,0.054315858,-0.08818311,-0.53599375,-0.30961105,-0.14347072,-0.0070706718,0.14039654,0.36553743,-0.69366246
0.52453494,0.5309715,0.0019756127,-0.1158546,0.08309498,-0.64937526,-0.280425,-0.30958295,0.19838367,0.36063325,-0.9160432,-0.56505513
0.5519235,0.4494924,0.1854446,-0.1964134,0.24323982,-0.6126401,-0.37762058,-1.0004829,0.24799824,-0.40930608,-0.052229766,-0.005272028
0.5493939,0.20960301,0.3326082,-0.20112793,0.2581644,-0.4049952,-0.876224,-1.2727311,0.40000495,-0.32672545,0.31973392,-0.30852708
0.4623531,-0.023587432,0.312837,-0.15118061,0.29250854,-0.37878063,-1.1910485,-0.96448356,0.40000194,-0.2871469,0.48731458,-0.19817743
0.42619038,-0.23649761,0.20624274,-0.22190145,0.10336029,-0.8281462,-1.3535367,-0.29862142,0.39995453,-0.30899453,0.61556923,-0.0072622737
0.665768,-0.35056284,0.40000018,-0.034763142,-0.2878163,-0.3889648,-0.31700745,0.08100147,0.00011928744,-0.122734465,0.56991404,-0.38290417
0.8992769,0.49282435,0.40000013,0.053868446,-0.0067786262,-0.46579632,-0.087002285,-0.3573452,0.010894661,0.33166108,-0.25005612,-0.7892165
0.49334705,0.872705,0.079716876,0.099488504,0.25424722,-0.39184144,-0.13179155,-0.5405907,-0.07767718,-0.098668285,-0.6397947,-0.34777176
0.4518221,0.47183597,0.22911003,0.022547435,0.2335388,-0.57764375,-0.47865057,-0.877605,0.39998955,-0.22684611,0.011141924,-0.17068453
0.4750154,0.16785552,0.3135123,0.08500733,0.33748436,-0.34400204,-0.91323274,-1.0812192,0.37588748,-0.21320258,0.29825956,-0.23845199
0.42357057,-0.050380796,0.25684127,0.07267055,0.31599316,-0.39516464,-1.1599444,-0.8388267,0.39999297,-0.21588188,0.47696254,-0.17716
0.39350376,-0.21644697,0.045577448,-0.31846723,-0.0037543108,-1.1220181,-1.3521571,0.0010926932,0.39997318,-0.31865308,0.5824322,0.08745578
0.9150674,-0.09484144,0.40000015,0.07399408,-0.17863162,-0.35030723,-0.11213396,-0.11471109,-0.11050018,0.13506916,0.3239324,-0.68395853
0.7158787,0.8904045,0.35155302,0.064432584,0.17555301,-0.41073263,-0.20218733,-0.3942007,-0.019848567,0.096859984,-0.597843,-0.5845079
0.35107788,0.8063206,-0.0061448766,0.11937901,0.3412318,-0.24542408,-0.19146301,-0.67787147,0.0671082,-0.17990094,-0.3538928,0.01102932
0.46852806,0.39690962,0.27609083,0.014280625,0.26562905,-0.526511,-0.78646916,-0.9678062,0.40000692,-0.048202794,0.11446997,-0.28227085
0.49162555,0.050133757,0.33363867,-0.019518962,0.2229208,-0.5388089,-1.2243248,-0.90053076,0.39584553,-0.06918154,0.41005972,-0.27658114
0.5040711,-0.16383877,0.26621884,-0.086609304,0.10691866,-0.6786508,-1.3165269,-0.5126519,0.3901883,-0.08932552,0.5866834,-0.15896285
0.4355543,-0.2635223,0.07418413,-0.3714673,-0.2174637,-1.1282383,-1.1535757,0.17981882,0.40000027,-0.19319816,0.6466138,0.1298508
0.9139527,-0.11705574,0.4000002,0.05200509,-0.29003453,-0.437062,-0.27195787,-0.1337322,0.03434958,0.3611294,0.2789642,-0.6591139
0.7757343,0.65018255,0.40000004,0.03392467,0.022504933,-0.5063703,-0.27991349,-0.33336154,0.043791365,0.26966462,-0.490318,-0.6254921
0.51532084,0.86157894,0.15201181,0.0014039698,0.28298235,-0.44776094,-0.2679069,-0.5118193,-0.03320843,-0.117144,-0.6446318,-0.43341172
0.4246186,0.60031,0.11967849,-0.005527903,0.385192,-0.40764466,-0.32368186,-0.8597774,0.2929937,-0.27420336,-0.07862525,-0.07854299
0.48122153,0.32747006,0.2935457,0.03488134,0.4184612,-0.32205808,-0.85461,-1.1289786,0.39999613,-0.18604982,0.23187312,-0.31927556
0.4482377,0.0267083,0.3058518,0.04979663,0.3818411,-0.3036721,-1.2122118,-0.9016649,0.4000017,-0.18087299,0.48110828,-0.27413502
0.44664302,-0.19190773,0.18096465,-0.25376058,0.028229287,-0.9926258,-1.3503342,-0.18149193,0.39997596,-0.26055965,0.6114787,-0.065030165
0.823765,-0.29245505,0.40000018,0.08233557,-0.24789006,-0.40137884,-0.14790969,-0.04330509,-0.06703849,0.039200168,0.5958328,-0.57458705
0.8087395,0.6154072,0.40000004,0.078896694,0.13992487,-0.5342827,-0.25575587,-0.3272307,0.07659702,0.15775238,-0.387543,-0.6858238
