ancorasir/BennettWheelLegRL/experiment_data/2023-12-27_22-47-53/joint_vel_env32.csv
Joint_1,Joint_2,Joint_3,Joint_4,Joint_5,Joint_6,Joint_7,Joint_8,Joint_9,Joint_10,Joint_11,Joint_12
0.0,0.0,0.0,0.0,0.0,0.0,0.0,0.0,0.0,0.0,0.0,0.0
0.65327996,1.4587545,7.9356427,-6.7305384,4.74775,-7.7591243,2.978385,0.95836437,2.081375,-13.351055,-18.875786,14.975963
9.0858555,1.9821767,0.7809411,2.0106232,0.03475803,1.0210989,-0.3088779,0.51881623,-0.56969494,4.3087187,7.6048727,-4.3435373
-2.023977,3.7547777,-7.9184145e-05,1.2856001,2.369405,1.6039654,-0.5930514,-1.5356605,-2.2592425,2.2533827,-7.547789,0.9265975
-5.533773,1.0439947,-1.7893003,2.4909072,0.42562962,3.8800611,-1.9830728,-2.8643131,-0.2494261,0.5853285,4.426177,9.458441
1.4189494,-4.5055847,1.940032,3.3927329,0.39173365,5.4976325,-3.6852417,-7.219015,-0.010771453,-1.2874615,6.346046,-1.2497169
0.40843394,-3.8244324,-0.3015871,-6.431267,2.5891051,-27.987837,-2.6565366,3.507373,0.22014123,0.77712446,6.1840367,-0.21110606
-0.3859321,-1.8686241,-2.6974623,-3.2829952,-9.050077,6.1628,-7.252523,4.952713,-0.06219884,-0.95252573,1.5582019,2.7110844
0.0006739646,-1.1451555,-4.8653255,-5.8300548,-7.615065,-8.941233,4.609061,9.995808,-0.003889352,-3.2937436,-1.0956129,6.9842553
9.488498,8.627082,-0.00042001915,-5.460955,10.488906,-12.507549,0.20468363,-4.340174,2.6068163,15.584977,-9.474192,-22.089514
-4.363148,9.411069,-0.00021019351,-0.065884486,3.9301414,1.1592065,0.6105496,-2.6793,-1.2412498,-2.3456004,-9.654579,1.8937141
-2.8200376,-1.4826826,-6.4447975,0.6077687,2.288794,3.0716221,-0.6002784,-3.0094023,-0.67802763,-4.3665886,1.8846229,6.688044
2.478059,-6.0887704,5.1042295,-1.9423081,-1.9301381,-0.7305438,-6.196845,-4.5083404,0.0024709648,1.0504771,6.04644,-5.1351385
-1.0090697,-4.106171,-0.12598576,-0.105556846,0.13439424,3.9148061,-3.4638767,3.8124006,1.5679548,0.2251139,4.072818,0.1322731
-0.11864178,-2.1671019,-2.3680975,-4.6014004,-4.880876,-5.3503594,-3.2529993,6.806329,0.0002169396,-0.93821347,2.1861944,2.412775
-0.39636514,-1.5852892,-3.611115,-1.4798479,-6.5324507,-5.7276964,4.783464,9.435364,0.004411878,-1.7613403,0.5451031,4.634726
9.045157,9.492904,-0.00039562245,-3.3583508,9.312459,-10.336432,-0.9259257,-3.7373812,2.1804957,10.708613,-15.105582,-9.135123
-4.6353583,8.963742,-2.5683588e-05,0.22529191,3.6000035,1.3000156,0.2369464,-2.1940584,-1.6246425,-4.704248,-8.414913,4.5648613
-8.438303,-2.8260021,-12.303151,0.2903776,2.8753808,4.693075,-0.27132404,-10.335935,23.44785,5.602955,6.2367306,-11.322183
-0.6589197,-4.284775,1.3081024,0.083516754,1.1710131,3.6526241,-8.431138,-3.750086,-0.011672577,0.83709806,4.9175663,-1.4908992
-0.08278427,-3.9121573,-0.05899281,2.3383927,-0.8449667,5.5563745,-4.962763,4.188555,-0.028819233,-0.07653848,3.6837568,0.36881638
-0.010737535,-2.5674732,-2.1920981,-4.7109575,-4.504127,-4.5489607,-0.95227057,7.697445,0.007355544,-1.1872382,1.5907917,3.2127068
-1.0460894,-0.7854096,-4.6347466,-0.27531993,-4.7118273,-0.009645801,6.666415,9.692057,0.48095414,-2.1747804,-0.08373383,5.763714
4.1145477,12.330009,-0.00041273667,0.13818884,6.115315,-3.0303566,-1.4767871,-3.8428378,1.9184022,6.7507906,-15.934575,-6.2748456
-5.0805693,10.404398,-5.901455e-05,0.03313323,4.091567,0.6070648,0.3436111,-2.446141,-1.0106268,-4.0774784,-11.004028,3.0230372
-3.6352699,-2.5260577,-1.6510235,0.77352923,2.6292078,2.645683,-0.57830644,-3.2042089,-0.50210786,-4.104698,9.24517,7.066051
0.63850904,-5.431347,3.4565291,-2.6298199,9.222766,-4.656172,-8.38896,-4.220392,-0.048308913,1.3624371,5.622005,-2.6384594
-0.34687835,-3.533978,-0.14405933,1.2366439,1.940081,5.895848,-5.507427,0.42279145,-0.0009458009,0.026544984,3.892781,-0.16563387
0.028420445,-3.6292908,-0.6278697,-1.8258772,-2.4303665,-1.598056,-4.6179576,6.1106095,0.0003604351,-0.07808696,3.4214516,1.0358152
0.29941043,-2.6354606,-2.4597895,-3.813484,-2.6357255,-3.0361543,0.11160333,9.287179,0.0021421192,-1.21509,1.8875763,3.3716593
-3.7821093,4.6326537,-3.8353837,3.3865037,-6.0190973,-2.7151384,13.611834,8.596512,-2.1603277,-2.1862686,0.026774012,5.3074875
2.1431801,12.464079,-0.00031158136,-0.026273333,5.2717752,-2.633289,-0.9953413,-3.5013967,1.603754,10.464775,-15.350939,-5.628408
-3.1061392,7.3886585,-0.00010249973,-0.11968328,4.577556,0.06635811,0.34751496,-2.510704,-1.0278754,-2.775934,-8.970176,1.810821
-2.6218336,0.2897384,-2.2665675,0.4621885,2.5161352,2.2582736,-0.44781017,-2.434423,-0.964507,-4.3458652,1.0936065,4.887379
0.030107975,-4.6437087,4.9937787,-2.639042,3.0382333,1.0211424,3.9195151,-4.730071,-3.0345914,-2.2396443,13.026977,1.7640535
0.5387351,-4.1588364,1.7001173,0.7093765,1.1334047,3.4914596,-7.0553136,-5.3417764,-0.014630778,0.41832045,4.705943,-1.8751006
-0.61981165,-3.9405415,0.036443286,0.845134,0.06253512,4.6638265,-5.5343604,3.080161,-0.00944959,0.28975973,3.760414,0.37027025
-0.27445188,-2.5791938,-1.6493725,-2.4248185,-3.327,2.2035525,-5.0452957,6.446524,0.0025674393,-0.4337228,2.834651,1.1695712
-0.18115301,-2.1123123,-3.2224011,-5.6028476,-10.745372,-7.496717,2.6886797,13.022228,0.0034984704,-1.9172449,0.7798626,4.444818
11.70815,-2.1917057,-0.00042242685,17.32596,-1.1055659,34.385124,26.603384,-12.508725,-16.605536,14.27925,6.481433,-35.89575
-2.3018136,10.99624,-0.00018218366,0.29990703,3.96884,0.91164047,0.039657816,-2.6078784,-0.49097103,-0.7176015,-14.603061,3.887876
-2.402283,-2.9538074,-2.006962,0.63081175,1.8511602,3.4667094,-0.8592914,-2.9253955,-0.93897784,-4.423002,4.504648,4.763392
1.92577,-5.7081037,5.072647,-1.4566753,-1.6444408,-4.0885353,-5.683381,-2.6076136,0.00372684,2.4607444,6.1153555,-6.607659
-0.33963442,-4.1062512,0.12387593,0.54711425,0.53987265,4.09793,-3.255448,1.1373096,-0.028589332,-0.0837071,4.157827,-0.28854507
-0.29174924,-2.9015465,-1.086356,-1.4605969,-3.0351403,-11.430044,-3.5985522,6.2723646,0.09739345,-0.13416912,3.2997398,0.6082469
-1.0532771,-0.9396241,-3.8964834,-3.7683165,-6.202488,-5.8773704,0.4674871,7.7110176,0.00026742136,-1.215657,0.972904,4.0080194
1.0705401,0.615851,-0.00024782232,9.053479,-4.2648964,8.83381,18.891346,-0.7824089,-3.8158965,-1.7821175,0.41004923,4.780941
-1.2804915,11.808901,-0.00030496158,0.5369533,3.8652103,0.80744404,0.3210556,-2.1643517,-1.2988933,-1.7253902,-9.071424,-1.652985
-3.9002912,2.6684816,-5.8179474,0.49305424,2.511374,2.606171,-0.25796384,-2.4290009,-1.568234,-4.000006,-4.4776397,5.7295127
2.9591959,-5.76074,5.803083,1.340749,8.193271,6.287677,-6.6267524,-3.0081594,-0.08702492,2.627412,6.1911187,-7.5378275
0.6072867,-4.2615066,0.83066976,1.1274767,0.98532736,3.9191787,-4.2307158,-4.057014,-0.016124543,-0.5167414,4.2791986,-0.30633956
0.15247191,-3.6130688,-0.5895429,1.4998584,-1.302266,3.2532637,-1.078045,3.611987,0.2560506,-0.5753274,3.0902166,1.0348797
-0.04318518,-2.1750717,-2.767921,-5.5062385,-6.194853,-8.592167,-2.2094538,9.769627,0.005455534,-1.2994006,1.6254421,3.196239
-2.997082,-5.154772,15.776321,2.8613286,-10.150868,2.5870635e-05,12.492409,8.534004,-7.1585584,-2.050724,-0.1901148,5.32661
3.3661458,13.757119,-0.00030271983,1.2340631,5.0907187,-0.61909354,-1.1577829,-3.4279828,0.56469166,0.8012374,-12.852355,-4.7158427
-5.0895805,6.444916,-1.3050892e-05,0.1809288,3.8794107,1.574233,0.20472006,-2.620408,-2.1166048,-3.9897325,-9.19461,4.331105
0.29632825,-5.302821,3.3579895,-1.5401716,4.532672,3.312475,-6.9473867,-3.8772078,-0.021877684,2.0922952,5.8917575,-4.0790324
-0.23832572,-3.6121585,-0.32704538,-0.13311243,-0.73860127,2.144192,-4.7933583,3.2242706,1.0375913,-0.1895328,3.5172966,0.34563154
0.06423989,-2.4285142,-2.2709398,-4.0418086,-5.643134,-4.5770097,-0.44156328,8.781883,0.0034912382,-0.83776826,2.062699,2.755908
-0.6616792,-7.7013855,25.324108,1.2146294,-7.339567,-0.3929042,10.8045845,10.623281,-13.08243,-2.1148999,0.15017712,4.637263
3.3296661,11.406775,-0.00041363155,1.4210219,5.099283,-1.2208116,-1.8703134,-3.3608418,1.4650378,3.902386,-11.519443,-6.857417
-4.0764933,6.763431,-1.36863455e-05,0.54160464,3.1002848,1.8884934,0.04775247,-2.2527723,-1.1677198,-4.7082577,-6.972314,2.722984
-4.4716372,-2.8902912,-8.870529,1.160677,2.0742764,2.853841,-0.69051504,-8.184545,13.253699,-5.118596,8.561903,19.447908
1.2008656,-5.0292645,3.3839037,-0.5279718,3.3170066,1.3041207,-7.456794,-6.0220423,-0.012492733,1.0252153,4.974132,-2.579817
-0.29981598,-4.0800123,0.5731495,0.36052194,1.5770618,3.032588,-4.1333675,0.70383346,-0.00519644,0.25698227,3.749936,0.03905225
-0.16696204,-2.8184023,-1.6718594,-2.6283946,-2.588337,-11.335907,-3.0071297,8.792736,-0.00021859189,-0.81887835,2.2172592,2.1166296
-0.99525595,-1.5474803,-3.643169,-2.7882035,-5.0762706,-5.3930287,2.7708623,9.97704,-0.0021908516,-1.3947347,0.6233903,4.5141377
8.573287,9.19446,-0.0004209259,-5.497882,10.630978,-12.405979,-0.044593334,-4.697383,2.7117872,13.412668,-12.198433,-6.152759
-4.852074,10.235236,-7.503301e-05,0.48459795,2.954599,1.9190695,-0.08949015,-2.5145438,-1.0207503,-4.638542,-9.949941,3.8383148
-2.4325814,-1.9058613,-3.7180297,0.28258243,2.6126208,2.67737,-0.20348768,-2.6216805,-1.2933737,-3.4522717,1.6298949,2.749751
2.2038803,-5.9811335,4.917035,1.0100577,-3.9393215,-1.8855817,-6.748018,-3.5055828,0.0033216476,2.2535634,7.039287,-7.8361425
0.22950934,-3.9673305,0.1918938,1.1939812,0.82202864,3.844872,-3.768264,-2.4793627,-0.012838118,-0.7631508,3.6804295,0.40347844
-0.2455957,-3.0289497,-1.7463111,-5.6743727,-6.7554774,-3.7268796,-4.5554204,7.650164,-0.00056058704,-0.5369634,2.8651948,1.6469113
-0.9215349,-0.8614617,-4.5649476,-2.7557726,-8.053962,-4.929853,4.0829883,11.378804,-0.0057392363,-2.023654,0.40174335,4.971417
4.913686,11.615869,-0.00041399908,-0.08304621,5.7146516,-2.687316,-5.953571,-7.96614,10.946567,10.526476,-11.430778,-8.7133255
-4.4592905,7.5663314,0.32109454,-0.02602191,4.024817,1.382783,0.51391524,-2.1216538,-2.374964,-5.4031034,-8.50682,2.5922778
-11.002401,-8.982604,-8.068504,-1.1209078,-1.3125727,0.64902675,-1.621366,-11.497847,19.773645,7.5959687,7.643858,-16.606178
0.06500382,-4.7272606,1.3211523,0.73931384,0.7247005,4.205768,-4.910792,-0.9975214,0.00038233958,0.40685472,4.799784,-1.0519423
0.521804,-3.5939806,-0.86297154,-2.6904159,-2.9077237,-10.995766,-4.594216,5.1892247,5.8223493e-05,-1.0337096,2.9317617,1.7377669
-0.39398822,-1.6320679,-3.618193,-4.350498,-6.629474,-7.4822063,1.1383414,10.618308,0.0068854704,-1.5963221,0.87847114,4.419479
5.313414,0.78258556,-0.0002781009,12.64661,-4.791679,20.719027,23.398945,-1.6756775,-18.083773,5.6330233,2.6619601,-18.700975
-0.41884205,13.616056,-0.00032502634,0.040087733,5.053154,-0.84424525,0.14997971,-2.3702765,-1.0121719,0.21046956,-11.156393,-3.2849827
-4.187815,2.9322531,-7.7860603,0.89923525,2.864853,2.3134642,-0.64618224,-2.396195,-1.4241378,-4.9680653,-1.5914015,3.283237
3.4034605,-5.382115,6.354607,-3.3688889,-5.3384843,-9.194529,-2.3856182,-6.277342,25.156395,5.591134,7.4571924,-14.658257
0.3992242,-3.4833002,0.07630274,1.9110862,0.051032558,4.3623796,-3.7157967,-3.4589765,-0.0646072,-1.1639307,2.8991885,0.71697
-0.097126916,-4.123308,-0.4479939,-1.7501594,-2.8056147,-7.090568,-4.517976,8.751112,0.00021254458,-0.0074183745,3.4927824,1.1607399
-0.15212017,-1.7485814,-3.120376,-2.8537014,-7.8057737,-8.313891,3.0949059,10.612833,0.0012241474,-1.4758787,1.0257995,4.077981
13.594248,4.34893,-0.00041525054,-2.7361248,9.161011,-10.055601,18.611883,-16.25239,4.9191265,9.78795,-12.979287,-1.574556
-2.8725412,9.59264,-0.00010897005,0.74170905,3.3068068,1.9484115,-0.39895108,-2.4393535,-1.3422139,-3.8402483,-4.9836793,0.23296265
-5.4864583,-7.2130294,0.2614619,-0.1273047,3.4761198,1.7837636,-0.95874834,-3.2144792,-0.42304802,-3.9475818,10.4302635,5.9641805
0.3340681,-4.2418556,1.865813,0.7941724,1.0741184,3.673392,-7.620542,-6.1892123,-0.010030303,0.7962096,5.108861,-2.4833612
-0.09574516,-4.094011,0.051116437,-0.6356468,-0.30975688,-6.9913096,-3.182912,4.6301284,0.13782787,-0.20998392,3.8815057,0.33381712
-0.17335315,-2.018488,-2.2418926,-4.2917624,-7.3858166,-5.1106772,-2.7473528,7.3169656,0.0052128737,-1.0533096,1.9371845,2.1970756
0.32685855,-7.592802,28.58549,2.1875982,-5.308371,3.9448009,9.791116,9.845267,-13.092815,-2.6475616,-0.31076157,5.687647
-2.09732,9.653422,-0.00029807322,0.15770818,4.637937,-0.1869631,0.25048906,-2.465056,-0.5946473,0.7819159,-8.195447,-0.8920498
-3.9885867,4.160262,-5.467877,0.48131678,2.8417065,2.5268486,-0.36072552,-2.6935673,-1.6138178,-4.1780825,-4.5824366,5.82784
3.4929364,-6.483985,6.708265,-1.3848724,-2.078769,-5.153958,-4.0084352,-6.9884768,10.804102,1.348637,5.9257803,-6.401245
0.17854434,-4.54368,1.0827388,0.95160306,0.40470663,4.2678847,-5.914277,-1.4183936,-0.005380392,-0.310348,4.307092,-0.30688787
-0.13383049,-3.221893,-0.9737674,-3.0070386,0.84642226,-18.489,-4.510608,5.964539,-0.0013047474,-0.466029,2.7366889,1.5234667
-1.2363967,-0.75606465,-4.2895885,-1.9825511,-8.150149,-6.866399,2.4662592,8.655804,0.0044190325,-1.3279927,0.80632865,3.9526918
7.729222,1.620156,-0.0002392435,11.068963,-5.655423,11.695178,20.444847,-4.67909,-4.476973,3.363281,-6.259982,6.4293647
-3.9642687,12.659782,-0.00021753268,0.62139,3.7274587,0.77433646,0.1487009,-2.2543938,-1.1293447,-2.6817265,-9.888157,1.5130022
-3.8341308,2.95728,-5.3476458,1.0124675,3.20208,1.9373649,-0.7843541,-2.6638124,-0.8728666,-4.6990924,-3.2554572,4.9849634
3.3672476,-6.0644927,6.774643,-1.0863479,-3.0511487,-2.7743955,-1.1210856,-3.0704637,-2.1749294,2.8181586,6.3759084,-8.6247835
-0.47356024,-4.4014754,1.1622008,-0.012775641,1.1711683,3.4157786,-6.4769053,-3.3046348,-0.011510027,0.40014836,4.396832,-1.0857456
-0.22839889,-3.5381382,-0.5611502,1.0741339,0.2803535,4.160941,-2.4330108,2.856888,0.3965183,-0.44112733,2.9356868,1.5419395
0.29551402,-2.9139333,-1.7050542,-7.0275135,-4.9985414,-6.895595,-3.772792,8.795739,0.009390403,-0.887807,2.1280196,2.7828743
3.5444722,1.8132567,0.24119069,11.336084,-3.6534996,9.359104,17.427864,1.0119603,-5.38266,1.1229764,-3.089011,6.6358356
-3.8840952,11.03401,-0.00012084594,0.47949147,3.4433193,1.6910721,-0.0037710816,-2.4889252,-1.4965066,-3.826456,-8.211715,0.63254046
-3.117129,-2.3708346,-7.5785766,0.87607086,2.0717213,3.175179,-0.7124969,-2.7264154,-0.75455743,-3.5047412,7.0233965,11.9491205
1.5402943,-4.9769077,3.4393668,0.6511258,1.5878537,3.2486148,-7.28005,-7.938979,-0.008953569,0.5385195,5.185069,-2.8953273
0.5133891,-4.0783916,0.39297315,2.0325994,-1.8148017,0.40353012,-3.7910733,2.9901972,-0.009332189,-0.6881722,3.717736,0.56526464
-0.27242324,-2.8408246,-1.3556731,-3.6028662,1.4653448,-22.08993,-4.336349,5.2532535,0.0005045645,-0.28433177,2.7283373,1.4445794
-0.20601033,-1.8097014,-3.0564423,-4.5139537,-7.6328583,-8.3808365,-0.44442657,11.754431,-0.00017164694,-1.3629067,1.2658372,3.5868096
-1.8846996,-3.5435627,17.37645,3.4002159,-5.0483394,0.6230706,12.38917,7.3012686,-4.903492,-2.4117773,-0.5290007,5.9377847
4.787139,13.079739,-0.00038784626,-3.3065948,9.95872,-9.64057,-1.7475809,-5.8627167,5.12926,7.482597,-13.247522,-11.761395
-4.215408,5.6982903,-0.17035952,0.46579856,3.1203084,2.0394242,-0.22794636,-2.4664378,-1.2100492,-3.1715293,-6.1183224,2.8688164
11.186519,-7.962627,14.488176,-1.4387177,-2.6350574,-6.2716727,-6.422075,-8.387943,15.45929,-0.057697594,6.233292,-7.568591
-0.12128772,-4.24492,0.9415888,0.09873489,2.262556,2.3203905,-5.6545906,-3.004505,-0.010608129,0.08559265,4.2613273,-0.91147804
-0.41834217,-3.7021632,-0.61812574,-1.9965073,-2.9951088,-2.3774467,-5.737657,5.7751703,0.003913735,0.11595925,3.5073345,0.8721711
-0.10588448,-1.5891846,-3.3666618,-3.37555,-3.331763,-4.274334,0.8388419,8.942407,0.0024978544,-1.2156947,1.732047,3.3826845
14.558121,-1.2399634,-0.00034364773,19.133642,-0.6647871,21.41952,22.06232,-10.874287,-4.3821154,5.6291037,-6.777344,15.991443
-5.7773046,12.417986,-0.00015944242,0.6012969,3.6593735,1.0775783,0.24921732,-2.182192,-1.2354726,-3.7311811,-9.4584,2.2149565
-4.7013226,-0.5410248,-10.353633,0.6964844,2.526938,2.695849,-0.4194504,-2.48071,-1.3011415,-4.370458,3.704705,8.41648
3.2556682,-5.7591286,5.7039466,-1.1233193,0.030522104,-3.4564114,-7.648909,-9.842082,11.470124,1.3676835,5.9096456,-5.724315
0.38805574,-3.817509,0.6327166,-0.4053667,-0.7943998,-4.340407,-7.029832,2.549657,-0.9085055,0.06467359,4.2806444,-0.84314585
0.5149798,-3.5073612,-0.9686028,-4.9091525,-4.294899,-4.4248514,-2.8442097,9.285213,-0.0004965911,-0.68012065,2.8398373,1.8514819
-0.83903724,-1.2492574,-3.7002313,-3.6542938,-5.9436197,-6.659028,3.3449116,9.032353,0.00579673,-1.1455599,1.1610883,3.7349632
13.308725,-2.3118129,-0.000413917,-3.688951,8.657816,-8.444452,25.849855,-14.473496,-5.8523903,13.557777,-5.2704396,2.5992153
-1.2375219,10.165386,-0.00025438512,0.15625578,4.580461,-0.27539155,-0.22672908,-2.8890018,-0.026812598,0.15162602,-11.127957,-2.183134
-4.0272503,2.8832726,-11.594298,0.2840346,3.1543453,1.7494714,-0.5540456,-2.6508172,-0.7676942,-5.586242,-1.8265104,1.5464609
-2.3619535,-3.0923307,2.722422,-2.743765,1.4529761,0.35565573,3.208082,-4.845678,-2.8086886,5.109877,12.298897,-17.55188
0.6868503,-4.0618215,0.843877,1.1781226,0.87569207,3.4610481,-3.8545651,-1.4530178,-0.012924768,-0.86581963,2.9169223,0.7650505
-0.63854223,-2.744738,-1.5541162,-0.31455335,1.4501033,2.1927066,-2.2480206,5.994999,-0.5307579,0.14605987,2.8029091,1.0297756
-0.25470155,-1.8241903,-3.0142055,-5.6638756,-5.772731,-6.9431753,0.96942425,11.344857,0.0032621308,-1.8884782,0.5907193,4.129473
13.747186,1.9694197,-0.00039069605,18.03724,2.777739,27.769499,23.350836,-18.045862,-5.8763027,13.669358,-6.756066,-9.688493
-6.178446,11.159736,-1.7085258e-05,0.13771063,3.8503997,0.71675086,0.3262875,-2.3471344,-1.3624582,-5.7618833,-8.757066,4.2772737
-4.404041,-2.6951942,-6.47964,0.66203964,2.59374,2.252339,-1.3705306,-3.215631,0.049085625,-5.2680073,5.787927,3.7841964
3.0527124,-5.8531446,5.413683,-0.01743117,2.97369,1.5558647,-7.7591476,-7.6041074,-0.013032177,0.7403191,5.314258,-4.7299957
-0.12654783,-4.2728996,0.91087216,0.9627714,0.34163007,4.3151083,-4.1925635,-1.4866219,0.00056031905,0.003079377,4.0051813,-0.110532165
-0.4499107,-3.3961227,-0.4760696,1.9849266,0.22316587,3.9396706,-4.5275655,6.0161633,-0.04921279,0.0919043,3.3339293,0.07044256
0.6207625,-2.6483243,-2.234489,-3.6919036,-5.1663833,-4.8026953,-0.07025353,8.553922,0.002748412,-1.8385739,1.4508779,3.5444212
2.4927225,1.3904066,-0.00162381,8.98632,-4.959567,14.321321,18.39848,-1.2770104,-9.976237,0.37062746,0.22306329,0.6531558
-1.0226094,11.370516,-0.0003857005,-0.377957,5.280245,-1.8164244,0.6182077,-2.0165884,-1.2244757,3.3928206,-11.401486,-3.9078014
-3.6845193,3.8811297,-1.1306404,0.8886715,2.4753597,2.4142058,-0.5974951,-1.603377,-1.9817276,-3.7136922,-1.4494768,4.0497217
1.68438,-6.2792263,5.147445,-1.2076565,3.825111,0.8793519,-4.686915,-5.218815,-0.014187124,1.0096222,5.4869003,-4.0167828
-0.9333656,-4.2027802,0.041171074,-1.2563738,1.1583663,-8.843037,-5.3907614,5.2137775,0.0017149973,0.5211266,4.0840282,0.42135668
0.17055346,-3.5593495,-1.4284893,-3.1904213,-4.9198203,-3.5019302,-2.202629,4.5205607,-0.407403,-0.7996734,2.8920202,2.1640408
-0.6599839,-1.1423414,-4.6118574,-1.715236,-6.851611,-3.1687522,8.530321,9.698227,-0.9310421,-2.2952547,0.02998145,5.4161935
1.7796685,11.069611,-0.00038072478,0.46678472,5.4011445,-1.7057736,-0.26607057,-2.5591624,-0.605734,3.4739294,-9.803079,-6.4305487
-3.8613477,1.4864739,-1.7550235,0.87831295,3.1332934,1.8972822,-0.71781516,-2.4265738,-1.1264704,-3.1842473,-2.7836301,4.4944515
2.5733895,-5.9485607,5.6205864,-1.2988924,-3.28309,-2.066881,-4.9541445,-5.007281,9.790276,1.549069,5.471771,-4.8482547
-0.26213908,-3.2155955,-0.16699865,0.990982,0.9648316,3.3990836,-5.7971883,-1.7264706,0.41019297,-0.24027145,3.3698885,0.11960639
0.052640434,-3.2120893,-1.1272722,-3.4245198,-2.1309097,-11.088712,-4.1569357,6.7820897,0.0014933005,-0.55538666,2.6342587,1.6392249
-0.41565302,-1.4322878,-3.6532872,-3.2742615,-6.7493253,-6.564966,5.065638,12.002118,-0.31824276,-2.0737486,0.3588149,5.0510335
8.715722,11.888037,-0.00039906194,-0.98815715,5.9492736,-2.5110054,-4.555926,-7.7977557,9.484758,10.3689375,-11.504628,-18.25683
-4.253162,9.298915,-0.00010909284,0.467996,3.4302096,1.5009534,0.082177326,-2.208164,-2.1402855,-3.6640315,-9.9126835,1.1841897
-7.512485,-3.839957,-8.855195,0.41268858,2.8174176,2.3363268,0.7262854,-5.2483816,8.217121,-3.671343,8.9493065,15.261361
0.8395042,-4.8283253,2.6570463,0.19067034,2.104137,2.645425,-8.690224,-7.201105,-0.01345482,0.08148822,4.5338798,-1.4226615
-0.8020786,-3.3469336,-0.5159429,-0.29724467,-0.46851143,-6.703296,-4.4739647,5.081163,-0.3623082,0.45888036,3.5926518,0.12583572
0.29165396,-3.0645518,-1.4959319,-5.7730346,-4.0051403,-8.033974,-2.8547819,9.731973,-0.0003201638,-0.9058846,2.0145497,2.7895951
-2.060035,4.408048,1.0720688,7.134754,-3.7931428,2.2249525,16.158998,3.3781579,-3.0670288,-2.371764,0.038217828,5.6250124
0.29740235,11.936722,-0.00030502526,-0.18845417,5.1950774,-0.7556233,0.38698798,-3.2026772,-0.020379469,-0.5442379,-10.930642,-2.5067794
-3.5940123,1.6955041,-5.9620824,-0.43234253,3.8089695,1.3065075,0.21578562,-2.6261783,-1.4083169,-5.0841355,-4.699472,2.92098
1.8592467,-3.3621733,3.5083365,-1.14991,3.2061827,2.0118763,2.5160644,-3.2485695,-2.7029812,-6.679859,13.378652,7.488242
0.43213487,-4.800565,2.5730906,-0.48421937,1.7645731,2.4804838,-6.3604946,-4.5384083,-0.02683702,0.43051693,4.1663585,-1.3097221
-0.39850816,-3.8967302,0.076742105,0.37788478,0.19638911,4.093133,-5.287047,3.9332414,-0.013599865,-0.03382784,3.0984442,0.76356167
0.00041335262,-2.5614986,-2.2020326,-6.1405582,-4.5114436,-12.148302,-1.5403233,10.122056,0.0031095818,-1.0607812,1.7800431,3.020781
7.455086,0.8854886,-0.00039472053,-6.6645923,8.555214,-8.931466,29.526508,-14.256942,-7.018192,19.636108,2.446316,-36.280178
-4.2870665,11.4001045,-0.000100855585,0.17980886,3.7129135,0.9892743,0.60848165,-2.1593947,-1.5953058,-6.0721607,-11.360798,1.7724969
-2.9160922,0.082615554,-7.6552787,0.7336697,2.4466555,2.4185116,-0.44221646,-2.411618,-1.3273841,-3.985918,2.6846821,5.8610244
0.95910114,-5.0791225,4.171969,-2.455465,-4.5710087,-2.9524815,-10.379305,-3.201063,0.0005973957,2.594272,5.789973,-6.270923
-0.77342767,-3.5329206,-0.25821823,1.543533,0.26249143,2.4580474,-4.030785,1.3745252,0.00715029,0.15708938,3.0933814,0.81736743
0.022674687,-3.35386,-1.3523432,-2.8209028,-2.8503735,-6.659382,-3.8404672,7.102568,0.004770186,-0.33442938,2.9696486,1.7134993
0.3099198,-2.3313098,-3.043981,-0.20043972,-7.5497556,-3.4738352,9.992806,12.659944,-0.6995,-2.9952378,-0.18225773,5.8160295
1.1032571,14.974198,-0.00026292395,0.5908276,4.5324793,-0.38904518,-0.24021819,-2.6471717,-0.16371688,2.078735,-14.659381,-4.109053
-3.400335,5.3008437,-0.48461816,0.9506256,2.5707216,2.4216578,-0.79744935,-2.6150641,-0.9990488,-4.052995,-4.7370667,2.9755685
1.7644918,-4.5618534,5.414995,-0.75574887,-3.7914588,-6.465038,-1.8560971,-7.757782,19.019865,8.330477,8.636723,-17.506287
0.9304478,-4.7476482,1.880439,0.40823865,2.2956557,2.3249345,-8.088146,-2.8989108,-0.0060756034,-0.6736415,3.4944384,0.3581094
-0.2615319,-3.4899251,-0.62456393,-0.41224673,-3.1541588,-1.5088303,-3.233661,3.7295642,0.0039673555,-0.25043306,2.7214649,1.2771947
-0.18914367,-1.7498543,-3.1567795,-4.146958,-6.6661067,-4.334914,1.45878,10.169572,-0.006280534,-1.4125149,1.2535651,3.6784117
-1.7061075,2.985967,-1.9465674,6.4038043,-7.09088,2.129904,17.162754,4.2035003,-3.8625653,-1.882086,0.14143515,4.7970324
2.7874305,12.023135,-0.0003756511,-0.0597806,5.826645,-2.901231,-0.73181045,-3.2749422,0.70218104,3.83409,-12.606932,-7.3866024
-6.2930393,9.190301,-2.007249e-05,-0.022892833,3.9362652,0.42146036,0.59188783,-1.8757625,-1.9193361,-4.0568967,-11.113002,5.0263505
-2.7008286,-1.36418,-2.5820477,0.3507004,3.171621,1.730619,-0.7676043,-2.46431,-0.95953774,-3.4273715,4.6357055,5.8785663
3.745685,-6.8492885,6.969407,-1.7383338,-2.865113,-2.892382,-3.310674,-3.3595712,0.10500629,0.62299836,5.6701384,-4.8487425
0.81394583,-4.822124,1.8263384,0.8564229,1.8494996,3.2062135,-7.9491954,-5.2160797,-0.010001648,-0.45054215,4.1624756,-0.17156589
0.06925302,-4.331966,0.055496603,-2.5265326,-4.0735164,-3.950613,-4.842998,6.4167423,-0.5695161,-0.14649689,3.6186957,0.71602774
0.7083383,-3.339113,-1.2143577,-4.935308,-3.7375953,-3.5323632,-1.358904,7.7791047,0.21692516,-0.8195845,2.4342065,2.5010664
-0.7409888,-0.9710681,-3.840938,-2.4462788,-5.435488,-5.502909,4.6298676,9.93881,-0.16322546,-1.5484631,0.5699794,4.5968356
12.271773,1.9304067,-0.00040529034,17.336115,-0.1414512,37.532795,22.52688,-14.813834,-5.2625,9.019029,-3.9815547,-8.626239
-4.3119345,12.014813,-0.0001469033,0.72018796,4.1325216,-0.4335146,-0.15954602,-1.7483139,-1.4776034,-2.4341178,-12.675557,2.876039
-3.759474,2.248443,-1.684491,0.16711739,3.7606008,0.93713516,-0.062017158,-2.138188,-1.8002708,-4.0627875,-5.0691695,2.454218
-6.2381783,-6.138639,-6.7453237,0.5517277,2.6099634,2.127195,0.54045796,-5.595171,7.745541,-6.527226,12.048641,9.045634
-0.13163565,-5.2201614,2.6117473,-4.731446,11.180647,-7.343625,-7.4051213,-3.7722747,-0.012761718,1.8717158,5.470903,-2.100819
-1.0419694,-3.4488144,-0.985309,-0.56653905,2.409282,2.378212,-3.4515526,0.87302434,0.49350291,0.05471174,3.1497424,0.93470323
0.76532114,-2.4892967,-2.2587218,-4.1305833,-6.463313,-6.0543003,-1.9547389,10.0639515,0.0011082969,-1.8935415,1.4783504,3.358131
13.41884,7.6162868,-0.00043886201,-0.17957205,7.753772,-8.906925,-8.16823,-6.1484623,9.378975,11.006885,-12.877037,-6.461601
-4.4466825,8.8172035,-9.006112e-05,0.5588217,3.3359885,1.7479373,0.28320032,-1.9231021,-2.4703708,-5.549983,-7.1516895,1.8422556
-5.905504,-7.2325325,-1.3153044,-0.29751953,2.9344258,2.1488025,-0.2971733,-3.7350633,0.07236722,-4.943768,11.250894,6.025541
0.50884247,-5.3918815,3.192412,-0.331104,1.5993103,3.3084793,-9.725582,-5.5225763,-0.006076934,1.1242877,5.3879886,-2.7052546
0.00089304894,-3.8953314,-0.18457758,2.6304047,-1.21362,6.065486,-2.8250217,4.1508904,0.00617305,-0.43655333,3.2052984,1.2042388
-0.04631702,-2.5813675,-1.9937696,-6.9475455,-5.0216537,-13.684894,-2.5810583,11.249213,3.9741863e-05,-1.0927663,1.7469095,2.6200197
4.1029997,-11.288881,35.807976,3.7333322,-9.569551,27.42373,16.552906,5.7459826,-20.258656,3.83363,5.24659,-20.912325
-0.03686187,11.330675,-0.00033605983,-0.46079838,4.7669477,-0.3404161,0.3063318,-2.8753977,-0.298806,2.0104444,-14.102131,-2.1016147
-2.5869873,3.3789256,-1.3394139,0.7360464,2.316676,3.2581553,-0.6700397,-2.8190384,-1.4430017,-3.9369671,-1.883296,3.3508263
-8.419037,-5.88054,-12.754526,-0.4638261,0.7159101,2.1472719,-0.42870483,-2.8159378,1.4392363,-6.1470976,10.008888,12.353015
0.13775988,-3.0633373,1.3780376,0.6536689,1.1418866,3.0116503,-5.821115,-6.8766136,-0.010607336,0.12429891,3.2975578,0.40404016
-1.253,-3.3410542,-0.2973736,-1.0769689,2.268903,-16.320482,-6.318574,5.8550134,-2.8850095,1.1584723,4.125185,-0.063018814
-0.38934085,-2.801774,-2.0377858,-5.7008657,-4.087051,-11.499975,-2.9531589,11.458824,0.0010062619,-0.4728819,2.4765651,2.2341993
-1.3120258,-2.1379886,-3.200882,3.854525,-4.078957,0.5147557,12.128247,5.625504,-1.525461,-1.3912631,0.52498925,4.83581
-1.9707942,13.857466,-0.00028367876,-0.049783636,5.551991,-1.5435692,-0.24258733,-3.0215442,0.13447043,1.6595426,-13.141094,-1.3766171
-4.493419,3.4321847,-6.4877295,-0.22715683,3.4327023,1.9036173,0.3799892,-2.4973824,-1.7597388,-3.006916,-1.2653352,7.5926056
11.959739,-8.494034,14.954198,-0.28643084,-2.8324711,0.842156,-0.69668424,-5.514015,0.5039436,-2.5221107,6.1064024,-4.803973
-0.56919366,-4.1468997,0.6421515,1.170121,-0.1651409,4.9420357,-5.3582397,-2.694178,-0.009368608,-0.17488511,4.255272,-0.21467459
0.31755552,-4.2008896,-0.090028316,-2.6512396,1.2238483,-14.519232,-4.643132,4.785954,-0.0017604753,-0.40833783,3.4589286,1.2379214
0.21624042,-2.5479403,-2.5134704,-5.217458,-7.6513762,-8.461488,2.0792584,12.237388,0.0006335896,-1.5633631,1.2180678,4.0044813
11.854465,-1.5156802,-0.00037062314,15.714939,-1.7533219,16.485529,20.987791,-9.805361,-2.651259,6.776427,-4.4688478,6.6432166
-2.3136408,11.031587,-0.0002335505,-0.5507358,4.793003,-0.094878554,0.59222186,-2.8005853,-0.8164096,-2.0434313,-9.734065,-0.08276816
-2.511678,2.0645418,-5.4350295,0.72704303,2.1858373,2.846136,-0.54892784,-2.495349,-1.088348,-4.2101207,0.025319822,3.9880567
2.0081525,-5.3288693,5.282112,-0.62131876,2.741259,1.5113757,-4.3179326,-7.2515135,13.688053,2.7982001,5.568188,-6.57832
-0.16952765,-4.3560166,1.1061499,0.8687406,0.37029493,4.364945,-4.417694,-2.221603,-0.006559383,0.27502516,4.220309,-0.716215
-0.49659818,-3.296621,-0.7439353,3.0007331,-0.21251976,7.915041,-4.6212664,5.130925,-0.01040503,-0.10075313,2.8236961,0.7105773
-1.002375,-1.0535405,-3.885142,-3.2877736,-5.2320514,-6.729425,1.3966116,7.6134844,0.011299984,-1.7098485,0.49362272,4.540127
4.415216,3.449108,-0.0031430605,9.164804,-8.414918,48.60528,23.376926,-1.6693174,-18.948105,9.969323,11.620163,-50.22373
-1.6213402,12.784774,-0.00028922147,-0.40240335,5.520839,-1.0593348,0.507234,-3.0489674,-0.54477936,-2.246167,-9.85265,-2.1895638
-3.9521675,2.1351829,-1.6540005,0.55804557,2.6890824,2.3671308,-0.23771903,-2.290729,-1.6150604,-3.9234204,-1.2017481,4.964164
-6.277191,-6.041553,-9.178193,1.4111274,1.3162192,3.4013953,1.3951855,-9.822001,14.588187,-5.094116,11.507686,19.294523
0.32874626,-4.704701,2.3789418,-0.6030532,3.1356823,1.6402663,-8.34931,-5.600497,-0.0072859605,0.94869685,4.817978,-1.9690322
-0.90945375,-4.038668,-0.33354586,-0.15034474,0.5395207,-6.096543,-3.7973118,3.2618582,-0.00028865947,0.23564577,3.710665,0.4612227
0.09232991,-3.3436866,-1.4520746,-3.452703,-5.461524,-6.6347313,-2.7988007,7.4691625,0.00017510983,-0.48962727,2.7083669,2.07383
-0.46967185,-2.5113657,-2.690415,0.04203405,-5.920784,-3.3917727,7.5916624,9.638309,-0.022798311,-2.0151398,0.21092731,5.2058334
1.1429725,10.241074,-0.00032092724,0.3584646,4.6043386,-1.0907633,-1.8381138,-3.7251801,2.0027452,4.1752048,-10.882292,-5.2171535
-1.2703321,7.2268486,-1.0796481e-05,0.04250286,3.2907867,1.9303061,-0.02844578,-2.7607567,-0.99957293,-6.6040707,-5.0131364,-0.3593088
-2.4446404,-3.1242962,-5.9081583,0.9319786,1.0029627,3.8542943,-0.93940836,-2.8627973,-0.3119047,-3.6614068,8.300904,5.8696337
