ancorasir/BennettWheelLegRL/experiment_data/2023-12-27_22-47-53/joint_vel_env26.csv
Joint_1,Joint_2,Joint_3,Joint_4,Joint_5,Joint_6,Joint_7,Joint_8,Joint_9,Joint_10,Joint_11,Joint_12
0.0,0.0,0.0,0.0,0.0,0.0,0.0,0.0,0.0,0.0,0.0,0.0
0.23954058,10.028349,7.062954,9.778968,-9.758812,24.102842,-0.50573087,-2.6339011,3.6590571,-8.706617,-7.148613,-6.761098
-0.68424994,-2.7489214,-1.5249001,1.982951,2.1731791,1.2805609,-1.7924727,-2.7853951,0.89125264,-0.202436,4.0344663,-3.1358757
0.107768044,2.6653686,-5.4401093,1.1654279,1.9470329,1.801835,-1.556965,-2.457529,-1.1232202,-0.6173436,5.383973,-4.408494
-0.048043057,-2.8693426,0.60674834,0.6475235,0.9369454,2.8331301,-7.3632307,-4.294178,-0.008686939,0.13369171,4.100917,-0.909252
-0.16956541,-3.9858482,-0.20291343,1.7759662,0.24487023,5.6764555,-3.3274002,2.722254,-0.011893751,-0.016726151,3.0452814,2.464371
-1.0637748,-1.5143108,-2.643887,-8.929492,8.641805,-50.16557,-5.606642,8.724342,0.0022144662,0.00284826,2.073718,2.0124009
-0.16599262,-1.9365361,-3.7079926,0.87481713,-5.4323153,-3.227759,11.292547,11.06747,0.0012667598,-3.3550632,-1.1350316,7.115225
-1.6213057,12.471166,-0.00033382938,0.15334502,4.5187497,-0.189455,0.5942868,-2.4536238,-1.3379132,1.9792584,-10.516437,-2.7466843
-4.237895,3.1864924,-6.4459586,0.34194192,2.9689686,1.7500043,-0.59827113,-2.6622338,-1.1406078,-4.389534,-4.9241586,4.3814507
0.81033176,-4.668889,5.5308614,-4.229041,2.0791864,-1.5612094,5.119615,-3.7378314,-3.6204238,9.747787,7.053775,-15.777548
0.67370796,-4.281655,1.3735175,0.73883027,1.7586174,2.9183288,-5.786684,-3.2617695,-0.016246207,-0.13878393,4.293475,-0.7747333
0.28765926,-3.718751,-0.33306044,-0.0697407,0.07450354,-2.53307,-3.9518888,4.4787955,0.00028444105,-0.5541212,3.3159406,1.0199869
0.13225552,-1.911365,-3.085047,-3.4960709,-6.4993906,-5.585681,1.7704514,9.78203,-0.09628879,-1.6515666,1.3429385,3.6666162
11.106322,6.116339,-0.000389767,-3.274546,9.443148,-10.804544,22.24481,-16.709066,-4.3676615,12.073857,-12.657057,-4.8738194
-4.2505608,10.178389,-0.00013273323,1.1532767,3.1099305,1.1380334,-0.703369,-2.2137735,-0.30632958,-2.3115005,-8.402259,2.1806328
-2.0917017,-1.5139619,-1.1452966,0.9469259,2.5105925,2.3133278,-1.3948083,-3.073319,-0.32097206,-2.6205175,3.6470425,1.7038553
2.0861852,-4.455234,4.5026903,0.09504534,3.295177,-4.6832137,-8.2997465,-7.055233,17.496262,2.8703587,6.0598826,-8.0380945
0.8614895,-4.167533,1.0213245,1.4728186,0.2542141,4.1214333,-5.4363623,-2.2748673,-2.2207582,-1.2378905,3.038212,1.1004823
-0.63785636,-2.329862,-1.5347213,-2.5662804,-5.365219,1.228275,-6.537858,8.396458,0.00014229171,-0.043238536,2.7681262,0.5810411
0.2258794,-2.0912583,-2.8703127,-3.379352,-5.4911766,-6.815256,0.6953973,8.58066,0.0063782595,-1.9155055,0.77191174,4.527651
12.350239,5.6549587,-0.00038652436,-2.9871004,9.791394,-10.619805,20.784624,-17.314196,-3.6914935,11.949705,-11.981412,-5.376094
-2.5351713,10.76718,-0.00013949824,0.30587235,4.4554973,0.2503693,0.23196913,-2.378626,-1.5525264,-2.5123892,-10.3536005,1.527158
-3.7385557,-0.2079393,-8.514107,0.48308542,3.0791953,2.1800966,-0.70024383,-2.6189446,-1.4573982,-4.3039737,0.43295896,4.05162
4.1674795,-6.077273,11.198352,-6.176235,-1.0262246,-4.436192,5.1582985,-1.5518318,-3.2912745,4.1653886,7.2551484,-14.669106
0.34567508,-4.613668,1.6222801,-0.171489,2.7936766,1.6944232,-6.614387,-5.196194,-0.012300011,0.1603466,4.461188,-1.6048692
0.19939418,-3.7823648,-0.30891943,0.78485537,-1.1976597,1.0927771,-2.7784312,4.5165744,0.0012873306,-0.8264898,2.795452,1.3339924
0.22377338,-2.5670295,-1.9397733,-3.9348838,-5.441305,-4.5149226,-2.6225111,7.119578,-0.00019193057,-1.04535,2.217395,2.1835232
-0.3816081,-0.97884095,-3.8251357,-5.4543047,-6.3700233,-7.5104675,3.3404138,13.321658,0.001699883,-1.7004594,0.73148173,4.279844
10.720073,1.1608355,-0.00039508299,17.238646,0.07044921,35.476154,23.53052,-14.592886,-6.931996,11.824662,-3.537388,-7.599356
-1.8053253,12.846092,-0.0002475037,0.41688916,4.1241255,-0.4447608,-0.06199137,-2.1416056,-0.79640377,0.36399826,-11.776179,-0.9751878
-4.602041,4.813268,-1.7589779,-0.2440727,4.492839,0.57151496,0.47162914,-2.2101655,-1.9851935,-6.0270576,-7.22918,3.0392606
-4.3749437,-5.3285775,-1.3448434,1.1830125,1.7555419,2.8863344,-0.7314323,-3.6820738,0.4274034,-3.8562021,9.102572,7.178131
2.5317214,-6.272993,5.290244,-1.647295,6.4709244,1.3710644,-7.7011313,-2.7080595,-0.0058561675,0.6724443,5.130719,-4.0940466
0.092038475,-3.5636518,0.1294495,0.9956539,1.2270421,3.2504911,-6.473578,-1.798168,0.08799869,-0.39456254,3.3981795,0.1586786
-0.144662,-3.7048607,-0.8007138,-0.32996702,-2.6602979,-0.53905207,-5.2924757,4.8171086,0.59704065,-0.22726037,3.3799944,0.73988855
0.6424763,-2.7995648,-1.8285704,-4.872688,-4.3378215,-6.182151,-2.2060833,10.688078,0.0011207811,-0.887031,2.3560627,2.4548924
-1.0493729,-1.5834513,-3.4276226,1.139973,-6.158603,-3.0106008,9.871968,9.625944,-1.6121004,-1.6102482,0.38965902,4.3588014
7.195561,13.104194,-0.00038586475,-0.10912618,5.241757,-2.5249166,-1.4747642,-3.7869196,2.6219347,11.564512,-11.7784,-15.312291
-5.2036405,9.67934,-0.000115432194,0.49863678,3.7799318,0.6284991,-0.3141321,-2.4581034,-0.89232534,-3.3165245,-10.655945,3.219321
-3.9435549,0.27452084,-12.339608,0.53223443,3.1958802,1.7809695,-0.96465945,-2.7808561,-0.61548513,-5.223138,2.270159,13.710101
0.54682267,-4.784241,2.9744275,0.3752262,1.5819768,-0.9177473,-7.7571697,-4.52763,0.0023946012,0.79286045,4.3357134,-2.333229
-0.18650483,-3.5116768,0.0028888434,1.1884364,0.002443537,4.283185,-2.3253956,-1.4793404,-0.013198461,-0.43648604,3.1233857,0.72538126
-0.12255939,-3.0794237,-1.3896334,-3.016177,-4.45296,-3.0624108,-4.777187,6.107989,-0.00083049637,-0.5690322,2.5267897,1.8873382
0.20296514,-2.0297332,-2.8569689,-4.362595,-6.0824966,-5.949664,1.5630435,11.961418,0.0032820185,-1.7565347,0.90680724,4.268076
13.760949,8.615491,-0.000415431,-3.64675,9.033486,-11.2832365,21.178776,-13.791842,-8.019966,13.768401,-9.410847,-23.908728
-3.875551,10.568256,-0.00013896861,0.5554463,4.0448823,0.5934637,-0.08823277,-2.3338282,-1.4054458,-4.9621263,-9.283309,1.4729403
-1.7029848,-2.3022363,-1.9435123,0.43216124,2.7056532,2.3954706,-0.9273141,-2.7840607,-1.3266554,-3.707889,3.7571738,3.5569332
1.026478,-5.216062,3.6068091,-0.54063666,3.2494283,1.6582569,-9.034308,-5.587103,-0.016884126,1.7459683,5.8067517,-4.4463058
0.10266958,-4.4351034,0.3972426,0.98292875,-0.23341292,1.796186,-3.7904131,4.0337386,0.25653937,-0.30329633,4.0752707,0.027407102
-0.117867574,-2.8786302,-1.2880574,-5.190336,-5.062447,-14.071205,-3.6476784,5.630981,-1.0763698,-0.35602933,3.0005906,1.079727
-0.063665904,-1.9382938,-3.1916502,-2.9451394,-4.151394,-4.697765,1.6381549,8.609118,0.0041415337,-1.3646426,1.287711,3.8720086
10.041016,0.7862078,-0.00042418367,16.06055,-1.3020526,28.999369,25.053123,-9.966175,-17.204508,12.407911,2.1747365,-30.69161
-1.711062,12.114018,-0.0002947487,0.47081047,4.7337656,-0.45002854,-0.26940885,-2.504136,-0.010281354,0.29268858,-10.230101,0.016006012
-3.414371,6.788507,-8.016272,0.85881525,2.3893094,2.6299272,-0.4847982,-2.336278,-1.0765221,-4.4593086,-7.1405234,7.3141675
-11.489153,-7.562981,-10.307037,-1.6835976,-4.1371536,-4.6128016,0.78026295,-8.768341,14.696087,8.115698,7.011348,-15.765848
0.33437994,-4.519355,0.5384109,2.076322,-0.8208894,5.902982,-2.5409276,2.102107,0.4718041,-0.5373871,3.7951837,0.51583165
0.36265355,-2.3740551,-2.721398,-4.8210936,-3.115435,-5.343266,-0.64458495,7.800625,0.003342457,-1.709378,1.491943,3.8602858
0.8907986,3.95279,-7.6337834e-05,8.298803,-5.592407,4.954553,18.663168,1.2339565,-4.269316,-0.74854964,-0.36490718,2.0273519
-0.4697948,13.563967,-0.00025136693,0.61332846,4.527895,-0.2528603,-0.17541803,-2.707106,-0.7256547,1.5120314,-16.88732,7.87361
-2.5236926,1.8748782,-1.0243973,-0.33757922,4.0468054,1.3675454,0.13591716,-2.7492478,-1.8375597,-3.522059,-5.463487,1.8508848
3.3153596,-6.221016,6.5671616,-2.3206248,-2.9726048,-5.598197,-2.961808,-6.9252186,16.557716,2.113001,6.1392336,-6.9128776
-0.060241364,-4.681255,1.2941778,0.3052255,1.3832954,3.4585698,-7.33529,-1.6259043,-1.0029265,0.34404737,4.865358,-1.2307426
-0.22562145,-3.7595158,-0.63899064,1.3943852,-0.15859187,4.5122747,-3.5048892,4.4861865,-0.059363306,-0.42946783,3.069192,0.75290823
0.27374893,-2.3925514,-2.1504686,-3.6183658,-4.7017994,-5.633479,-1.3418807,7.9259224,0.0038900948,-1.0768671,1.9386058,2.5622525
-0.24058914,-6.0414267,13.760803,2.6908288,-6.757312,-0.37904367,14.576365,7.119843,-6.2729797,-1.8892611,0.03341937,5.4175057
1.0996487,10.615115,-0.00035275082,-0.8542835,7.1044097,-4.034571,-0.78685534,-4.172291,1.9873055,3.049839,-12.147371,-4.0539603
-2.958696,6.975758,-3.8302947e-05,-0.20123373,4.099043,1.2377974,0.14068095,-2.8218923,-1.3063908,-2.5613143,-5.3463206,0.08362939
-4.379098,-4.357325,-7.284141,0.5733088,2.0017958,3.1704037,-0.61197877,-2.471959,-1.3738254,-5.1772847,8.764742,10.950245
1.4459455,-5.1138487,3.8747182,-0.53640616,4.169145,3.917495,-8.25648,-4.5360603,0.0301757,1.6542495,5.35153,-4.984319
-0.48918253,-3.512073,-0.32934663,0.29604346,-0.37459508,-3.3641307,-5.357967,1.9716065,-0.0036697756,0.027580347,4.141493,-0.24561685
-0.26061267,-2.9856987,-1.2828935,1.1416247,-0.17702682,4.459562,-1.9133646,3.7025871,0.0040778294,-0.5581321,2.6460955,1.4467137
-1.155768,-0.8825763,-4.3049293,-5.266474,-8.946441,-8.28557,3.431213,10.296872,0.006928437,-1.5461304,0.66732436,4.257056
12.545186,-0.23852544,-0.00040442153,-4.6711035,8.820219,-8.176573,24.476498,-16.586735,-7.1578712,14.406136,-5.278004,-1.4781983
-4.628027,9.930852,-0.00016050649,0.061606754,2.8544502,1.6666394,0.8152509,-1.9530929,-1.9526193,-3.7156112,-11.738888,2.031569
-4.826161,-4.1842074,-2.1288075,1.1242834,1.7863562,3.2170465,-1.1800733,-2.8727705,-0.6667629,-3.9155743,7.2718754,5.6397324
1.1091723,-5.5452976,3.66489,-1.5750179,4.01172,-1.4110333,-11.574268,-5.9550805,0.0019488214,1.409736,5.551237,-3.639732
-0.39204615,-3.9278302,-0.16289659,-0.31831953,-1.4890581,-6.7397604,-4.7884507,5.3407583,0.0013790274,0.14668511,3.780709,-0.3432997
0.48986918,-2.7750266,-2.1161962,-4.7502203,-6.0959344,-6.553207,-0.26344818,9.928312,-0.00019588321,-1.1465255,2.0120502,3.022765
0.41585195,3.9393284,-0.0024689776,9.908873,-3.9905221,13.636089,20.633959,-1.8962733,-13.122118,3.018026,-2.1291277,-11.618441
1.2477553,15.04118,-0.00028681726,0.6695999,4.329393,-0.5983438,-0.29606298,-1.9842455,-0.9194501,2.377316,-13.123616,-3.595797
-4.0182886,5.0039377,-0.6070547,0.6379889,3.2210002,1.7281274,-0.40334055,-2.1729443,-1.6380312,-5.5078897,-4.5100307,3.0534222
5.3010683,-6.651577,8.478177,-1.864868,-4.029336,-4.4854913,-1.9337847,-9.81939,19.769821,1.1332847,6.10157,-7.1256504
-0.011460856,-4.1393743,1.2239456,0.30161005,1.0220048,3.4170938,-5.3022385,-3.098778,-0.01653097,-0.10612127,3.5260417,0.14641774
0.14656238,-3.709175,-0.13262197,-2.6697574,-1.9952306,-13.821389,-4.848634,6.7834616,8.8183675e-05,-0.13659082,2.9361289,0.9026125
-0.22273155,-1.9154096,-2.9414546,-4.7379904,-6.4315066,-6.484211,3.8099108,12.053079,-0.0015686792,-1.5735153,0.8971272,4.1516747
9.879181,8.716075,-0.0003957363,-2.9634838,8.650841,-10.129829,-3.3861248,-4.723235,5.4513016,13.599934,-8.79546,-28.411982
-3.9964964,9.865483,-0.00015754258,0.18477066,3.6457772,0.9722916,0.20112875,-2.4615989,-1.2009976,-3.908971,-8.323096,1.1223933
-1.5127068,-0.8419288,-1.9074626,0.23208691,2.4634259,2.984177,-0.3801555,-2.8081005,-1.1800185,-2.5988874,4.60637,3.974765
0.6136752,-4.9934297,3.591618,-0.5578317,2.4049234,2.359675,-8.222215,-6.5459375,-0.032835107,1.7355605,5.5587726,-3.8191288
-0.44963205,-4.3629756,0.58848727,-0.87826127,-1.1304896,-4.1969876,-3.403209,2.2222075,-0.028602734,0.33781394,4.002506,0.16897805
-0.12828168,-2.9304917,-1.6624542,-8.613684,-6.719808,-7.040179,-4.0235305,10.3305235,-0.00044243236,-0.6799076,2.5345986,2.1890378
-0.56036806,-2.2705922,-3.1236975,-1.0301971,-5.5782294,-4.2055545,6.7319036,10.135286,0.0012280941,-1.4955058,0.61800086,4.9086614
4.04384,12.983801,-0.00032596046,-2.60453,9.490527,-9.10879,-0.9713032,-3.4962249,0.7149996,3.6637561,-13.112293,-3.5644112
-2.3002698,1.8432971,-1.2889793,0.14924507,3.0360003,2.2625077,-0.1802514,-2.5556698,-1.5716863,-3.3596952,-4.4698205,1.3093171
1.6525108,-4.637541,1.5263681,-1.0857527,-3.5866153,-6.001368,1.0465479,-8.539694,18.815905,7.871245,8.232469,-17.111937
0.035972007,-4.063643,0.47776613,0.9078818,1.5349383,3.3628147,-6.179791,-3.322052,-0.014966784,-0.42159882,4.096956,0.054939926
0.1560739,-3.683961,-0.719929,-2.5814235,-2.2981374,-3.485193,-3.8255267,5.923105,-0.0028752987,-0.5266406,3.2831914,1.2184597
-0.7012136,-1.4133979,-3.4728417,-4.119864,-5.1883254,-7.045194,1.5158092,11.362881,0.00055531505,-1.2791811,0.86992174,4.1727524
11.335711,4.957917,-0.00038848427,-5.335711,7.857773,-8.856356,-1.9582219,-5.6228433,5.724443,13.709899,-9.414869,-5.632698
-3.1211834,12.369425,-0.00021227176,-0.6256571,5.486828,-0.36356336,1.1546288,-2.5840106,-1.8553643,-1.4255527,-11.731503,-0.18375836
-2.8639362,-2.2640903,-2.1037436,0.4859108,2.5967815,2.7606137,-0.7472866,-2.8479571,-1.1207224,-4.2905145,4.5847917,4.280966
3.6295094,-6.4565396,6.237322,-0.47939613,-2.3208866,-4.0944614,-5.6573405,-4.93681,3.9442253,0.9542191,5.9204226,-5.767274
-0.4399683,-4.1097937,0.3260801,1.2765925,0.071931906,4.762055,-6.0572414,0.585915,0.52485204,-0.100921676,3.9803982,0.26531827
0.41306844,-3.9090924,-0.5056334,-2.033416,-1.9481902,-14.05769,-4.2920837,6.4549556,0.004115209,-0.47711778,3.5137076,0.830454
-0.2771341,-1.3211359,-3.429525,-4.386802,-6.4699893,-6.355656,-1.011637,9.292336,0.005312068,-1.3750542,1.4240407,3.4583757
10.831003,-2.9955435,-0.00041346485,15.864735,-4.0053334,21.350557,19.964996,-5.309499,-5.702702,3.7977512,-7.272467,10.86777
-2.8179822,13.668748,-0.00018724028,0.41989833,4.7288675,-0.3231522,0.24536912,-2.3645127,-1.0689673,-2.9366267,-10.404595,1.1358485
-2.3175735,-3.439864,-1.092911,0.82056,2.3359182,2.8141298,-1.1176014,-2.6919441,-0.945078,-3.1802077,6.6979914,3.529169
0.31301773,-4.882166,2.8260636,-0.86122084,3.2178457,1.5810211,-8.579529,-5.534028,-0.039108336,1.5981575,5.3474326,-3.24049
-0.0018902048,-3.8828533,0.14079812,1.4370844,-0.2894981,2.5510519,-3.2324631,2.5706077,0.5109933,-0.31964153,3.644323,0.43568143
0.10163862,-2.9020615,-1.6277236,-4.995364,-4.8667293,-6.3680234,-4.1747613,7.9816136,0.0054812036,-0.9527506,2.0606725,2.4653146
-1.1200953,-2.0942647,-3.2700052,-3.4511652,-11.355635,-6.5628276,5.33762,12.695946,-0.51951826,-1.6743588,0.5472188,4.6856294
12.413877,8.1023445,-0.00043227617,-3.955957,9.668216,-11.304139,24.907999,-14.297967,-7.8286266,12.659469,-7.081016,-25.671364
-4.571384,12.973238,-0.00017656045,0.28300682,3.7861805,0.90331286,0.50720525,-2.1507533,-1.4760936,-2.8092873,-11.688982,3.9506354
-3.0103202,2.3516154,-2.0643318,0.21518911,3.4822505,1.883865,-0.25150517,-2.6750045,-1.4818407,-3.8611073,-0.35623538,4.3306684
3.2998981,-6.313453,5.552843,-0.96943367,-2.749057,-2.3422425,-7.1272783,-2.3081012,0.002156016,-0.59319395,5.1994658,-3.4615679
-0.2954458,-4.0565653,0.3207554,0.5410945,0.74235773,2.7744596,-5.664708,1.1800483,-0.5515681,-0.19733818,3.671614,0.7442468
-0.4087386,-3.7365148,-0.89538157,-2.1291542,-0.13639355,1.3219688,-3.7479472,5.306395,0.008155877,-0.17867607,3.0292282,1.5251718
-0.5258147,-1.5927641,-3.6799688,-3.8040955,-6.2757998,-5.7410116,2.4788613,9.344164,0.004371791,-1.8915074,0.46303603,5.0108113
14.94428,7.9370904,-0.00042880606,-1.6952207,9.079434,-10.490105,-6.8703036,-5.2031255,8.184993,9.678658,-13.009355,-7.326208
-4.119948,7.3445997,-9.426483e-05,0.68227965,3.0303411,1.8618215,-0.8628167,-2.7430148,-0.72125024,-3.1826854,-7.6748962,1.7085868
-5.008266,-10.002466,-1.0476286,0.14805502,4.750211,0.41299772,4.4368367,-5.9139886,-7.364323,5.1069384,8.3890505,-15.228801
-0.12740313,-4.2847533,0.8750153,1.1450781,0.40965807,4.5762844,-5.4926105,-3.6742625,-0.008715076,-0.017683826,4.425299,-0.45159382
0.040944688,-4.0094132,-0.25374,-2.7514758,0.26741603,-8.286934,-6.5495477,5.1052804,6.8743015e-05,-0.22866043,3.9170907,0.75995463
0.26873052,-2.751422,-1.8805755,-3.8757694,-6.2821765,-7.3149133,-0.09613327,11.511181,0.00106868,-0.87362313,2.11779,2.699244
13.81398,-5.243765,-0.00038773444,16.585804,-2.4746213,22.284565,18.388626,-8.697943,-4.778907,1.5691435,-5.560316,7.17
-1.5624647,14.214334,-0.00024384313,0.89647615,4.520546,-0.87928176,-0.6129132,-2.044273,-0.30577028,-0.7294316,-11.932813,-0.8749068
-3.5177956,3.8923345,0.1911932,0.72847617,2.0966625,2.381339,-0.6949674,-2.2876897,-1.055619,-3.1510415,-7.0130486,3.208494
-3.5898347,-4.155979,-1.4285915,0.37114024,1.7507083,2.9610536,-0.53262234,-2.665934,-0.6867219,-3.9388933,7.7783732,4.8955913
0.43172082,-4.5689507,1.8766798,0.24518359,2.6171696,2.2822592,-7.550668,-5.087212,-0.013084143,0.018391281,4.489494,-0.7614671
-0.41402966,-3.6339066,-0.40144822,0.8197623,1.1065401,4.888384,-3.3904572,3.3143513,0.7276681,0.098756894,3.581819,0.29996672
0.009614289,-2.2682998,-2.5880203,-4.1996336,-3.0928946,-6.1271806,0.334645,10.643603,0.0043178652,-1.1441588,1.6286343,3.5228994
7.526794,-0.25511625,-0.0003123221,14.978429,-1.9684002,26.026182,25.8186,-4.9534297,-18.037552,11.733237,4.3756824,-33.642414
-1.3454125,11.913952,-0.00025907438,-0.20498705,5.512027,-1.1687808,-0.15797397,-3.3474975,0.63094705,-0.028161786,-11.472931,-1.2556607
-1.0464876,1.3553495,-1.1951486,-0.040354233,3.2304459,2.2686121,0.24856225,-2.6247742,-1.6393719,-3.6299863,-1.1842101,0.105094805
3.7725308,-5.004095,6.588816,0.891293,0.10269287,2.056682,1.7280173,-9.660665,12.03054,-6.4302297,11.606098,19.681465
-0.30957338,-4.4183145,1.1400002,0.5430188,0.46231005,4.5433803,-6.4947743,-1.3841279,2.993131e-05,0.43824834,4.402471,-0.57008564
0.09307062,-3.9472687,0.0089689195,-0.67041284,-2.0808666,-5.8226957,-3.5712614,5.5044084,-0.013585638,-0.1291524,3.228153,0.8302209
-0.19889171,-2.5308487,-1.9681377,-6.22339,-7.0461416,-6.2560277,-3.9178889,7.6354613,0.0015100897,-0.7502355,1.9576253,2.52179
-1.486304,-0.6683783,-4.1960354,-1.5469956,-5.146054,-5.318367,5.5980487,9.181385,0.5670648,-1.4170952,0.13699293,4.9982057
5.646015,10.775782,-0.00034786708,-0.047248155,5.257971,-1.490706,-0.70289373,-3.6926932,1.5840687,8.318325,-11.853776,-7.3834577
-4.5785904,9.157209,-3.2086697e-05,0.3319223,3.7596364,1.5428408,-0.07225029,-2.5880115,-1.5259395,-5.2920666,-8.312411,1.7381742
-2.4806595,-4.0575905,-1.5691396,1.2482879,1.7621382,3.444548,-1.4216359,-2.764003,-0.9763156,-2.5522945,7.676853,5.018197
1.1389099,-5.0088634,3.3744893,-0.7012868,2.6192937,1.6700237,-7.3254085,-5.9738684,-0.05602956,1.1035559,4.949588,-3.3843508
-0.51090723,-3.951233,-0.14755258,0.5618652,-0.035740793,3.43634,-3.9827268,2.7772791,0.7671686,0.11036585,3.7213721,0.40735182
-0.030271584,-2.4499822,-2.2583115,-4.7588496,-5.5161014,-9.89586,-0.93505484,11.159837,0.00023403263,-1.061003,1.814112,2.7811363
-0.4118842,-1.7944796,-3.403721,0.9867996,-7.746162,-0.0061331806,9.811127,8.258801,-0.6513381,-2.1913695,0.089702666,5.28531
-1.1356254,12.773675,-0.00023153279,0.7649625,4.3619313,0.26322472,-0.19946654,-2.5474017,-0.85166425,-0.42154875,-11.451049,-0.46712488
-3.4833486,1.3445816,-1.3527218,1.4037272,2.0155752,3.1806679,-1.0897465,-2.56434,-0.80842966,-2.499358,0.8434042,4.7387767
1.6687865,-5.554301,4.3610964,-0.5056286,3.329219,1.046621,-8.682486,-5.115517,-0.004060571,0.4837965,4.6119876,-2.619797
-0.366996,-3.8195271,0.08795726,1.0539051,-0.5383103,-1.6318767,-3.4014072,1.8283142,0.00154053,0.019121725,3.2279615,0.4270876
0.2876369,-3.3719597,-1.0193195,-3.7977374,-2.8944128,-8.316423,-3.2275462,6.707639,2.5896821e-05,-0.43504372,2.8147407,1.7265075
-0.8291274,-2.3426104,2.343936,1.3733298,-7.2486,-3.4126067,10.860515,10.190909,-4.749872,-2.886409,-0.07694356,5.47072
0.005344661,11.813711,-0.00029997766,-0.37147996,5.357561,-1.8693345,-0.05748909,-2.5444493,-0.37035334,2.9923098,-13.918889,-1.3571709
-2.9209828,2.387031,-4.453794,0.8215789,2.7396543,2.2914472,-0.38984787,-2.2039893,-1.8553445,-4.817757,-4.0538516,0.9626916
-4.575844,-7.4027267,0.32136995,-0.11767304,2.3473325,2.207149,-0.9029089,-2.9135952,-0.44902408,-4.37594,7.139878,4.823865
0.47158015,-4.4702983,2.3496377,0.14270711,1.346764,3.0700314,-8.985472,-5.206574,-0.006240204,0.90348536,4.7768245,-2.3802946
-0.52192974,-3.56117,-0.4852245,0.099698424,-0.54102993,-7.0588603,-2.6877103,4.462637,-0.02863276,0.14176013,3.8161616,0.107874446
-0.37957096,-2.742153,-2.1455932,-5.2073703,-6.826541,-8.044436,-0.5723366,8.878469,-0.00011532148,-0.526322,2.1621277,2.7844324
-2.5043356,1.2754625,15.575724,5.8232703,-3.5934064,4.361475,14.996542,5.318649,-6.8482766,-2.0716035,0.24754058,4.8679805
-2.4144356,8.91696,-0.00026968052,0.10306275,4.283476,-0.12588425,0.08090502,-2.5964234,-0.23576407,1.1635188,-10.339097,-1.6234549
-3.3181174,4.8303504,-8.262096,-0.3371344,3.3507392,1.6631035,0.59599316,-2.1697006,-1.8825499,-5.893805,-3.0440066,3.027376
0.36201712,-3.8800488,3.964751,-1.3299103,-3.0700867,-6.2885966,1.1572181,-7.069704,15.743893,-6.891956,7.574201,21.243803
0.6376268,-3.9407,0.90819716,0.9147238,1.3969133,3.0504515,-5.2493844,-3.4353907,-0.01635771,-0.9955488,2.9902513,0.8498796
-0.86634356,-3.7228806,-0.41964847,-1.9646348,-4.970762,-3.0609372,-5.669236,5.5772614,0.00016473676,0.49359608,3.1228518,0.8209204
-0.1675439,-2.1512682,-2.9644942,-4.2760873,-3.5120003,-5.009671,1.9580683,9.786126,0.0015474618,-1.6530923,1.0242742,4.304056
10.26724,12.416994,-0.00034469867,-1.9869573,8.3060665,-10.105234,-2.9724228,-4.306866,3.7847216,9.892698,-13.093867,-12.981269
-5.1150937,6.387396,-2.1185484,0.4185019,3.7161627,0.8763868,-0.74084127,-2.599656,-0.71390176,-3.0747724,-8.203099,5.824946
3.2187557,-5.1288667,6.2945976,0.06583965,3.811026,2.0014756,0.793579,-7.9962316,11.947369,6.8695865,8.562894,-16.87554
0.5537653,-5.0282764,2.2134557,-0.2667666,3.1211977,2.5480523,-8.863401,-5.4519386,-0.01902496,0.16772489,4.7463493,-0.83090335
-1.076698,-3.647492,-0.8661918,-3.5161119,-3.902877,-2.3702621,-4.870635,5.6733136,0.6491599,0.49970576,3.3985476,0.9763732
0.18458496,-1.7208724,-2.9640832,-3.0877364,-4.4286895,-5.254293,0.33332482,7.7794733,0.004292738,-1.5579957,1.3347626,3.4440277
12.134673,0.39679745,-0.00047632994,16.405144,0.53455335,33.498848,26.768074,-10.867818,-14.225081,14.537076,5.121551,-39.73137
-3.7543204,10.575365,-0.00014657358,-0.0932987,4.089125,0.04830265,0.67374253,-2.1251998,-1.266595,-2.1895149,-13.010347,1.2203918
-2.1690743,-0.71774846,-1.9730191,0.58402324,3.552861,1.8900615,-0.6123035,-2.6638787,-1.5095538,-4.941167,2.1896312,3.5345418
1.6802645,-4.673883,4.9432774,-1.3216203,-5.185013,-4.3828764,-1.7652482,-0.53528625,0.72427446,7.065484,7.6718116,-15.176654
-0.32155997,-4.322183,0.82351017,-0.15420918,2.1299427,2.589727,-5.2801504,-2.2375002,-0.2860207,0.056017905,3.598258,0.18847394
0.15787712,-3.3893018,-0.87445337,0.008568557,-1.422713,-5.5738907,-3.576609,4.412774,-2.5563827,-0.32962614,3.4474773,0.6700795
0.2294594,-1.7649354,-3.03686,-4.847297,-2.2164195,-5.6172643,-1.1875229,9.249424,0.00526176,-1.4128056,1.5464692,3.4679413
6.700444,1.7978394,-0.0002770779,10.633227,-4.685258,9.986046,20.63645,-3.04358,-2.8313026,-2.7557256,1.0748119,5.083051
0.7203247,13.698286,-0.00028715393,-0.6939321,6.3265963,-2.7780437,1.0225799,-2.3160918,-1.3916512,3.8911114,-12.458097,-6.222938
-4.6389637,7.5565023,0.038241874,0.82058537,3.348813,1.4283375,-0.6361033,-2.535607,-1.0519781,-3.7543638,-10.536149,3.9329572
-4.969206,-2.4849257,-1.6508354,1.2697866,2.5218904,2.5980182,-1.2358432,-2.7023833,-0.7341735,-3.0572057,7.1681995,6.506128
3.195171,-5.84188,5.8198147,-1.4214168,-5.602094,-4.273495,-7.052202,-2.1484208,0.46259832,1.0398042,5.7744217,-5.879876
0.084368035,-4.448113,1.1553308,-0.12632823,3.1676977,1.4800198,-7.576848,-1.7128782,-0.010266861,0.1825711,4.1803145,-0.57973087
-0.18737799,-4.038722,-0.20062456,-1.7491828,2.1854324,-7.2041326,-3.9346008,4.069777,0.0027029011,-0.5680408,2.6601079,1.458034
0.058113042,-2.439805,-2.148837,-3.8426924,-5.1762214,-6.0195265,-1.5926825,8.6717,-0.0007982197,-1.1194429,1.698756,2.834315
0.3372749,-1.762209,-3.0839214,1.7780749,-3.6793888,0.8421184,8.663425,8.71543,-0.8998821,-2.6182404,0.14959516,4.961999
17.542473,12.437178,-0.00040759426,1.5738237,6.8900676,-7.313836,-8.377399,-5.0533543,9.56187,9.856611,-13.414345,-8.599113
-3.9401796,13.3509655,-0.00010044157,0.6316752,2.2852154,2.0037055,0.55079955,-1.4466602,-2.010817,-3.5514314,-13.43448,3.20815
-5.4881887,-1.5316199,-8.37356,1.0374074,2.5601022,2.1817803,-1.0378507,-2.472823,-0.71144164,-5.0375037,4.068852,8.810576
3.6759572,-5.4976635,5.9384294,-1.7267659,2.435338,4.1627703,-6.333403,-3.2067308,-1.1191348,1.3832557,5.528649,-6.502222
0.8646981,-3.816065,0.50528705,2.093266,0.11980945,4.578984,-3.467252,-3.300006,-0.01517427,-1.1669128,3.6912239,0.3911432
0.1695828,-4.0603833,-0.19169413,-1.4018189,-3.8656383,-0.4706839,-5.539735,6.653337,8.041831e-05,-0.3650433,3.6155505,0.72069997
0.11560078,-2.0778258,-2.965935,-4.530955,-2.8485515,-4.997345,-1.0856863,8.575844,0.0057511013,-1.4111729,1.6362166,3.6802394
11.439116,-0.5430009,-0.00037565525,15.9556465,-5.206864,17.101135,23.401243,-7.820333,-3.4060163,2.3311877,-8.84574,12.401601
-4.038427,8.094378,-0.00010679444,0.36158943,3.872162,0.87788236,-0.4544702,-3.113139,-0.47228667,-3.8779328,-8.720567,1.7528523
-2.64065,-3.3303626,-1.3595309,0.477879,1.9640962,3.167965,-0.7245648,-2.9558046,-1.0562823,-3.4600983,6.81629,4.7239904
0.5033817,-5.415272,3.7813213,-0.54021126,1.3413596,-0.21032484,-9.020862,-6.392363,0.0019825478,1.5906392,5.151358,-3.5872533
0.15641902,-4.2002892,0.87556237,0.4815038,-0.0074616447,-4.4659724,-5.6973953,2.2262588,-2.6808066,-0.06812853,3.6048856,0.04843185
0.09198096,-3.0766087,-1.1688243,-4.8776536,-2.9883273,-6.2435255,-3.695257,9.71656,-0.00067608047,-0.2378098,2.8744063,1.6777896
0.36946416,-1.95502,-3.3032207,-0.4391303,-6.135965,-3.6261861,6.361621,11.024008,0.002944727,-2.6065984,0.14469391,5.606302
8.199343,10.949421,-0.00031007826,-1.4301437,7.837399,-9.377784,-8.966994,-7.883999,13.467599,10.475241,-12.161852,-12.132471
-3.395043,9.929347,-0.000110639085,-0.27968073,4.4265,0.57058144,0.8007213,-2.2270787,-2.1760278,-2.6955965,-11.600613,2.7995296
-4.4607453,-5.4182587,-1.5363389,0.6468468,1.5034837,3.2589257,-0.61642945,-2.6181176,-0.5685242,-4.514488,7.2767005,4.636851
2.111364,-1.4526848,3.367278,-0.18812962,0.70896673,0.2363936,-2.6830354,-7.502982,13.046953,1.4494015,1.9831535,-3.223993
-0.3561569,-2.5824819,1.0254904,1.1674153,-0.02603031,3.769412,-7.024519,-1.2851427,-0.34991968,0.28966525,5.070524,-0.52839726
-1.0593886,-3.1399455,0.13128257,-4.086593,5.8927946,-29.742989,-5.8872223,4.818687,-0.0011286354,0.9154221,2.555,0.92564046
-0.49677697,-2.9384923,-1.4726971,-7.1865916,-3.6467052,-16.565765,-1.4017115,11.531321,0.00021912204,-1.0738331,0.9000503,3.5337934
6.1015153,-0.55567074,-0.00020900197,10.310044,-8.3430605,4.3339725,21.100574,1.3646985,-2.9144087,-3.0437245,-0.5859324,6.540293
-2.366706,14.077616,-0.00029385276,0.38429028,5.000207,-0.7272837,0.20254786,-2.6939042,-0.92386955,-2.8800902,-12.875599,0.4211741
-4.9091077,1.3622028,-7.0710273,0.4402927,3.7494326,1.4672154,-0.74287975,-2.9433844,-0.7500056,-3.567192,1.6731839,9.293663
2.8904533,-5.9966125,6.263262,-0.5502202,2.4113526,-4.3093576,-1.7346612,-2.7362988,-1.9559146,2.3007424,6.1676326,-6.927293
-0.0851425,-4.3427987,1.0864941,0.943336,0.34876233,4.3071485,-4.6998134,-0.9380438,-0.014656202,0.39500213,4.2469187,-0.5767182
0.08925001,-3.237497,-1.0375131,-3.9876468,-2.757013,-7.762611,-4.083629,8.908328,-0.0005524624,-0.25729463,2.8021073,1.8935542
-0.2892872,-1.5615256,-3.5085094,-0.31334242,-7.8803463,-3.3520002,4.985998,10.138292,0.14954616,-2.0520413,0.51710886,4.3816643
12.3390465,2.9605947,-0.00040798512,-3.268782,9.385451,-10.697377,20.994558,-15.49976,-1.2368733,11.118786,-11.517009,0.2986871
-4.403141,9.35882,-0.00011840745,1.1332868,2.9750626,1.9823155,-0.059290726,-1.9056306,-1.8811222,-4.5683026,-7.987603,1.9756529
-7.3500423,-5.2508125,-9.52757,1.0784805,2.0319483,3.1205492,0.7779096,-4.7041903,1.1016468,-5.2379217,10.581061,16.485157
0.016102135,-4.9613333,2.0895147,-0.17071179,1.5467343,3.3658226,-8.207122,-4.159781,-0.0008662287,0.95219016,5.297233,-2.526406
0.33215496,-3.941679,0.19680336,1.3450677,-1.918232,-3.5069132,-1.1902105,3.0119576,-0.017110188,-0.17041837,3.8608751,-0.2653501
0.25287074,-2.1586225,-2.1497033,-4.9659257,-6.3899665,-6.7462726,-3.6314337,7.8988657,-1.2182514e-05,-1.3957312,1.8487719,2.4573061
-0.6131548,-1.0245131,-4.311738,1.0182961,-5.4242406,-0.013273338,9.456938,9.184133,-0.15080525,-2.5343065,-0.36286876,6.1749215
5.399108,9.933153,-0.00036747934,1.2653214,3.7513802,-0.1915195,-2.6074052,-3.7900171,2.722918,8.036414,-14.545705,-6.1310763
-2.822193,8.295702,-0.0001308416,0.44750863,2.9892526,2.1127133,0.1157878,-2.4088652,-1.9914557,-5.347064,-9.018084,0.9857497
-3.9848516,-5.1186585,-2.5593402,1.0971104,1.7296503,3.6061242,-0.51941544,-3.4137917,-0.6931212,-3.6396062,9.234429,6.979874
1.2216471,-5.565369,4.1612873,0.18974742,-3.0603502,-1.226281,-8.395279,-2.1780946,0.010763913,1.9899867,5.991228,-4.8347507
-0.5936627,-4.365349,0.57757765,0.2190277,1.5900555,3.612728,-5.5199614,-0.5128861,-0.029003438,0.24372026,4.0469613,-0.29328158
0.15356857,-3.8322065,-0.9824326,-2.884113,-4.449671,-2.3529196,-2.6472428,5.0354524,0.30828652,-0.54312736,2.927957,1.9006315
-0.9910383,-1.0902855,-3.9032102,-4.465403,-4.615962,-7.010121,0.8885812,10.420707,0.0040150494,-0.99794877,1.2497036,3.7385395
14.060072,-0.28766435,-0.00037440402,17.35946,3.5713863,28.857573,23.438677,-18.062635,-3.1062515,11.622744,-7.3106685,-2.5566819
-4.1953454,8.56414,-0.000115368195,0.69337845,2.9846277,1.744667,0.06784245,-1.970791,-2.171263,-2.8302588,-8.586701,1.2303038
-4.88418,-1.6039983,-8.014014,0.104862005,2.844942,2.3220518,0.34377456,-3.3486884,0.40839913,-4.726937,6.416127,11.415475
0.29975235,-4.7201595,2.40829,-0.16949785,2.4323435,2.388402,-7.0058737,-5.81724,-0.0088870395,1.0208021,5.0264587,-2.4232366
