ancorasir/BennettWheelLegRL/experiment_data/2023-12-27_22-47-53/joint_position_env26.csv
Joint_1,Joint_2,Joint_3,Joint_4,Joint_5,Joint_6,Joint_7,Joint_8,Joint_9,Joint_10,Joint_11,Joint_12
0.1942507,-0.0,-0.0,-0.23847732,0.0,0.0,-0.25658938,-0.0,-0.0,0.21826488,-0.0,0.0
0.21954538,0.34351537,0.17511912,-0.00043014978,-0.17231701,-0.1505719,-0.0912078,-0.16760963,0.045969002,-0.21616393,-0.26592276,-0.17551018
0.3601713,0.59702927,0.16322163,-0.043206494,0.11563792,-0.25365132,-0.081949905,-0.40269113,0.20411144,-0.32495472,-0.28479287,-0.28139827
0.38833058,0.5548557,0.10486035,0.051263027,0.2869616,-0.14810933,-0.19977984,-0.6348625,0.23073927,-0.29768842,-0.09680278,-0.46007493
0.40020102,0.35644612,0.17028756,0.13143253,0.37050194,-0.03761182,-0.37238106,-0.8754715,0.40000463,-0.3682629,0.18342054,-0.5587622
0.42700872,0.034997698,0.22408809,0.2513849,0.39637628,0.30807304,-0.83423215,-1.0200919,0.40000358,-0.38362876,0.5074049,-0.50918853
0.42193833,-0.13901685,0.12705025,0.21150117,0.5203896,-0.2196839,-1.2277775,-0.62250304,0.39984047,-0.41188782,0.6667143,-0.3640522
0.38755682,-0.27586755,0.08708493,-0.28156698,-0.14909545,-1.1110041,-1.1517467,0.312312,0.39997947,-0.5835178,0.65060526,0.02789999
0.957308,0.28437638,0.40000015,0.04617158,-0.028355297,-0.47190863,-0.21917583,-0.2591278,0.09856779,0.3108291,0.0747552,-0.9688628
0.630324,0.9108736,0.24358106,0.057249714,0.2521802,-0.4059512,-0.21673417,-0.4524014,-0.0071260147,-0.007443028,-0.6870156,-0.55861455
0.36441204,0.67922527,0.0678997,0.102903396,0.3562032,-0.29967716,-0.25658295,-0.73590267,0.14753741,-0.19603796,-0.24167004,-0.03827874
0.49721617,0.31698757,0.33803517,0.09174106,0.39658293,-0.3726496,-0.81386834,-1.1710483,0.40000066,-0.106081575,0.15339251,-0.3449963
0.48658758,0.062754475,0.35540578,0.09295242,0.4354424,-0.3250304,-1.1922194,-0.999888,0.39999974,-0.08595138,0.42251712,-0.3762073
0.50929636,-0.18796994,0.19667007,-0.2313505,0.07865619,-0.8553097,-1.4063991,-0.34971288,0.39284667,-0.17420474,0.63817877,-0.16475892
0.70624435,-0.2916574,0.4000002,0.019486036,-0.34056926,-0.34468773,-0.22157423,0.019099522,-0.00449937,-0.03789292,0.56833714,-0.4696075
0.78450364,0.5685805,0.40000007,-0.023742236,0.014124212,-0.5485349,-0.14979193,-0.25281325,0.050388608,0.25006312,-0.3736461,-0.6373478
0.5338026,0.8510616,0.17052509,0.04178026,0.27167678,-0.43343636,-0.22701998,-0.4879915,0.018466473,-0.060159355,-0.66404057,-0.46679324
0.3861576,0.5587547,0.18838249,0.07220616,0.36309415,-0.4630816,-0.34323803,-0.8048895,0.37558272,-0.19448976,-0.086037196,-0.2028223
0.44827667,0.26170567,0.3491552,0.09789872,0.4411679,-0.27825168,-0.9053334,-1.1467837,0.38884407,-0.16884951,0.20627709,-0.34250575
0.4156149,-0.03698774,0.33118454,0.11776314,0.44382915,-0.30062822,-1.218529,-0.8420723,0.3999753,-0.15413433,0.49996063,-0.33624867
0.4175916,-0.20436373,0.18957691,-0.26501966,0.08018717,-1.0736264,-1.386448,-0.1607298,0.3999983,-0.23186776,0.6192818,-0.14561048
0.6266719,-0.24391516,0.40000018,0.034959078,-0.33303854,-0.3765653,-0.2883575,0.057519097,-0.04295194,-0.036938425,0.56525123,-0.45798263
0.8228916,0.5207055,0.4000001,-0.00018045018,0.035026837,-0.5292344,-0.21981099,-0.23883033,-0.007950665,0.2766898,-0.32248774,-0.68346596
0.5952975,0.9408339,0.21015154,0.05155016,0.29175237,-0.43285528,-0.27653274,-0.4402464,-0.08184627,-0.0027567507,-0.72667634,-0.48614827
0.3925103,0.6479494,0.09508547,0.076656945,0.39094752,-0.39503577,-0.30193385,-0.68935245,0.070594065,-0.25345474,-0.24752071,-0.02025822
0.44605193,0.32847783,0.31388384,0.06702088,0.31821182,-0.46505836,-0.7842918,-0.9827579,0.40000424,-0.13628495,0.096857615,-0.32200405
0.45965865,0.046578337,0.34110966,0.09496024,0.41791695,-0.3098894,-1.1673431,-0.9502678,0.39999875,-0.15837315,0.36167932,-0.3416838
0.46116558,-0.13249843,0.2577778,0.02607486,0.35335124,-0.47764817,-1.3030105,-0.6515012,0.39996806,-0.19919823,0.5310723,-0.26209983
0.4553429,-0.24538381,0.08854833,-0.2703254,0.01585318,-0.93383896,-1.3122808,-0.07442364,0.40000114,-0.27054685,0.6281942,-0.078597076
0.57447404,-0.34709468,0.40000018,-0.010103865,-0.39731362,-0.36483058,-0.4800578,0.20561469,0.00954328,-0.18598968,0.6185384,-0.24214892
0.9160075,0.23944975,0.40000015,0.0156238135,-0.11981592,-0.47862795,-0.23340054,-0.20735243,-0.050889198,0.3466995,0.006029334,-0.797827
0.70457375,0.82578886,0.3369994,0.022898212,0.14014179,-0.4807993,-0.24147445,-0.35806313,-0.10265958,0.13831179,-0.5085323,-0.64985687
0.46945488,0.78194815,0.09494247,0.05479209,0.3149688,-0.36655405,-0.26844358,-0.5245009,-0.13957734,-0.13777028,-0.59618855,-0.26827568
0.435041,0.46166715,0.23032266,0.03820386,0.16935022,-0.48022905,-0.43935454,-0.83748174,0.4000458,-0.21943487,-0.106054924,-0.17741744
0.47434792,0.20674248,0.33229935,0.05567002,0.30165073,-0.35869843,-0.81313425,-1.0963314,0.39999554,-0.20755368,0.14155006,-0.28230858
0.441064,-0.020796306,0.3037192,0.055453487,0.3581162,-0.32258138,-1.1501898,-0.9684434,0.37447506,-0.18943518,0.37593004,-0.27574772
0.44217288,-0.1970842,0.20783697,-0.08897306,0.109128624,-0.6859813,-1.3285283,-0.4919849,0.39994925,-0.21114215,0.5530717,-0.1927174
0.43580803,-0.31541204,0.12531593,-0.29838097,-0.20091116,-1.0074799,-1.1397438,0.19240515,0.34673977,-0.3112345,0.61649173,0.04467303
0.8999488,-0.19159503,0.4000002,-0.019933328,-0.27804753,-0.44803414,-0.21794814,-0.04209176,-0.038724437,0.10248219,0.40550753,-0.68550813
0.8338034,0.636198,0.40000007,-0.009388919,0.035020277,-0.5158957,-0.24324863,-0.23410256,-0.025332807,0.20662053,-0.35102868,-0.74804115
0.51500076,0.89425373,0.14286034,0.017677331,0.27773738,-0.43081707,-0.30045414,-0.44335324,-0.0416105,-0.051450428,-0.6770948,-0.38863364
0.4370203,0.4730814,0.24466886,0.020871354,0.31996948,-0.39565253,-0.5087714,-0.8417642,0.40002626,-0.22627966,0.011894426,-0.31131995
0.4475221,0.2061399,0.32968098,0.060107734,0.383854,-0.1967297,-0.904908,-1.1353112,0.40000242,-0.22175759,0.26682472,-0.35651153
0.41592968,-0.056430064,0.2873619,0.04703606,0.36759728,-0.4329494,-1.2475334,-0.8177424,0.3999777,-0.2180792,0.5186276,-0.30347574
0.41590732,-0.21921353,0.16679592,-0.24825457,0.057196695,-0.9333735,-1.3742083,-0.18265477,0.3999437,-0.27676767,0.63017434,-0.12901072
0.79097086,-0.3174376,0.40000024,0.07555559,-0.3196662,-0.35785586,-0.16840969,-0.05078623,-0.123503275,0.07866182,0.5642669,-0.6430931
0.8789938,0.5322308,0.4000001,0.08142715,0.027028358,-0.5110664,-0.30732083,-0.3151028,0.056690007,0.24049403,-0.2630786,-0.7716508
0.5738524,0.89362913,0.19944595,0.11675715,0.29902062,-0.38061365,-0.34562728,-0.53239787,-0.054661196,-0.1400534,-0.5986795,-0.3511934
0.49192527,0.49518982,0.25409317,0.106514685,0.3945443,-0.38209915,-0.60555255,-0.9880673,0.39999312,-0.15411867,-0.102716595,-0.2849444
0.51112086,0.13848925,0.3728774,0.14274976,0.48222524,-0.13114901,-1.062943,-1.0991359,0.39135584,-0.11944653,0.27644524,-0.4196298
0.51658916,-0.07551375,0.32812408,0.04700494,0.4112135,-0.42120975,-1.2892171,-0.7462613,0.37736142,-0.13191214,0.5203831,-0.40960643
0.5255845,-0.2632712,0.20682447,-0.25988817,0.026433552,-0.95109165,-1.369582,-0.18817464,0.39997748,-0.18192498,0.6707859,-0.2507609
0.62798464,-0.35531002,0.4000002,0.043700084,-0.34174314,-0.41967848,-0.52230155,0.1408408,-0.0016863262,-0.12759326,0.72246635,-0.33022255
0.90810865,0.23355344,0.40000018,0.0067651616,0.02439154,-0.6314218,-0.37410644,-0.17987826,0.035206374,0.32895124,0.07926275,-0.7336062
0.7245361,0.8412933,0.35987902,0.040785924,0.26902223,-0.53866506,-0.39392796,-0.36655188,-0.0071072946,0.07998781,-0.54154044,-0.6156446
0.36393297,0.7426415,-0.023634652,0.035469513,0.372247,-0.4526533,-0.38648373,-0.66666627,0.20346634,-0.19115992,-0.31996095,-0.059749234
0.523473,0.15078236,0.34454143,0.121769115,0.46405986,-0.04124473,-1.0633423,-1.1406864,0.39483297,-0.10846657,0.2837865,-0.39143455
0.50229865,-0.17850459,0.2131796,-0.16100797,0.32245004,-0.87456644,-1.4690607,-0.446842,0.40000066,-0.14577664,0.61116457,-0.27134535
0.4712207,-0.32659078,0.40000007,-0.18601172,-0.35119468,-1.0447227,-0.8191902,0.31275496,0.1707885,-0.30022806,0.63975537,0.121661745
0.9554706,0.17442948,0.40000015,0.09064782,-0.112804525,-0.4865587,-0.3724358,-0.20007376,0.085827634,0.28476867,0.057077676,-0.8235653
0.65396863,0.9102317,0.34068918,0.08903144,0.21701664,-0.44606295,-0.3562526,-0.41437292,-0.01238814,0.018515497,-0.65000844,-0.57801175
0.39537337,0.65838605,0.15143831,0.10762952,0.30612025,-0.4011808,-0.40728298,-0.7729442,0.33385476,-0.09711387,-0.2495476,-0.19566676
0.44001582,0.29207635,0.36869052,0.083315395,0.40298,-0.2732702,-0.889019,-1.1265649,0.39493293,-0.031251773,0.1269167,-0.39574835
0.44053012,-0.008481085,0.39239568,0.09470967,0.4361312,-0.21539028,-1.1630591,-0.9592464,0.3975816,-0.040363513,0.41682538,-0.40764353
0.45647296,-0.2082358,0.3043754,-0.09215241,0.19694999,-0.7351776,-1.3995214,-0.48398378,0.39997306,-0.10239549,0.5798153,-0.29236802
0.40841317,-0.3759896,0.24990176,-0.27667984,-0.29524377,-1.1962565,-1.0058848,0.28236562,0.29025167,-0.20387852,0.65771973,0.005830656
0.8853885,-0.042746652,0.40000018,0.033627477,-0.22618489,-0.5398602,-0.33468795,-0.07614814,0.06170946,0.32246298,0.23505221,-0.6738141
0.7025884,0.76631933,0.4,0.016288105,0.15343691,-0.57994556,-0.35438463,-0.33901042,0.065360785,0.105366185,-0.532909,-0.6193968
0.5149491,0.8217194,0.07506557,0.030150477,0.4021287,-0.39672413,-0.37588212,-0.5605325,-0.044741113,-0.19363631,-0.53396976,-0.24613778
0.5277093,0.49014422,0.2349027,0.030315101,0.3822871,-0.44881356,-0.58038515,-0.8775598,0.40006304,-0.24258755,-0.10897718,-0.27188566
0.5391527,0.1754195,0.32567844,0.08385705,0.44210953,-0.2589843,-1.0362097,-1.1013843,0.40000296,-0.20545644,0.2513879,-0.41686258
0.5121042,-0.065474235,0.28414792,0.09327714,0.47195688,-0.1625857,-1.2376549,-0.85897976,0.4000051,-0.21960397,0.48240706,-0.36683965
0.48195258,-0.24674541,0.050216883,-0.29206303,0.08434771,-1.0439517,-1.3910062,-0.109195136,0.3999838,-0.30692634,0.6466846,-0.13030446
0.65711373,-0.2698794,0.40000018,0.010970456,-0.23196472,-0.37302607,-0.35913152,0.09996845,-0.03331632,-0.10705046,0.6429312,-0.36114627
0.8497355,0.58610183,0.40000007,0.044631906,0.12647024,-0.45102337,-0.2433877,-0.3167838,0.036542404,0.2750054,-0.33411863,-0.7590934
0.54621685,0.88828546,0.1382284,0.11230735,0.32075313,-0.25273445,-0.2965326,-0.53594875,-0.050591733,-0.0984835,-0.55855715,-0.3216716
0.49462816,0.4094213,0.2762034,0.03694565,0.3412492,-0.36182287,-0.6535042,-1.0567442,0.3999819,-0.14141317,-0.010318285,-0.26356137
0.50997186,0.05238852,0.36477223,0.05948586,0.4068263,-0.36049902,-1.1220719,-1.0423206,0.39999762,-0.11325155,0.34303218,-0.35741842
0.52276826,-0.20778115,0.26427683,-0.17411686,0.18939054,-0.8429836,-1.4308589,-0.42809325,0.39999974,-0.14309597,0.59174573,-0.24184403
0.49793625,-0.34721145,0.40000135,-0.09985069,-0.27508157,-0.8326873,-0.7896926,0.2361511,0.10263687,-0.23361115,0.6060679,-0.044241413
0.90648013,0.24933891,0.40000015,0.039303508,-0.055652108,-0.5589627,-0.28975618,-0.16083021,-0.05656009,0.21019581,-0.07819185,-0.7762851
0.7138817,0.89000064,0.34759253,0.08184178,0.19578035,-0.51704943,-0.31614962,-0.31916943,-0.12274664,0.045676325,-0.59569997,-0.5903155
0.371604,0.7074134,0.03334982,0.10630456,0.28320828,-0.4332534,-0.35259035,-0.70317626,0.2688067,-0.19071966,-0.18613204,-0.14683731
0.4635509,0.33320975,0.2878375,0.11495981,0.3904127,-0.31005004,-0.84844255,-1.1111101,0.40000078,-0.15636788,0.16768125,-0.30733156
0.444084,0.017089915,0.3152031,0.100438364,0.40362516,-0.31220326,-1.208409,-0.88353294,0.39997008,-0.14264254,0.44701636,-0.28417578
0.45200074,-0.19047073,0.17351308,-0.2842605,0.018571902,-1.0432881,-1.3604593,-0.09824241,0.4000005,-0.22053373,0.59656,-0.06954152
0.7791926,-0.15255849,0.40000018,0.0922419,-0.21188124,-0.46099648,-0.28658393,0.018044168,-0.06018306,0.072740056,0.50408405,-0.57377315
0.8112128,0.51841843,0.40000007,0.09118974,0.089213006,-0.53917414,-0.3534071,-0.20007128,0.020544374,0.24804878,-0.3174665,-0.6679098
0.5812285,0.89220893,0.23013967,0.10923555,0.34486815,-0.38409662,-0.38854352,-0.44745383,-0.04358049,-0.055679552,-0.5990559,-0.39782432
0.42526498,0.55256426,0.23857301,0.12256079,0.41605297,-0.32390693,-0.5493017,-0.95157236,0.39999804,-0.051760346,-0.07454941,-0.31375045
0.46319565,0.20216647,0.38297468,0.20866607,0.44929543,-0.06224964,-0.9685655,-1.1454644,0.3999841,-0.03271744,0.28210238,-0.39490473
0.44017965,-0.06671221,0.33727005,-0.06248882,0.31863886,-0.6522938,-1.3717341,-0.66417927,0.3999683,-0.03603603,0.5425,-0.3370584
0.43046913,-0.24202198,0.16293555,-0.34177858,-0.17394984,-1.1187901,-1.2753066,0.071634986,0.4000012,-0.13353181,0.63763285,-0.07348658
0.9085756,-0.017851228,0.40000018,0.004568046,-0.15457276,-0.5098244,-0.35632268,-0.12867492,0.056055043,0.2592619,0.1652363,-0.72471887
0.67970765,0.8991154,0.3447404,-0.00060528703,0.26327774,-0.49145672,-0.35388678,-0.39543918,-0.019681383,0.03240863,-0.63761175,-0.5890023
0.3997512,0.6911082,0.0724792,0.04490209,0.32623893,-0.39900464,-0.3729266,-0.71036494,0.17318211,-0.15503778,-0.2945694,-0.07417682
0.5131011,0.27132633,0.34419516,0.04680187,0.39120364,-0.38774475,-0.8948102,-1.0967736,0.40000075,-0.08564539,0.13770841,-0.37785497
0.50869447,-0.021247236,0.3258372,0.07067322,0.38638073,-0.32498297,-1.2014086,-0.94774437,0.4000004,-0.101788685,0.4403159,-0.36424473
0.4967008,-0.24468595,0.15494677,-0.25069842,0.016505277,-0.99771345,-1.3428832,-0.22089776,0.39995548,-0.17429465,0.6150932,-0.14442095
0.69829625,-0.301672,0.4000002,0.12204371,-0.36731488,-0.28191867,-0.27504948,-0.0007806567,-0.023098614,0.0028501158,0.56445825,-0.48653826
0.92143315,0.45892403,0.40000013,0.041478693,0.08113727,-0.54011273,-0.31105727,-0.2570691,0.05551368,0.23157807,-0.19397083,-0.81989485
0.5813355,0.95132834,0.18299025,0.085057616,0.35961154,-0.4000363,-0.35812098,-0.49418083,-0.012100597,-0.079651855,-0.6326825,-0.3889701
0.45976284,0.5832742,0.17424521,0.080965966,0.35142827,-0.41443852,-0.45048496,-0.85327864,0.4000055,-0.12774315,-0.1923013,-0.22598335
0.5027337,0.22817264,0.3385727,0.119250335,0.42770302,-0.18006404,-0.9326371,-1.1315268,0.39759594,-0.08661397,0.18352088,-0.39155287
0.4875925,-0.034236852,0.32447523,0.109220676,0.4330064,-0.3301219,-1.2464974,-0.92118824,0.4000003,-0.085186616,0.4510329,-0.37913862
0.49373582,-0.18438345,0.19852626,-0.15527439,0.24932998,-0.8661979,-1.4066703,-0.3982434,0.39997286,-0.14247401,0.60072184,-0.2533061
0.48250043,-0.39072582,0.4000002,-0.1671154,-0.40205798,-0.7913372,-0.826632,0.2859793,0.12245435,-0.20283112,0.64717805,-0.09957281
0.8473066,0.3505501,0.4000001,0.04169492,-0.09590269,-0.50007683,-0.32932383,-0.24497196,0.062149704,0.32028535,-0.16981055,-0.6617956
0.53832084,0.9311615,0.13434601,0.070726804,0.30737266,-0.37201744,-0.34261355,-0.53779966,-0.073772386,-0.12741342,-0.5368289,-0.32814768
0.51308554,0.48005596,0.23651965,0.060271513,0.40374446,-0.38852507,-0.5828796,-0.9489821,0.39998752,-0.18028474,-0.01235424,-0.296213
0.50565296,0.18479507,0.29839754,0.13550675,0.43179366,-0.09307827,-1.0182818,-1.1362299,0.36883447,-0.15303834,0.31619966,-0.39364794
0.49280527,-0.106065854,0.2538505,-0.009698142,0.41398066,-0.5624952,-1.3566753,-0.67293835,0.40000036,-0.16897172,0.5785785,-0.32098374
0.47519588,-0.23127018,0.06526509,-0.32249662,-0.022328572,-1.1659077,-1.3634453,-0.035185643,0.38423574,-0.26409808,0.6633631,-0.084956564
0.82592815,-0.31579518,0.4000002,0.06759064,-0.30558437,-0.4082085,-0.20142548,-0.015196656,-0.1446298,0.06643601,0.62270164,-0.6352729
0.88893825,0.45822048,0.40000013,0.091826454,0.013286687,-0.52284414,-0.34561148,-0.27091423,0.042375255,0.26664484,-0.16257094,-0.74493265
0.6132353,0.93066484,0.26499486,0.098969,0.24809036,-0.43600267,-0.3490043,-0.44746843,-0.039405454,0.012846503,-0.6654069,-0.4424624
0.4270115,0.556789,0.21770231,0.13213064,0.3273274,-0.47677106,-0.4671156,-0.8104262,0.39998654,-0.13262025,-0.11687251,-0.29248664
0.48897126,0.21260326,0.36539695,0.17308336,0.38065085,-0.31161016,-0.9410307,-1.1226144,0.38850805,-0.14443363,0.22152743,-0.37839475
0.46812618,-0.051109165,0.35360003,0.106981,0.37310967,-0.3309583,-1.2190274,-0.82919663,0.4000545,-0.13553992,0.46870065,-0.33696866
0.4458903,-0.23247421,0.1523639,-0.29853132,0.037946578,-1.0215249,-1.392483,-0.13626878,0.39999714,-0.21802658,0.6093082,-0.086452276
0.79115653,-0.23715971,0.40000024,0.12348775,-0.30445132,-0.3656784,-0.2664113,-0.019347202,-0.118261576,0.04824466,0.49630517,-0.522747
0.7684447,0.7267681,0.40000007,0.115177795,0.14740977,-0.5446,-0.34320977,-0.3045125,-0.057133198,0.11268471,-0.40178943,-0.6968021
0.35212225,0.75532746,0.022832483,0.16326839,0.3319446,-0.40510848,-0.31884417,-0.6672495,0.08247861,-0.13810168,-0.2832683,-0.14266893
0.54084975,0.33160394,0.2723626,0.16318887,0.4073019,-0.28332478,-0.70864457,-1.1190863,0.40000358,-0.14125255,0.1338004,-0.37342262
0.50106233,0.09500806,0.27219558,0.1370405,0.4121891,-0.38388512,-1.1309043,-1.0167706,0.39997718,-0.114796326,0.39843634,-0.39273152
0.5191033,-0.14100881,0.18929431,-0.15352213,0.075332016,-0.8333112,-1.3500488,-0.42084008,0.39997748,-0.17737684,0.5823886,-0.23349349
0.58584297,-0.38223833,0.4000002,-0.03817991,-0.3584533,-0.67290455,-0.6262608,0.20110726,0.04129882,-0.24365619,0.6824335,-0.14864431
0.97510785,0.19073726,0.40000015,0.07864162,-0.057069395,-0.59668994,-0.376515,-0.12802608,-0.0010581305,0.1879308,0.11544052,-0.83489525
0.6986863,0.83953077,0.39875814,0.11063359,0.17811723,-0.5304307,-0.396611,-0.31084085,-0.033447128,0.05707283,-0.5318399,-0.62603754
0.4970946,0.8412912,0.12240057,0.12611312,0.3151024,-0.38165602,-0.4140196,-0.4820587,-0.07037427,-0.15145579,-0.43995523,-0.22067167
0.47503135,0.38058928,0.30321997,0.11907759,0.33276978,-0.46625128,-0.7112131,-0.9584755,0.40000373,-0.10281214,0.090343036,-0.3800334
0.46682397,0.061689984,0.35494003,0.1200604,0.37805024,-0.34957993,-1.1319183,-0.98037255,0.3918778,-0.09050826,0.40723792,-0.40651375
0.47046682,-0.17965671,0.25668326,-0.18261983,0.13893464,-0.89182705,-1.3896325,-0.38633627,0.39997488,-0.14145194,0.60837203,-0.26401752
0.5427026,-0.38607258,0.40000018,-0.03942248,-0.35498416,-0.6229798,-0.63097334,0.19026911,0.041176833,-0.14955693,0.6879639,-0.29437372
0.8553928,0.22307831,0.40000013,0.051465657,0.0070333104,-0.573303,-0.35296747,-0.20095786,0.12224032,0.38856083,-0.10518367,-0.71155906
0.6372616,0.8584408,0.3353658,0.039238106,0.32474768,-0.49368027,-0.35240543,-0.45269465,0.09367526,0.027606709,-0.69692993,-0.520594
0.45811448,0.66094,0.054801784,0.06900543,0.42465377,-0.28002498,-0.30696565,-0.7698247,0.16408764,-0.2633333,-0.2788588,0.033129744
0.5133008,0.28817117,0.2985842,0.09709823,0.45465574,-0.1448113,-0.8385022,-1.205814,0.40000358,-0.11111505,0.15271884,-0.36576515
0.52845514,0.035577457,0.33378983,0.15281148,0.45835876,-0.019411204,-1.1107943,-1.0125878,0.3999556,-0.10867719,0.40052587,-0.37711102
0.50589573,-0.15217996,0.24760635,-0.07604227,0.30951512,-0.56296635,-1.3865976,-0.5638656,0.39997807,-0.12177879,0.57629055,-0.2756868
0.47609016,-0.24987225,0.06755303,-0.3251487,-0.069749735,-1.1543516,-1.3091149,0.035247974,0.39106777,-0.19344443,0.6371788,-0.047898132
0.7814467,-0.102511734,0.4000002,-0.0066372748,-0.19265571,-0.46858862,-0.27428207,-0.09597486,0.021583257,0.2003786,0.3034469,-0.59949994
0.76801836,0.7765275,0.40000004,-0.004354259,0.18107998,-0.47627503,-0.29236278,-0.35018563,0.0034404786,0.16374256,-0.5563453,-0.61627996
0.5528152,0.88581604,0.13184908,0.039357617,0.36310285,-0.31228897,-0.33722657,-0.532684,-0.08129069,-0.101005204,-0.65898335,-0.3591128
0.50250053,0.48487696,0.21175279,0.026886487,0.40986747,-0.3831421,-0.6085588,-0.9274574,0.39998734,-0.15366314,-0.013976131,-0.27039003
0.527968,0.16239576,0.28897718,0.13042593,0.44057167,-0.07416018,-1.0082594,-1.1225516,0.39999625,-0.14832743,0.32094508,-0.32588527
0.4911551,-0.15070628,0.18324222,-0.09740137,0.23321389,-0.80627596,-1.3957971,-0.4624535,0.39994863,-0.1694633,0.601038,-0.21264361
0.4362495,-0.28721213,0.123915255,-0.30457,-0.24092972,-1.1998924,-1.1136825,0.24799004,0.33814356,-0.26769012,0.65910184,0.054195877
0.9349186,0.2525059,0.40000013,-0.012569066,-0.024199089,-0.55814034,-0.28397086,-0.19962503,0.012706886,0.314413,0.03411284,-0.7991582
0.61705637,0.97976184,0.25697783,0.033124305,0.30764452,-0.4262444,-0.2925921,-0.42973846,-0.111010365,-0.0053526927,-0.64678824,-0.42568907
0.4402819,0.52326083,0.25786507,0.043507215,0.29940894,-0.48135567,-0.56409407,-0.8565686,0.4000023,-0.16482915,-0.054360047,-0.24714552
0.43999287,0.15404613,0.3712926,0.07076643,0.39955404,-0.25884563,-1.0658479,-1.0857702,0.40000132,-0.15492594,0.277479,-0.3069055
0.43149665,-0.080533504,0.32725576,-0.05571142,0.30734557,-0.5935843,-1.3704952,-0.7272201,0.39997086,-0.15643488,0.5043145,-0.26285353
0.440998,-0.27874905,0.15337162,-0.29641205,-0.1872112,-1.1214405,-1.1124527,0.18181275,0.31616008,-0.29202655,0.6315656,0.05211533
0.88377905,0.16582489,0.40000015,-0.017317688,-0.12311086,-0.5144373,-0.2302514,-0.21469684,0.057187047,0.3155778,0.028333638,-0.774586
0.6366958,0.8646476,0.31461287,0.01077976,0.20398548,-0.4807831,-0.2502881,-0.4234327,-0.022610944,0.0160726,-0.6490389,-0.53166455
0.41267562,0.77303857,0.029926116,0.0485184,0.362646,-0.31821007,-0.29937991,-0.6007898,-0.0792613,-0.21726337,-0.45215213,-0.25748006
0.49783075,0.40788248,0.27177182,0.03898245,0.44881043,-0.28081778,-0.74544555,-1.0838083,0.3999945,-0.17632443,0.010195618,-0.34908167
0.48847422,0.08633806,0.32331023,0.11838406,0.46361446,-0.07933975,-1.0837684,-1.094991,0.39997435,-0.1492536,0.3706201,-0.43787816
0.4916495,-0.16756278,0.22823493,-0.13036121,0.20630486,-0.7462118,-1.3964233,-0.49782568,0.399961,-0.19155398,0.60947454,-0.31783536
0.43000638,-0.32086802,0.31727374,-0.16990168,-0.26624626,-0.86353177,-0.94170094,0.22694014,0.24749564,-0.30518177,0.6840932,0.01957625
0.86024714,0.22374128,0.40000015,0.031827375,-0.010785241,-0.57375413,-0.29970026,-0.23435214,0.11413439,0.3569354,0.017298715,-0.7316018
0.6497362,0.86086094,0.2667721,0.019590659,0.2873876,-0.5020038,-0.2756895,-0.44225016,0.043596826,0.056813445,-0.7363746,-0.5346691
0.4080083,0.6380422,0.07867808,0.0488616,0.37140095,-0.39312285,-0.27392328,-0.73007226,0.18767352,-0.310966,-0.20978682,0.089124344
0.4759885,0.29458863,0.30521357,0.06001445,0.32503363,-0.4425249,-0.7923372,-1.0589036,0.40000623,-0.18658988,0.18452136,-0.29345164
0.4296849,0.037638504,0.29607812,0.048876233,0.2730076,-0.43620414,-1.1561544,-0.9466117,0.39997813,-0.176938,0.40944162,-0.25796095
0.40506878,-0.18630025,0.15584804,-0.2685301,0.048486408,-1.0554495,-1.3640871,-0.13535982,0.39997125,-0.21881147,0.5822158,-0.0544787
0.9109292,-0.19412942,0.40000018,0.07496516,-0.31535473,-0.40700337,-0.21001329,-0.041565597,-0.06654,0.122557,0.44698486,-0.6722088
0.6992298,0.8335721,0.3641206,0.091444306,0.10457043,-0.479606,-0.2503468,-0.30983472,-0.0475688,0.09097173,-0.5795557,-0.60435396
0.36228698,0.6506857,0.09666137,0.10858366,0.29764614,-0.39195892,-0.26840857,-0.72949475,0.21268241,-0.19851898,-0.1987533,-0.068955325
0.4825263,0.3394151,0.33932677,0.047283296,0.3131224,-0.4502248,-0.7362522,-1.0463575,0.39994374,-0.12319579,0.13584915,-0.35546634
0.45005846,0.031156743,0.35153154,-0.00041811718,0.23409273,-0.47657406,-1.1849699,-0.9325899,0.3907482,-0.11682671,0.42416087,-0.3430005
0.43668482,-0.20163381,0.21297687,-0.21328148,0.0474689,-0.85407156,-1.3773619,-0.27497566,0.39996836,-0.16407314,0.6101836,-0.14193489
0.59806114,-0.25423118,0.4000002,0.026496757,-0.37233764,-0.397728,-0.4132322,0.14376526,-0.02637448,-0.13571116,0.6953933,-0.31087586
0.8872953,0.4308767,0.4000001,0.029960873,-0.0023250899,-0.53427404,-0.25413194,-0.23840705,0.056777444,0.31277063,-0.19989052,-0.73183507
0.6099919,0.89616674,0.19348696,0.05615393,0.2856717,-0.4403605,-0.2732008,-0.45328414,-0.017131299,-0.056802407,-0.6825553,-0.47416803
0.4066548,0.62456566,0.121669434,0.0448784,0.34280354,-0.46325335,-0.30708617,-0.7624806,0.27652687,-0.14709358,-0.18448761,-0.09405939
0.47030094,0.25892434,0.34374377,-0.014494263,0.35641077,-0.40164796,-0.91540307,-1.091936,0.39337996,-0.08142183,0.16034283,-0.277589
0.4497858,0.019992424,0.31423268,0.03850738,0.36144465,-0.39700773,-1.2434964,-0.93268734,0.38721,-0.07685555,0.40647697,-0.27122426
0.48449454,-0.21705364,0.20219629,-0.20333831,0.207935,-0.7632533,-1.3947488,-0.39645204,0.40000167,-0.1394426,0.6041239,-0.12799318
0.49267116,-0.36099347,0.40000018,-0.18416105,-0.35408038,-0.8517695,-0.73258626,0.26032892,0.07475596,-0.2522772,0.64088225,0.09105265
1.0059886,0.080419786,0.40000015,0.016368795,-0.17075674,-0.5209095,-0.24925327,-0.143412,0.017759115,0.1998673,0.3471187,-0.89702594
0.791834,0.6949424,0.39604902,0.059611462,0.081098765,-0.5154437,-0.27490622,-0.30876374,-0.012918258,0.11759463,-0.35708967,-0.7584669
0.53705335,0.89467055,0.16959448,0.101355106,0.28090793,-0.41764086,-0.31822565,-0.47237667,-0.07406735,-0.09123263,-0.5662267,-0.33101258
0.3879278,0.5690896,0.20160753,0.07098856,0.22975236,-0.49359214,-0.3952415,-0.77201927,0.324728,-0.121352576,-0.08724266,-0.22865613
0.44312567,0.2593782,0.38386822,0.047129415,0.26064262,-0.47836065,-0.89231235,-0.9687204,0.40000415,-0.090848535,0.19614667,-0.33449167
0.4270616,0.03643493,0.39156714,0.014645173,0.3276367,-0.44588453,-1.1661216,-0.87567,0.39999786,-0.09707365,0.3853412,-0.31268936
0.40375844,-0.15511742,0.29649758,-0.1399749,0.14776434,-0.7300537,-1.3852334,-0.4872142,0.39982727,-0.12692404,0.5423818,-0.19277957
0.38964456,-0.26997083,0.16754366,-0.28686672,-0.14357242,-1.088344,-1.2196295,0.11047261,0.35447085,-0.2284144,0.59770226,0.03941663
0.7891508,-0.2157903,0.40000024,0.0124585135,-0.12850994,-0.46768972,-0.14158686,-0.1300235,-0.13006726,0.063579045,0.5459531,-0.59260964
0.88440245,0.54842603,0.40000007,0.043116603,0.08796563,-0.47399434,-0.24288398,-0.33204392,-0.007897886,0.26048672,-0.2449692,-0.79635817
0.5740862,0.95050806,0.14366105,0.08554557,0.27406272,-0.36430115,-0.26743507,-0.4809886,-0.083016634,-0.07705259,-0.6175328,-0.35867447
0.4072873,0.6082465,0.10177653,0.064889304,0.32063216,-0.38267174,-0.33944964,-0.83048224,0.31850794,-0.20867546,-0.18017714,-0.16643062
0.47793195,0.33413678,0.25417414,0.09595766,0.41760558,-0.23458488,-0.7840643,-1.169784,0.40001205,-0.17432909,0.12448298,-0.33364692
0.46971375,0.057467643,0.24559191,0.12948808,0.3605688,-0.28610983,-1.1161805,-0.91810685,0.3999796,-0.17508283,0.43099198,-0.3556139
0.48155802,-0.16365448,0.13982609,-0.13222216,0.13289925,-0.79637724,-1.3453928,-0.3600495,0.3999695,-0.22310908,0.61606354,-0.18811646
0.561706,-0.31425887,0.40000018,-0.06376213,-0.4469742,-0.69798595,-0.56119365,0.3119833,-0.04097065,-0.28794897,0.5975622,-0.056765843
0.81022865,0.6310779,0.4000001,0.068388015,0.09233084,-0.51094043,-0.24400067,-0.2987271,0.09823234,0.17051777,-0.32718617,-0.7222585
0.5277144,0.85957384,0.13964789,0.06815099,0.3546416,-0.3706943,-0.28102782,-0.5597477,0.04756608,-0.111431554,-0.5950549,-0.34164742
0.48252726,0.4923964,0.22632484,0.06028597,0.4555567,-0.35364008,-0.6200316,-1.0219918,0.39997745,-0.1993603,0.0031280522,-0.2680859
0.5029343,0.20501657,0.33605823,0.12001767,0.46809065,-0.11843072,-0.97413015,-1.2095444,0.38657635,-0.18258493,0.27312332,-0.3318354
0.48034227,-0.058878414,0.31658748,-0.026508637,0.3466009,-0.6895138,-1.3763413,-0.6623706,0.3999737,-0.16147284,0.52799994,-0.3049815
0.46472314,-0.23586638,0.12743273,-0.3418733,-0.10626623,-1.0685234,-1.3102107,0.09132773,0.39999837,-0.24579886,0.6428844,-0.039552994
0.83705246,-0.21561255,0.40000018,0.04231036,-0.24307467,-0.40297875,-0.22899929,-0.07789294,-0.027572297,0.13536222,0.4419058,-0.626784
0.84646535,0.6036082,0.40000004,0.030302608,0.12731868,-0.5305041,-0.2751418,-0.29235995,-0.0111482665,0.2533617,-0.35590836,-0.7389514
0.5049847,0.89351916,0.11271612,0.07422929,0.32837388,-0.3408189,-0.3019862,-0.49691087,-0.09103043,-0.07203791,-0.5808769,-0.29440746
0.40592557,0.66678554,0.12645604,0.054100484,0.33179212,-0.28305843,-0.17687342,-0.88991475,0.28209466,-0.22641383,-0.081425846,-0.16235234
0.45379305,0.51389,0.28304514,0.09018427,0.36806098,-0.14025888,-0.601778,-1.2376968,0.39822403,-0.15694797,0.17194653,-0.27206275
0.37280133,0.22526288,0.3753747,0.10623804,0.40351015,-0.074721165,-1.0327997,-1.0527896,0.40000236,-0.08991147,0.47787023,-0.2577341
0.34223643,-0.038667068,0.34084985,-0.23776947,0.24331431,-0.8515731,-1.4247508,-0.4181139,0.39998907,-0.13132639,0.5990723,-0.06881817
0.38447472,-0.21463618,0.40000013,-0.26201284,-0.44819388,-1.0764239,-0.7620908,0.36185113,0.11834633,-0.28694037,0.5678798,0.23055117
1.0117239,0.33924374,0.40000018,0.09873057,-0.17807363,-0.3834156,-0.28072563,-0.22201094,0.036731344,0.31529832,0.12597123,-0.9625733
0.5861049,0.935345,0.20632882,0.075426266,0.20457283,-0.38744944,-0.26688066,-0.45607442,-0.054704815,-0.04412971,-0.59214175,-0.43377623
0.39429784,0.6139074,0.13695632,0.095078245,0.3026562,-0.40092537,-0.29641747,-0.7872974,0.29395112,-0.17669693,-0.16579792,-0.1622971
0.46360174,0.25313076,0.35816607,0.1156534,0.4111331,-0.20527817,-0.8975466,-1.1299144,0.39999104,-0.10088785,0.21067007,-0.3824346
0.46064326,-0.06549959,0.36515045,-0.05502283,0.26456654,-0.62071145,-1.3446668,-0.73272604,0.399968,-0.097803585,0.5006594,-0.33200437
0.45888394,-0.25187525,0.16522026,-0.30689955,-0.11320545,-1.0226328,-1.3321301,-0.05447042,0.38185078,-0.19376366,0.6346994,-0.06642742
0.7216154,-0.2826645,0.40000024,0.019334443,-0.23940857,-0.40994373,-0.24286728,-0.03390947,0.007889301,0.07480336,0.5464532,-0.39742422
0.81334686,0.7102252,0.40000007,0.04227069,0.15452483,-0.53790665,-0.26696488,-0.37355557,0.06805183,0.19880386,-0.40124822,-0.6783681
0.506191,0.8504718,0.090332024,0.116346575,0.3722199,-0.3680013,-0.30062872,-0.5990707,0.009515283,-0.14791387,-0.47732118,-0.119145915
0.48568466,0.37751323,0.2662512,0.10668651,0.44965652,-0.23297216,-0.7439818,-1.152441,0.39999968,-0.09971499,0.017188903,-0.32944864
0.48951918,0.10303244,0.31130782,0.18716203,0.46296957,0.044070534,-1.0196121,-1.1366833,0.39996982,-0.0771191,0.32786235,-0.4198834
0.4860407,-0.12108961,0.23465788,-0.0035774647,0.38562378,-0.55615705,-1.3406007,-0.64119023,0.39996007,-0.10025119,0.57365614,-0.3748542
0.44618332,-0.27135956,0.044819262,-0.34969753,-0.19020079,-1.1999478,-1.1648991,0.2260602,0.35899502,-0.23977558,0.65351033,-0.026170019
0.8367274,-0.12357996,0.40000024,0.028925896,-0.14923774,-0.5171661,-0.3283209,-0.08685639,0.06130371,0.33105952,0.3857632,-0.6251878
0.79662716,0.65481365,0.40000007,0.0445954,0.16556777,-0.4857514,-0.34932467,-0.33071357,0.055072386,0.21658663,-0.47002155,-0.65045625
0.57858497,0.9154277,0.1647285,0.08040867,0.35029233,-0.29227906,-0.34806818,-0.53360087,-0.039415088,-0.10522205,-0.5841791,-0.29013044
0.46690124,0.5172731,0.21824594,0.0863423,0.26290822,-0.49520382,-0.4809394,-0.86641675,0.39999458,-0.09186459,-0.112023585,-0.2675597
0.52319497,0.21543457,0.3392474,0.13740583,0.3946803,-0.31503224,-0.922605,-1.1273698,0.400003,-0.09356533,0.19489813,-0.35628125
0.4946777,-0.09395847,0.30366552,0.034244806,0.29557592,-0.44161555,-1.2926508,-0.7695953,0.39109737,-0.092341565,0.4869654,-0.30372965
0.49150056,-0.24777324,0.16319957,-0.23770073,0.08207713,-0.9250367,-1.3719962,-0.25708252,0.39996964,-0.14189665,0.6146965,-0.13055627
0.6870995,-0.30935216,0.4000002,0.13862157,-0.35924828,-0.30716965,-0.27255547,-0.0077151186,-0.0857076,-0.011161605,0.63710916,-0.36040938
0.7978232,0.6467815,0.40000007,0.07973718,0.06646303,-0.5191732,-0.33608767,-0.2717383,-0.03581903,0.18014105,-0.35271624,-0.68530715
0.5213744,0.9225475,0.13563709,0.11311142,0.31198093,-0.37897113,-0.34764656,-0.4820942,-0.12264499,-0.091333784,-0.58334845,-0.20678239
0.46461254,0.4511145,0.2565959,0.10479085,0.4242192,-0.40270886,-0.638916,-0.96077734,0.39999846,-0.06936895,-0.041333072,-0.3252228
0.4723499,0.16742265,0.32136947,0.16799314,0.46467683,-0.14453702,-1.0132735,-1.1358238,0.40000007,-0.06471622,0.26131365,-0.39755422
