ancorasir/BennettWheelLegRL/experiment_data/2023-12-27_22-47-53/joint_torque_env2.csv
Joint_1,Joint_2,Joint_3,Joint_4,Joint_5,Joint_6,Joint_7,Joint_8,Joint_9,Joint_10,Joint_11,Joint_12
0.0,0.0,0.0,0.0,0.0,0.0,0.0,0.0,0.0,0.0,0.0,0.0
-1.713408,2.3529768,-2.1936126,11.636596,-10.164542,11.436078,12.0217905,-5.832858,-7.751734,-2.5557804,8.242639,-6.6727633
-0.01255101,3.9802356,-0.9760986,3.8252738,-0.38482898,5.6746573,8.293048,-7.993723,-6.7802386,-3.538588,2.3096888,2.2538607
-0.2068572,-0.9462843,4.5462527,5.046915,-2.1346917,9.799643,7.088392,-9.858167,-12.38551,0.70137286,0.60911787,-0.17324929
0.51543224,-1.1805485,0.338578,2.470838,-5.7714953,0.0868932,4.2650657,-5.126227,-5.3957696,0.3699707,0.48289496,-0.90437055
-10.747228,-4.7470036,-7.629365,0.7694284,-8.649109,-4.5612006,-0.05385065,0.6173878,2.5325065,-2.7109861,7.168458,17.084915
-9.189659,-0.3419453,-5.2199183,0.71650696,-10.978954,5.617399,-3.307953,1.2665792,0.8882337,-4.307844,2.105242,14.902759
-8.580989,3.6525695,-1.6438535,0.5975261,0.72549343,0.14627934,0.5297625,-0.6556642,4.4531193,-4.444751,-1.6435916,12.414118
-4.984821,6.1984944,-3.556435,0.06254244,0.9092549,-0.1973302,-0.30038214,-1.6839466,0.90127075,-0.9937322,-6.0341215,3.4701967
-1.9522927,-0.07661915,14.461705,7.9455013,4.02392,19.08225,14.827699,-8.620938,-4.156331,-1.9985998,1.9755144,0.32000208
1.2487249,-1.5169988,2.6086547,5.282379,0.8425008,11.097147,9.3831835,-5.83487,-3.255171,0.73695934,1.3153491,-1.0193505
-0.606472,-0.73735666,-2.3220541,2.0527298,-1.700574,-0.99652505,-0.8996961,-2.0950937,7.591916,-10.959097,0.20295191,16.658524
-10.137168,-4.7491617,-5.3982015,0.31744516,-4.5460997,1.1509448,-1.9068925,-0.06792951,1.3688868,-6.3077784,4.797616,9.328076
-7.1158457,0.022098899,-2.717465,-0.33167028,-1.2708628,-3.006798,0.23609471,0.11004734,0.26405823,-5.554801,-0.42723835,7.6312804
-11.16539,0.9674107,-0.20227623,0.011120319,1.7935425,0.9679699,0.09761274,-0.9943099,0.96605796,-7.4646673,-6.422106,8.296646
1.3455296,-0.7547083,9.479857,1.1147513,1.0529621,-2.4319634,0.17549896,-4.1918263,5.5546684,-0.5081587,-3.2246902,6.9199286
1.2488883,-1.9602516,6.8089437,6.03664,0.5406463,13.9053,9.328587,-4.4397135,-6.5387096,0.8502914,1.70471,-0.3968455
0.8258901,-0.8440302,0.9608271,4.6736193,-0.40566218,6.453101,6.900508,-3.1578283,-1.959615,1.000669,0.4462579,0.14244878
-13.502573,-4.708924,-9.608381,0.7473812,-3.6335351,-0.07083511,-3.3411622,2.3731709,-11.359945,-10.589587,2.346803,18.51876
-8.518066,-3.8094594,-4.729575,1.6792402,-7.518246,-0.14886451,0.7937963,1.3679688,0.095229745,-2.146943,5.7607408,10.584434
-6.9909587,-0.10334921,-4.1816998,-0.3263079,-5.161304,2.945778,0.119380474,-0.78292584,1.5081282,-5.10175,1.2856514,10.891123
-7.968261,3.154656,1.785208,-0.09500027,1.5001612,0.6363716,0.3432848,-1.2282782,1.5427458,-5.2037907,-5.954385,7.687434
-0.66921484,3.9573064,-7.135917,-0.034652233,0.63543105,-0.9313123,-0.28591967,-1.8843336,1.9519747,0.8092466,-7.673749,0.12615204
0.23237139,-0.73627853,11.259557,4.8438125,1.9038606,16.07009,10.352827,-6.4439425,-7.0327497,-1.0690907,1.3202825,0.12677562
0.39723265,-0.29825497,0.8098878,5.460827,2.2734723,9.71074,6.1413393,-4.9302697,-5.5759587,0.02895093,0.12515211,-1.1126624
0.8733165,-0.49564058,1.5803955,3.1503766,-3.310134,2.0816715,5.950586,-1.293212,-1.6185441,0.34817183,0.15940881,-0.9296963
-12.790075,-6.67601,-9.131431,2.8097925,-4.492548,1.440553,0.10930061,-1.0902646,2.6508386,-6.113122,7.6718426,11.345983
-8.699731,-2.1168795,-7.299008,1.1818495,-4.078701,-2.969953,0.3407228,0.50500023,1.1892503,-5.557839,7.022476,9.158124
-8.04159,0.42429435,-5.8129363,-0.021532893,-1.692059,-3.0942945,0.298218,-0.3201313,0.35618582,-6.959396,2.8462763,9.286508
-10.132467,2.4560456,-1.429585,-0.39304638,1.4992461,-1.0543153,-0.0041997433,0.062603,1.9675604,-6.7207894,-6.8796988,9.079443
-7.3591876,1.9568303,6.4251223,0.24666137,1.2481842,0.22777176,1.4367537,-0.0143351555,-0.23677722,-3.4631076,-10.125306,4.534235
-5.39353,0.73663473,16.115429,8.932175,1.6407979,19.743658,17.298166,-5.3485007,-6.541868,0.07625723,1.693254,-1.3261719
-0.46674085,0.921083,5.6094384,5.3747416,3.9271147,10.591779,9.199586,-4.310495,-1.9569279,-0.56024975,0.16110706,-2.0532978
0.99977946,-0.9930132,-1.5902778,4.1660256,-0.30183065,5.341168,7.244209,-3.5383399,-0.7860173,0.6447427,1.0605708,0.4847889
-20.0,-2.6402442,-16.78437,-0.256221,-2.450822,-4.010472,-2.5897832,-1.1414938,9.135412,-12.760958,0.03256178,19.661846
-10.0739565,-5.513381,-8.17554,2.9726863,-6.666712,3.3545594,1.2616303,0.8549576,0.82477725,-5.6307335,9.769249,9.57791
-7.5606356,-4.0377574,-4.0565724,0.13743514,-6.684794,-1.5329192,0.26323056,0.38919985,-0.25104457,-3.4935074,5.630324,9.749351
-6.74339,3.4575858,-2.9746106,-1.2471123,0.32162285,-6.1043973,0.45557165,-0.27870488,1.5607967,-6.8382087,-2.8068404,8.681819
-9.374447,2.5941324,0.45165038,0.40722322,1.4648902,-0.061622143,0.8853327,-0.24313879,1.4600706,-6.028341,-7.227001,9.254393
3.0754247,-1.9617455,13.330494,1.4729385,0.21690083,0.4507866,4.5869474,-3.3801563,-2.5859652,4.2717767,1.142179,-10.566998
-0.45656765,1.0288835,5.387158,8.097199,2.180526,14.246371,11.795892,-4.6629725,-7.7449684,-1.6704841,-2.1755266,0.98790747
1.3125986,-0.80737513,0.7773247,4.586829,-1.9666768,5.1072936,8.731179,-3.7965415,-0.31300503,0.69360256,0.39410615,-0.60963297
-17.794828,-1.0581222,-10.1087055,-1.2455899,-4.8235164,-3.0370326,-2.3659875,1.8757362,-5.26175,-4.6262536,2.9719403,18.709564
-7.500693,-2.9355876,-5.7495894,1.1097639,-5.749284,-4.0538607,0.6437659,0.55866987,0.33177477,-5.3030005,4.5586567,8.257322
-7.891166,2.4164262,-5.705211,-0.6200606,-2.7034554,-1.1017137,0.2600274,-0.9690795,1.3423388,-7.130156,0.83198893,10.657808
-9.321065,1.0274086,-1.4966375,0.33562875,1.7493281,0.017982006,1.1662915,-0.5233054,1.4945142,-7.842575,-3.6438737,8.771513
0.7657318,1.8365363,-1.5386782,0.48127317,0.98404527,-1.5945401,0.052428246,-2.9768271,2.9368446,0.70137954,-3.747475,0.9145322
-0.06611824,-1.5563726,10.293235,4.4975905,0.12354469,15.821561,8.913431,-6.9977903,-4.160887,0.52375084,1.988431,-0.5303788
0.94993377,-1.6914867,1.4285128,3.9640093,-3.9020271,4.627866,6.4755154,-2.0722528,0.19414535,1.1688157,2.0557926,-1.6552854
-13.315489,-3.8942297,-9.026944,5.2006884,-6.5611544,7.6798487,-1.3737721,-2.8099196,2.7588716,-3.6605115,10.285189,11.982829
-6.8835373,-0.96736693,-5.062753,0.9783663,-3.584633,-1.2328973,0.79435325,0.5415395,1.6449084,-3.285857,2.6009,10.482192
-7.7380276,0.10037267,-5.8271246,-0.4824928,0.08164531,0.8077786,0.18711853,-0.9541693,1.0120949,-7.00795,-0.31521904,9.210974
-8.732154,1.5359707,-0.23494434,-0.14568233,0.6162765,-0.5342126,0.6901134,0.1506114,1.0627137,-6.521016,-7.3400965,6.7833314
0.85634136,0.31156015,7.98347,1.8770852,-0.11469048,1.6286721,3.0069113,-2.412095,-1.6666808,1.496021,-4.7909474,-1.1292946
-0.3368681,0.83269596,9.051477,8.692148,1.8428271,17.930285,12.457951,-7.5593014,-8.671673,-2.1305337,-3.586823,2.465951
1.7047355,-1.4051433,0.9932325,7.6684766,1.9681978,9.419889,10.131841,-3.7236862,-2.7348928,1.4253478,1.009964,-0.23275173
-15.43751,-4.614599,-10.296133,0.5811053,-1.9152256,-1.9310775,-1.3465192,-0.9839165,4.511878,-6.9251084,4.8278685,16.307056
-6.4394846,-0.054017186,-3.179856,0.8313212,-6.4736686,2.0376508,0.16865945,-0.4914117,1.015772,-3.2596207,2.6510859,10.367341
-9.378967,1.5264323,-3.9985614,-0.4667194,1.1988986,1.9745576,0.15536296,-0.983325,2.3102129,-8.494453,-2.4741395,9.606112
-4.6061378,5.8008337,-5.363323,2.2848637,1.411633,-0.17853081,4.839791,-1.7571759,3.48243,-3.3052251,-6.1792603,3.9782262
-0.47353363,-0.85257006,14.557668,4.385972,1.7034688,16.51428,14.877226,-1.4295053,-12.518103,-2.8488517,3.1973605,1.0584502
1.5371151,-1.9814119,0.72780764,5.00208,0.6570178,9.789753,8.272334,-3.0239768,-2.7731464,1.215632,0.9692941,-0.5930581
-7.204633,-2.804256,-4.21069,-1.0254166,-4.7791715,-5.3755093,-5.2912197,0.39477468,8.579583,-9.645538,2.8140533,16.340042
-8.96498,-4.0189266,-6.88108,0.731325,-5.3381586,-1.6908728,1.0427916,0.58365726,2.2179523,-5.0955606,2.4910247,10.900373
-7.7482576,-2.6010392,-5.7544756,-0.85089487,-4.7800927,-3.6169472,0.5686271,-0.045140147,0.5532908,-5.0418634,0.89282024,10.095055
-9.54325,0.33817387,-1.1098697,-0.20590425,1.4985558,0.7246256,0.08441591,-0.67734766,1.0556201,-6.0767765,-6.751589,6.8265805
-9.963759,0.5684163,3.9996653,-0.12446886,1.5076363,0.4385581,0.28717017,-1.2175207,0.5763007,-6.0588603,-9.345905,5.102623
-0.7063749,-1.2065763,13.463729,6.743885,4.4638386,17.94964,15.196318,-4.4185605,-4.5697403,-2.053513,2.9454784,0.3879671
1.5240421,-1.555445,-0.12784658,4.7935643,0.9678309,10.243804,8.093601,-4.1433783,-2.3552089,1.2942727,0.9873071,-0.30749184
0.65044236,-0.18479884,1.8375928,4.8006277,-3.0463634,3.5556607,6.7893453,-2.884316,-1.8582964,0.8405855,0.75846004,-0.60595536
-11.560937,-2.4324808,-8.715761,2.8208158,-4.4031496,-1.8710935,0.80256367,-0.11947632,3.3671632,-5.6256266,4.8896236,14.193486
-9.558401,-4.0112076,-5.211341,0.15910184,-6.3277187,-3.6422508,0.3996942,0.46781427,1.7214296,-3.7114859,3.7996244,13.168152
-9.050701,0.6277635,-1.4744647,0.1448369,1.1230288,-0.6732116,0.5911087,-0.042060375,1.3711945,-7.3791065,-3.246808,7.8017635
-9.046712,3.5525904,5.2081785,-0.21615386,0.91132545,0.12606204,-0.7950449,-1.8604016,0.7856864,-4.9132695,-6.9285116,3.627187
-0.21218741,-0.79975414,14.421959,8.424268,3.7062168,19.245123,12.450218,-8.608613,-9.086871,-1.4446354,3.5518703,0.54543114
1.85654,-1.8615646,0.1010564,4.08331,-0.9184191,12.081157,9.107987,-5.425358,-1.8645635,1.3026394,1.3705018,-0.8060782
-18.031826,0.06750536,-12.67511,-1.1240053,-4.1266174,-1.2152792,-2.2631638,2.305883,-4.3717403,-2.7226384,5.284969,13.560591
-8.910441,-1.9295976,-6.8618603,0.31218332,-6.0917683,-2.7744815,0.6560266,1.0489534,0.9008604,-5.041281,5.2426796,10.471176
-7.6569223,4.3465586,-5.9728217,-3.074051,-2.4788575,-7.789752,0.22116423,-0.35341358,2.0611079,-7.0860558,-1.6437526,10.186757
-9.471487,1.0082946,2.002417,0.22326493,1.6789238,0.563632,0.23875952,-1.2599912,0.50535965,-6.194105,-6.101817,4.777585
3.1673336,-2.867395,16.461338,1.5263329,1.2422893,-0.31033707,5.9916744,-3.519432,-3.8808181,4.876627,1.9692652,-14.886265
0.107284784,-1.7873316,10.386912,6.047496,2.4800744,17.540653,11.028749,-7.019659,-4.37921,0.36200374,2.0229492,-0.22940806
1.0940961,-0.9563254,0.24861813,3.6267688,-1.085391,10.238008,7.6553745,-5.2934256,-3.8217492,1.0965004,0.80600965,-0.44230247
-17.76729,1.5662949,-10.967284,0.7132416,-1.1870615,1.0803016,-2.4842918,1.3412881,-0.78699446,-1.194624,4.305389,18.758753
-7.1119857,-3.8932416,-2.8682842,0.6611939,-8.189989,-1.4632195,0.46060956,0.75311434,0.30726236,-0.5471163,5.074918,11.364757
-6.8534613,0.24364448,-2.5359354,-0.13082397,-2.0654445,4.4477944,0.34674573,-0.8977146,1.270853,-4.524505,-2.990264,11.084727
-9.363527,1.7859198,4.296267,0.17149687,2.2291083,1.0001726,0.32787228,-1.6902528,0.87869364,-5.6801605,-6.5179634,6.474531
-0.42576838,-0.60942173,13.947391,10.394398,0.27237225,20.0,-4.657296,-1.1355658,2.7800848,-1.8951735,-1.0588479,6.054286
1.0799357,-1.9227479,5.1552415,5.8483963,1.4742277,9.969114,8.009989,-3.6143904,-2.9812362,1.1520517,1.5006628,-0.4233603
0.9478822,-0.3889799,1.1063085,2.9790468,-3.15423,0.91556513,6.3442826,-2.3396025,-0.26677927,0.37251854,-0.000541687,-1.2863383
-9.977149,-2.1698322,-7.9285517,1.5792264,-5.501114,-1.9357569,1.0284498,0.35255384,2.584384,-5.559701,4.4604816,12.301923
-6.406296,-0.10324097,-6.318774,-0.100731984,-5.116153,-4.108798,0.40085244,0.48955703,1.0824573,-4.2552752,3.6436641,10.288834
-10.48197,-0.32919574,-3.07829,-2.3411975,-2.0076454,-4.4197245,1.0048213,3.9259262,2.1081562,-8.220608,-5.9975367,8.554083
5.8941054,1.1890429,15.703221,5.9698997,-2.051997,14.220657,11.630743,-6.525,-7.119022,2.140936,-5.1288757,-4.106472
0.5554917,-1.6294026,9.2191925,5.2676244,1.3002675,16.587528,11.054755,-6.779297,-4.0639224,0.29725343,1.7090161,-0.26281542
1.1996882,-1.2933644,0.46518195,4.2446322,-2.4495127,4.418663,4.8712482,-0.4323243,-2.968537,1.2136239,1.0002437,-0.32000208
-17.366606,-1.5656433,-10.482293,0.92225176,-1.8384669,-0.19440198,-3.135514,0.5941448,-5.0976458,-5.412055,7.42163,18.796556
-9.090418,-2.791579,-6.3525114,0.39248252,-4.384669,-1.1211796,0.05324197,1.4735922,0.86748284,-5.4016547,6.95208,11.122788
-8.7286625,-0.02910006,-5.033,-0.61693823,-0.4400921,-4.2586317,0.045695066,0.060733557,0.74274707,-8.1497345,1.9981403,9.232593
-9.634048,3.825346,2.5811987,-0.2943045,1.1855806,0.839715,-0.1838746,-1.4163146,0.88669944,-6.838565,-4.8725452,7.5826874
2.6494107,-2.1174016,14.21555,1.1301179,1.8412623,-3.2292519,-0.050269127,-2.8445868,5.20763,0.38723946,-3.4263592,10.690782
0.33582348,-1.439282,8.57726,5.4816403,1.2609223,15.972213,11.148978,-6.9098973,-3.8673503,0.5359361,1.5498676,-0.45293057
0.730366,-1.2508068,-1.3360133,3.6607153,-0.71816087,7.2402267,5.4802475,-4.2813654,-4.003978,1.2411158,0.66094637,0.21233493
-14.649995,-4.317828,-9.20798,0.55572087,-2.6807835,-2.5313902,-3.4316204,-1.5632308,6.3239183,-6.335518,4.6292896,17.130924
-9.736044,-5.090163,-7.2588305,1.8774657,-5.877124,-1.294282,0.9049113,0.9553541,0.9188293,-4.5920773,5.001301,10.66308
-6.6327806,-0.021074295,-3.8918116,0.54999113,-6.204406,0.9059398,0.16500199,-0.7733712,0.13580161,-3.945665,0.41496372,9.092694
-8.495359,0.8727303,-2.194106,-0.86754227,-0.6596296,1.8416648,-0.14778566,0.96265745,1.2360013,-6.4270434,-1.5673258,8.271034
1.7596993,-0.96168196,8.597184,1.4013977,-0.42955196,1.6222401,3.7502413,-2.7979417,-2.321572,1.7879544,0.3050977,-3.723367
1.077816,-1.5545502,3.4647727,5.5857863,2.534999,11.637465,9.3342,-6.32768,-4.292581,0.82214546,1.401833,-0.73370504
0.6484909,-0.96170807,2.2170446,1.953985,-5.091696,-1.5743912,4.7709303,-0.2866342,0.09343618,-0.07773328,1.9022238,-2.9149032
-10.788114,-2.7859225,-8.977145,2.1176217,-4.762941,-0.41600537,0.6166079,-0.07686138,3.5587296,-5.8491287,6.33064,12.834929
-9.01697,-3.6179388,-5.070643,-0.31145847,-6.0000916,-0.45816207,-0.42286253,0.17116094,0.67855716,-5.974106,3.2047262,11.21281
-9.744811,1.7743607,-4.8273983,-0.62266564,1.601496,-2.146802,-0.17229414,-0.33255935,2.0918822,-8.889863,-1.3819317,10.355313
-9.545611,2.8307877,2.2050283,0.37912166,1.3779948,-0.09842324,0.57079387,-0.37811518,1.1851412,-4.65493,-5.5589013,8.610165
2.83384,-2.3444102,13.568602,2.1484332,0.9200479,0.23003387,4.484481,-4.106478,-2.4296947,4.849678,2.6299086,-12.896939
0.29395247,-1.5234725,10.742979,6.365223,1.8036847,17.034256,12.356953,-7.253578,-4.6828437,-0.31804514,1.9276128,-0.48871946
1.0448933,-1.0880983,0.47900987,4.97102,0.4521966,7.3193526,6.806225,-5.180691,-3.06746,1.4641061,0.6830375,-0.1016019
-16.666714,-2.3072665,-11.565474,-0.48784715,-1.6068761,-1.0594778,0.10399413,-1.5400776,7.1730776,-7.6119537,2.2601385,15.398779
-9.992203,-4.7182164,-7.187075,2.2816195,-5.481045,0.6274723,0.84238267,1.1186078,2.5102568,-4.7294345,10.390369,11.2703
-7.409753,2.4164033,-4.4019547,-0.5076427,-0.20770144,2.3044457,0.33745813,-0.92184544,2.4679935,-5.992053,-0.59339786,10.73645
-11.19115,-0.20688474,1.6705962,-1.9165082,-0.9674618,-3.1857202,0.30200577,3.1584873,0.3209356,-6.014074,-7.1422434,6.4362507
-3.3404632,7.3253803,-6.501358,0.6510372,0.67837095,-1.0520244,0.801137,-2.9571795,2.841959,-1.5393825,-8.174975,-0.7935779
0.21333241,-1.6758008,10.144536,7.3355074,3.709968,17.014027,14.133847,-7.0998034,-3.432421,-0.5644086,1.8269496,-0.10668856
1.2434599,-1.2223462,-1.0963466,4.605195,-0.53393674,8.697484,8.333354,-5.915377,-1.8420212,0.9542564,1.2693042,0.6476548
0.6635392,-0.11961222,1.5827096,0.9631757,-5.136317,-1.1039186,0.44271898,2.3400097,-8.083697,-8.075661,3.1521914,14.220765
-10.493549,-6.0979238,-7.664627,0.9358071,-5.0520387,0.7521553,0.26775098,1.2053634,1.0797448,-5.4548297,7.297368,9.318252
-6.0840816,1.0007905,-3.501102,-0.53218526,-0.6326399,-3.4025564,0.40558386,-0.31169486,0.670079,-4.387888,-1.1159934,10.2963085
-8.038271,1.48674,0.016723037,-0.18907905,0.93115854,-0.48431444,0.1644274,-0.31655502,1.9334188,-5.1174383,-6.441292,8.217562
-7.716854,5.5814934,3.9394732,-0.7458391,0.7072538,-0.37728047,-0.51722336,-1.7041132,0.7535405,-3.888209,-11.053237,5.478463
-1.226907,2.5220852,12.17567,10.759007,3.5372868,20.0,12.819304,-6.844378,-4.736041,-2.565173,-1.2178841,0.5785899
-0.6512128,-0.44690537,-1.2615426,7.2742844,1.528336,8.862656,6.4818983,-3.4055872,-3.3266606,-0.72090137,-0.25465727,2.255903
0.72421753,-0.56896925,1.9310642,3.1199467,-4.3220773,0.2243241,5.283242,-0.9543048,0.5699172,0.57967293,1.1308815,-1.151886
-13.418047,-5.089388,-9.002155,1.8907341,-4.8430386,-1.3151996,0.08286238,-0.6986277,3.1369987,-6.6207924,5.479064,11.384009
-9.966037,-4.3521633,-4.1170716,-0.20318657,-5.429459,-4.2702475,0.10450578,0.3374604,0.99930227,-4.1578674,2.1895304,9.778322
-7.03176,-0.33453012,-2.7012148,-0.20336694,-4.3069963,3.6834033,-0.11983597,-0.93535733,1.4951656,-3.735093,-1.5231693,10.780891
-9.599187,1.0625567,3.8508086,0.27202225,2.0605466,0.6263943,0.36036003,-1.3744817,2.4082267,-3.8929822,-10.466473,6.1184235
-0.5729146,-0.36125088,14.408897,7.9717793,3.1383069,17.768152,16.390686,-4.3021774,-6.6966705,-2.5488875,3.0534148,1.1968436
0.56260204,-1.1615725,-0.746644,5.8684525,-0.38790202,9.767773,8.139717,-4.318113,-3.5777795,0.84995687,0.9401436,0.20444822
1.0236355,-0.68195474,1.5725375,0.8572163,-2.7939863,0.45470852,3.8467884,0.03375268,-0.35572684,-0.27964854,0.10624981,-2.2214468
-15.096809,-4.941016,-10.973081,1.4958012,-4.837077,-1.1943355,-0.38039494,-0.2000742,3.2900665,-9.318919,7.2588205,10.95738
-7.3617344,-3.7783146,-3.850292,-0.47607327,-6.989937,-2.6027846,0.56460476,0.7022968,0.21408573,-2.1682527,4.22869,10.974219
-8.388862,-0.93794024,-3.545109,-0.28416252,1.3716797,2.0435908,0.3545692,-1.5157762,2.2254674,-7.4196734,-2.809783,9.306888
-8.89085,1.5406152,3.0419755,-0.2219646,1.1117687,0.43543148,0.0067920685,-1.2755423,0.13572961,-5.4311523,-5.16465,5.998912
1.0088835,-1.3400867,14.769369,0.939888,2.7896059,-3.1744452,-1.1131783,-3.6528955,5.733803,0.076865196,-3.8464599,9.880585
1.1146709,-1.8710246,5.8061824,7.918279,3.1305795,13.113445,11.453951,-3.7815766,-4.0034504,0.7700243,1.4204345,-0.5089246
-2.9333565,-2.08118,-3.7617216,2.2981806,-2.7958794,-0.3850968,4.1414666,-3.8338625,5.300755,-2.2801018,8.199285,9.632422
-8.861074,-3.7618122,-5.9418745,1.9241393,-6.5093307,-0.25909233,0.6367476,0.75181603,2.178852,-2.010266,8.052877,13.600193
-6.6934586,-0.6031705,-3.9405649,-0.08498216,-6.036083,3.6218443,0.4198575,-0.37998915,1.1886861,-4.1956496,0.2294743,10.712629
-9.714548,1.8578589,-0.9073256,-1.1935446,0.04814148,1.5100846,0.27800795,1.0612917,1.4919288,-6.473763,-4.377292,9.983738
0.36419392,-0.41898414,11.113769,1.4635997,1.0249312,-2.8136902,0.37935257,-4.202626,5.880122,-0.13854527,-2.7390592,8.502434
1.1456277,-1.9475486,5.1251936,5.1569567,1.9589963,13.2191105,8.327962,-5.0729194,-3.0969076,0.9516588,0.7570939,-0.066704035
0.7485647,-1.5383439,2.5348532,2.5428262,-3.6523173,2.5816832,6.1374373,-1.4402432,0.6392009,0.37159276,2.1971684,-2.6227498
-11.8633995,-5.5090466,-9.309391,1.6828429,1.7799853,-3.7934654,-0.5371642,-1.8666711,2.1071084,-7.552441,8.70343,10.085451
-7.337139,-1.7169805,-6.853101,0.11094281,-0.6080412,0.78677046,0.44549227,-0.44744575,0.5868827,-6.874761,4.6540585,8.251491
-8.96381,0.37746954,-2.6454258,-0.275028,1.0775526,-0.98089814,0.2716217,0.27448225,2.3857555,-7.0539713,-3.6000264,8.742333
0.12996936,0.4942273,8.633648,1.3759277,0.35789728,0.43555272,3.269617,-2.5569296,-1.9316438,-1.5757637,-9.740872,-0.10583711
-1.6403558,3.2714372,9.430078,7.6094427,5.087411,17.469995,12.798167,-6.4889617,-2.8100517,-1.4129883,-1.4120831,2.436229
1.5755684,-0.9438534,0.21994585,6.3401966,2.3456054,11.385429,8.179607,-4.865678,-4.2200522,1.9643686,1.1728992,-0.32311535
0.62546337,-0.32634544,1.90649,1.6681678,-2.712931,-0.7403721,5.0594664,0.050418973,0.5878177,0.03418255,0.17255664,-2.2991655
-11.853807,-4.9358716,-8.285577,1.381673,-4.2356787,2.1743593,0.04147339,-0.33497643,2.7640882,-4.179269,7.2661257,13.080701
-6.7203617,0.7719619,-5.887167,-0.2549937,-2.2697597,0.5262718,0.4502225,-0.23937058,0.59142894,-5.742284,3.2702127,10.595046
-11.066718,2.145601,-3.1634836,-0.38821697,1.1360159,0.8293631,-0.36016327,-1.2308829,1.0102667,-8.677099,-4.662671,8.317575
-0.20239581,3.2160325,-5.987744,0.4026072,0.6487808,-0.9217696,0.31535196,-2.051567,1.9969563,1.773748,-5.8763075,0.101379156
-0.5361663,-1.0785718,10.0877495,4.277897,1.4398832,15.588554,9.651132,-6.5766697,-6.0959945,-1.3526179,0.80583143,0.09592068
1.4390675,-0.9052627,-1.4213953,6.620982,0.73685646,7.117551,7.9406776,-2.315903,-4.285419,1.3643607,0.79650843,0.21174943
0.16193855,-0.52445006,1.8973211,3.1528382,-5.966757,-1.3579783,3.7112715,-0.3454007,-1.2192104,0.69776523,1.0159383,-1.3624148
-11.554954,-4.230501,-10.052105,2.3011608,-3.8918672,0.42687923,1.079109,-0.2517476,4.110544,-7.858054,2.9409606,11.426342
-8.83941,1.386797,-6.955804,-0.040499568,-3.3976676,3.0845222,-0.42820263,0.82412934,0.7107126,-6.318646,1.5309407,10.236487
-10.582524,1.3326488,-1.0126051,-0.1979394,1.3152727,0.32628107,0.31304803,-0.9497497,0.66204756,-7.807641,-7.064706,7.149928
2.91614,-2.8324842,16.557213,2.270916,2.288629,-2.0615463,4.5654135,-5.058662,-2.6975136,5.462034,1.2186055,-13.028433
-0.62834215,-0.70145845,9.969785,5.620168,4.299182,16.383055,11.336079,-9.061608,-5.1602764,-0.49456513,1.1338162,0.32908612
1.4755263,-1.2923647,0.9396298,3.6810608,-2.132027,7.1440725,7.135201,-4.3618016,-2.8474042,1.4799597,0.96960163,-0.66217923
-16.693037,-1.7499623,-11.542614,0.061264783,-3.5779388,-2.6969614,-2.182522,-1.2202357,3.835041,-5.675051,6.145035,18.145672
-7.013571,-3.6903417,-5.733042,0.2779361,-4.9550405,-3.247044,0.38133645,0.8160152,0.063568026,-3.0081725,6.5822296,9.895107
-7.0077205,1.481725,-4.3416123,-0.6845021,2.1865208,-2.2609596,0.116886854,-0.27052832,2.5969982,-6.161708,-1.1119785,9.293991
-8.099887,3.4160175,3.982706,0.25626767,1.2897348,-0.08624601,0.99368477,-0.5209966,0.24427046,-4.549366,-9.181971,6.0468636
-4.702105,-0.3188038,17.087467,7.6799526,-1.7336854,20.0,13.135406,-0.9730301,-6.6621943,-0.04007435,1.2350044,3.0036736
1.2370312,-2.042224,3.1514695,4.702778,1.0661719,9.089979,6.7360735,-5.2292175,-3.3629727,1.5497553,1.2091246,-0.5730194
-2.9567676,-3.6363196,-3.056155,4.6060386,-6.240034,0.30239773,5.8516846,-1.1484382,-0.2147494,-1.8922669,6.256733,7.255352
-13.184281,-1.9682314,-10.306297,0.46892118,-2.2914732,0.041816235,-0.34086275,-0.48898673,4.7889743,-5.535336,3.981428,16.573666
-7.741972,-3.7916656,-4.3716235,0.20592809,-6.9995375,-2.732542,0.3498037,0.34995842,0.41512963,-2.7969587,4.979979,11.103408
-8.488001,0.84930277,-4.568459,-0.7236569,-0.12767291,-5.8462024,0.11746836,-0.03126645,0.23870434,-7.0968657,-1.275154,9.115182
-9.963336,3.0506024,-0.7910197,0.3764174,1.3586788,-0.2571969,-0.24639097,-0.80794954,1.1128474,-5.9904876,-3.1346326,9.773899
0.72145975,0.069150925,11.161462,1.7957122,-0.49782443,0.83103967,2.2154918,-2.399722,-1.8681055,1.4698645,-5.779651,0.003988266
-1.4991682,0.036774635,14.034107,10.916218,0.51577663,20.0,17.367842,-4.0006704,-11.811764,-2.2594965,2.4574304,0.078624725
0.5539589,-1.0897408,3.8790874,4.7376566,0.24573946,11.985468,6.627717,-6.443324,-4.699667,1.1748618,0.7517042,-0.037744164
-0.32052302,-2.6195047,-2.3146753,2.7187796,-3.0319107,3.9284558,5.120168,-3.533802,-2.9923508,-0.4647045,4.1745534,1.5479157
-17.413126,-2.311932,-10.58823,-0.1274665,-1.2856015,0.04610598,-2.0771775,-0.40244973,3.044611,-6.952593,5.2494726,15.908131
-8.321025,-1.9826167,-7.245425,0.7653155,-4.8330126,-2.0648642,0.9569771,0.2933991,1.506638,-5.9712067,3.2818978,11.738996
-7.70108,1.425014,-4.237985,-0.29749805,-4.967275,-0.28543973,-0.15377331,0.4499159,1.2280854,-4.394672,0.67090964,11.755534
-10.475237,0.27977252,-4.076944,0.07022762,1.2862186,-1.3322518,-0.043646097,-0.2488501,0.8808771,-8.003013,-2.1274667,9.217196
-11.524162,2.6862533,3.6678739,-0.255293,1.4908726,0.43098474,-0.40994668,-1.2450094,1.2702065,-5.8421926,-9.255767,8.177324
3.416471,-3.1505408,15.7953,1.7433376,2.533416,-2.3354034,4.7550125,-4.1299253,-0.9861324,5.014826,1.7935259,-13.849764
-0.16640234,-1.3761253,10.808876,8.093601,2.8534808,16.75675,11.450898,-5.677514,-5.770653,0.11503552,1.846277,-0.31860095
0.26018202,-0.9644717,-1.4655598,5.29791,-0.76259637,6.7130036,6.9733696,-2.405498,-2.709726,0.87146544,1.221916,0.5265037
0.3052168,-0.59704304,2.011163,0.5923041,-6.070143,-0.7652062,-0.4087792,1.3601375,-5.8829265,-7.975045,2.433878,14.827795
-8.453283,-3.464793,-6.840268,1.7048336,-7.018767,-3.1180124,0.7119303,0.8574648,1.196512,-3.7967377,6.4323144,12.023405
-8.048833,1.4396967,-5.6848392,-0.2998184,-3.0818744,5.2757,0.11385894,-0.78189635,2.0298998,-7.2814636,0.12322104,10.899745
-8.970427,1.5957613,2.885755,-0.07960582,1.6395957,0.60346127,0.23968542,-1.4100366,2.3262465,-5.4478006,-7.3305364,7.750146
-4.161974,-0.55146146,17.756678,6.5618734,-1.4331081,20.0,11.218822,-4.46724,-4.433412,-0.38281298,0.97893023,4.823122
0.051344752,0.02360773,2.2220573,6.1938705,1.1843526,10.374513,8.674044,-3.5634322,-6.366589,-0.36008883,0.39908648,-2.767193
1.2541401,-1.2928271,0.80121624,2.9219732,-4.3553534,2.3420053,6.754757,-2.5519829,-0.6196196,0.6304206,0.9125476,-1.0562015
-14.205072,-4.3262887,-10.631954,0.2830875,-4.403683,-1.740602,-0.86411476,-1.2478101,3.862693,-7.3770475,5.5414076,12.52575
-8.88937,-6.3892317,-4.5719523,-0.7967284,-5.800594,-3.0882108,-0.6722517,0.99529207,0.88353294,-3.2929778,6.572416,9.014563
-7.4267793,2.3515296,-6.0118647,-0.8958452,0.09788108,-5.467138,0.6049998,0.31147194,2.9745805,-6.378398,1.3765748,10.867536
-9.462648,1.3995893,1.4640322,0.48745275,1.6453512,0.7976527,0.028139591,-1.3229833,0.38968801,-4.889564,-6.9988704,5.3688107
0.5487957,0.19966626,11.372239,-1.213397,3.243528,-0.41069508,-0.034627914,-3.636877,2.5971344,-0.16920328,0.12207079,-7.994082
-1.0518858,-0.11686754,-1.9376528,9.828062,5.7626276,16.178421,9.170836,-8.373658,-6.4772596,0.13208508,-0.106070995,2.2388859
1.1042523,1.4094038,-1.5976188,4.7526093,0.18676889,9.244795,8.670123,-3.0833545,-4.0285563,0.005173646,0.36511773,0.29210222
-2.6834168,-3.1141796,-4.2759557,3.6993108,-5.0256214,1.4934638,3.017214,-3.7162766,-2.2999923,-2.0255556,7.3862157,6.2755365
-11.805825,-6.124609,-11.868808,0.48586518,0.71710837,0.20917773,0.452847,-0.850163,3.5088656,-5.7709165,8.044702,15.028368
-9.6511,-2.461785,-7.778265,0.4547126,-1.8833547,-0.5971077,-0.38814688,-0.44462085,0.83429766,-4.497364,5.747916,9.834361
-6.842383,3.7081838,-3.4493184,-0.51601493,0.46959502,-0.26715994,0.34171683,-0.7907977,0.16320941,-7.4357696,-2.5126624,6.227961
-9.42233,3.9021564,2.2176168,-0.4032688,1.0835881,0.63463664,-0.49537373,-1.2911906,0.6098605,-4.902048,-9.863848,7.375657
-2.5987835,-0.3407359,12.83851,3.8328204,0.9990952,20.0,18.229979,-0.29194593,-12.50655,-1.947083,3.1898708,0.79433775
1.2151043,-1.4664023,0.5747446,3.2342467,1.6741756,11.574484,5.633837,-5.505678,-3.4015071,1.8475052,1.2613757,-0.73316574
-12.742043,-2.102414,-8.9574375,0.8223579,-0.6210928,-0.035841227,-2.085943,2.4313838,-8.165106,-8.378887,0.591589,16.00066
-8.246957,-3.224587,-7.1567264,2.8590844,-4.528562,2.8268619,1.6169572,0.4895022,1.1176366,-4.7510138,6.191221,9.058997
-9.77067,0.26577592,-7.559457,-1.3935455,1.5607024,-6.3543043,-2.2162514,2.6646433,1.6328701,-9.088803,0.24955559,9.37557
-10.581603,-0.58433557,-1.0734111,-0.29353166,1.0465262,-0.2513733,0.7491952,0.002460003,2.1928873,-7.919999,-9.211974,7.4408493
0.23544979,-0.8492135,15.253995,12.23496,0.59078217,20.0,-3.720725,-2.5335498,3.8279285,-2.124555,-3.1541448,9.102377
0.32869875,-2.162904,5.911066,7.1815495,0.7672548,12.514109,7.7854156,-4.912961,-6.946264,1.1928205,1.9778256,-0.6512795
0.88545084,-1.4238267,1.957582,4.81746,-3.5911746,4.297261,8.207558,-2.8125262,-1.4563875,0.3700018,0.8513658,-1.1393707
-13.042952,-1.5101914,-12.444688,0.332285,-2.3292336,-0.10088852,-0.50016403,-0.9258187,5.3651514,-6.1346655,7.544836,16.108479
-7.9386587,-2.6459436,-5.8681335,-0.0025865883,-4.985979,0.16869283,-0.34801555,0.4842559,1.1816941,-4.915255,3.230502,11.488468
-8.170912,1.5962677,-2.850119,-0.047365904,1.0672421,1.588778,0.09926772,-0.9019468,1.8862787,-5.9105244,-3.231835,7.843334
-9.017937,3.446236,3.9192214,0.6263723,0.6496246,0.27371562,1.1480377,-0.6471205,-0.15631883,-4.2633085,-7.45461,5.0817957
-3.7569408,1.7838085,16.192625,7.4568663,-4.124314,20.0,-1.751111,2.0379868,-2.618271,-0.92402744,1.58079,-6.9293847
0.4989792,-1.644897,5.0329165,7.5241666,3.258681,12.296714,9.690927,-4.673146,-5.549954,0.5957663,1.3624988,-0.5715426
0.7794404,-1.0337343,1.6525977,3.2370713,-4.571889,0.24489689,5.639653,-1.8689418,-0.4051778,0.5342655,1.474946,-2.0834498
-16.456465,-3.5595715,-10.835686,0.9453082,-4.2905807,-0.633404,-1.7358079,-1.5233488,4.5381613,-6.095905,6.9631553,13.787212
-7.3212285,-2.4655042,-5.8991094,0.42599353,-5.0986176,-3.3374505,0.604733,0.45851064,0.90408033,-4.5538673,3.8878083,9.034316
-8.252463,1.9924939,-2.8229835,-0.025744915,1.1081283,1.542537,0.31463718,-0.90996623,1.5127854,-6.7436695,-4.103257,7.14071
-5.6799965,2.6684077,4.9512806,0.35132438,0.5666504,0.4312142,1.228879,-0.94351673,-0.62991154,-3.332253,-6.6340575,3.3043635
-1.3736619,-0.4745288,13.340166,7.511851,3.150897,17.829655,12.488881,-6.1065254,-4.7176657,-1.3881475,1.7018332,0.43925786
1.6876225,-2.0819373,3.345534,6.140727,1.4088194,10.114663,8.91691,-3.3877892,-3.4221778,1.3061562,1.1654787,-0.38276064
