ancorasir/BennettWheelLegRL/experiment_data/2023-12-27_22-47-53/joint_torque_env37.csv
Joint_1,Joint_2,Joint_3,Joint_4,Joint_5,Joint_6,Joint_7,Joint_8,Joint_9,Joint_10,Joint_11,Joint_12
0.0,0.0,0.0,0.0,0.0,0.0,0.0,0.0,0.0,0.0,0.0,0.0
0.36160487,1.1316946,-0.23386788,13.317549,-7.0112767,12.761767,12.665966,-7.906901,-10.746472,0.20220137,5.902282,-1.798902
0.19980955,-0.7134396,-0.45790577,8.787319,0.7175641,15.769686,10.342725,-12.916015,-15.507442,1.5662923,-1.3960602,1.0342171
-0.12532687,-0.35355616,3.209831,3.8138132,-3.416051,6.755847,6.2964897,-8.276605,-9.10234,0.08080822,-0.05503583,-0.2764359
0.5862119,-1.0055556,1.0502472,3.6998518,-4.921493,0.123013735,4.425004,-2.642053,-1.7929919,0.7304704,1.2754359,-0.9264035
-8.294084,-5.114404,-6.4658623,0.30446994,-9.46106,-4.309338,0.72267747,0.1808734,2.2190537,-3.1423657,8.061558,16.385838
-6.732312,-1.2638474,-4.641032,-3.2518508,-12.251287,-9.986385,-1.1394444,0.6937969,0.018082425,-1.4532185,4.4939404,14.770737
-7.730051,1.5496917,-2.9740424,-1.5987458,-7.0193233,8.2918625,0.5577805,-0.31842065,4.3203607,-6.9123826,-5.9489374,11.440952
-7.717127,3.7020006,1.541429,0.16584402,1.643086,0.57335377,-0.61810184,-1.5123367,2.3296075,-2.1812327,-4.7918115,7.2319975
-4.9777155,0.83597374,16.143171,9.229258,1.1151743,20.0,18.271261,-5.9893026,-6.8258843,0.28889084,2.0960698,-1.9913874
1.0375345,-1.8550134,7.1709137,3.281086,1.4583143,11.139096,7.625141,-5.06253,-2.8376243,0.5632078,1.890893,-0.7125094
-1.0520184,-0.6808586,-2.0538888,2.5081084,-3.6834724,0.90255857,4.7268376,-1.5163772,0.9919599,-1.2236173,1.6653814,1.9907207
-9.911519,-5.2644424,-8.22699,1.730144,-4.9643655,2.3506525,-1.8804598,-2.641107,1.6025717,-7.364917,8.5698185,8.576111
-6.97748,-0.7114916,-5.2468557,-0.93441284,-4.086712,-3.517211,0.62174606,0.0014939308,0.6149046,-6.544126,3.45849,9.21944
-10.92099,1.4754305,-2.5383534,0.12577796,1.4608548,0.49448895,0.043441217,-1.112683,1.2302059,-7.7588553,-6.465711,7.619972
-4.350936,4.3966255,-1.2887385,-0.610972,0.6574545,-0.12769398,-0.1832676,-1.753872,0.69670475,-3.5441043,-6.0573287,3.796927
-1.060791,-1.3347216,12.498789,9.575573,2.2118134,17.95264,14.208013,-5.7416334,-5.3103313,0.045464635,2.784978,-0.2001611
1.4621642,-1.995373,1.2613454,5.9919863,0.059691787,8.556515,9.1741295,-4.047494,-1.7256725,1.4612813,1.117391,-0.20002449
-19.078375,-0.6692574,-11.347546,0.60317403,0.9644828,-0.6300773,-3.1321402,0.08601165,2.2108855,-3.2000742,7.541627,16.069876
-6.2171483,-1.098779,-5.974928,0.6847159,-4.804909,-2.6503763,0.8737428,0.76101744,1.4072784,-3.4431581,4.6712103,11.988971
-6.5097423,2.0447927,-6.0649934,-0.4709214,-2.6871421,-0.9891347,0.36430192,-0.20120215,0.44129658,-6.1190443,2.6695108,10.432126
-11.681987,3.4304671,-1.4962171,0.09438443,1.6552651,0.49163198,-0.53653836,-1.263186,1.0587314,-6.1201878,-6.995413,9.380669
0.41379273,2.8626804,-5.485821,0.4395523,0.97628236,-1.648807,0.02469635,-2.6125336,2.8855915,0.5516434,-3.6672266,0.7076377
-0.42408067,-0.57834435,10.459719,7.338669,3.0701084,15.650882,10.894071,-5.140038,-5.3518057,-0.2577979,1.3195238,0.20067054
1.5806689,-2.1814299,2.7716792,5.736576,2.8241525,7.921812,7.2865553,-2.5013583,-4.0178246,0.43301606,1.689863,-1.575819
0.37445498,-2.0074778,3.8812642,1.7510532,-2.5476155,-1.7927943,2.9960525,0.6747987,-3.2166166,-0.98933864,0.6415701,-2.8293736
-10.398144,-6.314063,-8.723061,2.976561,-4.9962873,1.5077825,0.92351556,0.6176586,1.2906386,-5.859884,9.158592,10.451173
-8.596979,-1.3162875,-5.025209,-1.0915778,-5.043834,-6.3232403,0.7779174,0.53317976,1.148633,-4.595236,1.232914,10.082638
-8.436211,0.1787113,-3.0936449,-0.52198005,1.5382682,-0.36344075,0.1659658,-0.54728603,0.5107971,-7.2135777,-3.622249,7.356611
-10.897443,-0.7084115,-0.10280776,0.19371152,0.7478659,-0.041293383,0.34479785,-0.42069864,0.79843813,-8.072039,-7.1750355,5.5278883
3.784882,-2.9467785,14.473326,2.229806,1.1214713,-0.38968754,5.8422966,-4.1558733,-2.6567938,5.926468,3.1777854,-15.1899185
-0.68806493,-0.8233328,10.317263,7.3992257,3.3028703,20.0,12.904517,-7.5506535,-2.347283,-0.38858944,1.6906395,0.4325578
1.3104565,-0.8926089,0.8428686,6.8066,2.1838446,9.376814,8.272163,-2.781015,-3.8025305,1.1129453,1.207767,-1.6086411
0.6189513,0.43811828,-1.2511274,5.2952843,-0.6147696,4.286352,7.849622,-1.7665652,-0.82096124,0.52534723,-0.030486107,-0.14183992
-13.207553,-6.118126,-8.431814,1.4947376,-4.9900074,0.56379855,-1.3524945,-2.388269,7.7929792,-12.353192,1.9905391,19.121264
-9.568494,-5.512719,-5.7769914,2.70514,-6.912545,1.4320104,0.95475316,1.0118525,1.4900419,-3.9158025,7.2312727,8.668281
-6.5224214,-0.9060378,-3.8038497,-0.90457594,-4.819309,-5.900397,0.367054,-0.23087049,-0.13921162,-3.405231,3.289167,9.663085
-8.266125,0.3175019,-2.687066,-0.29078627,0.84638,-1.5007422,-0.018469095,-0.52830505,1.7514313,-7.4552383,-2.2825704,8.542552
-10.752484,0.74749064,2.9255617,0.5732167,1.0489144,-0.1736188,0.85221434,-0.095274925,0.4699612,-6.1367903,-8.586324,7.1904364
2.3434606,-2.2268312,15.094657,2.4221573,2.9707036,-2.3576794,4.959214,-4.8692575,-2.8537014,4.609277,1.8270726,-12.67591
-0.3497396,2.2627015,6.518805,6.22122,4.098242,15.686268,11.638315,-6.136952,-1.982536,-1.0314173,-1.7270584,2.316186
1.108523,-0.7626234,1.4874377,2.9322963,-3.2884135,3.0467935,7.0592856,-1.9379591,0.22908962,0.42957592,0.77790403,-1.0436695
-15.338302,-2.6043963,-9.702139,0.521271,-3.0240376,-1.1791358,-2.5312276,-1.0513434,4.743814,-3.68732,5.2891254,16.529547
-6.9625907,-2.3174667,-5.835963,1.728306,-5.449829,-1.424596,0.6029694,0.57422173,0.46742892,-1.9018911,6.947567,10.75502
-5.555992,2.3011475,-4.3192,-0.23007515,-3.733444,2.0071518,0.20031244,-0.31260848,0.9646088,-3.976169,1.4209462,9.589199
-8.929547,3.1843832,-1.5581851,0.3021376,0.68561983,-0.090935946,0.38697442,-0.6165848,1.398197,-5.7308445,-4.6263556,10.013962
0.5438032,0.08426297,5.8675094,0.43070793,0.68018544,-1.8052497,0.22433472,-2.3082073,2.3785393,1.7371871,-4.2410464,-0.95254076
0.19979477,-1.3123703,8.777284,7.0401344,-0.5136999,15.206519,11.929736,-4.504031,-5.746456,-0.33681476,2.0663877,-0.61542153
1.0418756,-1.2063384,0.8447012,6.453491,-0.9428351,6.712104,7.576154,-3.9366922,-2.1267462,1.6162655,0.8075663,-0.3746345
-14.996691,-5.7468977,-8.769722,0.47862774,-3.7663128,-0.8352879,-4.1449466,1.5370946,-10.897536,-4.5381584,7.123144,14.116714
-8.373431,-4.7277308,-5.1842422,2.0275903,-6.0083785,-1.5827987,0.7959943,1.1716555,0.9503714,-2.782622,6.2357903,10.4053
-7.0792084,-0.42584753,-5.057951,0.31923574,-6.418351,1.6365099,0.1946547,-0.40873766,0.17579605,-4.644949,1.4112637,10.127019
-10.050367,3.0105295,-4.0731773,-0.084317446,2.2360659,-0.55102205,0.16316998,-0.46654272,2.440454,-6.903544,-6.5570626,12.1674185
-0.9990196,1.8350083,6.3929234,0.8616456,0.34109068,0.80947864,1.9850173,-1.2410178,-0.98514795,0.17875838,-7.0008864,4.7538548
-2.6101217,3.3723488,11.375886,5.506367,0.0023987293,15.88575,11.000426,-6.421468,-3.563119,-1.6946114,-2.5589285,2.0182667
1.7069345,-1.7599242,0.16827005,4.907016,-0.61974347,8.323582,6.763123,-4.3374033,-4.122935,1.7599564,1.029887,-0.5257304
-13.962703,-3.0569136,-11.124806,1.6713346,-4.8797493,-1.0550174,-0.008960485,-0.13975239,4.489555,-7.723729,5.01091,14.103311
-8.166234,-0.5338304,-7.6510572,-0.16807255,-1.3606489,2.322059,0.18860126,-0.9080367,1.5923355,-7.267844,2.544918,10.621492
-10.741633,3.216954,-2.9451032,-0.22814918,1.091117,0.7235062,-0.09879094,-1.1648974,0.9939756,-7.9670653,-6.426236,8.519819
-1.5557283,6.805462,-10.660252,3.1046054,1.515207,-2.5743096,4.4594955,-3.761566,2.6039605,-0.6748203,-4.80391,-2.143197
0.09430277,-1.2889118,14.344278,7.0025706,4.125188,18.510443,12.6744995,-5.69145,-5.462593,-2.2374728,2.8407645,0.63977623
1.5930777,-1.4810574,0.26504314,4.818433,1.2299564,8.052053,7.2216797,-2.0266266,-2.540945,1.3127611,1.0339451,-0.36793816
-5.793303,-2.1078978,-4.175009,-0.010922849,-3.712497,-3.171306,2.163925,-2.0595396,6.2289157,-2.6738517,3.221764,7.0371065
-10.565153,-5.2627506,-9.18463,3.19354,-5.0857925,0.4986241,0.89085317,0.4922464,2.8389223,-4.951948,9.066131,12.018935
-8.195126,-2.8472571,-4.4032583,1.1357708,-6.404103,-3.0118597,0.40805995,0.13500226,0.27303258,-3.0445664,4.463892,10.199631
-8.857524,0.9936549,-1.6017777,-0.003396988,1.5345795,1.8986912,0.25282645,-1.0365758,1.8005555,-5.8559685,-4.1861916,8.454725
-9.016725,2.1935267,3.988936,-0.11547804,1.5858955,0.40284085,0.30250382,-1.38939,0.4893467,-4.4817247,-10.445688,5.8334017
-1.2281866,-0.4481697,15.002288,8.841828,-1.4440882,20.0,17.717087,-1.6048708,-11.646656,-2.3698225,2.7890043,0.9524698
1.160809,-1.867825,0.9991696,5.973435,2.427906,8.214647,6.871653,-0.96730375,-2.3920956,1.2886367,1.1749673,-0.6512526
0.29710317,-1.211981,2.1039968,1.3557184,-4.263917,-0.8686415,2.2465615,0.06214428,-2.03939,0.49396122,2.0384526,-3.6703014
-10.827868,-4.332753,-6.680768,0.9755857,-5.328559,1.9518833,0.7865417,0.58506966,2.5109525,-3.5885978,5.8913393,14.759705
-8.131417,-0.8709686,-4.0145254,-0.20473778,-5.3044243,-2.8475833,0.619889,0.003664732,0.43285605,-5.8801064,2.6381168,10.172553
-8.741668,3.1003067,1.6714613,0.093126655,0.42997313,-0.22639942,0.37147415,0.18022919,1.3409553,-5.2834396,-4.787608,7.046817
-8.242206,5.292525,1.141814,-0.6887491,0.42612308,-0.40715772,-0.24030733,-1.7779152,1.3428673,-6.301426,-7.0320063,3.007721
-0.84430104,-1.2255187,12.43019,5.3504467,2.926754,19.495678,12.973564,-6.729252,-5.937805,-2.3263566,2.8626776,-0.18121552
1.6155226,-1.1488922,0.6245805,4.8273726,1.266092,8.476678,7.842261,-3.0044482,-3.2726297,0.9289248,0.7772403,-0.20506668
0.25500846,-0.48507357,3.1189966,0.88375956,-4.0831714,-2.2926068,0.66990274,1.2742906,-5.1005087,0.3328836,0.89206123,-3.4831634
-8.963075,-4.583871,-7.0820794,1.7682626,-4.0602684,0.9123029,1.3248599,0.2925768,1.5844767,-6.7923265,2.6979558,8.281391
-7.8265038,-1.5685652,-5.0692773,-0.6059592,0.7085943,-1.1489885,0.30841613,-0.29637742,1.2998468,-7.381892,-0.2181406,8.582334
-11.0677805,2.7003012,-2.0196295,-0.059934378,0.84486854,0.6704378,-0.10286093,-1.0677068,0.65230465,-8.628522,-3.8815174,7.2152295
0.7370521,-0.4020778,8.831596,1.6523855,-0.36845064,1.441392,3.8362303,-1.829097,-1.7939223,-0.6075289,-5.83835,-1.2720883
-0.7013323,-1.0657644,12.768043,6.668955,4.3776846,17.809563,14.173153,-6.1943865,-3.3410397,-1.7962599,2.3941045,-0.14755344
1.310355,-1.7735729,0.2996751,6.362501,-0.034649372,8.501439,6.984141,-3.7387109,-4.164438,1.9476359,1.2826076,-0.4987353
0.15522194,-1.6226912,4.5704494,1.7256528,-5.2001543,-3.9405787,1.4773682,2.382052,-7.1570554,0.66832376,1.8982415,-6.0730505
-8.8383045,-6.377162,-6.8350587,3.013362,-5.977065,2.164019,0.9477644,1.0592222,1.5353128,-2.3919983,9.284446,11.721181
-8.6826515,-0.90119827,-5.0011377,0.38401854,-5.312214,-0.7150636,0.028942347,-0.8255861,1.0758162,-4.739975,1.1408607,11.110759
-9.889068,0.78082573,-2.5301428,0.11038983,1.5630314,1.2496023,-0.064707994,-1.3443351,0.4562819,-8.200061,-2.527794,6.4606133
0.19034025,3.2802467,-5.8568907,0.68278646,0.84236526,-1.2438619,0.18810368,-2.9793296,3.0686944,0.54375017,-3.4953308,1.4701064
0.43126,-1.6255188,8.946773,7.8166533,2.2894936,16.12466,13.185794,-5.2361817,-4.2402673,0.080639124,1.7577367,-0.44266135
1.4476644,-0.97671056,1.4858723,4.270296,-0.45973182,5.5796227,7.3801985,-3.088222,-2.5428424,0.876997,0.5319294,-0.24164283
-15.087764,-0.6973443,-9.5593815,-0.819961,0.31239897,0.41459846,-1.8208215,-1.2458681,4.865622,-7.0849547,1.134922,20.0
-7.623032,-4.274231,-3.2509158,-0.49328816,-6.0890803,-1.5274744,0.029890776,1.2603817,1.3176923,-3.0608363,4.223898,8.722978
-8.377,0.34772456,-3.1377897,-1.8592001,-0.19090676,-3.454907,-0.9660388,1.5926292,1.132899,-7.416685,-1.5063089,9.739339
-9.40185,3.311843,6.402502,1.3971283,-0.51672745,0.80446696,3.884019,1.1496754,-1.182605,-2.6048548,-9.236279,5.8006554
-1.2408183,-0.9176812,13.046995,7.903493,3.3662653,18.109943,13.767205,-6.853561,-3.904762,-1.6587431,2.7003412,0.21146011
1.1897655,-1.6540811,0.39630568,7.465707,1.5898718,9.99575,9.605254,-4.415951,-4.289466,1.4111173,1.2163689,-0.49906278
0.3022051,-0.90157557,3.6787033,2.073865,-3.9080596,0.30978262,2.851791,-0.2739141,-1.0009091,0.053328276,1.2466502,-2.7829864
-9.225013,-7.7688484,-7.0400705,3.2801807,-6.18287,3.2965198,0.8707137,-0.3922906,2.3008296,-4.9591236,8.604447,12.337426
-8.134339,-0.29491246,-4.5304627,-0.39643902,-4.7025995,-5.5924315,0.25136292,0.37266278,0.7844364,-4.1989326,2.9512482,9.936012
-10.334802,0.7700365,-0.2852999,0.20678473,1.4257755,0.80709195,0.20481706,-0.44340134,2.3979204,-5.2386203,-6.083724,8.611673
-6.179457,5.6785164,0.46136189,0.075629696,1.2809284,-1.9372007,0.12640667,-2.0212007,1.2958308,-3.4042296,-7.241997,5.1698594
-0.1426518,-1.4541788,14.407661,8.617465,1.2904994,20.0,14.7689,-5.2082367,-7.687495,-0.778023,3.2282245,-0.06316781
1.4427612,-1.5325637,2.459114,6.450674,1.7685525,11.14889,8.175368,-4.1024075,-5.433304,1.2839909,0.61831903,-0.11259538
0.06803346,-1.0886695,-1.435427,0.60699433,-3.1044035,-0.80484754,4.099097,-1.391494,1.2168757,-1.2016537,0.79769945,0.56935024
-11.837485,-5.6365185,-8.405685,0.8069052,-5.500861,-1.0968409,-1.4368188,-2.4218452,3.648481,-4.032445,6.252141,15.471656
-7.817018,-3.2731676,-4.8554425,0.38393188,-6.9287515,-2.012817,0.36202288,0.7424759,1.6444682,-2.0909345,6.6381435,10.111748
-7.669743,-1.088745,-5.5775347,-0.91287065,-2.372235,4.383304,0.21170616,0.6976948,1.240319,-7.3684096,1.5159515,10.700422
-8.088767,2.500316,2.58403,-0.13141531,1.0273287,0.101212025,0.38969088,-1.1932108,0.032403648,-4.9774756,-5.6683435,7.777275
-0.26247197,-1.4970031,14.046307,8.260382,4.718278,19.057693,13.960325,-6.7048817,-4.371336,-1.5711191,2.7515574,0.055145025
1.4918803,-1.215591,0.74124926,6.656726,2.3558989,8.385897,7.7117233,-3.8399854,-2.5663729,1.7226722,1.2299693,-0.041502655
-1.6632013,0.21138167,-1.8822424,1.0979426,-1.8303183,-1.3056611,-0.45087022,-0.5650575,4.4249535,-0.9083159,0.34452772,2.143998
-9.832538,-4.4622555,-5.463019,2.2089922,-4.6494393,2.2957735,0.36290407,-0.08935833,2.4225953,-4.2462745,2.2267644,11.721457
-8.462275,-0.91043484,-5.9298067,-0.16680992,-0.6840329,-2.0139039,0.32332206,0.16866577,1.9901727,-5.435992,2.346702,10.43488
-7.6144238,1.7072918,-1.9210922,-0.5984825,-1.234757,-1.8018227,0.024264455,-0.049416542,1.7080591,-5.7202926,-3.8165803,8.580515
-9.160241,3.0725193,3.834558,0.17564297,0.7391257,-0.52191234,0.98462415,0.12959719,2.7999427,-4.3563986,-11.546856,6.9216504
0.51736546,-0.6192783,14.173096,12.813797,-0.5890629,20.0,-3.3285475,-3.369091,3.1958451,-0.71360207,-1.9813449,8.000758
1.3350639,-1.8149037,2.1301656,3.592053,1.6503383,11.917351,7.5336547,-5.6939383,-4.237484,0.934556,1.3329377,-0.7812371
-0.41311693,-0.34685683,-1.8063294,3.0589957,-3.88867,2.4124944,5.182644,-1.7514669,-0.8125844,0.2595427,1.5975232,0.9778197
-14.099143,-8.251149,-11.166573,-0.019551836,-2.4369001,1.1586261,-0.8723726,-0.8794,0.08408666,-8.746381,4.851182,14.44302
-8.653417,-1.8338628,-7.32744,0.5125759,-4.7282968,-2.204657,0.453748,0.29380596,0.42390501,-5.726415,3.6750193,10.007737
-8.569877,0.6757957,-4.2521563,-2.434418,0.67534995,-4.5447927,-0.28984892,3.9776602,2.4746077,-8.047792,-4.3318434,10.051012
-8.179563,2.9049578,1.9115622,-0.28903794,1.4104655,-0.015750408,-0.4143257,-2.0588717,0.3981665,-4.1457424,-10.438323,4.8172793
-1.0445338,-0.9365492,12.575734,7.7857866,2.3057237,20.0,15.669967,-4.7875667,-4.523764,-1.8393294,2.865879,-0.21171308
1.2267655,-1.4144218,-0.5440373,5.056937,0.23218524,11.166728,8.468478,-3.7294056,-4.727389,0.87731755,0.6608763,0.11986852
1.3005766,-0.98086065,2.2053666,4.842304,-2.5473843,3.2330027,5.9703417,0.08863354,-4.907496,0.5751232,-0.47376037,-0.39624274
-14.794582,-8.759572,-9.501571,-1.7814806,-2.5586364,-1.2077796,-3.030178,0.7024107,-7.6932635,-10.731619,0.40245056,18.468508
-7.420439,-2.8631904,-4.665937,1.5324862,-5.9018736,-1.9544725,0.5720291,0.76912695,0.7095734,-3.3442826,5.889881,8.170492
-8.874834,-1.5742419,-4.486688,-2.6844563,-4.7091184,-8.619776,-0.0008049011,-0.07601881,1.9057583,-4.600176,-1.2149092,11.010958
-10.582548,1.4480841,-1.4081708,0.043126106,1.4577262,1.1305954,0.029933214,-1.2186446,3.4544878,-6.4281454,-6.4432664,8.941444
10.664566,-3.1474419,20.0,11.966881,0.20237875,20.0,14.631563,-9.707427,-8.36353,9.040798,2.486461,-16.45509
-2.490247,2.4155388,5.237871,4.6030793,1.7347741,12.541266,9.190882,-6.3650312,-5.867456,-0.85622346,-3.7863507,2.9469082
1.6416032,-1.1041733,1.2256477,4.3208404,-1.1888878,6.885596,7.4834037,-3.8721073,-3.246602,0.9841987,0.6870632,-0.1331594
-8.607202,-3.1537466,-7.674983,1.0746427,-4.730063,0.12840295,-1.6746345,1.1964376,-4.93282,-10.146869,2.2546115,15.220795
-10.347574,-6.005191,-6.45659,1.0776818,-7.163146,1.6502368,0.7522836,1.4330684,1.9992262,-3.5907645,5.6193714,10.541646
-5.1297565,1.1817876,-2.6123745,-0.67887247,-4.7385325,1.7387686,0.48494864,-0.4874208,0.5566121,-3.2855582,-1.4407996,9.37077
-10.328249,2.8216183,-0.383829,0.2921896,1.4461436,0.49534917,0.13929412,-1.1672349,1.6503258,-5.674254,-8.987378,8.646116
1.2886152,-1.6546988,15.628147,0.42766762,2.071103,-3.5576792,-1.2752972,-2.7698274,5.50768,0.159688,-2.6934984,9.871601
-0.011267424,-0.68383694,6.227271,7.6005926,3.2786574,11.4512825,9.614017,-5.3965836,-3.753855,0.39768338,0.56959677,-0.07240063
1.7086749,-1.6620977,1.7363114,3.3074822,-2.5565557,4.4800577,7.712625,-1.397884,-0.950009,0.56427515,1.5543481,-0.7686751
-13.949775,-2.0164804,-8.884916,-0.5440932,-4.6992555,-3.0655897,0.30753255,1.5966678,-5.224122,-5.541539,3.6230128,16.601076
-9.292254,-7.0146427,-5.8049655,1.6225874,-7.393456,-1.2418902,0.6549332,1.0317934,0.5428519,-3.3235815,8.537777,11.262769
-7.156425,-0.4946617,-2.6455433,-3.067796,-6.9616995,-8.275726,0.62416935,-0.4710412,0.34612635,-2.8188102,0.00889039,12.30554
-10.733073,0.4060927,-0.080153465,0.46377158,1.8500192,0.6644602,0.5048655,-1.0382738,2.3025894,-5.4825597,-7.355606,8.906783
-0.08542007,3.3504956,-4.8624706,0.4597559,0.71563315,-0.95419264,0.06286955,-2.5724034,2.4146447,-0.10734695,-1.0578234,1.279792
0.067384005,-1.7319083,11.475495,6.3725805,3.7326891,15.950568,11.701538,-5.136373,-4.5697203,-0.4239774,1.8432097,-0.18694848
0.64810586,-0.44423887,-1.7313869,4.861909,0.12719065,5.767284,6.7923484,-4.013398,-3.4246953,-0.121481895,3.9033554,2.1927197
-14.716453,-3.204948,-7.9974046,2.5740047,-5.211203,-0.06636584,-0.86386895,-1.0280392,4.339313,-4.7084665,5.9855585,14.83551
-8.718422,-3.926633,-5.141463,1.9475693,-5.3602343,-2.0577264,0.6862824,0.86638546,0.78655577,-2.5158217,5.057724,12.548567
-7.1885324,2.8245716,-4.072522,-1.817727,-5.048646,9.40625,-0.8250048,1.3795886,2.591371,-7.0238657,-1.3282036,11.003931
-6.6955924,5.906369,-0.10578394,-0.39792705,1.9127758,0.14364481,-0.049465656,-2.0605335,0.9211057,-3.2953067,-10.004934,5.4673553
-0.5457267,-1.3273706,9.328241,6.9711986,-1.2514701,13.207335,8.635062,-4.867961,-6.624438,-0.01930976,0.72315407,-0.0477864
1.1947042,-1.4179174,0.9120772,4.2429338,-2.9774344,3.749432,7.4862213,-2.4913783,-2.0502756,0.6671448,-0.13744068,-0.103013754
-13.913278,-4.675016,-9.319916,1.7424952,-5.6268835,-1.0270965,-1.2370987,-0.8146136,4.4201097,-5.913951,6.3489976,16.115374
-5.8704033,-0.16243434,-3.8656642,0.8415285,-6.992554,0.47205234,0.2927506,-0.009937882,0.15134259,-2.2260344,2.7348902,11.054286
-8.075069,1.3789932,-1.8863671,0.07867098,2.4213328,-2.0435238,0.22091222,-0.29406786,2.512025,-4.32331,-4.358041,10.848341
0.6302277,0.008146882,8.299473,0.9454291,0.18510294,1.0110893,3.4213634,-1.3456407,-1.2933649,-0.80095,-8.498657,1.2126598
-1.5088089,2.738336,9.058315,7.735504,3.954417,16.732851,13.018163,-5.1762133,-6.073201,-0.8421267,-2.703929,1.9921156
1.6319255,-1.5458536,0.22523916,5.0604105,1.6978254,10.118613,7.955897,-4.1843214,-4.1037674,1.5578303,0.9646671,-0.4669441
0.79201484,-0.7854682,1.9158515,2.9112031,-5.6436205,-0.6939367,5.8872023,-0.6366073,0.51707447,0.66891336,1.8613715,-2.6017475
-9.194226,-5.07078,-7.7176924,3.2180479,-6.659932,0.9937048,1.3115647,0.45511484,2.0664115,-3.573295,7.385045,12.315978
-8.844933,0.38284743,-6.1994877,-0.66728795,-3.841878,-6.659214,0.3777008,0.18526602,0.07939273,-4.890313,2.984974,11.763264
-8.995647,2.0710533,-1.2670506,-0.0086762905,1.5205872,0.89650893,0.051175267,-1.1362987,0.83077276,-6.440753,-3.792983,8.652607
0.34706688,0.052583933,12.793173,1.4827571,1.079522,-3.0549536,0.28552628,-3.4076235,5.3694534,-0.20172429,-2.546627,8.088555
-0.10855341,-1.1107798,7.556741,5.285196,1.5992243,13.974992,8.741089,-5.786209,-5.527643,-0.05161184,0.88385916,0.09291172
0.110206366,-0.09186858,-2.252781,3.4649305,-1.5029793,4.292736,5.9720674,-1.1833006,0.83000976,0.57345265,2.4662385,1.6300998
-15.642701,0.74950576,-9.519224,0.7868901,0.57195115,0.7313318,-2.2771425,-0.88464785,5.002183,-3.6659424,4.041887,16.04333
-8.45362,-2.9191263,-6.4145823,-0.043290034,-4.223968,-1.764496,0.2985599,0.18664259,1.3434033,-4.18414,3.86689,11.87479
-9.863045,-0.88535523,-3.5240989,-1.9010427,-0.68951964,1.4412811,-0.47092772,0.53137827,1.4667473,-8.660462,-5.0016212,9.459722
-4.394264,4.996294,-2.2329054,-0.43834484,1.081923,-0.29705137,-0.30882025,-1.5354514,0.8002907,-2.703073,-8.826813,3.0306883
-1.7052392,-0.6277089,13.327371,8.508225,2.8438363,19.43125,12.036986,-7.3164654,-6.179633,-0.8038316,2.1568046,0.46873927
1.1765184,-1.3925109,1.4681193,4.4303203,1.8000968,10.606229,8.255723,-4.7466536,-1.9334385,0.67406154,0.49881077,-0.17830694
0.92423856,-0.23549962,2.2886055,4.2605257,-1.2787893,0.72651255,6.2256837,-0.80295885,-0.04745516,0.30546272,0.36926436,-0.8248923
-10.776431,-1.9512019,-9.947199,2.18882,-4.8545685,-0.8667803,0.58114934,0.0636096,2.9374073,-3.6606584,6.4627776,16.171782
-6.6159015,-1.1509099,-6.33184,0.77692074,-5.473421,-3.1474404,0.40089792,0.50316286,-0.15283315,-4.1155467,4.9871564,11.695988
-8.831387,2.882197,-2.558871,-0.12875128,2.50628,-1.4567063,0.0448066,-0.22319746,2.4736001,-4.4315906,-4.4403667,10.968763
-4.992767,3.365638,6.04558,-0.19961762,0.47821903,0.6657462,1.8367734,-1.1169548,-0.49821073,-3.586749,-7.231165,4.2211447
-2.4871857,-0.17731953,16.51394,6.8193264,6.276071,17.649149,20.0,-2.333291,-10.046302,-1.6993132,2.673204,2.0952892
1.11256,-1.6806276,2.0602682,3.9915528,0.98686135,9.679159,6.272033,-4.8024545,-2.9038353,1.3769567,1.4203625,-0.68303096
-4.872807,-5.2920675,-2.5823932,-0.857281,-4.6930676,-2.7908828,1.3231091,-4.780799,5.5915427,-3.3704972,2.354629,5.1643558
-11.912653,-6.495865,-10.788188,1.9326471,-4.1936235,1.0688984,0.6061661,0.175601,1.5677702,-7.740488,5.213999,11.103693
-8.650567,-0.41370058,-7.9177713,0.14393526,-1.5772808,2.4238098,0.32696176,-0.45557952,1.1132264,-7.612131,2.0114627,8.524589
-8.675107,1.6511805,-3.8251586,-0.21823907,1.2056923,-0.24570632,0.44337296,-0.54684067,1.6267933,-7.106981,-6.009442,7.2107854
-5.756946,1.7584867,3.8051608,0.122704625,0.8099878,0.36263835,1.8884444,-0.79218054,-0.8209068,-3.9292223,-7.58784,3.6550667
-2.5396166,1.6274276,14.4304495,9.343117,0.7893896,20.0,14.374015,-4.928162,-8.608938,-1.887177,1.313292,-1.8082776
1.120456,-1.3721933,4.8612313,5.019448,1.3063633,12.572558,9.062204,-4.520324,-5.698763,0.4780153,0.6599994,-0.15108782
0.57987314,-0.4079498,-1.388266,5.581252,-0.39097703,5.6855283,7.265766,-1.5736837,-1.5383884,0.9658438,1.2001123,0.361324
-6.164931,-2.1464038,-4.738488,-0.6024055,-4.2695994,-5.1743073,-2.5710957,-3.3424664,9.45858,-3.0369143,-0.5681572,6.839145
-8.636815,-8.373714,-6.3938136,3.2023947,-6.2028956,2.1243606,1.30077,1.4637101,0.7414288,-3.1915824,8.91761,10.488273
-6.795519,0.5524173,-5.7076335,0.7489226,-4.517313,-5.329995,0.4317453,-0.54256654,1.6668559,-5.071842,3.699471,9.454131
-8.415911,-0.049447536,-4.1978316,-1.336581,-0.726748,3.7972221,-0.81520414,0.9556186,1.8143145,-5.7408285,-2.1434412,11.050084
-9.970375,2.0460696,1.4264667,0.44229722,0.8076949,-0.22960186,0.45992315,-0.06876087,1.0957428,-5.1253095,-7.7219195,7.1097407
3.151928,-1.9293492,13.667193,1.827836,1.6176355,-3.662012,0.33384895,-3.7074456,6.2972054,0.3234825,-4.121783,15.039805
-0.267104,-0.8338785,11.272685,4.6396337,1.4383678,13.918023,10.632117,-3.7517452,-4.2390385,-1.3755416,1.1794543,0.33132064
1.4807229,-1.3649588,0.64639974,5.451153,1.4449339,8.36364,7.245301,-3.5450633,-4.384816,1.5608021,0.7816944,-0.3189273
-8.981635,-2.8760624,-7.174815,1.4600989,-1.5127318,-1.4840553,-1.567658,-0.69822526,5.0782475,-7.186239,1.1287844,15.326844
-10.164231,-2.9156635,-7.2930446,1.7235842,-4.7892113,0.22657728,0.6827581,0.36420798,2.2906654,-4.0156665,2.3718696,13.488552
-5.6550574,2.0101717,-2.8300672,-0.09215903,-5.0949035,1.9473796,0.26879406,-0.45743012,1.1837608,-1.9998099,-0.75591636,10.630996
-10.688075,0.9751144,3.856579,0.15655917,1.5095758,0.17667007,-0.17958236,-1.4310632,0.4427613,-5.4395714,-9.106552,5.2626886
-0.029652357,-0.69573545,12.616004,5.183346,5.4273605,19.624496,19.458294,-2.8580704,-13.615759,-2.9742556,3.2045796,1.3158045
1.6570001,-1.7455237,0.038755536,4.874141,2.066266,9.277823,6.941634,-3.0381157,-2.3849933,1.4182968,1.2124097,-0.35703623
-1.6623306,-2.1911101,1.710954,1.6520228,-5.765045,1.0874447,3.021295,-0.8416562,-3.418292,0.5319698,5.1980343,-3.0411959
-13.088642,-3.9708261,-10.24305,0.84225863,-2.319797,-0.105549216,-0.5091858,-0.8982005,4.282195,-6.089187,6.5306983,13.531724
-6.9538407,-2.76245,-4.763323,0.7554458,-5.603113,-0.70647,0.42930627,0.27257884,-0.07846542,-3.9248042,6.814332,9.169577
-7.83598,0.39633727,-2.212388,-1.495745,-1.8331921,6.5255213,-0.60758185,0.70684314,3.6470501,-8.305761,-4.225737,7.295662
-8.808453,3.4146829,4.3202443,0.108579636,1.4377284,0.0062582493,0.9959979,-0.73814344,1.3312364,-5.208186,-8.75173,7.8961096
-2.0375721,-0.78693247,14.063255,9.837764,3.3440745,18.972187,13.529546,-7.930955,-5.470014,-1.3270087,3.452972,0.31678438
1.0254653,-1.0078933,1.0133497,2.209063,7.175373,18.867,7.7879567,-6.043426,-3.6938105,0.1319415,0.33772564,-0.11104107
1.9668015,0.88521856,1.4497598,2.8917155,4.9763217,15.672528,7.297021,-4.408273,-6.2405767,1.7869768,-0.661633,-0.6310237
1.5997579,-0.21970057,1.2950835,5.475562,1.8172066,13.279891,8.186053,-1.4358976,-6.674325,1.106571,-1.0174156,-1.3458794
-3.9980032,-3.9284277,-3.325684,0.8165796,-3.483691,2.8447795,1.6084864,-2.8519819,3.2576842,-2.7459283,5.802819,3.0907116
-11.783012,-6.066617,-7.421135,3.8052368,-5.072732,2.038303,0.94318914,-0.42002392,3.0843806,-4.8275523,7.8575325,12.464615
-7.862241,0.15142143,-2.4851897,0.68561876,-4.9900584,2.2311084,0.26600766,-0.5349214,0.9926245,-3.1873825,-0.27201724,10.153064
-10.392371,0.21304238,-2.0294523,0.0029685497,1.746127,-0.55487204,0.06687069,-0.9463506,3.1014285,-8.788158,-3.3345804,9.265753
-7.374247,5.6211295,0.9139018,-0.34844828,1.0634465,-2.7793372,-0.4186387,-1.9471645,1.1238368,-3.4132814,-7.8647604,5.10077
-1.0177333,-1.7359691,10.924544,8.277809,0.90067124,16.977976,13.572159,-5.8261375,-6.1963086,-0.050738335,2.7698498,-0.3377483
1.2308272,-1.5319397,1.0873368,6.1010485,0.77089715,7.3352017,7.9679513,-3.6464565,-2.9752314,1.1149865,0.9517555,-0.28858376
-11.903937,-1.2762258,-9.610492,0.65841115,-4.2808585,-0.16830695,-0.37446424,2.493955,-4.8725085,-8.185757,2.586027,14.924734
-8.938063,-3.633989,-7.684068,2.2731934,-4.720744,-0.72800493,1.2738779,0.36244607,2.4273155,-5.8578124,5.363207,9.983898
-8.002575,-1.0523088,-3.4513931,-1.381636,-4.855159,1.9589238,-0.260674,0.8570843,0.1653149,-4.927273,1.8666708,10.669838
-10.072629,1.6089771,-1.924222,-0.008984566,1.7373216,-0.6073003,0.037543535,-0.69603395,1.94572,-8.292105,-3.7152977,8.388784
0.92180324,-0.14714205,9.523962,0.64509296,0.62844634,-2.1220627,0.48204613,-3.2659504,4.5945263,0.70833564,-2.9313483,1.1197909
-1.1655984,-1.6067343,12.23183,9.096684,2.4213207,17.409203,10.068592,-6.6549697,-7.042064,0.34941617,2.5156562,-0.07663524
1.4580076,-1.871011,1.5350804,3.873979,-0.59364426,6.606469,5.6922336,-1.7969049,-2.2737932,1.2123377,1.2916647,-0.64781404
-17.184603,-2.615422,-12.093568,0.62905204,-0.9192574,0.17827368,-2.3517427,-1.5124371,5.3718967,-6.0649843,6.8606243,16.662273
-8.019595,-1.6397727,-6.1264033,-0.6993619,-5.5262647,-2.7936604,0.37666535,1.6429834,1.0146427,-5.1618643,3.9261591,10.708049
-6.352383,-0.70622694,-3.7934258,-0.48662198,-5.7063875,0.44821644,0.07512236,-0.5027466,-0.02085635,-4.7873964,1.9600223,9.979083
-10.8934555,1.8067622,-2.1823726,0.20510626,1.9807553,-0.60558176,0.7223223,0.43496466,3.1630816,-7.3030195,-7.696982,9.899513
1.3381964,0.30161953,9.170244,1.9448342,0.13648844,1.3169839,2.8695755,-2.472171,-1.7447202,1.2998383,-3.7591534,-0.66257966
-1.1610804,-1.3131351,14.881204,9.441785,2.2865975,16.813437,12.364326,-2.6531503,-5.0272694,-1.3519398,2.5292172,-0.09333086
1.2664044,-1.4229927,0.99425817,4.8036346,-0.1176008,7.600981,6.1734285,-3.6618903,-4.9682603,1.4927001,1.2612128,-0.5122795
0.1961255,-0.8692994,1.9662999,0.7415831,-5.847666,-3.7464795,0.72285527,1.4868946,-3.8759315,0.52219796,1.3010273,-4.5870657
-9.539092,-6.166395,-7.0426464,2.8317404,-6.733097,1.3173895,1.267837,1.3487833,2.4038723,-4.0859294,6.147481,10.624826
-6.838063,1.4330976,-5.650538,0.23883139,-4.2296796,1.7361648,0.10828161,-1.1106479,0.9436507,-4.118047,2.5693936,11.967048
-9.830898,0.95894414,-4.397137,-0.073699,1.2268347,-0.48723698,-0.39789587,-0.044531345,0.9592153,-6.9746566,-2.5987186,9.297304
0.6515911,0.6358067,6.0198693,1.6058764,-0.02485776,1.1478496,2.8708992,-2.661505,-2.2403746,0.41316158,-4.223254,-0.8859279
-0.5032994,-1.5119653,12.656652,9.245482,2.6314683,20.0,13.853211,-5.5563803,-6.2619095,-1.2756418,2.7667816,0.07234526
