ancorasir/BennettWheelLegRL/experiment_data/2023-12-27_22-47-53/joint_vel_env44.csv
Joint_1,Joint_2,Joint_3,Joint_4,Joint_5,Joint_6,Joint_7,Joint_8,Joint_9,Joint_10,Joint_11,Joint_12
0.0,0.0,0.0,0.0,0.0,0.0,0.0,0.0,0.0,0.0,0.0,0.0
-4.8785677,15.1412325,-17.807035,-7.0334983,4.123661,-7.606823,2.344976,0.4314468,3.852476,-7.6040998,-20.06472,5.2364764
5.6286087,-5.71641,8.993629,0.6125736,0.39790854,0.43828762,0.29501268,0.24388483,-0.32780895,3.0175197,1.5500369,-1.2520417
-0.68484384,4.2484055,-3.7376463,1.233333,1.8873966,1.5566572,-0.4566005,-1.8495305,-0.60989815,-2.568278,0.6615415,0.41934964
0.17798103,2.1391582,0.61074007,0.010199487,1.3599585,2.517855,0.11591164,-2.4949226,-0.8907798,0.95276356,-3.129914,-0.12028239
0.4848984,-4.0529523,3.110236,1.8919686,-0.76775485,8.903473,0.42776734,-2.2883248,-0.9130356,-0.48156768,12.500309,6.5308304
0.27438536,-4.4633336,1.5523565,-1.2970154,4.1104836,8.894566,-6.354606,-4.192046,-0.77887595,0.70076644,5.550005,-1.7027279
-0.23578714,-2.804593,-1.6622568,6.6142416,-3.3436553,9.04111,-5.2290797,3.306867,-0.003419442,-0.7774547,4.2059336,-0.021113321
0.1597693,-1.43038,-3.34961,-7.7071557,-7.2372,-6.846379,-3.3921072,7.596215,0.012257213,-2.4368277,0.99286044,3.8477833
-1.9878168,-4.3321333,15.453417,2.3671443,-7.2424545,0.07158897,8.89364,7.4026814,-1.2812257,-2.083125,0.0576607,5.322035
7.7294145,9.472868,-0.00041100668,2.460516,3.8002048,-0.7986404,-9.025287,-7.9327636,13.200141,10.731287,-11.959161,-10.486366
-4.05598,8.259165,-7.551578e-05,-0.094458714,3.3541625,1.2491643,0.73408276,-1.9837364,-2.235034,-4.4281034,-9.492702,1.4849371
-2.4752357,-1.8892957,-1.6822841,0.40764207,2.7869825,2.3483999,-0.369733,-2.4013927,-1.5129898,-2.4807026,0.342573,2.3361619
1.2715971,-5.0170565,3.5866005,0.7404241,-0.71141493,-3.0385296,-11.018562,-4.1076665,0.0020444125,1.284376,4.9646115,-4.0411587
-0.91920376,-2.7817652,-0.9426786,-0.7411403,2.9600956,1.402874,-4.167102,3.176186,-0.052410785,0.3510582,3.058882,0.66067404
-0.10239261,-3.0233698,-1.5525737,-3.1607456,-2.7804022,-3.0466695,-2.6841805,7.231319,0.0041834894,-0.6974959,2.201854,2.3683503
0.23115605,-0.90283716,-4.2883744,0.70211977,-3.7061818,-2.6294968,6.2877555,8.566085,-0.028556,-2.357359,0.32334787,4.7936106
3.7256677,15.011999,-0.00028491585,-2.7827873,8.122831,-9.190855,-0.5818573,-2.3898766,0.95591235,11.253928,-14.359287,-15.175064
-5.6077585,9.867003,-7.568687,1.2714889,2.37197,2.2048185,-0.63482946,-1.98634,-1.1674982,-5.2593064,-7.607725,9.202309
6.846436,-5.4531217,12.2438345,-4.501132,-3.2205687,-3.255795,-0.66937846,-3.1003678,-1.9699266,6.8971863,6.925146,-15.257224
0.66706264,-4.4027376,1.6680846,0.7386685,1.6737112,3.3625581,-5.9141593,-5.341894,-0.012423806,-0.04838124,4.114701,-0.17209864
-0.38447717,-3.2504919,-0.89264745,-3.1142976,-3.689309,-4.4078994,-4.8993177,7.675039,7.959432e-05,0.08520271,3.3411248,0.6251913
0.034544587,-2.378551,-2.4261003,-2.2885273,-3.945067,-4.074306,0.18969692,8.39056,0.008704372,-1.3954036,1.5172796,3.3403249
9.183091,-1.951551,-0.0004157629,14.817519,-0.6226734,26.99606,26.636717,-5.3599267,-20.697323,12.413562,7.1166544,-39.20691
-0.4934708,12.881978,-0.00027624943,-0.021726688,4.840596,-0.60576195,0.21217254,-2.819107,-0.39157784,0.67609334,-13.362287,-2.048007
-2.5440652,5.4137287,-1.4562451e-05,0.31522286,3.3439603,2.0146356,0.17531809,-2.3909922,-2.0009315,-4.8381653,-5.3987703,1.6100308
-10.276636,-9.215509,-0.2786062,0.35599336,-3.2457383,-0.31446117,2.6772947,-4.523372,-2.38856,-5.088515,14.631094,5.9142942
0.1978618,-5.5426893,3.3488042,0.23554428,-2.3751993,-0.6955685,-10.763683,-4.0307083,0.0024477812,1.6726965,5.3940554,-2.752419
-0.33721042,-3.8852217,0.15525913,-1.470377,-2.3215635,-0.62918913,-5.629966,3.7613392,0.75321114,0.2864769,3.7970402,-0.4761048
0.5630229,-3.428535,-0.7900452,-2.6069179,-1.5833999,-3.3160644,-3.0025885,8.156056,-0.00011741673,-0.5679264,2.8696837,1.8101866
-0.67082524,-1.7578893,-2.8542228,-2.633509,-5.995447,-4.3534007,2.3034725,8.645808,0.74658567,-0.6973491,1.4653245,3.1183736
5.381319,1.7195429,1.4878262,11.445754,-3.5416675,10.613099,17.594137,-1.3063682,-4.637972,-1.6749697,-5.258671,9.037116
0.8927812,15.421343,-0.00025752536,-0.7557727,5.9527836,-2.6002903,0.62217367,-2.418564,-0.5973171,2.5789995,-13.515398,-3.7603326
-4.127025,7.6012864,0.031948384,0.3211973,3.997224,0.8040201,-0.034013078,-2.0766308,-1.8065757,-4.6313405,-9.871844,2.147952
-4.3001695,-3.3686905,-1.4192774,1.3675071,2.0542877,2.7397294,-1.3206406,-2.3180459,-0.8209642,-3.5973907,6.6257424,6.0602374
2.19502,-4.770923,5.3562517,-0.8211962,-1.8156575,-2.424977,-4.172434,-1.6934984,-5.77773,2.9937775,5.5610013,-8.205737
0.016962048,-3.600838,1.1502805,0.58649635,0.8762177,3.2614615,-7.023936,-3.6840951,-0.013371395,0.25148684,3.5780418,-0.6056059
-0.23412913,-3.5982218,0.10064818,1.1873358,-0.14317454,3.89353,-2.910065,2.8193955,0.033080667,0.1632893,3.4828932,0.0906378
-0.5743151,-2.7497494,-1.4901899,-1.3603417,0.08998653,-14.139344,-3.1302104,6.054434,-0.00026359115,-0.21189049,2.418918,1.5444278
-0.22276947,-1.6150293,-3.403015,-6.2990913,-7.3898,-8.123562,-0.8525355,12.07355,-0.00077855424,-1.877681,0.68753725,4.3896933
11.4137125,1.1191261,-0.00044784683,11.878556,-6.50446,50.01823,26.00862,-5.3841047,-15.688633,13.265302,9.403785,-50.189358
-7.099658,7.8272586,-4.4091466e-05,-0.048199493,4.6004496,0.06959891,0.46538007,-2.5738676,-1.3292558,-3.3270123,-9.420826,3.7972386
-3.3092153,-1.7126439,-1.5826328,0.4545899,3.600827,1.6791309,-0.8541381,-3.0310004,-0.85681856,-2.5527332,2.279852,4.8876915
1.8004302,-5.7317977,4.024736,0.19834664,2.9655447,1.9886042,-5.939248,-6.644125,-0.014364335,0.49399725,5.2308407,-3.1343486
0.07311362,-4.2306128,0.5217183,1.3263677,0.3523624,3.8300228,-5.2501397,-0.9222031,-0.015830487,0.060241252,4.471166,-0.5988066
0.29148227,-3.3988223,-1.0199466,-3.9998708,-4.4709926,-9.468,-4.1216426,8.856649,0.0007756711,-0.5671311,3.2552092,0.98771346
-0.09810844,-1.5721209,-3.4853382,-2.908003,-5.869345,-4.5587316,0.63630396,7.7282615,-0.002876792,-1.9899482,0.7663572,4.4242353
12.589862,-0.17935726,-0.00042566797,-4.672941,8.455406,-7.7590837,23.533516,-13.825901,-5.2268777,12.850387,-6.849543,1.1045947
-3.9381857,12.932179,-0.00013834218,0.13985844,4.282808,0.58327276,0.11650324,-2.499322,-1.1974454,-4.247349,-12.008054,3.095876
-4.2487044,-4.870795,-2.119715,0.50629044,2.4451869,2.916105,0.8025725,-3.2659507,-1.9342225,-4.3653316,9.682969,7.67942
0.45541313,-4.9221444,3.0892603,-0.018383201,5.4152837,-0.7750253,-7.574789,-4.13975,-0.0019870838,1.7832302,5.7948065,-3.935823
-0.36382067,-4.217422,0.43978217,0.74013513,0.5115677,4.382674,-3.954409,-0.74532676,-0.008208474,-0.096218094,3.8890808,0.44189245
-0.046053242,-3.481,-0.73228246,-3.1869786,-2.421667,-9.2852545,-3.8422468,5.6706595,-0.017192848,-0.30616325,2.767011,1.5631633
0.3076155,-1.9232222,-2.7436652,-5.108825,-5.205655,-10.641024,0.24899054,11.0990505,0.0075218705,-1.6073323,1.1068426,3.9166842
3.8142111,2.2595491,-0.0010572302,9.7202635,-7.4807687,49.428364,23.951727,-3.7525976,-19.522612,11.144067,10.703218,-50.17552
-2.145238,13.402319,-0.00025806983,-0.5139233,5.560458,-1.6698074,0.4978171,-2.822111,-0.65572435,-1.5909995,-12.431117,1.5255632
-5.5296555,-6.942163,0.33157405,0.41534975,1.7228005,2.914161,-0.7711879,-3.2962487,0.6125332,-3.480214,11.210235,5.356304
-0.30960038,-4.0416493,0.6698419,1.252354,0.290515,4.629228,-4.659937,-3.3736956,-0.008691201,-0.07598728,4.1662593,0.051038295
0.29773727,-3.6203883,-0.5728293,-1.6643277,-4.508805,-1.4618154,-4.425072,5.031677,0.00060485763,-0.73047197,2.9540904,1.4510951
-0.11116493,-1.9158808,-2.7639797,-4.4829183,-4.4416404,-10.351523,0.5681346,10.3918295,-0.2503587,-0.831232,2.1415405,2.5624714
3.8684742,2.2971652,-0.00024945784,11.571347,-1.6452827,11.5259,21.622295,-2.8220615,-4.3611374,-3.4174259,1.2419059,4.857507
-2.8860269,10.326254,-0.00022073294,0.14146672,3.819226,0.50171125,0.51581246,-2.0223713,-1.644354,-0.306524,-14.436515,2.257231
-4.3244443,1.6614496,-6.3285136,0.62818164,2.782155,2.1942005,-0.08040467,-2.1155362,-1.3898647,-3.4802475,-2.3215847,4.470706
7.738433,-6.07125,12.302125,0.5049161,1.6622765,3.1508114,-1.9404342,-3.5321188,0.26454747,-5.1693387,13.8094425,7.785084
0.32792062,-4.951314,2.6884277,-0.59314954,2.8500915,8.375643,-9.713398,-6.286372,0.053051326,1.1868861,4.78435,-2.4208
0.03885907,-3.172104,-0.6900325,1.821932,-0.6275758,4.8369226,-2.4426835,3.3092737,0.015617314,-0.5093556,2.9866908,0.83458835
0.16765073,-2.4042084,-2.0738242,-3.5982594,-3.3024304,-2.9326499,-3.1839375,5.8795357,-0.00053228176,-1.2395463,2.0622451,2.1375065
-0.80821764,-1.1064901,-3.692902,1.6933453,-7.4835024,-3.497666,8.530583,8.489048,0.307169,-1.9559728,0.07862723,4.9473543
2.491787,11.66137,-0.00038936205,0.7273782,3.7465916,-0.52985287,-1.4264508,-2.777936,0.97718,5.02775,-12.5839405,-6.093966
-5.6037965,8.918893,-6.488821e-05,-0.22319473,4.0019517,0.81843996,0.488254,-2.2471137,-1.5758691,-5.391062,-10.200416,4.253947
-8.684065,-5.405835,-10.699467,0.526909,5.716944,5.742532,1.8493564,-8.54983,17.512712,-7.387134,8.129651,19.990347
-0.31319943,-4.6721706,1.8200147,-0.4296334,2.419657,2.4405968,-7.143037,-7.3221235,-0.013076334,0.78151345,4.752901,-1.5400918
0.39082664,-3.9783094,-0.22771257,1.5405028,0.12007156,4.773616,-4.77139,6.3851695,0.008367471,-0.64647835,3.2470698,1.190607
-0.2973925,-2.3321157,-2.7305555,-6.2821217,-4.621935,-6.362535,-1.5459965,8.622498,0.0090121655,-1.0166228,1.7376133,3.3231316
10.083752,1.3641804,-0.0002592387,12.531547,-4.9782047,10.5908785,21.005611,-5.2443266,-3.3332143,2.4852355,-6.2312274,6.3066254
-3.8434408,11.813379,-0.00017185244,0.36166915,4.605659,0.5228312,0.6532376,-2.231854,-2.3684912,-3.6175408,-8.445654,-0.18692032
-3.6594288,1.1084203,-7.6510763,0.884192,2.4494638,2.9534044,-0.3875754,-2.3801649,-1.3776044,-1.3029093,3.8627794,12.163163
1.3900099,-6.0617175,3.9627366,-0.6412092,2.6288507,-1.8327329,-8.340657,-5.972952,0.0014999185,0.66441315,6.0230527,-2.8696618
-0.32920384,-3.941836,-0.38624778,1.7114134,-0.37146842,5.3692436,-2.3027477,3.0997732,-0.8165042,-0.30960992,3.3234093,1.4895167
0.04081966,-2.21879,-2.2492294,-5.7557297,-4.2638197,-12.750531,-2.8922796,11.646871,7.424061e-05,-1.019688,1.6900593,3.084767
-0.65645754,-3.0897913,-0.53198814,-0.91033185,-7.8510804,-8.080638,7.386906,12.363112,-0.4997507,-2.2371392,0.024579167,5.62756
6.2953477,8.307711,-0.00040558353,-0.9190242,5.7614603,-3.5365105,-2.0524137,-4.5352664,3.3815227,11.660583,-16.16496,-4.991276
-3.8105676,9.564265,-7.543557e-05,-0.6496589,4.3122764,0.7554785,0.89645034,-2.5238278,-1.9431647,-3.5110426,-8.389197,0.54227
-4.2180233,0.06536054,-8.018837,0.90217876,1.6185639,3.4141831,-0.39294156,-2.35967,-0.9806962,-3.784163,6.68257,6.6416364
0.75203425,-5.129039,3.5749037,-0.8395944,3.1640189,1.6105379,-7.0799856,-7.0249157,-0.009437383,0.9815099,4.881788,-2.4783864
-1.137421,-3.871835,-0.055458296,-0.9485192,0.2036473,-7.3983684,-4.889067,4.628549,-0.0005211048,0.7800102,4.2952175,-0.49090937
0.9538237,-3.5786667,-1.2382421,-3.0200787,-2.1854393,-8.7557,-2.5334861,8.30909,-0.00041921367,-1.0566952,2.6229858,2.818502
-0.72966903,-1.32622,-3.7706027,-0.66218853,-6.9670525,-4.405524,6.238835,10.088371,0.31896958,-1.4175045,0.7951386,4.4214435
4.055583,12.337022,-0.000364092,0.5940958,4.7895093,-1.3901157,-1.3478568,-3.2252347,1.4337201,6.856304,-10.643297,-8.605215
-3.5358267,5.444824,4.8667192e-05,0.3257145,3.644402,1.462167,0.04810821,-2.1697335,-1.6290342,-4.280181,-6.680144,1.7901005
-7.581936,-6.20592,-8.725135,0.54548126,1.5347435,2.8848557,1.17684,-11.253636,21.535131,-7.1201396,9.977527,19.668604
0.09708792,-4.0850596,1.2626286,0.7214027,1.0275527,3.594336,-6.6991634,-4.829772,-0.011378534,0.24194038,4.524739,-1.1153121
-0.3345487,-3.6412063,-0.627167,1.1900096,0.1211184,4.7700276,-2.6946712,3.5183625,0.14044522,-0.26215076,3.6763055,0.77352405
-0.4430972,-1.552188,-3.0573564,-5.6407933,-5.0995555,-9.203766,-0.58756894,8.123248,-0.0024697594,-0.8452979,1.976116,2.6586869
1.1115324,7.3826528,0.8612289,11.336044,-3.8651533,8.436115,19.96682,-2.230181,-4.9199243,-3.871664,1.3967625,6.595813
-1.903533,10.428304,-0.00023532519,0.19995369,4.020422,0.24215843,0.4092186,-2.3466346,-0.733984,-0.16219111,-12.662821,0.51249033
-3.3082745,1.5165175,-5.745265,0.4920422,2.6574025,2.265105,-0.3913912,-2.6467655,-1.0087445,-4.6312423,-2.3155644,2.6934357
-0.87147737,-4.120655,3.9854608,-3.1274085,0.7128897,-1.6124059,2.9380434,-4.3367186,-4.2409234,-3.8901305,16.108154,2.987965
0.47302648,-4.3991137,1.0853742,0.48692468,2.8343825,5.796186,-5.7599416,0.8471838,0.012245871,0.024565224,4.14068,-0.8371335
-0.021137983,-2.7096684,-1.5338447,-0.21007192,-2.94147,0.72452116,-2.4958854,4.6303916,0.03534647,-0.9009733,1.9289241,2.2622406
0.119583935,-1.5876421,-3.0218363,-5.0193973,-4.464162,-6.1438966,0.045176096,10.231,0.00014526397,-1.6044006,1.082776,3.712262
14.070838,-2.746722,-0.00037947693,19.71988,0.67583334,29.8564,23.374596,-17.56184,-6.2003126,15.514766,-6.12461,1.2408895
-1.2931776,10.656637,-0.00025063445,-0.5617675,4.810651,-1.1484499,0.46373767,-2.7846062,-0.5216294,0.47547528,-12.127623,0.03342089
-2.077176,2.5141346,-1.0374811,0.27674037,3.3479512,1.7267562,-0.31737173,-2.599016,-1.2850606,-3.886953,-4.4515557,1.0103749
-6.803375,-3.8565705,-11.620497,0.5802209,1.4465868,3.4084437,-0.92150867,-2.7861874,-0.7996399,-6.0934544,9.933193,9.007243
0.16959703,-5.180762,3.5246181,-1.417434,6.086722,-3.8226635,-9.039438,-4.3237596,0.0025245426,2.1383057,4.9763446,-3.870763
-0.114719674,-3.6220634,-0.08778502,2.8952951,0.5881207,7.48975,-5.6610074,2.743391,0.7524374,-0.2708419,3.305653,0.3047537
0.40532377,-3.67086,-1.1073545,-5.9430356,-6.262776,-6.0359874,-3.675653,9.512185,3.110664e-05,-0.7330958,2.6571813,1.9024507
10.818797,-0.6802985,-0.00035542477,16.172436,-1.1919695,18.290497,20.569105,-9.071683,-2.6363552,7.5034413,-6.206282,11.557943
-3.1732566,13.215854,-0.00016212501,0.40966433,4.011045,0.4621289,-0.04947393,-2.2461686,-1.0171009,-4.343212,-11.495852,3.6621642
-3.3357787,-3.4307368,-2.0761518,1.0383872,2.0955398,2.7608547,-1.240473,-2.8393853,-0.47914702,-4.3118224,6.1452103,4.9024973
1.1472987,-5.8051214,4.3381267,-3.751242,10.754992,-7.009495,-7.658492,-4.3215456,-0.028245475,1.107379,5.4160004,-2.0979562
-0.6788949,-3.7710395,0.031716634,0.37083095,1.3587024,3.3653615,-5.3872137,0.60783637,-0.52269745,0.06697364,3.3442874,0.87883735
0.4282543,-3.8377376,-0.511482,-2.449124,-3.346939,-6.24227,-3.9967866,7.050111,-0.0002601156,-0.76223004,2.6661692,1.8103842
-0.41773388,-2.2665524,-2.8500583,-3.961967,-7.321602,-6.2803955,0.7315161,9.95715,0.005233002,-1.2889469,1.1486858,4.1261578
11.417272,-0.75042146,-0.00030092016,16.507984,-1.1719524,14.329844,21.029613,-8.083714,-3.3190553,2.2073283,-8.815852,15.330592
-4.3385444,11.365782,-0.00015364913,0.54379344,4.150697,0.43390197,-0.281185,-2.3294067,-1.2612002,-4.2706666,-9.4024935,1.157109
-6.3451138,-4.2595844,-8.77475,1.248338,2.2626493,2.7421381,-1.3955694,-3.2240295,-0.041827917,-4.3531237,8.915512,7.9537935
0.9940095,-5.0997376,3.6000094,-0.29786536,2.316824,2.1762533,-6.721436,-4.805445,-0.013118087,1.2066637,5.152825,-3.483162
-1.0393143,-4.008776,-0.062038906,0.029465824,0.88759923,3.9716647,-5.785295,3.603111,-0.001973033,0.4800525,3.9658206,0.2908465
0.6152034,-2.8003464,-1.7946434,-4.251791,-5.1779885,-5.1114597,-2.460459,7.2507386,-8.583232e-05,-1.3774661,2.229636,2.4147606
0.13355342,-1.7659158,-3.2184947,1.806159,-5.705447,-2.940334,8.146239,9.760478,0.12538782,-2.667392,-0.07975109,5.3612556
0.8361189,9.19806,-0.0004241094,0.5733736,4.550141,-0.75397986,-0.7672058,-2.7046628,0.12954372,4.006105,-10.147927,-4.9383473
-4.806361,6.505219,-0.594485,0.13450113,2.853815,1.9009559,0.113941,-2.0747333,-1.7016646,-5.347917,-8.666972,3.6482615
-6.622341,-2.5918748,-10.646923,0.5600816,2.124775,2.8792038,-0.18424246,-2.485419,-0.82907766,-6.453507,7.963665,14.76162
0.5082036,-4.159239,2.3842688,0.16303764,1.7075511,3.033963,-8.170279,-6.4567256,-0.016161242,1.453851,5.362928,-3.490304
-0.3321294,-3.9206018,-0.12413445,1.9185874,-0.7784513,5.5190396,-5.6382527,4.16013,-0.003408162,0.14420936,4.1417465,-0.30893767
0.18325922,-3.0914385,-1.3191774,-5.8064685,-7.035028,-5.7497516,-4.9411516,7.9877353,-0.000559789,-1.0995858,2.3131702,2.0633497
-0.65421873,-1.0036609,-3.9718456,-2.523521,-3.7860432,-6.1414742,2.414659,8.944682,0.003773847,-1.7114662,0.68621457,4.416806
1.3993611,6.0875473,-0.000108213724,9.976826,-3.8835204,6.498009,19.21774,-0.543105,-4.2914157,-1.0501348,0.32864475,2.4279652
-3.186899,11.906039,-0.00014929083,1.072055,3.5306227,1.0492225,-0.35472906,-2.1682916,-0.9598767,-0.43131962,-12.562832,6.8707347
-2.64575,0.1514012,-2.0675776,0.52289706,3.036236,2.1282141,-0.8252403,-2.7815278,-0.7020347,-3.2522078,-0.6508075,2.8219492
3.3935246,-5.658748,5.955486,-0.28929922,-0.22718246,-3.8337314,-4.5954413,-9.564711,20.658731,2.1175475,5.824907,-6.8405004
0.11054761,-4.158457,0.660943,1.1790951,0.119948804,4.506172,-5.7526813,0.9229494,-0.0011218619,-0.1954138,4.078413,-0.37235194
-0.036035188,-3.8647935,-0.29780385,1.8157549,-0.46948612,5.960309,-3.3292572,4.3016906,0.003896961,-0.3188459,3.2951782,0.5438927
-0.41044453,-1.6650661,-3.2470038,-4.4312987,-7.413172,-5.9755516,-0.49033254,7.28042,0.007206916,-1.4996707,1.1591069,3.6338391
9.395281,-1.0406771,-0.00039093022,15.358352,-3.3429399,29.83022,26.321678,-6.7403035,-16.996197,11.1783905,6.464037,-32.723667
-1.8622677,11.173036,-0.00019565274,0.063759774,4.147476,0.45038304,0.9052601,-1.944786,-2.1310246,-3.80517,-11.581426,1.7778401
-2.243276,3.2550921,-3.8877287,0.38160875,2.9546454,1.9524696,-0.44833955,-2.5832365,-1.2651381,-3.7264519,-4.2876,2.0279257
-7.855638,-9.168101,-1.5151887,0.87707037,1.3737712,3.0224838,3.0755248,-6.312839,-2.8970702,-3.2895117,14.373657,6.554193
0.18170388,-5.323994,3.3633473,-2.487288,7.489516,-2.4641187,-7.160372,-4.918112,-0.061044496,1.9352487,5.4227247,-2.1319776
-0.29690078,-3.54606,-0.24365288,1.4301269,3.6519022,6.242717,-4.338582,4.3112316,0.018350555,0.04864771,3.0262654,0.78740025
0.006467946,-2.45404,-2.1695025,-3.7652276,-5.6673484,-4.0485463,0.38469422,11.085101,0.0004940508,-1.2846587,1.3206,3.4917417
-0.105538845,-4.456724,-9.294739,7.1932845,-5.0153513,2.8183775,16.190763,3.9250278,-3.1201682,-2.6441274,-0.3338109,5.722325
-2.9056208,12.200446,-0.00028306484,-0.9063027,5.078751,-1.0217931,0.7065809,-2.7027445,-0.6924493,-0.5901269,-11.389382,-0.9951268
-1.3878839,-0.21551065,-1.332314,0.33833468,2.8660803,2.4433985,-0.38508353,-2.6556969,-1.1605213,-1.7117712,-3.316993,1.5746055
3.1239967,-5.668858,5.882835,-2.3248565,-0.7657049,0.9361439,-5.4592633,-8.404582,19.189133,2.3992193,5.843947,-7.2761755
-0.039617434,-4.216601,0.6678699,1.6444206,-0.062990665,4.898639,-3.0796373,-2.5793595,-0.008983143,-0.46209145,4.1218085,-0.040761136
-0.1069465,-3.505275,-0.87970775,-2.84617,-5.048698,-4.6788273,-2.61856,8.064244,0.7023414,0.07036484,3.615772,0.8601568
-0.84399116,-0.58909,-4.310647,-2.5664032,-4.6970334,-4.522012,3.6820936,8.325406,0.7281257,-1.5492231,0.7134985,4.4787426
4.065545,14.71011,-0.00032377947,0.303271,5.33072,-2.5470066,-1.3738658,-2.7849398,1.3541969,7.186397,-14.88965,-8.212175
-4.1468515,6.174807,-0.99508536,0.2853206,3.6941473,1.23831,-0.55827624,-2.7461274,-0.8263811,-3.7509658,-7.055577,2.7863169
-7.310855,-6.3265886,-9.8733635,-0.8571963,0.2945215,-0.18326917,-1.1443828,-12.350258,32.374874,-8.368857,4.0344505,32.095303
-0.6795043,-4.431396,0.8511771,0.7637015,0.3113251,4.652047,-3.6601436,-1.6615263,0.13647264,0.685232,5.07211,-1.3055534
0.2628923,-3.4534123,-0.7761073,-1.4781069,-1.5932603,-6.902182,-4.1275196,6.502652,-0.007032145,-0.55762506,3.2565641,1.1043358
-0.27244306,-1.7822114,-3.3754952,-3.8896708,-7.4846926,-9.030057,3.1497645,13.096379,0.0042419326,-1.7328317,0.6850449,4.590345
11.130497,-0.16486934,-0.00030464213,15.494451,0.5423653,16.441488,18.821283,-11.0295515,-4.3073087,6.770259,-6.353811,4.1038713
-2.0697343,11.545231,-0.0002234499,-0.06934622,5.2307816,-0.376023,-0.00067754835,-2.851933,-0.7333832,-2.0300598,-10.248982,0.19350207
-2.6326783,1.6556844,-6.768838,0.5230981,2.418461,2.789061,-0.5521151,-2.4629257,-1.236984,-4.545985,2.4687247,7.552086
1.1434042,-5.551074,3.8314426,-0.35835502,2.6695065,2.4161735,-6.2510934,-6.792097,-0.009083074,0.8402888,5.43304,-3.0141983
-1.2394204,-4.0854073,0.11402647,-1.3711051,0.02314192,-8.494286,-4.7448487,3.656076,0.22711805,0.88545275,4.5375566,-1.0518429
0.23965566,-3.2473476,-1.7957187,-3.101375,-3.7485836,-3.7827296,-1.9412138,5.59547,0.0015072878,-1.0557638,2.6897593,2.5082386
-0.32802603,-1.205024,-4.6287885,0.6367857,-6.1862044,-3.4359357,8.384959,9.687219,-3.7078614,-1.9382991,0.4813121,5.0067406
2.0460021,12.385881,-0.0003657405,-0.5846555,5.814411,-2.0964465,-0.012287021,-3.6955562,0.86213326,6.243245,-11.760611,-7.8571014
-2.9577098,7.5897746,-5.9177555e-06,0.35506523,2.6312892,1.977479,0.13570894,-1.9008096,-1.7763436,-5.9236994,-8.646541,2.9069726
-2.9625525,-4.1223683,-1.325613,1.4149262,0.96968085,3.633674,-1.1778729,-2.4361625,-0.5793247,-3.070544,8.034047,5.1994066
0.31204724,-4.8462157,2.479021,-0.9397223,3.8460863,0.87699103,-7.2815614,-3.463768,-0.01205291,1.2120845,5.405246,-2.9645052
-0.45587653,-3.6011045,-0.6747473,-0.65622115,0.5911157,-7.1790113,-4.504372,4.2465787,-0.0026846037,-0.110469274,3.5335405,1.2063991
-0.07974048,-1.805286,-2.9550614,-4.6971884,-3.8829255,-8.205593,-1.1711091,10.188925,0.0007754363,-1.4045284,1.3441341,3.6544175
5.6255774,4.001214,-0.0012488445,12.230389,-5.163545,18.412876,25.11035,1.0057477,-21.874218,4.1667657,1.0000849,-21.38575
0.29753432,12.27286,-0.0002700257,0.049609553,5.5418806,-1.464383,0.16217703,-2.5959275,-1.1226871,0.56362146,-13.196034,-2.2697532
-4.762326,-0.56495166,-2.128685,1.1796001,2.4342358,2.6273725,-1.0758774,-2.7285254,-0.6995324,-1.6084557,3.0928864,5.4806356
1.3682967,-5.621074,4.5206943,-2.327448,-3.4654422,-3.5214405,-6.0780673,-1.3127433,0.0015595916,1.6306404,5.2261305,-4.2536144
-0.03945508,-3.594352,-0.17133552,0.83746254,1.66082,2.9812093,-4.331305,0.04281181,-0.14582203,-0.41114342,3.4108565,0.44109917
0.19633727,-3.1987784,-1.7171812,-3.8765316,-1.1067549,-3.6222577,-3.483682,7.16411,0.004298363,-0.5763122,3.067805,2.0701745
-0.450664,-1.5889328,-3.5770652,1.424602,-7.596227,-3.5004184,9.4062,10.39548,-1.0570624,-2.2327452,0.2663565,4.893632
6.042116,11.856748,-0.00038965477,-4.0641003,9.586015,-10.428319,0.34899738,-3.420045,0.3548805,8.253199,-10.280389,-10.991587
-4.066089,8.616165,-4.7063448e-05,1.0154598,3.3068197,1.620376,-0.61979455,-2.3308315,-1.3124337,-4.2451887,-10.691742,3.022282
-5.089349,-0.93754995,-11.279904,0.39551663,3.2093737,1.8268826,0.12929444,-4.446597,4.074324,-5.412685,4.7665787,16.999834
1.1857002,-5.4436727,3.7083874,-0.085357234,2.868511,5.6859007,-8.294302,-5.1113577,-0.0010394445,1.030361,5.4852567,-3.6577551
-0.29602975,-4.7217474,0.4828781,0.21780467,-0.05309999,1.7695508,-3.3541827,1.3595768,-0.062469,0.0159024,4.156284,0.43210176
-0.34009084,-2.913227,-1.3186969,-2.9266427,-3.6712484,-9.346969,-5.2082267,6.315294,-0.09203963,0.19506589,3.208719,0.61863714
0.21081832,-1.9851544,-2.862932,-6.7957315,-9.467211,-11.333833,-1.5054318,11.212738,0.00014433637,-2.0373423,0.6900804,4.104851
-2.6669984,2.2630322,-3.4721487,6.00448,-8.037901,1.5514419,15.384032,6.105666,-3.903839,-2.3009334,-0.33684218,5.43692
5.372757,13.801834,-0.00040087797,-2.5918026,9.23055,-9.839875,-1.3720859,-4.0897145,2.0968595,7.029348,-13.547367,-7.7189794
-4.6391945,10.610825,-5.0689036e-05,-0.07963185,4.2951274,0.6169356,0.4460984,-2.7572255,-1.1436902,-5.2247376,-10.810903,2.4463959
-3.2493231,1.4890054,-10.992922,0.41879436,3.0208607,2.2323,-0.24142915,-2.4745615,-1.6376103,-4.0543747,2.1246042,5.4394164
3.0938888,-5.5090795,5.6876993,0.3133851,-4.192134,-5.1133823,-3.471349,-9.133366,19.346981,4.151043,7.648764,-13.189143
-0.03945967,-3.9690995,1.1510087,0.18371242,1.8626329,2.762136,-6.832879,-5.192652,-0.011831246,0.2197071,3.9824545,-0.1633042
0.089353494,-4.075974,0.16542536,1.4121941,-0.2135343,4.9344997,-5.69131,4.4442124,0.93861103,-0.44996864,3.1363924,1.1978524
0.12620398,-2.8102367,-1.7201241,-4.5663514,-4.5551805,-5.933975,-5.0152755,7.9512486,-0.000492334,-0.8571754,2.350479,2.2035525
-0.60677046,-1.1959301,-3.9503245,-4.4621706,-8.144971,-6.562412,4.4806924,12.105327,0.002764836,-1.8004216,0.5703651,4.682619
12.421035,2.1696756,-0.00039799267,16.984531,2.1849823,34.56856,23.782316,-14.97071,-6.403223,13.51722,-8.617893,-5.2672
-2.223434,12.4254675,-0.0002511288,0.80905354,4.799397,0.11408591,-0.109508425,-2.5701923,-1.73291,-2.8204002,-10.337465,-0.030926414
-3.2302504,0.38418758,-2.0315425,0.80293745,3.2520232,2.2530413,-0.7928151,-2.6097183,-1.6423407,-3.580924,1.0677129,3.916198
0.76385176,-4.8755774,4.877688,-0.6018292,-6.041098,-5.586559,-1.8427564,2.4973147,-4.409184,8.490077,8.078608,-16.591166
0.15642777,-3.698306,0.3845862,1.5337743,0.22152716,4.136369,-2.8406456,-2.9017024,-0.010972588,-0.8035784,3.1644273,0.5599459
0.47764692,-3.6259818,-1.0494741,-2.6775265,-2.8742893,-1.662756,-0.96888095,6.8318715,-0.00056627416,-0.52696806,2.948098,1.9099023
-0.4691781,-0.6926511,-4.0325856,-0.4963982,-5.2977057,-4.1891704,5.381612,6.3163395,0.5989821,-2.2421584,0.283233,4.4795036
4.81753,11.055509,-0.00038777146,-2.185817,8.089728,-9.524838,-6.314582,-7.5228662,11.542808,10.162951,-11.328481,-10.248457
-3.9579923,8.905821,-8.390886e-05,0.9683562,2.039068,2.3571725,0.020234093,-1.6437485,-1.7428193,-3.3432658,-9.728488,4.354793
-4.4874825,-3.0529668,-1.898145,0.7540045,2.3188515,2.4649944,-1.0924085,-2.544083,-0.8031229,-3.6931715,6.7256365,6.727541
1.2337513,-5.296672,3.5791101,-0.54784423,3.61816,1.0014971,-8.65648,-4.5799756,-0.010485478,0.56600463,4.9347796,-2.377929
-0.61536247,-3.999819,0.030555021,-0.6829422,-0.49900803,-3.806622,-6.4627943,4.016769,-0.6365042,0.052616857,3.377494,0.8680738
0.2876469,-2.7101862,-1.776469,-3.6767542,-2.6819263,-7.2802215,-2.8101866,8.54157,0.000104221515,-0.78407407,2.5051062,2.1153905
-1.293272,-0.7454392,-4.4171734,0.120116025,-4.4359903,-3.5761492,7.9294806,9.694862,-0.027843377,-1.7348664,0.20749602,5.1481996
10.538374,8.089671,-0.0003428628,1.3278137,1.9136648,-1.3220501,-2.2890189,-1.2878153,1.5393307,11.437583,-12.008931,-19.16484
-5.34895,8.067867,-7.109581,0.14998423,2.9464076,-0.5807507,-0.22051194,-1.0227857,-0.99737847,-3.7032535,-10.822488,10.041292
0.17697284,-2.5891235,1.9044844,-0.570984,2.8349824,0.5504568,0.93205804,-1.1923076,-0.80099595,-2.4117308,0.19815019,-1.6271952
2.4305856,3.6534057,0.5487674,0.7294149,1.1216581,2.4805646,-0.035923675,-1.4880997,-0.8704896,-1.9552104,1.9789537,0.06877562
-3.7731133,-2.3921266,1.3473814,1.3573861,-0.16646865,3.7466643,-0.4583507,-1.9824588,-0.2729788,-3.217591,8.478129,5.5201077
0.34828156,-4.0620027,1.6167932,-0.122071505,1.9916275,2.1868415,-7.9709163,-5.3761325,-0.0065435404,-0.10569182,3.5149248,0.09200482
-1.1099243,-3.426504,-0.4643407,-0.52898043,0.7036071,-6.17998,-4.699893,4.3169794,-0.0033427256,0.6540495,3.2812645,0.5685246
0.098112725,-2.3586645,-2.0218601,-4.053326,-1.8258901,-6.3158717,-4.343756,9.365823,0.008576687,-0.7624058,2.057155,2.633533
-1.8200221,-3.9060733,12.544285,3.9402897,-2.8854673,0.1164089,13.694004,8.6180725,-6.8521223,-1.9820052,0.23310801,5.057806
-0.3127224,12.443057,-0.00029242138,0.45787162,5.4596257,-0.9847933,-0.40367818,-2.849215,0.0035208017,1.8618978,-10.067102,-4.437361
-3.8553207,3.805458,-5.472507,1.0572181,2.1826952,2.966756,-0.81523,-2.512676,-1.2602417,-3.9123602,-1.829032,8.2863245
5.225607,-7.109826,7.6138015,-1.3920617,-2.0981607,-0.8092899,2.271724,-4.6851664,-2.4948423,-0.5112935,6.11935,-6.304226
-0.10642654,-3.8826566,0.4286529,1.0283712,0.9019562,3.9371603,-4.52112,-3.8169935,-0.11080595,-0.04991447,4.2607493,-0.27504355
0.8371491,-3.8773904,-0.5480295,-1.998512,-0.70700365,-8.514693,-4.3911777,6.277135,0.00038285134,-0.9045431,3.2149305,1.5332425
-0.22682364,-1.6546243,-3.397307,-4.3512297,-8.511909,-7.278237,3.8848863,10.293231,0.0036039948,-1.8349617,0.75702727,4.5719275
13.667501,0.13094525,-0.0004172799,-4.021595,9.093343,-9.187945,23.783272,-12.561195,-2.3324513,10.440185,-6.8393784,-1.8557943
-2.7476652,9.542584,-0.00022865809,-0.04949072,3.8673556,1.1466186,0.7607566,-2.1831782,-1.5543282,-2.4500184,-7.724873,0.9914438
-3.7912247,-2.3027804,-1.5852029,0.56169325,2.4182658,2.789403,-0.6412981,-2.697063,-0.7725101,-3.3389904,7.410312,8.311223
1.7091901,-5.4395647,3.7954133,-0.08554372,3.6746511,1.2419401,-6.888452,-4.5111213,-0.009922343,0.3280256,5.33802,-2.721082
-1.2228019,-4.0620418,-0.23953244,0.047048997,0.59691375,4.5356994,-3.658001,1.0013667,-0.35457665,0.35589087,4.05549,0.28856766
-0.39491105,-3.243169,-1.571142,-4.554607,-5.598517,-5.218421,-4.5684443,8.879567,-0.00034762104,-0.37534967,2.7252214,2.03489
-0.19729358,-1.789423,-3.343518,-0.9544036,-6.644615,-7.0658674,5.248973,12.158044,-0.22951856,-1.7637895,0.7619649,4.3122034
12.029376,3.4729106,-0.00040519476,-2.9144003,9.346504,-10.173857,21.87134,-16.175282,-2.9840307,11.407665,-11.342503,0.17884947
-3.520623,9.452138,-9.2859045e-05,0.5500928,3.5752869,1.2547082,0.2986425,-1.9608588,-2.2850776,-6.036281,-8.410743,1.2607023
-1.6546052,-0.9830963,-1.21737,1.3388613,1.2365057,3.4735827,-0.8869647,-2.3216739,-1.0738057,-0.8489714,2.9281886,2.8208177
1.0929283,-5.383283,4.5163145,-0.30717677,-0.103102446,0.68353176,-6.9233975,-3.0337024,0.06256141,2.5656426,5.61727,-5.517795
-0.2998563,-4.252827,0.4245906,0.15959089,0.77250504,3.5786662,-3.5667202,3.0228512,-0.003499398,0.09779393,4.1960044,-0.6244124
0.08117627,-3.0636127,-1.3038673,-4.5409064,-4.577248,-9.851667,-4.497903,6.8530045,-0.00065590825,-0.6819161,2.5625844,1.7570788
-0.8764968,-0.628166,-4.217342,-1.3625052,-4.988037,-3.9153259,4.5309186,8.936453,0.22585103,-1.6253172,0.58069634,4.3423715
