ancorasir/BennettWheelLegRL/experiment_data/2023-12-27_22-47-53/joint_torque_env31.csv
Joint_1,Joint_2,Joint_3,Joint_4,Joint_5,Joint_6,Joint_7,Joint_8,Joint_9,Joint_10,Joint_11,Joint_12
0.0,0.0,0.0,0.0,0.0,0.0,0.0,0.0,0.0,0.0,0.0,0.0
1.9800661,-1.5130234,0.9547809,0.086191416,-1.7144977,-5.597239,1.1647387,-2.0243645,3.6542416,3.2319677,0.9074402,-1.0052769
-0.8695247,-3.219841,3.1540473,10.45797,-9.937399,9.461572,7.748765,-5.6018705,-7.3224506,1.620455,0.92587566,-2.038041
-14.042806,-4.5511866,-10.892958,2.0911598,-4.9112716,2.8710723,-0.62013197,0.5603454,3.8766031,-3.4397607,17.96579,17.49525
-8.685898,-5.192193,-2.7903857,-1.5016208,-9.42213,0.17195988,-0.3248335,0.2326903,0.30601728,-0.08894524,12.360666,11.34758
-7.5882826,4.098962,-1.2910557,-3.714736,-7.385002,-9.118307,0.39730763,-0.7736387,1.6910424,-4.013124,3.9634948,15.680471
-10.044131,4.4100723,0.6155424,-2.8442512,0.34877682,-5.001407,-0.7512493,2.86216,4.686764,-6.734212,1.2353209,13.91407
-7.8898454,8.724493,-3.5277128,0.075941265,1.519567,-0.66647124,-0.1507349,-1.3993177,0.93694955,-1.1430703,-5.2783737,9.050064
0.012900293,-1.3513565,10.931541,3.2403073,5.8316927,17.757235,15.259837,-2.69174,-9.404803,-3.4962807,1.9229014,0.26493216
0.65593743,-0.1748724,-1.4561746,3.832703,0.75818336,9.548698,5.9607954,-3.36059,-3.6963308,1.1845543,1.9175575,0.718151
0.72373724,-1.1148585,4.165928,0.6814836,-3.1008534,0.8461143,4.705519,-0.3212639,-0.28351036,-0.6467743,0.799963,-2.1628978
-9.915771,-3.711168,-7.498676,1.318699,-4.9629908,0.5454073,1.101707,-0.11476159,2.8115635,-6.20945,2.2294,11.443862
-7.7579,-1.5753427,-5.696771,-0.3244209,-3.5799978,-4.246696,-0.87040496,2.5419846,1.5775702,-5.710961,1.9769973,10.146373
-9.930655,-0.21816707,-2.6428208,-0.31221843,1.5689834,-0.78447104,-0.13585079,-0.560441,2.0587294,-8.43701,-4.5623317,6.710978
-0.40095988,3.9054098,-7.732008,0.34259605,1.1680226,-0.9043739,1.2062931,-2.8557243,3.0255904,-0.5896652,-6.762612,-0.86696315
0.06531298,-0.9807253,14.806362,6.886162,5.040593,20.0,16.812355,-5.90587,-4.731717,-2.15309,2.8820293,0.025558949
0.98074234,-1.169925,0.6717278,6.490004,1.9159743,10.184165,8.016098,-4.244149,-3.4508913,1.5780023,1.128319,-0.60490596
-8.494233,-1.5734258,-7.4704776,0.3061452,-1.9546378,-0.5089801,1.8360101,1.3930538,-2.536348,-0.07257295,-0.029629707,-5.580814
-8.370199,-4.0866284,-7.673288,3.596136,-4.6959314,3.771482,1.3155725,0.6162696,0.56997085,-5.3479867,5.7631564,10.659467
-6.909903,-0.74340725,-4.2753763,0.05180669,-0.33117557,-0.23966718,0.531466,-0.3038938,0.23774637,-6.08363,0.15510976,7.1144915
-9.871195,2.7272022,-0.75600815,-0.068980455,1.1738167,0.5708518,0.23754656,-1.4360471,1.2447855,-6.377004,-8.009634,7.0499306
-0.6409893,-0.3312168,15.898918,11.728579,0.52849674,19.091747,-5.253113,-1.7615833,3.8242354,-1.3196588,-1.4809945,7.2172155
0.5189525,-1.9752307,6.7421355,8.260295,4.50196,14.992037,10.381222,-4.928798,-4.2421074,1.0938253,1.6253362,-0.547748
0.829893,0.008562952,-1.4663033,3.9966426,-0.88379765,4.48427,6.168891,-0.15048051,-2.5510197,0.3610127,0.22871533,0.009632349
-3.6529875,-5.000862,6.1200504,0.08805953,-4.6558404,0.8720367,1.4458258,0.71941805,-7.132901,-1.1323309,4.380232,-7.331447
-9.001141,-4.764943,-7.8218956,3.1762252,-4.5276127,-1.2791039,1.3721454,0.57596755,3.7133944,-4.2540975,6.3277636,13.230438
-7.7483373,-1.1172948,-5.2917523,0.28166413,-5.5155497,-5.584858,0.4456935,-0.3176906,0.6816585,-3.367233,2.7371345,12.340714
-7.815265,2.6593544,-3.0236113,-0.81971073,2.4138288,-4.9485626,0.085843086,-0.541435,3.8788483,-5.770438,-4.55066,9.90024
-9.874994,0.7909408,0.87940586,0.1185472,1.8058107,-0.123877525,0.7743652,-0.22126341,1.909733,-7.354951,-7.687343,8.053067
3.325088,-2.8385694,15.968721,2.1122656,1.4705701,-1.2412453,5.2271423,-4.1170726,-1.4422855,5.0241475,2.053275,-12.109754
-0.2674942,-0.5288224,9.71753,7.3564816,3.1476607,17.243221,14.479311,-7.6821904,-5.2904134,-0.8981367,1.224361,0.45919782
1.0700561,-0.6765697,-0.46348932,6.6770835,1.9142584,9.855629,8.2332115,-5.649977,-3.842368,1.4871583,0.7717478,0.14261007
-1.0057516,-3.1752472,-0.31738687,0.4993209,-5.5904737,-1.0589778,3.7486882,-1.4815271,-3.4161878,-0.67417,4.2995353,-4.2558355
-13.891087,-4.448188,-9.479122,3.154005,-9.154298,7.1623774,-1.2987032,-1.3194096,4.32147,-6.1406903,6.2482586,12.606233
-7.6045284,-3.4324467,-5.4426813,0.859413,-4.4897346,0.41073573,0.56592274,0.9560863,0.70325416,-3.9912565,6.9815035,8.625303
-7.5180535,-1.3011937,-4.379637,-0.40828633,0.577749,0.13636172,0.58724546,-0.1604011,-0.094423205,-8.755284,-0.54352593,6.470881
-9.746918,2.0045953,-2.5537295,-0.5348058,0.8837731,-0.35027957,0.25933823,0.1194787,0.17120025,-8.056853,-5.003723,8.072416
-4.901024,5.251489,6.5478525,-0.15642893,0.502548,0.1522227,1.8091154,-0.37483835,-0.64671797,-3.832642,-8.646284,3.9205732
-1.6160908,2.3133078,11.197221,3.8758745,6.7703533,17.11148,20.0,-0.20855737,-12.675656,-3.111541,2.0056963,-1.3101649
1.0736499,-1.5096822,0.9237533,3.4876435,3.434722,11.729246,7.1007276,-6.380135,-2.950047,0.9206531,0.7027955,-0.08132744
-1.2535847,-0.5608232,-3.02009,3.636692,-2.4357557,3.086484,6.1368246,-2.563015,1.3065012,-1.1765447,7.003494,6.8932953
-11.666808,-5.2432556,-8.581957,1.6224256,-5.265594,0.16601825,0.6037626,0.44739652,2.666021,-5.3938355,7.2380934,13.16033
-6.790437,-1.9653084,-4.620291,0.1397537,-4.8954554,1.7320886,0.40775895,0.0072621703,1.9290037,-3.2610185,0.20888388,11.313882
-8.195901,3.1980362,-1.9797182,-0.08371425,1.1523111,0.6655288,0.19663298,-1.2797909,1.2083758,-7.31559,-4.0942135,6.177783
-8.315061,2.0665917,4.34194,0.1031937,1.3585553,0.4831059,-0.16632152,-1.574161,0.60205907,-3.6939707,-7.7257924,4.885018
-1.3331449,0.79894257,11.950949,6.457148,1.5345125,20.0,17.17921,-1.2994373,-10.319773,-2.7556744,2.0997796,-0.8248198
0.9870564,-1.8195317,1.6513096,6.1693454,1.3710287,10.977473,6.757914,-4.4858747,-5.7389407,1.9355388,1.2706072,-0.5369165
0.831985,-0.25411597,1.8968885,4.248567,-2.5857337,2.5096278,6.01837,-0.47901082,-2.0648093,0.5877377,0.18565583,-0.8293383
-13.14183,-3.5719502,-9.556251,1.5843878,-4.282813,-0.31321597,0.08329439,-1.2857847,4.782452,-6.040146,5.4186573,14.464019
-6.9461026,-2.96732,-3.3020594,1.1139951,-6.26125,-3.2263358,0.43033886,1.1666032,0.7940263,-2.4014394,4.06027,9.5595875
-7.722898,-0.19274867,-2.890933,-0.115626454,1.0869956,-0.6520181,0.00019645691,-0.4849758,-0.26033285,-5.643821,-0.25225484,8.514659
-10.474699,1.4144722,0.9983208,-0.06552458,0.89363205,0.3602221,-0.33969724,-0.89974666,0.27800307,-6.765189,-7.9700603,5.0995803
1.5446162,-1.0447166,9.498035,1.9150052,-0.91787314,1.6423988,4.4845934,-2.4951036,-2.9656622,1.5931197,-0.830508,-4.8010044
-1.8988194,-1.0360885,10.989142,6.8058386,2.1982527,18.603853,10.8015785,-6.322319,-4.757835,-1.0729525,1.7461715,1.0481603
0.17404461,-1.3917263,-2.979622,4.752806,1.5351473,9.356883,7.1737957,-4.449817,-4.682383,-0.11104357,-1.7937207,2.1331344
0.47331643,-1.0499969,3.066049,2.3682103,-3.5579388,-0.64207137,3.988233,0.13820648,-0.33109415,-0.22112536,0.41219282,-1.2200956
-9.00358,-5.6127896,-7.473847,2.0398903,-4.932312,0.994879,0.61068225,1.0040922,0.80972475,-4.1728783,7.694039,11.109595
-7.7969007,2.4057298,-3.8064423,-0.29771185,1.008119,2.1362321,0.5087023,-0.9392948,2.9391835,-6.130764,-4.320408,9.559631
-3.6600754,5.728923,-2.1783361,-0.116901875,1.3339593,-2.1463215,0.42756367,-1.9031267,1.9910045,-1.9497753,-8.274634,4.5356874
-2.7630222,1.0308366,11.245715,6.541036,-1.2446914,17.054613,10.077322,-6.169324,-5.498107,-2.1444812,1.1385927,-2.3350291
2.0302496,-2.1973014,0.48482108,5.3632627,1.3394084,9.605088,9.1424,-3.3572373,-3.2276282,1.0343179,1.0381544,-0.5431024
-11.405207,-0.5160489,-7.8317904,-0.45044044,-1.2247835,0.8916192,0.37051523,2.2967765,-5.143222,-8.249467,-1.8033056,14.024511
-8.160985,-5.380987,-6.441783,0.60352004,-5.5750237,1.1050973,-1.1257803,0.857285,1.2930399,-3.0880985,6.208274,11.45231
-6.3444066,0.6230366,-4.679826,-0.05700046,-4.526286,0.2612722,0.40045905,-0.24839354,0.17286594,-5.53355,1.8382856,9.904035
-9.72476,0.20975089,-2.9360316,0.1633606,1.780947,1.0897241,0.47919613,-0.6621523,1.676867,-7.0511956,-5.652767,7.6754766
0.2703553,3.6035686,-7.2616816,0.35885143,0.90376306,-1.310832,0.11736584,-2.1523156,2.1198332,2.548367,-4.5666842,-0.8108871
-0.7221143,-1.5830212,14.403435,8.515813,6.2894707,16.942217,14.835968,-5.0331216,-4.2313976,-1.2298313,2.9812615,0.24440384
1.9887128,-1.3908639,0.5489156,5.909567,0.28169882,10.872839,10.06976,-2.6420321,-3.5155547,1.2480732,1.132772,-0.7155659
-2.4901433,-1.0165167,4.9439034,-1.4298927,-0.6883378,0.82288384,1.613516,2.220062,-5.083358,-7.6549897,-1.5660752,14.095684
-9.946775,-3.5470788,-8.022762,3.5235066,-5.2075176,2.6726048,1.3964844,0.8395021,1.9480417,-5.385761,8.906246,8.583146
-6.63332,-1.1051846,-3.5245066,0.24298662,-5.2095423,-2.804535,0.5401182,-0.102802515,0.5252722,-4.4167304,3.1360373,9.108542
-8.597055,1.6297344,-2.6516619,-0.30176592,0.915239,1.0044305,0.11711359,-1.2893336,1.4144163,-6.765263,-2.9571915,9.127735
0.87049365,0.48713398,8.037873,1.7437012,-0.199893,1.1160762,1.7957153,-2.15974,-1.5358331,2.180787,-4.0831285,-0.532768
-0.7898041,-1.2110949,13.124023,8.272532,3.9027576,18.031878,14.792952,-5.751745,-7.215208,-1.6127304,3.0050359,-0.09263706
1.1264555,-1.2875292,-0.11342636,5.7392616,-0.21576881,10.774603,7.9083424,-5.701283,-4.7075577,1.7717379,0.8131566,-0.51421094
-10.563393,-2.2550645,-9.845221,1.7794769,-5.312683,-0.5895582,1.1138842,1.7125049,-4.7193995,1.2855055,1.2906666,-6.1620417
-6.941829,-4.2571287,-7.063734,2.2049935,-5.4760017,0.46701932,1.2125494,0.774603,1.1643938,-2.836189,6.2601185,10.442424
-7.9075904,0.9748261,-7.688134,-0.73028314,1.0192301,-3.4032023,0.3642738,-0.26218987,1.5397748,-7.0402203,-0.5094714,10.551991
-8.421884,0.660437,-1.4040645,-0.011666298,1.0849223,-0.088814735,0.61564744,-0.23601532,0.1994842,-6.3453345,-7.5836225,6.8619757
-4.390846,-0.050315857,15.889166,5.8823576,-0.36131358,20.0,14.241752,-3.786717,-5.9886956,0.62466145,0.59572315,5.4334164
0.08971,-1.1892195,7.552065,5.4564695,1.9444399,13.61892,8.272574,-4.799613,-4.908406,0.5933633,1.0110946,-0.059557542
1.2329895,-0.8741393,0.036677748,4.920519,-0.7760714,9.6342,6.9263873,-4.5987406,-4.314576,1.6329054,1.0052725,-0.30191743
-9.01725,-1.3872883,-6.471751,2.6326618,-6.5968804,-4.898281,0.836239,1.9239528,-5.5787535,1.5699165,1.8044286,-5.544381
-10.644553,-3.7161121,-8.552012,2.9315345,-4.662862,1.5857593,0.9344766,0.99163795,1.3337034,-5.678509,8.030583,10.2159395
-7.257805,-0.64525294,-5.052438,-0.258937,0.68911445,0.09861982,0.30603838,-0.88793373,0.90333986,-5.938122,0.3481213,9.56713
-10.153714,3.1819701,-0.2036171,-0.09827566,0.7851689,0.77039933,-0.3757395,-0.7960448,1.7336603,-5.138465,-8.296903,7.6035514
0.18388176,1.4524611,13.613897,2.0926313,1.4253647,-3.4290915,0.52948666,-5.1969757,8.142877,-0.7820201,-4.79793,15.827433
0.017975986,-1.5685887,10.980223,4.1104393,2.2731748,16.051311,10.275993,-8.956365,-5.689951,-0.6320728,1.7625651,-0.16969377
1.4327853,-1.6080073,0.12083626,5.1531663,-1.38118,10.481239,8.283452,-3.8504596,-2.4448729,1.2412177,0.970613,-0.5052445
-8.583515,-1.644845,-8.848499,2.0033977,-4.8065505,-0.7680111,3.613649,0.778816,-4.1813917,-9.648817,0.9642358,13.834595
-7.482926,-4.4058847,-7.007056,2.0825112,-6.8543997,0.60111904,1.191355,1.1136502,0.37518466,-4.192762,6.0903277,10.29543
-6.5833178,-0.3906845,-5.8962283,-0.6135628,-4.9077334,4.440823,-0.7561307,-0.24305582,1.6159303,-4.9426436,1.4909896,11.769407
-10.453462,1.2041526,-1.9330884,-1.8078334,-1.1387229,-2.1957386,1.807214,3.6121118,0.5499576,-6.923526,-6.618395,8.399084
10.266373,-3.6691818,15.06445,7.3682833,1.7397549,20.0,8.982463,-10.111778,-3.7451904,11.509237,-2.5262866,-18.839828
1.0343227,-1.6232061,5.24404,5.6269355,3.9378772,12.946022,9.533928,-6.014577,-3.4143014,0.9113474,1.4157369,-0.57869124
0.89849997,-1.0697079,2.3820493,2.4769402,-4.851344,-0.018973947,4.899465,-0.6708572,0.22095665,0.47632265,0.59931946,-2.035427
-10.8643265,-5.8502436,-7.866411,1.9677933,-6.7497926,1.1052681,0.85722876,0.37863326,2.6953769,-4.7963157,5.139348,12.749971
-7.3590097,-2.843554,-4.7487144,-0.13777488,-5.3414187,-3.3420267,-0.47644186,-0.47344315,0.20218843,-3.4632716,5.734335,10.907417
-8.463528,1.8956251,-1.9586229,-0.59275293,1.3998213,-0.8833778,0.16613305,0.73707294,1.932098,-6.3216205,-4.1619143,7.9461226
-3.5750155,6.013606,-3.5126662,-0.008069277,0.80666804,-0.41198838,-0.0142354965,-2.414065,1.9989276,-2.3824158,-7.5186334,1.728363
-0.4846121,-1.0022912,11.644876,7.2819242,5.5525837,17.766094,15.002948,-5.469412,-6.5833426,-2.1945336,3.195309,0.39655733
1.5921068,-1.8844898,0.20305218,3.7730386,-0.66552687,10.169641,6.880982,-4.052247,-3.4086053,1.2980523,1.3193934,-0.74273825
0.3297434,-0.13601613,-2.7403207,1.6165653,-2.3979244,0.8218509,5.320942,0.4823364,0.9776199,-0.39903164,0.8473151,0.93772364
-11.083472,-4.708871,-10.285675,2.2100885,-3.4000854,0.15275717,-0.5820098,-1.7890236,3.932699,-4.7165513,9.455516,12.840874
-7.681499,-2.6037471,-4.5828805,0.185857,-7.374233,-2.448175,0.8243356,0.90764177,0.63642883,-3.1986625,2.4607875,10.182307
-7.1969876,1.1897085,-7.02343,-0.5032561,-5.255234,6.7811046,-0.22748172,-0.72239876,0.58484685,-5.948303,2.5265057,11.708259
-11.342658,-0.21110034,-2.157079,-0.75826025,-0.00059986115,0.98958015,0.9837371,0.70149565,1.7001485,-7.8848977,-8.052653,9.438353
1.8394713,-2.0397773,16.354836,1.0590801,2.4201403,-0.915843,2.4857903,-3.4498663,-0.9942446,4.297425,1.8343878,-12.631109
1.4415786,-1.6755776,1.7835312,7.477438,3.0998058,10.652203,10.769729,-4.062401,-3.1163526,0.83611727,1.1639807,-0.43712842
0.27244306,-0.7483692,2.198951,0.38859516,-4.3377695,-5.449177,0.86870635,1.5340488,-4.9120903,0.5106156,1.0335851,-3.969042
-8.860907,-4.7477207,-7.295269,0.8639512,-6.403376,-3.599362,1.1726108,0.79689765,2.03816,-7.870705,4.3232403,8.545847
-7.3726406,1.7962098,-6.418925,0.67831796,-6.8061104,5.44295,-0.22336769,0.5717299,0.42415917,-5.0425615,0.18746352,12.163302
-9.881194,-0.5257219,-2.4047837,0.61679745,2.2055674,-1.3075128,0.50672245,-0.047925472,2.128225,-5.8759093,-4.1682353,9.387197
-9.254006,1.9840233,4.002636,0.14632177,1.0325058,0.037337303,0.66478014,-0.65206814,0.07110593,-5.5253,-7.5703573,7.317601
-1.1348758,1.3049309,14.730471,8.610683,-0.5313592,20.0,-4.2499037,-2.572947,2.7122211,-1.6211038,2.0293918,-9.778211
0.18306565,-1.6523323,8.185981,5.4217615,2.2138238,12.934881,8.981614,-4.949909,-3.2446432,0.388121,1.558476,-0.43345338
0.8740072,-0.9125403,1.2802497,4.795737,-4.580622,3.5592794,6.537865,-1.413721,-2.6572323,1.2064625,0.9930148,-0.77107453
-14.394808,-5.027828,-8.783581,0.24251255,-5.3677835,-0.95750177,-1.9314847,-1.8192837,3.4623597,-5.1525,4.7999625,12.302977
-7.0363317,-2.043806,-6.3673854,0.5582675,-4.902383,-2.9489264,0.6005063,0.4587155,0.9447556,-4.1516457,5.6593666,10.660713
-7.5440135,1.4636,-2.6832724,-0.31521606,-8.799217,3.9457417,-0.5967554,-1.2596061,1.9878263,-5.115355,-3.9699278,11.146411
-9.018088,-0.42687958,3.819161,0.0831517,-3.3423872,-2.0435622,2.970037,2.9780097,1.5691288,-5.5242357,-6.3276873,9.123375
-0.7061844,-0.5549636,15.906292,9.637527,0.52172184,20.0,-4.6498327,-1.1548047,3.1952004,-2.1374822,-1.1146674,7.541896
1.0585613,-1.7536771,4.4406013,5.5063953,1.4076817,12.935094,9.816138,-4.624571,-1.9305403,0.92636186,1.3998775,-0.66791224
-0.9704318,-1.898114,-1.5001934,1.6052697,-6.05463,-0.5348419,2.3137982,-1.8684883,3.0395613,-0.7547538,1.7548819,1.9139619
-13.326816,-2.6517193,-10.9998455,0.4134382,-0.10057062,-0.02747184,-0.7215824,-0.84605026,4.6075983,-6.8017273,6.23999,12.61072
-7.457117,0.089683056,-5.1670756,-0.619808,-3.2464874,0.39087033,-0.88660693,0.7411268,1.9974775,-3.85796,4.694828,11.89241
-10.118607,1.6310933,-2.761776,-0.07255924,1.1174426,0.057891846,0.21459246,-0.46971416,1.3721453,-7.5918283,-3.0890946,8.723158
-8.817003,0.5899365,2.9533124,0.011149764,1.0644145,-0.05940938,0.28740454,-0.48342752,-0.009664558,-6.1107035,-6.035883,5.370826
-0.8495488,-0.31288242,15.06351,9.9908085,0.33103323,20.0,-4.8264265,-1.0769229,2.8354182,-1.90662,-0.62075305,6.9886746
-0.14485669,1.0124955,3.2750618,5.984235,2.1525648,13.969014,7.7114873,-5.983097,-4.789404,0.72347826,-0.6937418,1.0458459
-1.34181,-2.7249777,-2.9352944,2.0242121,-3.1381922,1.8739372,4.7104163,-2.085168,-0.05990857,-1.8199811,2.5511775,2.104042
-14.970398,-8.207856,-8.71277,0.053836048,-6.538043,-0.03171444,-0.603858,-1.029289,2.623574,-5.85258,5.1980543,14.858775
-6.2885156,-0.59447646,-4.594448,0.33580524,-5.8664594,-3.2901704,0.9466758,0.46476364,0.78172135,-3.1931608,2.6149452,12.014041
-7.6418695,1.9977031,-3.1202328,0.07971716,1.4575858,-0.91444516,0.37404132,-0.28655958,2.5794928,-6.02636,-1.970769,9.206763
-9.022927,1.9084361,4.1273317,-0.16078669,1.5251682,0.40276694,-0.20757842,-1.4956999,0.4719467,-3.807466,-10.140429,6.3536615
-1.8024893,-0.9070463,16.123941,11.7145405,0.03952694,20.0,16.517391,-6.670838,-5.0959535,-1.0764165,3.0807753,0.8181143
1.220652,-1.4401176,0.16762212,6.3450847,0.80876565,9.786792,8.165349,-5.4164104,-3.6414561,1.6138633,1.2129359,-0.5277529
-1.0538476,-1.3370311,-1.3058587,-0.11751115,-6.5084043,-6.1165967,-0.82033,-1.8362865,5.759049,-1.0139998,0.7769623,2.9497983
-10.083617,-4.575564,-7.101787,1.8366774,-6.9661922,-1.215913,0.8507502,0.21244621,2.536374,-4.356328,7.1752043,13.296014
-6.396445,-2.2371576,-4.997387,-0.47953635,-6.4380727,-3.8415506,0.44848204,0.056124568,0.062071428,-3.2771502,4.243155,11.865503
-8.565738,0.53567374,-3.843223,-0.3908062,-7.461513,4.3153114,-0.27009034,-0.9481361,0.95329154,-5.348071,-0.3789401,13.454616
-8.877556,0.97359246,0.9448569,0.25373077,2.0657468,1.0604963,0.35150728,-0.8951993,2.5300648,-5.3458567,-3.2900343,9.482742
1.1260171,-1.994826,14.606927,0.5466256,2.6723533,-3.2364578,-1.2722111,-1.7206478,2.3227797,0.04712391,-2.5918193,9.856837
-0.047211856,-1.4815407,10.354061,6.264224,0.3358953,13.783712,10.441035,-4.4633055,-5.7048974,-0.10490775,1.8163586,-0.42709702
1.0913997,-1.6224338,1.2827215,2.6906238,-4.1534276,2.8406353,6.0291743,-1.5476431,-0.8292252,0.7189921,1.5213957,-1.1661291
-10.453288,-7.0358353,-6.720987,1.619982,-6.8218975,1.3117642,-2.0824974,-0.57625794,1.9703301,-5.9781485,7.4483576,10.006896
-6.5294013,3.3962045,-3.972616,-0.30327743,-4.7226014,2.7235734,0.34055507,-0.549428,1.4266837,-4.533453,0.45511532,11.452396
-8.177691,2.5590453,-0.8659045,0.3586173,1.3458796,0.8675175,0.4872942,-0.8221178,2.5428839,-5.34663,-4.1515756,6.9123883
8.295094,-2.786951,15.127987,8.057273,4.8686075,-8.285851,8.0430765,-7.009733,3.2491932,3.4854755,-5.5477247,12.488499
0.9435371,-1.7888312,5.5655417,6.305915,0.86814165,13.473491,11.241628,-5.618296,-4.11704,0.51105833,1.574058,-0.5867647
-0.59665334,-1.188398,-2.3948085,2.5265827,-3.898491,-0.33927584,5.8107634,-1.4667828,0.6600629,-0.88696,2.1422968,2.3146381
-11.417159,-5.425082,-7.332484,2.71111,-6.7341905,1.0294253,0.6378827,0.30117273,2.603708,-5.574821,7.0330877,10.648608
-7.5139356,-2.3368945,-5.4845777,0.3381305,-6.012766,-3.4404516,0.42514873,0.46291494,1.0757754,-3.72373,4.7465315,9.889777
-8.982148,1.4182279,-3.5263197,-0.35515523,1.7111957,2.3216152,0.5699949,-0.6148646,3.1500795,-8.720355,-2.505587,8.674503
-0.52853274,1.0649674,7.9681573,0.9424679,0.2024355,1.1339061,1.6948576,-2.2022703,-1.5004833,0.060954273,-5.584836,2.1002102
-0.9507131,-0.6262164,10.173789,8.00328,3.25623,18.633888,14.133731,-7.9386353,-3.4012618,-0.5051397,1.2389112,0.54174495
1.6422861,-2.0700648,-3.1819715,4.2214837,-0.05883658,7.197792,7.572742,-3.955996,-2.7678173,-1.2580092,0.5102391,1.6906786
0.5098715,-0.25626087,3.0043156,0.79207253,-1.065508,0.55039585,0.19811285,2.7172663,-6.499563,-9.908037,2.1177735,15.118563
-8.517691,-4.625022,-6.1117177,0.23808533,-6.445726,-0.102894545,0.9806402,1.118887,2.5512168,-3.3274758,5.576776,11.961523
-7.228294,1.7225888,-4.829015,-0.74158347,-0.019706488,-5.668274,0.23576593,-0.33996534,1.5826542,-6.205327,1.4764085,9.149987
-9.865231,1.5119834,-0.47600543,0.28968346,0.9715438,0.018380642,0.57829285,-0.6205468,-0.0064128935,-7.63946,-4.174837,6.97956
2.341835,-2.3201153,15.069131,1.1535425,2.2380772,-2.9992228,-0.7778568,-2.9419384,4.53716,0.19223738,-3.7799969,12.685793
0.5825181,-1.9246006,6.249165,6.576117,1.8992803,13.982762,10.02387,-4.445759,-4.371612,0.7318908,1.6720114,-0.628093
0.7383163,-0.4012159,-0.9194896,3.4166603,-2.2172198,3.5811353,5.437722,-2.6346712,-0.5615642,0.95393205,1.0324206,0.69619656
-11.566128,-5.0316505,-8.114557,3.377439,-6.2029433,2.121304,0.688185,-0.2320416,3.096153,-3.986487,8.2697935,14.819202
-7.246025,0.04129529,-4.29674,0.9681053,-5.0839434,-1.9724045,0.38319945,-0.12976289,0.29221714,-3.1116796,3.813002,9.802254
-8.072521,2.6154466,-1.4437454,-0.056924105,1.0810306,0.43842745,0.2549857,-1.2687349,0.7095405,-6.1297207,-3.503325,8.559356
4.197516,4.7373514,-0.6199064,8.320126,3.991706,-6.8826036,6.299407,-10.047611,5.73688,2.2911067,-5.3549232,13.221353
0.74336696,-1.6783991,7.3864446,6.8618946,0.9198518,14.832476,11.528856,-4.3473816,-3.3207116,0.549568,1.5785122,-0.6727716
0.60663605,-0.91971344,-1.4257712,3.321943,-0.6814043,4.6237035,5.237542,-1.8915303,-3.7339084,0.28558397,0.49751645,0.2527542
-1.6931734,0.4315939,-3.5706902,1.7784595,-1.622435,-2.2141895,-1.6121477,-1.1241897,6.842861,-11.239347,-0.043114185,16.264797
-9.571854,-4.4610705,-6.8318663,1.7593617,-4.375254,0.8738078,0.20029974,0.7527026,1.0218321,-3.1275811,8.833735,10.018327
-7.4597907,-0.013582349,-3.6586492,0.14802796,-1.6281962,0.39371216,0.2694565,-0.4027903,0.22706082,-5.6788864,1.2732608,8.865861
-11.027131,2.1997218,0.23366487,0.24179149,1.1155965,-0.51173496,0.7796259,0.17952824,0.9547208,-7.585038,-7.245219,8.235056
1.3509555,-1.4240662,13.839253,0.4326105,2.8542194,-0.71535206,0.80853176,-4.0971932,-0.6082618,3.9030685,2.6010056,-10.52068
1.084604,-1.1356091,3.44461,6.340049,4.0323057,11.939395,9.426761,-3.2368917,-4.994247,0.41176462,0.6360483,-0.17978738
0.87975407,-0.99522275,1.5075204,3.875659,-2.789875,4.1868095,5.6567802,-0.09170437,-2.1032753,0.7647749,0.83236694,-0.5176487
-14.892986,-4.4166374,-10.032484,-0.95648795,-4.6800523,-4.168258,-1.386584,0.087650776,-1.9518361,-7.998188,4.3682175,15.09124
-5.8946605,-3.3127131,-4.0989256,1.6120601,-6.406123,0.33076835,-0.3599118,0.9926698,0.2546707,-2.327631,5.6998568,9.255391
-7.8040085,-0.12725663,-6.1420846,-0.041401386,-2.070807,3.823988,0.26780796,-0.746048,1.9128892,-7.1545467,1.428572,9.830369
-10.914022,1.4909127,-2.1662812,-0.16995358,1.1778103,1.0702193,-0.08890343,-1.2758102,1.2605346,-9.043555,-5.3322554,7.14299
1.305843,-0.2229886,8.527092,1.4684885,0.019574404,0.84559274,2.6878138,-1.7835786,-1.7478871,0.75628316,-3.298411,-0.82809544
-1.3655411,0.008283615,14.777312,6.2466297,3.571495,15.916896,12.542506,-6.604696,-5.820033,-2.0009515,2.3219314,-0.17319608
0.99637675,-1.232719,2.3375008,6.7070293,2.3499184,10.228271,8.973905,-4.7272577,-3.5716786,0.5574527,0.45355248,-0.03818202
0.9594549,-0.009840846,-0.96868396,3.4903853,-2.9853644,2.3870935,6.7226477,-2.2530446,-0.19568181,0.6728182,1.9519398,1.3570127
-13.452203,0.18736315,-9.955095,0.080551565,-2.0522003,-3.440426,-3.5379066,-1.677005,7.2386274,-3.0783856,4.33431,18.876425
-7.8012567,-6.068534,-7.056037,3.36311,-5.756683,2.954576,0.5617385,1.0196223,-0.35839278,-4.021208,10.316547,10.386397
-7.0201745,-0.44654894,-5.31431,-0.7120221,-4.789374,-3.9378002,0.12974286,-0.46836662,-0.1854313,-5.3906116,2.8858263,10.282066
-7.171517,-0.44800878,-0.3064865,-0.06663942,1.593653,-0.804986,0.53371143,-0.7166686,1.0815117,-4.598262,-3.8627257,9.140741
-9.367669,3.7775812,3.4583714,-0.51598215,0.2963004,-0.3191116,1.0485599,1.4599137,1.4271233,-4.2210073,-9.590445,8.400315
2.9369564,-2.904789,15.000598,2.1444569,3.1326978,-0.21524906,2.6914282,-5.1599636,-1.4615469,4.511109,0.9756508,-10.132763
-0.1155889,-1.3220348,11.081386,6.545002,2.7884333,16.01397,10.498653,-6.038068,-3.3468602,0.050259843,1.572967,-0.4997086
1.2253513,-1.0029435,-0.7617333,6.460205,2.302239,10.715204,9.403042,-3.495597,-4.2779655,0.96380615,0.6144905,0.1798451
0.56728053,-1.2712188,1.4878063,1.3757986,-4.392377,-1.0640643,3.3748116,0.5187645,-2.4601498,0.048633337,0.44617057,-2.0960646
-9.5067835,-3.3891659,-8.006368,2.817823,-4.8295326,0.09957588,0.32920742,-0.31909013,2.3495924,-3.4424272,9.063731,13.110981
-7.297544,-1.3893955,-4.3742657,0.39676797,-6.146004,-1.6354892,0.13211071,0.07983935,0.37887624,-2.7363544,4.378749,11.970082
-8.070773,1.423532,-1.933591,-0.19235468,1.242105,1.6542244,0.30080914,-1.0134759,1.7342132,-6.1149983,-2.2739136,9.9282255
-1.9355419,5.295169,-9.007498,-0.6075301,1.1715724,-0.90280557,0.08459854,-1.7258753,1.7290701,-0.46476936,-10.5672035,2.1719213
-0.23366779,-1.3775969,12.047079,2.910654,2.4964406,16.361122,10.589667,-9.4037285,-4.4882283,-0.61178774,1.4777372,-0.10086101
1.462846,-1.5552909,0.8238846,4.932406,-0.7576957,7.736384,7.9688773,-3.4951644,-1.7396059,1.0207275,1.1352361,-0.5363116
-16.295324,-3.093505,-10.105571,-1.284489,-2.5299358,-0.14875603,-3.262732,2.6804945,-9.209236,-6.380215,4.5268607,16.069828
-9.224343,-3.9588587,-8.339794,0.08574939,-5.310837,-1.5990627,0.74584866,0.8464184,1.5290889,-6.37187,3.8910096,10.4797535
-7.5768194,1.580142,-5.8452544,-0.3544166,0.28528976,-1.7290257,0.41274524,0.09899211,1.395801,-6.655684,0.55955327,9.426212
-9.449449,1.9700398,-1.3754249,-0.32656395,-0.61312175,1.613915,0.6573292,0.38583374,1.33778,-6.5670924,-5.0679846,6.6288557
3.0639534,-2.9979,14.346579,1.7774715,1.2262926,-0.087717056,4.8148355,-3.9628577,-1.8100822,5.2496476,2.4189062,-15.2118635
0.7644882,-1.5033174,6.745601,5.996089,2.3334084,12.974979,9.159819,-4.224557,-4.5285745,0.65684474,1.5604653,-0.7079271
0.56884706,-0.65263504,-0.7013575,1.5066329,3.2682073,16.198322,5.9615593,-3.479853,-1.8547795,0.9172687,0.8992518,0.43703747
-7.321869,-3.91731,-4.4582357,-5.6017537,-0.74604493,1.7348471,-6.3486757,-2.3462806,9.787713,-4.215101,-0.005264759,8.429476
-7.8606706,-8.094918,-4.772911,0.8399593,-6.6138134,5.525954,-0.4056239,0.56821215,1.6373153,-3.5267453,8.794823,8.781165
-6.951288,-0.08444369,-4.501446,-2.8321843,-3.1117513,-2.5155392,-0.38782358,0.573004,0.5812496,-7.6660414,0.38131,5.9403105
-11.843962,-1.7059458,-3.9111443,0.35633373,1.1530753,0.93940806,0.33523136,-1.0860887,2.0020807,-10.048128,-4.6390457,5.6318865
0.72905016,-0.31663415,8.213814,0.71644497,1.0487866,-1.3587749,1.1513157,-3.2728252,5.3918924,-0.9491055,-6.0367002,2.374259
0.14681137,-0.9136853,9.043695,5.533623,-0.8921268,13.414121,8.612086,-4.983193,-5.747241,0.28373638,0.87434053,0.008486062
1.6673137,-1.4380636,0.10118885,5.4849463,0.18323696,7.9304028,8.412929,-1.8477582,-2.5544477,0.90390885,1.1491675,-0.4610783
-0.24332619,-0.88021564,2.796958,0.6751646,-6.149684,-2.2421935,1.141053,2.499068,-7.8922453,0.44437647,1.3781068,-6.7406583
-10.922701,-4.8157167,-7.8660417,1.6895491,-5.177242,2.917682,0.72883344,0.6221235,1.0022306,-5.664116,5.6167626,9.697219
-7.4965,0.4492253,-5.055659,0.105122745,-1.3437773,0.91638386,0.18097925,-0.59867907,0.106912225,-5.682046,1.7630208,8.46967
-7.8990426,2.5225525,-2.1352928,-0.4096352,1.0064325,1.0095518,0.40112293,-0.9143317,1.1330069,-7.211776,-4.497427,6.2413483
9.276123,-0.89616895,18.511314,10.626131,1.6251769,16.901669,13.210922,-9.683959,-8.337082,6.334732,-0.4384923,-14.231315
-0.87493783,-1.1430616,9.897645,7.2015305,2.3171592,17.903152,9.243845,-7.6150146,-6.298963,-0.7127578,1.3733177,0.4811877
1.4604052,-1.0215499,1.0789311,3.1524317,0.15023065,6.9057245,6.823675,-3.2192523,-2.4254446,0.67701405,0.9223133,-0.5093293
-12.364454,-1.8197527,-10.766359,-0.80935115,-2.3763752,-1.6362492,1.5123512,2.5290897,-7.590014,-7.4755735,1.2475109,12.471676
-8.28341,-3.5217729,-8.196036,0.5081359,-4.879055,-3.405396,1.0777822,0.7666743,1.8499498,-7.7985506,3.5655475,9.725428
-8.379516,-0.3171035,-5.268918,-1.5080447,-7.5793533,4.162821,-0.27299428,-0.54197335,-0.1360431,-7.3933473,-1.8371384,9.579954
-10.963697,-1.4182427,-0.74022174,0.5094583,-0.62007165,-0.044179678,0.9871948,0.5241623,1.293597,-6.36762,-6.1069407,8.09516
1.5239086,-1.2796614,9.679724,1.137476,1.0628502,-2.8431296,0.4563141,-3.5172856,5.018374,0.054139614,-2.158096,6.6153083
0.24340487,-1.1281171,7.933548,7.298773,3.7392535,15.404272,9.819468,-5.3682795,-6.2057652,0.33396983,0.9316921,-0.058299895
0.925369,-1.4102951,-2.126104,5.00082,1.0097766,8.66909,7.47153,-3.5224648,-2.0811079,0.8801205,1.4421235,0.69353366
-2.5915484,-0.6853776,4.1868324,-1.4495261,-0.6271486,0.27849746,1.360775,2.1571481,-5.7785025,-5.4544992,-1.1031392,16.59477
-7.7972937,-2.8721762,-4.648615,1.4592617,-5.170821,1.3684394,0.73585916,0.9088681,1.7187968,-2.4792862,6.752189,9.261367
-6.6744976,0.30366683,-3.6910899,0.052446008,-1.3683591,1.2126237,0.4184332,-0.47175407,1.1623201,-3.4083307,-0.4197321,11.643939
-10.447198,1.6910431,-3.004078,-0.13730955,0.97476053,0.8080466,-0.24367428,-0.85350657,1.1369753,-7.8766155,-3.2142015,8.045027
-2.7224157,6.5157743,-4.879238,0.38443315,0.7723663,-0.47985423,0.19638824,-2.34349,2.3994193,-0.7146523,-6.886587,0.19777799
-0.42580354,-0.5754943,11.241457,5.985546,2.3948672,20.0,15.357605,-7.7108946,-3.9536064,-0.9491422,1.2993917,0.5294921
1.0089737,-1.0005795,-1.895617,2.9284995,-1.7806451,6.668434,7.223836,-3.6027021,-0.3168731,1.0336314,1.8341221,1.6028523
-19.226824,0.084163666,-13.79068,0.742357,-1.0695896,0.41557598,-1.7623911,2.689329,-3.2672336,-3.8325453,4.325485,17.069378
