ancorasir/BennettWheelLegRL/experiment_data/2023-12-27_22-47-53/joint_torque_env26.csv
Joint_1,Joint_2,Joint_3,Joint_4,Joint_5,Joint_6,Joint_7,Joint_8,Joint_9,Joint_10,Joint_11,Joint_12
0.0,0.0,0.0,0.0,0.0,0.0,0.0,0.0,0.0,0.0,0.0,0.0
4.0171633,0.1302042,-1.2040274,2.8666582,5.990958,-6.167838,10.497903,-2.6662939,-8.615803,3.6063206,-0.6645241,1.1251917
-0.7707225,-0.010282636,0.15249741,9.562661,-0.6481558,10.200747,8.580721,-5.0204864,-8.131508,3.228845,2.8787398,4.885927
-0.4315188,-0.7519574,1.9637463,1.2334045,-5.431369,0.08459121,4.8654294,1.2228231,-3.7219706,-0.17557421,-3.7126637,12.226055
-10.433229,-5.198783,-6.6568003,2.2317634,-6.9698734,-1.4486837,-0.61296296,-1.1170754,3.7979598,1.1788357,6.4963284,17.547691
-4.8579555,-1.176156,-2.5925663,2.03413,-8.979975,-0.14767909,0.2033962,-0.00074625015,1.0716617,2.1187465,4.018881,13.288955
-6.865241,4.8537736,-2.2355146,-8.553898,0.19918942,-20.0,-1.6349022,4.8178983,7.283507,-2.416083,-6.8688426,13.363514
-3.8970032,5.836332,-4.059614,0.5306361,1.4752896,0.17454672,0.1352992,-2.0441942,0.5759399,0.8928864,-8.026102,6.0329013
0.110081136,-2.1751976,11.909707,5.6147695,1.5110822,14.889644,9.870115,-3.5738187,-4.9762936,-1.9556798,2.0483599,-0.11556172
1.0415463,-0.47183228,-1.65978,3.9523592,-1.0959378,5.378957,4.52893,-1.787924,-3.614595,1.3124216,0.5961139,0.052645683
-9.245622,-0.5811875,-7.729087,1.6861023,-6.153159,-1.8493866,1.0358509,2.0749407,-5.6426034,1.0350456,0.886333,-6.2368426
-9.93444,-4.8104963,-6.88974,1.4559078,-5.4958334,0.529981,0.88029885,1.501395,1.534145,-5.1417856,4.536147,8.714096
-8.344526,-1.5166173,-6.1847544,-2.174288,-3.0161607,-2.2361367,-0.9284016,1.7244816,1.3921502,-6.7169175,0.0087400675,10.549556
-9.514019,0.092081785,0.22682357,0.17807126,1.0268986,-0.20724869,0.7615348,0.38256168,0.13839622,-6.981829,-5.8536096,5.447238
0.15010023,-0.52291226,13.997543,10.771879,0.33210993,20.0,-4.201397,-1.0782614,0.8725562,-0.97770786,-1.2317604,8.067244
0.41433692,-1.8610103,4.6181884,6.701462,4.482555,15.019291,9.881706,-5.801016,-2.6180556,0.78197443,1.8850465,-0.70331
1.0514061,0.007984877,0.8723711,4.307767,-0.9184004,5.695489,6.4103727,-2.2847261,-3.0552175,0.95622754,0.22912145,0.11548221
-13.383755,-7.029747,-10.621515,-0.77277994,-3.3342116,0.61551714,-0.68846416,0.78221464,-4.9634414,-11.146825,-0.012447834,15.913755
-7.098438,-4.7652974,-5.538676,1.0563649,-6.2521925,-0.11103737,0.34295034,1.2021047,1.1662024,-1.8152395,6.0111637,8.914533
-8.176262,1.9307474,-7.347107,-1.6083872,1.1322856,-7.4785476,0.10099459,-0.09673214,3.059538,-7.456466,-2.600762,10.737842
-9.279643,0.50698954,-2.130484,0.27537167,1.3907375,0.9147148,-0.21196899,-1.4808311,2.4567611,-5.558031,-2.3191543,8.944157
0.2559271,-1.1394628,13.682084,11.312915,-0.72605157,20.0,-4.586481,-1.44837,1.4951478,-1.2557883,-1.7085712,8.239225
0.15174234,-1.4136038,5.1884694,8.494747,3.0125663,15.252369,11.068982,-5.1797915,-5.3829565,0.46489286,1.6840758,-0.8612027
0.49329102,-0.6192029,-2.0993285,3.5375261,-2.0217824,5.037673,6.6906695,-1.5191939,-2.8722918,0.27493715,0.5086269,0.53476155
-14.132479,-2.5050437,-12.228773,-0.24920419,-4.914872,2.8792696,2.5767095,3.1062949,-7.169958,-1.8353019,2.3530595,-10.572123
-9.835579,-3.166665,-8.442522,1.6270533,-4.449444,1.5379906,1.3507862,0.18397951,2.8114812,-6.3084717,3.275173,11.246291
-7.7112236,1.3493365,-6.995637,0.012605548,-1.4792985,-1.5062456,0.30037463,0.15535402,1.6580106,-4.985482,4.6335845,12.8683605
-7.31344,1.5940073,-3.0886288,-0.42958868,1.1877171,-1.3567312,-0.037726283,-0.2704165,2.2267368,-6.213695,-1.8206375,8.026473
-9.869315,3.1448288,2.5148406,-0.21954393,1.4808669,-0.34123373,0.39907563,-0.65966177,0.80974936,-5.8519692,-10.2466955,8.228826
1.2859015,-0.7652786,13.907594,1.7913084,4.1053486,-1.2290096,0.89331913,-5.634286,-0.7561004,4.478029,1.5694596,-9.04897
-0.057592034,-0.62047577,9.314102,4.6933403,4.1682673,16.312313,11.065692,-7.5239124,-2.5214605,-0.5762356,1.0975037,0.15067625
1.0949299,-0.9601486,-1.6064384,7.03595,2.6049352,9.236555,8.833944,-1.6923492,-3.6356773,0.6735747,0.1759777,-0.043329358
-0.73983383,-1.3105962,1.9035401,3.9902341,-4.020092,2.2338188,5.5410147,-1.7138124,-1.1865802,0.32453966,4.9010158,-1.3698359
-14.520217,-1.2698851,-11.263618,2.398512,-3.9376872,0.67570436,-1.4044349,-1.7982441,3.7197413,-6.374286,5.916058,14.92215
-9.670716,-3.9695044,-7.143523,1.2445885,-2.6016135,-0.5407897,0.061741352,0.5577544,0.93374455,-4.449685,8.056104,9.986141
-6.443997,1.865256,-3.6662917,-0.03445199,-1.5683424,-2.1934648,0.35909557,0.20092034,0.13569295,-4.984653,1.6421723,7.4573717
-7.995496,3.2197394,-0.25628185,-0.7311373,1.2320127,-0.980741,0.39771605,-0.17911291,2.1534348,-5.643382,-7.968555,8.57306
-5.03158,4.0763907,6.5025563,0.60793775,0.3555534,0.2009362,1.3039117,-1.3932912,-0.78911495,-1.866327,-8.900508,3.6839273
-2.5249531,1.2965741,14.464453,6.173042,6.5597854,18.129324,16.768177,-7.441245,-7.806857,-1.8950467,2.70361,-1.890533
0.92082524,-1.5532162,4.0951557,6.127491,2.6983519,11.928266,9.548592,-5.392255,-2.553663,0.73950887,0.5546026,-0.20908105
-1.4294785,-1.7038379,-3.645987,5.778969,-2.6073008,4.1410904,7.8178477,-2.5773492,-2.9834366,-1.7720832,5.84507,5.069038
-14.149314,-1.1551466,-11.173575,1.5957325,-2.6708217,-2.3439016,-1.0703764,-1.0195286,6.000454,-3.6050286,5.306342,18.18279
-5.8746343,-4.745897,-4.5496554,2.063159,-6.318316,-0.5740471,0.6879015,0.88351095,0.40212247,-0.83329827,4.802608,8.63217
-6.9849634,0.42728233,-4.303147,-0.4503652,-1.3499562,3.1270256,0.31700397,-0.88313246,2.1764922,-5.1719284,-4.5095234,8.798034
-8.362056,3.850767,0.85983855,-0.32472014,1.5033436,0.4240811,0.16420609,-1.8729534,1.8920325,-4.4051194,-10.19245,8.452878
-2.8540788,2.2191508,15.823489,9.367718,0.17455101,18.315578,-4.264229,-0.29137802,0.06432521,-3.3471007,1.795619,-8.56185
0.42530346,-1.9480915,5.0813007,6.5442104,2.2540193,14.246902,8.52699,-5.8532,-6.3983264,0.94572926,1.4435637,-0.62897134
0.9397167,-0.89018035,1.392777,3.0086935,-2.479622,2.6219537,5.251871,-0.65255606,-1.4140017,0.6410663,0.30453277,-0.53204966
-13.072472,-4.811448,-11.089603,1.5042746,-4.791049,-1.3674359,0.15056801,-0.38632417,2.8908906,-8.084713,6.872425,12.699769
-5.3535976,-0.17679334,-5.1527896,0.081181586,-5.564309,-3.5797544,0.47763658,0.21957374,0.8512412,-3.4095297,4.8465505,10.686995
-8.778543,-0.9081764,-4.7981434,-0.07488918,0.074421644,-2.8993146,-0.34248042,-0.36035466,-0.24692252,-6.204075,-0.18748558,9.902716
-10.823822,1.459574,-1.3146148,-0.18895161,1.2926463,0.46337152,-0.3091507,-1.7003298,0.8742266,-7.4412436,-6.1208887,8.82083
2.401197,-2.074438,14.852698,2.15625,1.248915,0.4627695,4.2630243,-3.6991477,-1.7709041,3.869883,1.8759325,-11.498347
-0.46604478,-0.7070565,10.650972,8.369007,2.087898,19.619099,14.443827,-7.2647333,-3.0113196,-0.5073064,1.0386572,0.3544305
0.74869037,0.54360914,-2.6207483,5.2028236,0.84075594,8.335625,7.8164296,-4.601971,-2.4579947,-0.5617808,0.5422616,2.3713005
0.16949081,-1.0641882,3.4350097,1.0630021,-0.9172039,0.4753425,-0.21025658,1.6890345,-4.80913,-9.3945055,0.7646203,14.559046
-6.8426676,-3.016261,-3.6499047,0.5182568,-6.476449,-2.3496687,0.42286956,0.044867277,0.19584018,-2.5743122,3.5694752,11.139457
-8.644496,2.7708986,-2.6711783,0.17805362,1.2450931,0.73307586,0.55688655,-0.6854849,1.7046527,-6.97614,-2.1301775,9.248792
0.30066943,3.3230834,-7.4164925,0.28399944,1.0476377,-1.2377713,0.3753128,-2.8155289,3.0039446,1.4312713,-4.9533067,-2.455227
-1.6642532,0.77754736,10.029875,6.045661,2.3522596,14.267899,10.792076,-6.155463,-6.0854297,-1.2226253,1.3578763,-3.1601624
1.770934,-1.9620975,0.34540796,4.5816813,-0.79401207,7.725902,6.9716535,-2.8092914,-3.609692,1.4210842,0.79063773,-0.42046916
-14.546602,-1.6392198,-10.7778,0.44441444,-1.231262,0.6788552,-1.0584155,1.5358176,-4.503486,-7.363463,2.7853675,15.672395
-7.049484,-2.9280026,-7.11403,1.7690938,-4.946693,1.1051618,-0.48261023,1.988064,0.21121922,-6.690365,4.555866,9.546472
-7.6379447,0.19667578,-5.5070434,-0.21194053,-5.2599206,3.3219688,0.0306921,-0.5422869,0.015169501,-5.662611,-1.0854057,10.134622
-8.348014,3.4532673,-3.4095442,-0.10713005,1.5219672,1.0931847,0.12069756,-0.9635315,0.55774796,-6.838114,-2.7920709,7.0411386
-3.286553,7.454795,-3.111844,-0.027421594,0.97759485,-0.110663846,-0.36564302,-2.235989,1.5360616,-0.08341485,-7.1504803,4.0710154
-1.4862388,-0.91192055,12.91341,8.512039,1.2756679,20.0,14.63897,-6.205043,-3.8943868,-1.4492211,2.6974263,-0.327963
1.6875445,-1.7439098,1.184468,7.6054673,2.3854034,11.576331,10.213542,-3.583874,-2.531293,1.434063,0.78307366,-0.16844772
0.34345305,-0.43221045,2.020195,4.0100822,-4.2896643,-0.82431996,5.7797756,-0.45604372,0.4804663,0.34530377,0.6357994,-1.8432782
-13.031369,-0.52605486,-9.396819,1.6232085,-5.4347143,-3.0281715,-0.31254435,-0.8721881,5.252415,-5.2569265,4.731011,15.497097
-8.468561,-3.5237105,-5.4092155,0.40809748,-4.3632956,0.19641244,0.363796,-0.0001450777,1.4825829,-3.6815405,2.3663921,12.720893
-6.2897425,1.5712434,-1.6700025,0.22306022,-5.759845,0.9239106,-0.14034516,-0.70582247,0.97021675,-2.6452005,-0.15681124,9.824993
-10.880504,1.3480893,2.1727977,0.6066694,1.3826518,-0.12443066,0.9255278,-0.36705923,1.0395527,-5.9534307,-7.4477954,9.065718
2.089879,-2.375526,14.104947,0.9097729,2.1733747,-3.239605,-0.79248714,-3.5129476,4.010065,0.091362,-2.441361,11.152836
0.5030961,-1.5832405,5.7514887,4.4467278,-0.501035,10.547203,7.3506656,-3.8239982,-5.440629,0.35318387,1.8523326,-0.8276068
0.5466685,-1.6513448,2.0462723,4.1264253,-3.77805,1.7670394,6.4123516,-2.078372,-1.397191,0.37855184,0.63158846,-0.92366004
-12.183699,-3.8836966,-11.351559,1.3492713,-3.1067054,-0.5368063,0.82932377,-0.5223563,3.978391,-7.4467053,5.4415245,13.908594
-6.7398953,-1.1678456,-4.902972,-0.39630497,-1.5336887,-3.3756757,0.3532834,-0.6286037,0.52951574,-5.524355,0.5060444,8.157989
-10.882305,1.6648712,-1.9664526,0.017342806,0.8069215,-0.46596217,0.45461023,0.22107983,0.13332152,-7.28255,-6.7206273,9.245684
1.002059,-0.13257575,7.29277,0.6478081,0.6241212,-1.9673781,0.015248299,-2.7720015,3.4781733,-0.7586159,-2.7572627,4.3741746
-1.5753636,-1.0108666,10.765901,9.436372,4.80327,18.158281,12.320077,-7.6672506,-5.2356772,-1.15313,2.5917263,0.37613535
1.3232985,-1.5395577,0.58452547,4.0291643,0.91220427,9.770585,8.493478,-4.3834305,-2.0702717,0.8734696,0.72978234,-0.6156838
-12.102156,-2.0632334,-7.599849,-0.35611957,-0.5954454,0.40251064,0.39650333,2.3956988,-5.7963758,-6.9999886,-1.5216198,15.183614
-8.7526455,-5.1174564,-5.9395304,0.97927034,-6.0047483,-0.69601595,0.68332314,1.1125585,1.423945,-3.8068566,4.9267616,8.978694
-7.9273787,1.7924509,-5.0762615,-0.0695678,-1.8357487,3.4792933,0.1489954,-0.7361138,2.2061474,-5.982718,-1.7737206,9.006768
-9.454829,1.7605486,0.14500451,0.36797142,1.2796252,0.54931545,-0.061755657,-1.422533,0.6555992,-5.795702,-5.71409,6.348921
-2.6358268,-0.2176423,15.067608,9.604888,-2.1894808,20.0,13.877764,-5.139626,-5.211492,-0.50489664,0.18641567,6.575863
0.6709126,-1.1741118,5.685562,6.9213057,1.0583475,15.245249,11.43481,-7.1629896,-6.104014,0.62862456,1.4477429,-0.5729555
1.2075282,-0.67151016,1.3847384,4.5903554,-1.8466254,4.4052935,7.831192,-3.2950373,-1.6023182,0.83058685,0.5205456,-0.5350523
-13.639021,-6.7117605,-10.399014,-0.18144938,-3.8689163,-0.80228806,-0.701653,-1.0541937,4.6155195,-7.9634595,3.1760383,14.938951
-7.659514,-3.113499,-6.636657,-0.28450105,-6.236595,0.047804594,-0.07910931,-0.027527094,0.48516494,-5.47671,4.4283476,9.554448
-9.997185,1.3236682,-5.679041,-1.0085058,-0.5720184,2.098446,0.54497313,1.3156939,2.2026837,-9.470883,-5.2028503,8.777231
-4.383292,4.6300573,6.0872374,2.568428,-0.9148896,-0.1833446,6.269683,0.32614708,-3.307506,-3.8748314,-8.040441,5.31145
-1.0760188,4.496437,13.123026,8.952526,3.6609097,19.080976,15.407163,-6.36031,-5.7517314,-1.0738022,-0.67747164,0.7382524
1.714565,-1.6560577,0.43457437,6.389299,-0.5023972,7.880971,8.692139,-3.403822,-3.7304816,1.5920322,0.78913355,-0.2576176
-8.201674,-3.1782155,-4.976508,0.18169063,-0.54194534,0.5857041,0.13490915,2.6007702,-6.069059,-12.023924,0.16097689,15.834406
-8.420614,-3.5512807,-7.4708962,1.5785966,-4.758935,0.5615834,1.07389,1.1712546,1.1174834,-5.64373,7.373908,8.606321
-8.33233,-0.9488026,-2.8316984,-1.4564407,-4.371469,-2.3429916,-0.37338293,0.5344193,0.6627111,-4.851544,-1.6643974,10.584858
-10.085303,2.5703769,-0.43800664,-0.13515353,1.2116488,-0.12337947,0.30238318,-0.011087418,0.59277713,-7.0869193,-6.2377777,8.338457
-0.39884043,-0.750589,13.781758,-0.53610945,3.3063176,-3.1791296,-2.901164,-1.0646458,1.49562,-0.47839355,-1.1059515,8.0729065
0.48201346,-1.8121696,7.6798215,5.98919,0.2987976,11.774387,8.589331,-3.8556685,-6.581768,0.19906607,1.8527098,-0.6471156
1.4196585,-0.78817225,1.693608,3.8626142,-2.1332018,2.8944924,6.9888577,-1.2427646,-2.5578535,0.4905541,0.25137734,-0.60469794
-15.930265,-2.0287993,-10.969152,-0.40499783,-0.6487845,-0.49610758,-2.1796274,-1.0050483,5.087431,-7.200458,6.474587,16.106424
-7.6673293,-2.0896006,-6.5882053,0.56624436,-5.411387,-3.0293067,0.5151477,0.6159799,-0.04404831,-4.9081373,6.8524065,9.918403
-6.696888,2.022995,-4.005146,-0.7980104,-0.63098764,-5.2061667,0.7247288,0.5986273,0.48137525,-6.206707,-0.9705404,9.283779
-10.251129,1.2455597,-1.3275208,0.3170519,1.4204316,0.7442982,-0.23138624,-1.4420907,1.2013754,-6.745757,-3.188847,8.131756
5.2867317,1.5605031,9.494663,8.898783,3.8625398,-6.845434,6.783675,-9.89153,5.8596516,3.007799,-6.480859,14.173529
0.17125535,-1.1679649,7.2542887,6.611448,2.3773055,15.109329,10.644737,-5.649216,-3.91199,0.16605616,0.96324825,0.1447804
0.91228557,-0.8163191,1.1861342,3.871189,-2.3376913,2.3212867,6.195812,-1.7490076,-0.28411114,0.4989419,-0.42257547,-0.73907804
-13.370667,-2.8029337,-10.629257,1.6430795,-4.8641663,-1.5099404,-0.1867342,-0.80609846,4.301963,-7.090849,5.50426,12.899736
-6.7637773,-1.8350857,-2.7587035,0.7611443,-6.0733685,-3.1458163,0.43206608,0.9075725,0.05456671,-1.6608458,2.8326788,11.172192
-7.608968,2.480564,-3.6626565,-1.0713627,-1.2881575,3.9590998,-0.52753294,0.2937739,2.7146785,-6.7969956,-1.4704661,9.7369375
-9.503706,1.6278794,4.0551596,0.9949621,1.288744,0.26122212,1.2098882,0.384243,0.2517051,-3.9776013,-7.7415113,6.0750346
-1.8700867,1.4678831,16.053732,12.510075,1.4374027,20.0,-3.065422,-1.6952572,0.32167327,-2.6179357,1.3951783,-8.883455
0.5976448,-1.3555975,6.6389027,5.1125445,2.4878812,15.26532,10.573342,-6.279679,-5.0907173,-0.11193216,0.6126585,-0.021979213
1.3873081,-1.3044164,1.7988386,5.396068,0.25423717,5.538439,7.393728,-0.61448157,-2.2292094,0.7002629,1.3664969,-0.6269417
-15.3481865,-1.707207,-10.664304,-0.5081171,-0.79951245,0.630993,-1.7995138,-1.2042893,5.4755907,-8.139942,0.5850973,20.0
-8.099648,-3.3283234,-7.1036,-0.47261247,-2.8791523,-1.1233057,0.07282472,0.820074,-0.12152523,-4.4532504,7.12484,10.974516
-8.386964,-0.9335041,-4.618712,-0.6099535,-3.5469294,0.28619933,-0.18047738,-1.1044888,0.54747206,-5.591469,-1.6464057,9.3799305
-9.897994,0.2831751,-0.38242686,0.27707195,1.3858821,0.7038579,0.20139647,-0.8663726,1.445928,-5.300944,-6.2882824,8.183675
-3.3435082,5.3664846,13.497257,11.030041,4.2720704,20.0,18.412643,-7.3507137,-8.549297,-1.2104895,-0.54131126,-4.8192854
1.4507437,-1.650784,3.130476,4.0494843,0.9632838,12.764966,8.945632,-6.79917,-2.799467,0.90283734,1.4722908,-0.4764228
0.8917167,-0.4495449,1.9377141,0.6547179,-1.8471863,-1.4486976,0.68476677,2.3300397,-7.847322,-8.70058,1.9700551,15.7990055
-9.805752,-3.8634617,-5.31472,0.88408613,-6.383916,0.7601316,0.5069418,1.0054412,0.73920417,-3.0823328,6.777458,9.926053
-7.0973134,0.36432743,-4.239892,-0.17364013,-1.9911789,1.892339,0.8595698,-0.38902617,2.4860678,-6.023074,-2.7725873,9.916449
-9.70615,0.8695233,0.97171044,-0.7685243,0.12343836,0.5169308,0.5468621,1.3156347,1.4882193,-6.867004,-6.8680997,6.99459
0.9584818,2.1821337,12.796193,1.1685982,0.27999747,0.5331516,4.1890354,-3.5731726,-4.3360367,4.3110814,2.2861464,-13.502459
-0.37468886,-0.7704158,9.544359,7.019141,3.2994452,20.0,14.919724,-9.568449,-5.095545,0.036611617,1.2294879,0.26991427
1.3098766,-1.1711698,-0.09978902,4.49108,0.29522455,10.901042,8.976524,-5.4282513,-2.8768706,0.76242435,1.0232391,-0.7288165
-2.8871062,-2.4749699,-2.5264444,2.436071,-3.6950893,-0.15657175,5.403589,-3.5370138,4.9288883,-2.0855007,3.623276,6.5204086
-8.476417,-3.7748768,-6.905694,1.1637981,-4.1242614,1.2646695,-2.2528005,0.2400229,1.1948056,-4.6757336,6.5599422,10.57016
-7.0946093,1.5734892,-5.4347215,-0.20381308,-3.4210398,0.781538,0.4262656,-0.12191212,0.09828301,-5.571323,-0.1056757,9.956989
-10.008517,2.7845607,-3.450438,0.16299939,0.8781409,0.6316004,0.0052114874,-1.342433,0.72006935,-7.2775097,-2.9176161,9.134002
1.7564068,0.05556494,11.173509,2.37035,0.55118364,0.69755363,4.9722996,-4.168028,-2.7941954,4.994314,2.8550777,-13.44405
0.34788007,-1.4369564,9.435589,6.0658402,1.2289984,15.323815,12.391293,-5.3651066,-5.4067106,-0.6268283,2.1600833,-0.54157555
1.546165,-1.3164808,0.5693834,6.50874,-0.05072689,7.475937,7.8880334,-2.4636555,-6.371375,1.4654211,0.33305323,0.16626579
-8.341005,-1.4142308,-6.4295216,1.479577,-4.436474,-2.2064114,0.14751792,1.7075889,-4.0807867,0.7354834,1.1569414,-5.836914
-8.954269,-4.032402,-6.562473,1.5978566,-5.071632,-3.3116345,0.679137,0.5528896,1.4791187,-4.620811,7.410062,11.146238
-8.990971,-0.58125484,-4.6620293,-0.26731458,-4.845691,-2.3636417,-0.01980114,-0.78905606,0.9120771,-5.0837965,1.6502458,10.843493
-9.646447,0.39347237,-2.1772728,-0.19377041,1.372989,2.4274235,0.1154418,-0.98166037,1.9819791,-7.3482275,-6.158225,7.1972303
-11.259799,2.95009,2.4954846,0.19634116,1.1984653,0.67043304,-0.3333001,-1.2870493,0.3334784,-5.409765,-6.731998,7.5830483
-1.3498588,-0.63819265,12.781671,9.461928,-0.14096594,20.0,14.866826,-4.611952,-6.6082973,-1.4923286,2.8368204,1.0216641
1.1587238,-1.7571545,1.2082893,6.0118523,-0.12791729,8.712197,7.493429,-3.6696186,-3.5438373,1.6063206,1.1470699,-0.40680063
0.5389122,-0.76508105,1.7623008,4.574714,-4.109455,2.4874058,7.0693994,-2.622385,-1.4716148,0.6198214,1.1618128,-0.6930032
-14.519463,-2.372505,-9.78041,1.0219843,-3.2050955,-1.2407713,-0.19234562,-1.185319,5.521329,-6.312069,3.6115873,16.240875
-8.469481,-1.3168659,-4.6157684,-0.9201912,-3.8968174,-7.2790413,-1.8961326,1.8207833,0.7848623,-4.7974567,1.716088,9.053006
-9.69971,2.1814237,-1.2721437,-0.36086488,1.8238033,1.1509006,0.36431363,-1.2640615,1.3732735,-8.004744,-6.4949455,7.728893
-5.0736675,4.5154953,-2.2039883,-0.07311098,1.2962384,-1.3265045,0.038345337,-1.6586347,1.0266986,-2.049126,-8.757629,4.612379
-1.2741638,0.7934241,8.845811,7.3084245,4.1612244,15.476793,12.075223,-5.294177,-4.321761,-1.297369,0.52600765,-2.1368158
0.82564616,-1.1333476,1.2118014,5.4329967,-1.5308259,5.709642,7.187835,-2.2959895,-0.29906362,1.1367805,1.2089837,-0.62806416
-15.376382,-3.5945408,-12.672983,0.5638427,-3.6559052,0.21344525,-1.4356918,-1.4898021,4.829777,-6.879624,6.235017,13.077988
-5.6776557,0.04308653,-5.6972017,0.87853855,-3.5300188,-0.062337875,0.2684946,-0.19496745,1.3235234,-2.990891,5.181789,8.9602165
-8.713418,0.62266755,-4.8640747,-0.97580564,-0.13346052,1.2141964,0.20060182,1.3616755,0.70279497,-7.4812536,-1.88723,8.089689
-6.1723504,3.9471338,1.4478567,-0.2895388,1.2410772,0.13915181,-0.41751385,-2.1594183,1.3249645,-3.1449008,-8.019994,3.9868596
-1.3235428,-1.4111533,10.926323,5.397595,2.551977,18.602228,9.863951,-7.4768343,-3.547525,-1.3845042,2.0375113,0.5260558
1.2998945,-1.2430087,-1.3711691,5.3697667,1.27637,9.57115,8.245188,-4.672035,-4.0805655,1.1110139,0.5324249,-0.1601522
-4.911692,-3.4236348,-4.168271,0.35538787,-4.3248672,-3.1713371,0.41418964,-3.9927797,7.560435,-1.8503826,6.146837,9.328827
-9.916276,-2.3336365,-9.478387,2.2361598,-4.2574964,-2.0432215,0.76576114,0.24238992,4.4508424,-3.5967448,6.9511223,14.414082
-6.951058,-1.0842993,-4.188249,0.6330686,-5.71212,0.753469,0.07584262,-0.55267763,0.5499094,-3.5186405,2.0859315,10.577998
-10.445558,0.9767922,-2.592912,0.33137798,1.5115252,-0.5477524,-0.29925638,-0.3604722,0.45045477,-5.555945,-3.9860415,9.37959
-0.69809294,1.8141787,5.810325,0.22684121,0.12292147,0.39685953,1.8120618,-1.1203822,-1.072278,-0.85517955,-8.925927,1.7034521
0.3039359,-1.6474843,9.448048,4.482004,0.95752215,16.170454,10.625437,-5.7796955,-4.8088646,-0.93263996,1.8215022,-0.3623641
1.3694373,-1.3218889,1.8292148,5.644668,-1.0475682,6.8002443,7.294305,-1.6784787,-5.7465606,1.1275327,1.0832762,-0.19376814
-8.726273,-2.7662244,-7.1481256,1.689424,-1.4204276,-2.0782845,-1.8278223,-0.9401548,5.4343367,-3.0808191,-1.3946028,4.2796154
-10.100049,-5.863599,-6.607453,1.5573969,-5.0678535,3.5840693,0.36639738,0.9104625,1.6418474,-3.188251,6.334141,9.623669
-6.2625756,0.53683925,-3.7571478,-0.1446712,-0.49334633,1.9577582,0.67045426,-0.4480002,1.5739542,-5.4851303,-1.07582,7.22157
-9.514044,1.2519442,-1.5363137,-0.08584881,0.9831406,0.5623708,0.16382414,-1.2092633,1.5371773,-7.0528717,-6.3840175,7.4222946
-3.4291046,2.9825678,14.281091,9.359485,2.9051905,20.0,15.513765,-5.5466213,-6.164688,-2.471733,0.4210806,0.20888901
1.4941654,-1.3627863,0.45204115,4.937417,0.59303045,9.936334,8.027606,-3.902954,-1.3939278,1.3215499,1.3439848,-0.70201683
-11.256774,-2.553918,-9.822861,1.5931231,-2.1043944,-0.27448297,-1.0343704,0.56380296,3.9208329,-8.681123,0.39816427,14.191679
-9.924668,-6.4683027,-9.209763,4.379878,-8.644401,6.9776907,0.64634514,0.30289745,1.7960348,-6.626171,4.744653,10.870679
-8.011767,-0.8109386,-5.7655563,-0.17690432,0.84537864,0.504737,0.4884565,-0.5560956,0.35448492,-7.284822,-1.7671642,7.957859
-9.175501,1.5925481,-0.38488138,-0.24300635,0.9173602,0.6285229,-0.05052077,-1.4114113,0.65693694,-7.4367986,-5.613311,5.098407
3.052197,-2.97148,16.42881,2.3412743,2.926927,-1.7192154,3.834114,-5.111762,-1.2791846,5.548018,1.6998022,-12.282056
0.59010637,-0.9215665,5.5384502,5.730163,2.459514,14.891413,10.269313,-5.8401957,-5.2780504,0.45855117,1.0883918,-0.058711052
0.31530583,-0.73901117,-1.5594199,4.9153533,-1.7162107,5.4624534,5.555996,-2.3779588,-3.7856398,1.0340259,0.67394984,0.50863826
-12.050337,-1.9240658,-8.669288,0.46863276,-1.0486835,1.0564163,-0.80819553,2.0051956,-4.9543576,-12.279982,-3.1009007,17.254728
-9.396788,-3.6609352,-7.9929004,2.519916,-4.0713573,0.28767443,0.8363874,1.0311313,0.4642758,-6.4987254,6.737984,6.547271
-8.119993,-2.238543,-4.6997766,-2.1660633,-1.6398416,-2.4070616,-0.9125761,2.6563315,-0.24507026,-7.9640183,0.679904,6.739694
-10.646722,3.8728461,-2.9474607,-0.5283041,1.0997353,1.186542,-0.2775408,-1.247848,2.590271,-7.9811063,-6.652107,8.808857
1.0953097,-1.0647218,9.635421,0.54718876,0.8968916,-2.1840744,-0.14315605,-2.7766187,4.4217024,0.57234854,-4.9681134,2.1456017
-2.111504,-1.2270231,10.779811,8.299351,3.483142,19.64621,12.038411,-7.77917,-3.338728,-0.75080585,2.0479279,1.0576384
1.3088324,-0.8542845,-0.053784147,5.4283757,3.8337512,10.28522,8.246934,-3.4561148,-3.635381,0.6199597,0.6419177,-0.23627305
-0.16757488,-1.1421258,-1.381609,4.388131,-3.45297,4.1995163,7.70389,-2.5248632,-0.19693163,0.047640204,1.3126421,0.42708945
-14.867008,-5.0622573,-8.679637,-1.0662597,1.2308086,0.10837412,-2.5491676,-1.5023196,4.6957397,-8.510203,-0.7234523,14.132889
-9.917533,-4.047431,-9.446022,0.39282802,-2.8010054,0.52491033,0.8092468,0.96069,1.0120436,-8.977316,2.7906353,7.8654976
-7.972481,-0.27693498,-6.8178535,-2.0414174,-2.6181808,-4.123821,-2.068646,2.1756022,1.0880268,-5.623784,1.4204662,9.786183
-9.154042,0.3208937,-3.0639741,-0.44778824,1.0108197,-0.42619157,0.48365808,0.017425537,0.15906855,-8.041117,-5.3831244,6.861553
-5.9673004,2.383704,3.7772734,0.20122868,0.21588719,0.9582853,1.7838883,-0.9275484,-0.72027636,-3.784978,-5.69827,3.9111848
-1.514214,4.6537194,15.934055,7.797736,3.4318008,20.0,1.3456678,-2.3081603,10.31086,0.14598227,-3.9592743,6.5855446
0.43913972,-0.70561886,4.011249,4.431158,3.386807,11.757285,8.323141,-5.488799,-3.9284837,0.1264931,0.6610131,-0.20832014
1.06123,-1.347822,1.837955,3.408728,-2.8482585,2.3287926,6.086176,-1.8049804,-0.9989614,0.6620457,0.9046397,-0.93361855
-16.978153,-3.0074139,-9.447705,1.5346261,-4.7418118,-3.3823967,-2.1049058,-1.1420448,5.3945346,-5.911592,4.184581,16.493572
-8.634648,-7.3284445,-4.387201,2.4776447,-7.9297915,2.7754,0.99666345,1.5245829,0.68906313,-1.8966287,7.0372043,9.236494
-6.4624,1.2266653,-2.396635,-0.4803092,-0.8239095,-3.1008039,0.7767668,-0.30472612,1.1682663,-3.482094,-2.535821,10.445934
-11.116207,1.2682143,-0.7424928,-0.21377707,1.2187852,0.7180393,0.24235046,-1.2405806,1.4832208,-8.537003,-9.029028,6.157043
2.8095086,-2.0769618,13.066152,1.7989254,1.2070208,-3.0189867,1.3872137,-4.557105,7.329326,-0.20819235,-3.6974995,11.208256
1.2035029,-1.5097499,3.8207557,4.4473186,-0.25915706,12.247559,7.6676207,-4.761192,-5.5525913,1.1837285,1.3179669,-0.6502137
1.004384,-0.28735054,1.0227013,4.276556,-3.3474355,3.7906308,6.896748,-2.560732,-3.8577015,0.62075436,0.3364768,-0.785563
-13.075147,-4.3097153,-11.227088,1.6724875,-4.6631794,-2.2338638,0.116215706,-0.8229029,5.929092,-5.8051634,5.144771,15.204522
-7.490128,-2.9776351,-4.256107,0.746769,-6.3090954,-0.5298009,0.014363289,1.2600534,1.4983801,-2.5415325,3.2300956,9.528969
-8.408185,0.79151607,-5.9012756,-0.27816272,1.3859572,1.8480017,0.32930446,-1.294682,1.7911774,-8.293258,-2.026061,8.405479
-9.201915,1.2825232,2.8656247,-0.3486272,1.0660799,-0.180107,1.1468256,-0.2630558,1.0316485,-5.9974957,-9.586843,7.1034856
-1.8091614,2.7183962,12.593334,8.107107,4.4868345,20.0,20.0,-4.1822357,-9.927786,-1.0682454,0.53247356,0.8128929
0.23720205,-0.9345298,4.181134,6.459665,1.5102644,11.7526455,8.616083,-4.1775174,-5.775776,0.49283463,0.5195432,-0.068454385
0.8037752,-1.184754,1.9706581,3.8553958,-3.5409303,0.9572592,6.79232,-1.8753364,-1.0855186,0.064376116,0.21190333,-1.0734332
-13.094384,-11.216984,-10.736146,3.0608385,-1.4576519,0.18285222,-3.1604664,-1.3584204,4.7149396,-7.6177926,10.458735,11.41032
-9.651171,-12.759053,-8.453659,2.709456,-4.8286657,0.9191443,-1.9392111,1.260415,0.43885654,-5.8473015,8.784845,6.623296
-9.129714,-5.312145,-10.046551,-2.7668247,-2.1478524,-10.6923895,-2.9971962,1.3071936,2.3282335,-7.782074,0.18105066,8.332356
-10.491784,-1.3102572,-8.058736,-1.7677402,-1.3323563,-4.232292,1.2462766,3.1976504,1.3976986,-9.108861,-3.8099298,6.683402
1.5519297,-0.57681584,7.1309414,0.461349,1.3398867,-0.9618254,0.38958073,-2.6407743,4.1665454,-0.09472455,-5.391487,3.1028984
0.1962905,-1.7453642,10.867218,5.225415,3.115231,13.793772,9.672468,-4.8989086,-4.9909616,0.20156968,1.7103219,-0.52008057
0.83180404,-0.19839329,-1.6010487,5.1557765,-1.9957658,6.2627573,6.4473615,-1.8602667,-1.8549409,1.3512669,1.3941851,0.80601335
-14.985088,-4.0296364,-8.5676565,0.01380524,-5.086824,-4.0008345,-1.6175193,1.6937518,-6.4066653,-7.3498273,1.2534966,16.482653
-7.7705164,-2.027105,-7.0679727,0.7740785,-4.710231,-2.8911433,0.6584127,0.86748374,1.4580718,-4.341988,4.613847,10.835712
-9.170346,1.9233438,-6.646842,-0.47057498,1.2005122,1.2090313,0.13094449,-1.0279853,2.6256888,-8.903452,-0.99589825,9.285683
-9.666111,1.5273622,1.7897975,-0.5622454,1.373981,0.13745165,0.0807724,-0.83222103,0.47450578,-6.625869,-8.894869,4.4698772
0.32797813,-0.86319256,14.478308,12.436008,0.6883316,19.864717,-3.710559,-2.0958424,3.2491775,-1.6294413,-2.6358895,10.133017
0.8750262,-0.36347008,0.37315986,3.9529316,3.4158382,9.995991,6.538647,-5.514696,-3.7600338,-0.3850255,-1.3872843,0.31934392
-0.8200557,-1.1399808,-1.8687277,1.7790568,-5.432276,0.5504844,4.347924,-1.623636,0.26230434,-0.5579369,2.674882,2.0110707
-9.159604,-2.7628827,-6.8882737,0.8792181,-5.8644,-2.8870244,0.9097235,0.50523114,2.8393345,-5.1093216,3.7088253,10.731348
-6.6886992,-0.55644155,-1.6561852,0.34487808,-7.7898226,-5.8615866,0.3781985,0.13776517,0.7262165,-1.5589119,2.320827,11.536411
-8.482589,1.6623973,-3.1759915,-0.2624886,1.2110988,2.3301053,0.35069346,-1.1328187,1.9355603,-7.4313927,-2.8634582,9.388401
-6.295541,5.58993,1.1019936,0.2581684,1.6162591,-2.6924906,0.09600735,-1.7190151,0.79395425,-2.6002097,-6.2863283,7.292568
-0.73952794,1.8378987,14.16374,8.858059,6.5990043,16.600327,16.053453,-7.218572,-5.822934,-2.1685975,1.0856576,-0.69781446
0.8311858,-1.3636715,4.6755805,6.351923,-0.4689989,10.460968,8.160085,-5.093148,-6.2278514,1.5771763,1.4052749,-0.6327666
-0.41237247,-1.7255557,-1.0279685,2.7151802,-5.2508698,-1.354639,4.5639505,-1.652478,0.9003915,-0.07141173,1.390573,0.90878654
-15.631823,-4.20004,-11.204345,-0.06407146,0.69882214,0.8820174,-1.9245462,-2.126438,3.6458464,-9.374622,5.9793763,13.915938
-8.925809,-4.030676,-4.730147,-1.0727315,-5.2675896,-1.7808926,0.37516904,0.55054706,0.92996216,-3.6663685,3.1517575,9.261947
-8.023559,-0.09567118,-3.4846714,0.0073366165,0.020210147,0.9617647,0.19363391,-0.6498685,0.20521773,-7.0032787,-0.40025592,6.988837
-11.666018,1.3161722,-1.4428942,0.07555556,1.0925726,1.121897,-0.2352503,-0.93826723,1.6888813,-8.440089,-5.78352,7.0620923
1.2414727,-1.8236872,13.116725,0.8663645,2.775165,-3.3369188,-1.4635239,-4.1392555,5.1723065,0.25959778,-3.1152554,10.806525
1.3513284,-2.0299258,3.9188035,6.09011,2.222136,13.644595,9.467302,-6.5601273,-5.1302996,1.1149089,1.4321132,-0.54846287
0.3947823,-0.64173853,-1.8802435,2.006745,-4.3545847,1.1010358,5.807667,-0.8149457,1.646019,-0.15814042,1.7841644,1.3865588
-12.243358,-2.9015567,-10.876863,1.8418943,-4.19025,0.48237097,-0.19310021,-0.9441292,3.2238297,-7.7381105,10.080425,12.323921
-6.0081835,-1.0814168,-5.593589,0.13178432,-4.8159657,-2.9525898,0.6917324,0.38196325,0.8742395,-4.011429,5.628014,10.862506
