ancorasir/BennettWheelLegRL/experiment_data/2023-12-27_22-47-53/joint_vel_env4.csv
Joint_1,Joint_2,Joint_3,Joint_4,Joint_5,Joint_6,Joint_7,Joint_8,Joint_9,Joint_10,Joint_11,Joint_12
0.0,0.0,0.0,0.0,0.0,0.0,0.0,0.0,0.0,0.0,0.0,0.0
-0.2637836,13.985432,-4.033054,8.634975,-4.646179,13.535053,-1.3497769,-2.8833807,3.0394187,-3.4477303,-15.454632,-3.6162424
-1.7219062,-2.2470956,1.1909399,0.56668717,2.702675,0.7683362,-1.3260319,-3.073186,1.0437123,-4.1037636,9.844766,4.585341
1.6327718,-4.3341403,2.4952164,1.1592494,1.3655891,2.8520339,-8.097804,-7.653214,-0.0055400357,-0.3338768,4.5159726,-1.822603
0.53781897,-4.201156,0.20986049,2.5844312,0.2969786,5.9676304,-3.9732234,1.3929597,0.00013864599,-0.46154174,4.4617066,0.45947015
0.68411857,-2.0449636,-2.2774165,-4.1960278,-6.3311634,-2.685645,-6.4763618,6.506485,0.010639174,-1.9065537,1.7938501,2.6844988
-0.4471159,-1.0253398,-4.24818,-5.0732856,-7.6071973,-7.199331,2.6413171,10.7072735,0.0055980664,-1.6014153,1.175662,4.0392323
15.247734,0.051403668,-0.00040055817,-1.5259272,9.617812,-9.143329,20.77838,-15.75897,-2.3570313,10.596814,-9.914412,5.826161
-4.019656,12.742784,-0.00015007975,0.4065812,3.0532837,1.7649884,0.6070615,-1.8916247,-1.7547734,-3.5065253,-9.1440525,1.6710322
-6.285737,-2.8107278,-8.25067,0.72635067,2.294518,2.632857,-0.53331107,-3.8370018,1.6012067,-4.4424376,7.3388247,12.554306
0.97926533,-5.9068766,4.282901,-1.488415,-0.5552659,-0.9852551,-8.065599,-4.6699147,0.05151308,1.5201193,5.8861923,-3.4193788
-0.26687276,-4.026017,0.13867381,-0.7224575,-2.7589066,-2.8061035,-5.508015,3.830141,0.0017840303,-0.13921331,3.726081,0.35674173
0.6175018,-3.7154737,-0.9372676,-2.3532622,-4.045925,-3.1593175,-2.5295255,6.576982,0.559676,-0.8046482,2.9858148,1.8971083
-0.16239825,-7.750482,18.423244,4.116971,-3.4872735,-1.3963504,12.693985,7.1783195,-4.937647,-1.8624407,0.32659197,4.4511495
-0.7193179,10.963601,-0.00027673144,-0.17106274,5.959245,-1.8547883,0.5541399,-2.560634,-1.2977729,0.4245421,-7.851822,-2.7863436
-3.7252178,6.023899,0.376317,-0.5530661,4.3409896,0.6279698,0.7146241,-2.1755867,-2.1902215,-2.4958472,-9.483563,1.1148511
-3.406043,-5.601833,0.8896239,1.1525918,1.291963,3.1753469,-1.5676569,-2.6819153,-0.4866029,-3.5188117,9.705357,4.729381
-0.16285641,-5.287743,3.0491278,1.6721925,-0.9517808,3.0142722,-8.368328,-5.477823,0.0014477107,1.611467,4.8085003,-2.1575956
-0.9159601,-2.9688895,-0.65767664,-1.6269226,0.91504693,-6.6776567,-5.83824,4.0428524,-0.005518963,0.6190121,3.5065913,-0.3150434
-0.41883892,-2.8309004,-1.9954392,-4.913995,-2.869931,-5.110642,-1.2776979,9.600847,0.84068185,-0.12390889,2.3773532,2.285177
0.14423814,-1.5943773,-3.315751,1.7282176,-4.0143123,-2.9816327,12.652009,8.898084,-1.4937551,-2.7768362,-0.27651337,5.7106647
-1.0097221,12.67448,-0.00024534174,-0.2934041,5.112975,-1.4192808,0.33499098,-2.3299139,-1.1916174,-0.50912213,-12.941633,-2.3900805
-4.187901,2.740151,-0.63196576,0.99461997,2.2612424,2.401452,-0.74206555,-2.4482071,-0.87089884,-3.7373843,-3.5026126,2.219494
-11.01147,-3.9593377,-18.650303,-0.48017487,3.2914758,1.1682032,0.45444256,-8.798099,15.635841,-7.404924,10.389497,21.573286
0.8397458,-4.267438,2.7131357,0.2221382,1.1884311,2.9149427,-8.810079,-6.9596467,-0.01230976,0.7085206,4.1741776,-2.391932
-0.48681715,-3.7078946,0.25875005,0.9035496,-0.0036961734,0.35111332,-3.506154,1.6278257,0.35583866,0.44194794,3.7675319,-0.5117552
-0.29854447,-2.9610991,-1.2492526,-4.610394,-4.0427957,-9.714954,-4.890426,6.858663,0.0021365285,-0.2671955,2.7618122,1.2833459
-0.2743612,-1.6717184,-3.0526595,-5.111383,-9.733803,-7.125966,1.188815,10.551064,0.00074416806,-1.6265029,0.8050215,4.059103
11.526647,-1.6088232,-0.00037773733,16.11547,-2.8297725,18.711472,22.241533,-4.7991343,-5.802757,0.639384,-7.0557084,11.833282
-0.60544556,13.791904,-0.00024730805,-0.7610257,5.4580636,-1.9471724,0.9023682,-2.172763,-1.3608748,3.5695608,-12.249432,-2.5996265
-4.1858177,5.85585,-0.070330694,0.473066,3.2614737,1.3995584,-0.45309627,-2.1363022,-1.5861043,-3.7880387,-6.3117843,3.106316
-2.51237,-3.1738734,-1.5260612,0.6964826,2.573399,2.463782,-0.76175725,-2.190263,-1.5616457,-4.4182377,8.402229,6.1466937
1.904516,-5.6318583,4.799859,0.21360645,-3.172106,-1.7175924,-7.996357,-2.856085,0.0014637064,1.2562096,5.2986436,-4.601558
-0.21506037,-3.8547153,0.53213686,0.71359164,0.59032667,3.6423273,-5.565954,-0.8028461,0.076043434,-0.017102383,3.849143,-0.7444663
-0.49133348,-3.6644585,-0.5457818,-0.08035074,-2.464678,-0.97009546,-4.432498,5.5124655,0.0027424684,-0.10046092,3.2918231,0.78126997
0.77198404,-3.3603191,-1.4973599,-5.147543,-4.195222,-4.3175077,-2.5969636,9.173675,0.0013578122,-1.0829713,2.4875278,2.7491202
-0.5000231,-0.9431476,-4.8068943,-2.307072,-7.719692,-5.5188823,6.831465,10.497326,-0.04363063,-1.288424,0.7689098,4.651916
12.278008,7.6975756,-0.0003391931,-3.0004842,8.860149,-10.632477,20.381903,-17.781227,4.9720354,15.4832,-15.403662,0.64497155
-3.0328035,11.1793,-0.00018826735,-0.046606436,4.634127,-0.24113804,0.49591488,-2.1128829,-1.7978688,-2.482685,-10.189087,1.8293352
-3.3592565,3.1267111,-3.559274,0.41524914,3.3919475,1.4218483,-0.44464004,-2.326848,-1.4332259,-4.176069,-4.395202,3.7571483
-4.339155,-2.9504333,-8.387093,0.7637901,1.2891054,-3.0521536,-2.5823324,-9.877043,22.931942,-5.535426,8.90596,19.926432
0.06406325,-3.911475,1.144214,0.18839869,1.8390558,2.4040875,-5.631522,-3.9008012,-0.012779497,0.1487465,3.4502587,-0.16146177
-0.40673143,-3.7297592,-0.35125995,-1.0106405,-2.1642807,-2.4631348,-4.3031588,4.6540933,0.0042899996,-0.22297855,2.726548,1.603751
-0.19260615,-1.9017414,-2.4193344,-3.5156093,-3.8040633,-5.4747634,-1.0034212,8.076307,-0.00044355355,-0.92181134,1.6465924,2.5011103
-0.81028557,-0.82041126,-4.216989,-1.6837478,-7.016384,-1.898309,6.7834053,10.950442,-0.8893313,-2.4524674,-0.13336796,5.4219074
5.7500186,9.910826,-0.00036675524,-0.12414185,6.4405627,-3.8263626,-1.3981199,-3.8406425,1.9241973,8.420866,-10.771699,-10.211102
-4.756748,9.472351,-6.634937e-05,0.33451733,3.7046776,0.98030025,0.21421042,-2.2726502,-1.4682417,-3.5274212,-9.098434,1.7917787
-3.4580474,-3.8546093,-1.4579796,1.0609004,1.9882299,2.9740422,-0.61236334,-4.2775416,0.6150222,-2.9198904,9.676179,5.189683
0.67384946,-4.918339,2.9956305,-0.45939705,1.083608,-3.5993772,-10.690595,-5.028035,0.0015161897,1.1896242,5.531936,-2.97561
-0.49136084,-4.5010395,0.25435495,0.7756254,0.4002965,5.261642,-2.8582752,2.8586051,0.1996484,-0.032685887,3.807892,0.8947099
-0.1077559,-3.0207953,-1.5503348,-6.8146744,-0.26544324,-20.169939,-4.5786796,9.721897,0.000114230206,-0.71591854,2.354697,2.0218585
-0.14908122,-1.9321939,-3.5245025,-3.7099407,-8.857536,-8.169602,4.897317,12.236581,-0.00143995,-2.5723083,-0.06611171,5.76239
8.518609,11.463153,-0.00042325037,-4.189668,9.530629,-10.635888,-0.6587472,-4.5134454,2.4599037,11.437536,-14.535589,-15.63061
-5.1810784,10.990701,-0.00011102116,-0.042372085,4.7219353,0.19445036,-0.16735253,-3.1875386,-0.16961476,-3.5976593,-11.017458,3.1023457
-3.6284814,-0.5944739,-10.675743,0.5248491,3.0945687,2.491578,-0.76612765,-3.24895,-0.62198085,-4.9603696,4.540976,18.807037
1.4237595,-5.7363334,4.1243973,0.458121,0.8147845,-2.5400555,-8.090713,-7.6153474,0.0019369505,0.6932964,5.548291,-3.6430314
-0.04317276,-3.420929,-0.90579903,3.7800605,-1.2328596,8.601416,-3.2319548,5.2972865,0.009646766,-0.46365577,3.2119148,1.300813
-1.1938739,-0.785608,-4.7665615,-3.004088,-8.037005,-4.8400764,3.8412778,10.54957,0.0040588956,-2.092812,0.34124064,4.9656487
9.590567,8.736759,-0.0005010412,-2.481144,9.067696,-9.989767,-3.2294888,-5.0450983,4.0306673,12.14092,-13.763513,-9.899966
-4.4247274,10.90061,-1.2403831e-05,0.027573865,4.2665515,0.85006213,0.2865665,-2.7740207,-1.025517,-5.4564486,-12.094487,7.538432
-3.372758,-3.8319159,-1.9032162,0.88869953,2.1694899,3.093666,-1.2693449,-3.069304,-0.5495927,-2.5876865,8.799239,5.9500203
0.59266037,-5.0022025,2.8087459,-0.52738714,3.4068656,1.313763,-8.604953,-6.366866,-0.010549352,1.0553063,5.1139083,-2.8529327
-0.6826731,-3.7470977,-0.26439446,0.3989257,0.5179599,1.3778529,-5.6400933,2.3578975,-0.0023824703,0.31534895,3.7342176,0.52269685
-0.06645005,-2.9558337,-1.7474867,-3.8304462,-4.977732,-6.5480137,-3.6467483,10.080631,-0.00048901467,-0.60616815,2.5632043,1.906944
-1.6075078,-0.6316095,-4.471836,-2.116868,-6.248971,-6.166533,6.127629,11.220798,0.36695564,-1.4368453,0.3170127,4.8427715
7.347307,11.595297,-0.00035068812,-4.3185024,10.074513,-11.078798,-4.269964,-7.6668563,9.2090645,10.130356,-12.786144,-11.594646
-4.1738305,9.681401,-0.00012274971,0.43303064,3.5350335,1.2665755,0.095874906,-2.3297637,-1.3018801,-3.6758635,-9.476145,1.8871316
-5.776817,-5.7869515,-1.2662942,0.76893574,2.5593786,2.5349722,-1.1131734,-3.0050852,-0.4492026,-3.9886868,10.220691,7.2166247
0.5127004,-4.685079,2.7709756,-0.75257635,4.0094557,0.28107822,-8.448797,-3.319097,-0.008070745,1.1889467,4.670205,-2.7312248
0.15386884,-3.5087943,-0.18349828,1.3595676,0.6514107,3.9288564,-3.4768639,-0.71920186,-1.6133585,-1.044553,2.8691015,1.2802501
-0.36710745,-3.2040036,-1.3545973,-4.50722,-4.599854,-8.602017,-4.2085223,9.198565,-3.7943246e-05,-0.08103891,2.9888096,1.183225
-0.9808745,-0.73273253,-4.164504,-2.6750033,-2.5701559,-5.351059,4.4647484,9.860715,0.24506325,-1.7301776,0.44992307,4.6720166
4.8357506,14.085427,-0.00039987598,-2.8226593,8.814191,-10.032138,-0.4112454,-3.0931487,0.85701066,7.970121,-15.140176,-6.820667
-4.871591,6.8923,-1.7547809e-05,0.049587093,3.9551513,0.8958183,0.51194054,-2.257261,-1.9506555,-5.1022315,-8.235754,2.123963
-5.254795,-5.5088835,-0.4291787,0.48849297,1.964993,2.5846066,-1.1173187,-3.1743548,-0.21079288,-3.433239,10.257527,4.2616663
-0.09060322,-4.5555563,1.7532157,-0.21584469,1.8042043,2.836983,-6.639491,-3.9119213,-0.011983179,0.8619501,4.842873,-1.6253126
0.14469196,-3.7885566,-0.45050693,-2.390207,-0.98415387,-9.772839,-5.080647,6.097127,0.0035042008,-0.34333214,3.5058289,0.9949452
-0.24605802,-2.1171048,-3.1232438,-5.882088,-6.526904,-7.2161946,1.2843139,11.323744,0.006086142,-1.0714341,1.6148796,3.616637
14.035553,-3.7480888,-0.00035291334,16.25183,-6.067852,27.014908,24.53854,-4.345679,-25.80328,9.091883,5.1955056,-40.43625
-5.392389,13.473641,-0.00018846898,-0.011197537,5.257841,-0.92666143,0.88769627,-2.2952461,-1.4547321,-2.0526721,-10.948692,3.4095063
-3.6943676,3.5762494,-4.7828617,0.34658703,3.9020455,1.2485863,-0.3199623,-2.687979,-1.5890473,-4.5158525,-5.0599017,4.778412
7.6138363,-7.128376,9.495187,1.5425436,3.4912977,1.5131334,0.38334718,-4.8306203,-2.41396,-0.6379212,6.1230946,-6.05285
-0.20963399,-4.3958745,0.97246253,0.663982,1.330627,3.7899125,-8.011513,-3.1741736,-0.010257451,0.29535586,4.743737,-0.4420163
-0.18228915,-3.5159485,-0.88564247,-3.2273872,-2.601758,-11.099128,-4.4359922,7.525552,0.0031177998,-0.42281803,2.7970679,1.4995884
-0.5226404,-1.7113813,-3.5560393,-4.35325,-9.7998905,-6.081337,3.6594257,11.345932,0.0011686683,-1.9207523,0.5111278,4.652255
10.543457,11.766001,-0.0003836028,-3.4744666,9.522874,-10.60506,-1.2625504,-4.629884,2.6694062,11.142277,-15.320618,-20.709442
-5.3210835,6.0215535,-6.170976e-06,0.101157196,3.8079808,1.186165,-0.0071932226,-2.7086265,-1.0440121,-4.1730113,-8.426729,4.767411
-3.851381,-2.7623103,-1.1513181,0.48197362,2.1696458,2.8965452,-0.31406832,-2.645878,-0.78152394,-1.9736892,6.475029,5.548128
-0.10885383,-4.5513515,2.2695565,-0.090392634,2.0387745,2.6228952,-6.2672024,-6.75359,-0.008991573,1.1199374,4.922851,-2.2858806
0.06413843,-4.241926,0.28431907,2.5429332,-0.81491745,6.133139,-3.2343297,3.3441696,0.0014239303,-0.4738315,3.7526345,0.59514415
0.14001547,-3.3888104,-1.3222377,-6.309839,-5.0083466,-11.685918,-3.5537114,7.2040944,0.0025171505,-0.5556777,2.9996045,1.7875361
-3.8919926,2.2738674,-1.1856693,2.8193715,-5.3509665,-2.310966,11.96186,11.101027,-2.0907419,-2.801725,-0.21595779,6.20799
1.7174714,11.993476,-0.00032023236,-0.2525474,6.400549,-2.2911258,-0.8736981,-4.488155,2.237444,6.069309,-12.944438,-5.7301188
-2.2487206,5.9780335,-6.0019965,0.008659368,2.8275332,2.2918382,0.6115068,-2.3070831,-1.9471865,-5.125975,-7.105954,6.0610666
-5.37631,-7.4101853,0.31324697,0.5624406,0.7784265,3.8287656,-0.88074756,-2.991508,-0.47369435,-3.7344086,12.271745,6.372331
0.55853784,-4.529125,2.1701806,-0.4876687,1.8246323,5.1271324,-7.5726104,-4.017798,0.011069436,0.8563768,4.7170324,-2.2113872
0.2593303,-3.6468935,-0.25065148,1.0287582,0.3935133,3.9602606,-2.3055637,3.8033652,0.59859043,-0.7833235,2.5478628,1.6224848
0.08335816,-2.3713808,-2.3089178,-7.434698,-6.3093915,-7.3739433,-2.6830387,7.987122,0.002314061,-1.3257077,1.6155294,3.0182533
2.2187176,2.5880349,-0.0006369229,12.360362,-6.2992163,17.062572,24.428316,0.96411777,-18.07187,3.8042908,-1.9324309,-12.099748
-2.9833994,11.199079,-0.00022177579,0.36606908,3.6865938,0.5870078,0.46188346,-1.719085,-1.6438009,-1.1716963,-12.736458,0.6388326
-3.1790164,1.0516931,-1.3868328,0.8724039,2.441154,2.3546968,-0.9763714,-2.370917,-0.8191861,-4.4965825,-2.088871,4.573207
2.7341306,-5.801919,5.2656503,-1.0647207,-1.0496463,-0.35229865,-6.0320787,-3.4943748,0.0026626238,1.3294176,5.8967495,-5.5007424
0.033736456,-3.9808416,0.862733,1.1922102,0.2716837,4.4580727,-6.2950644,-1.6908354,-0.008055834,0.10225314,4.4344134,-0.6154245
-0.05702394,-3.6039345,-0.55875796,-0.8823796,-0.41272414,1.2618359,-4.391667,5.881806,0.29796383,-0.25012913,3.309142,0.9452203
0.40345037,-2.5327332,-2.2465413,-5.2785263,-7.737217,-5.9511046,0.8519213,10.46691,0.0029676089,-1.2724774,1.8504592,3.0075238
-1.016532,-0.59203506,-4.548483,3.5355778,-2.5433078,-1.1772135,10.493174,4.2537236,-1.0929623,-1.8378834,0.18984099,5.145968
2.9144824,12.864333,-0.00034879427,-1.1192346,6.0013356,-2.8078814,1.0945699,-2.323725,-0.8981836,6.817639,-14.887677,-7.199891
-4.999692,6.2364073,-0.25575987,0.6708605,3.2277572,1.8667555,-0.37516034,-2.6139886,-0.7581162,-3.1416383,-6.2754908,3.553608
1.833828,-5.455767,4.444753,-0.23752692,2.1290216,2.3801117,-4.2955995,-4.827522,0.30461642,1.4396812,5.4551516,-5.118593
0.28059018,-4.3029504,0.50162125,1.5836669,-0.103581175,5.084426,-3.317407,-0.1910917,-0.006455972,-0.32372326,4.2540812,-0.020767912
-0.13226342,-2.9039145,-1.5620983,-5.8500757,-4.9949164,-2.4042792,-6.674336,8.304642,-0.0023722448,-0.4722378,3.1053367,1.3492129
-0.5372329,-2.2458458,-2.8959568,-0.5317088,-8.827119,-5.674172,6.5846095,12.0576315,0.3383798,-2.4429617,0.055073455,5.2975936
11.786356,8.526579,-0.00043073355,-0.65072584,7.0038466,-7.5232844,18.196783,-9.483545,-17.028399,10.843541,-8.315583,-24.336441
-2.7784045,13.027616,-0.00018113441,0.537042,3.800812,0.93269527,0.1587646,-2.2538755,-1.0930923,-5.2037263,-10.876811,2.7239676
-4.746979,1.1650267,-3.945294,1.3611249,1.3527951,3.621089,-0.97419465,-2.526701,-0.6946986,-3.2126036,0.54104865,8.433656
4.3331356,-7.350913,7.3633056,-2.7808816,-4.5553794,-4.320885,-3.2378597,-2.1958568,2.9780598,2.9047368,8.06026,-11.680517
-0.5018195,-3.9522328,0.31623343,0.1593488,1.4074506,3.1560338,-5.986688,-2.0390203,-0.018192135,-0.1547372,3.6521645,0.38799703
0.5653692,-4.0149155,-0.402925,-1.9565965,-5.0986266,-3.2351303,-2.546997,7.42414,0.0057552815,-0.39997754,3.1720529,1.4524856
-0.3072275,-2.0118542,-2.617567,-3.0068412,-3.6622708,-2.1370413,1.9421716,7.44504,0.9729476,-0.3892553,1.8295014,2.89201
1.4250935,4.374857,-5.7453202e-05,9.760742,-0.42124468,7.705595,15.65621,-3.7333145,-3.8244164,-1.0811931,-2.2837214,5.7336917
-2.2106612,10.649221,-0.00026623282,0.42022988,3.6647255,0.17548895,0.13460994,-1.6041903,-1.8014508,-1.1801633,-9.962399,0.17915973
-1.8004178,-0.104563475,-1.6247901,0.040825553,4.0368857,0.96610665,-0.3564992,-2.1941583,-1.6253579,-2.3945231,-1.8478811,1.2044537
3.3288138,-5.620607,5.3584642,0.32655704,2.0864549,1.9606225,-2.4466193,-3.6865337,0.41271442,0.8248853,5.511023,-6.368283
-0.80532837,-4.304486,0.7823969,0.16619596,0.52612853,4.1951275,-6.401267,-0.59439206,-0.2162296,0.6417184,4.4507537,-0.7249129
0.11098507,-3.204947,-0.658104,2.350246,-0.7292822,5.3227663,-2.8295228,5.8793187,-1.0839605,-0.33837557,3.2599816,0.87563956
-0.107519135,-2.2835217,-2.4040627,-7.4172,-4.298784,-22.685596,-3.6744044,9.308002,-0.003273869,-1.1397257,1.7149324,2.7897017
5.713359,1.7227094,1.6027973,10.657416,-5.88291,8.605424,18.248133,1.3720212,-4.8975363,0.5542682,-4.0324626,6.878218
1.4425533,13.693505,-0.0003102923,0.09453198,4.637599,-0.44988346,0.65789133,-2.5066242,-0.9125718,4.802622,-13.61513,-6.3223367
-4.386991,6.696927,-1.905554e-05,0.74085164,2.7514307,2.3381286,-0.15351978,-2.3927188,-1.497227,-4.607355,-7.5082774,1.0338867
-5.39829,-5.7134295,-1.448966,1.5382628,1.266307,3.4192815,-2.2252445,-3.143527,0.098346055,-3.800995,10.51252,5.7661743
-0.1209939,-4.396684,1.6686273,0.12816927,1.2522709,3.2779975,-7.060201,-3.2840524,-0.008010829,0.24719793,4.14902,-0.68581235
-0.38249832,-3.884614,-0.14277294,1.0810513,-0.17913067,4.8100076,-3.1554255,3.4891648,-0.0017971918,0.012269484,3.419918,0.6017904
0.6353639,-2.6356828,-1.8151815,-5.8589954,-4.5938964,-9.165528,-1.6971704,9.6384535,-0.00016079406,-1.1488415,2.2822268,2.2812226
-2.124381,-1.7056311,17.103392,6.052998,-4.91026,3.8401525,14.212962,5.712251,-5.7116003,-2.7841341,-0.23623812,5.637351
2.0272193,12.301683,-0.0003992131,0.6576708,4.955366,-1.237529,-1.2272002,-3.3102422,1.1221254,2.4299245,-12.056383,-5.1737804
-3.4549468,5.019337,-0.37153316,0.47879538,2.9721482,1.9218423,-0.4845794,-2.5755618,-1.4588884,-4.555685,-5.6299276,1.883941
-8.379284,-4.776284,-8.396242,1.8472725,0.24132204,0.64121294,0.60168326,-8.169769,14.970109,-6.1003513,7.2093744,20.433184
0.2660337,-4.333488,1.3020058,1.4699358,0.04660438,4.5997314,-4.922432,-4.473886,-0.6317831,-0.1306818,4.2753506,-0.61903644
-0.8307114,-4.0905495,-0.046655517,-1.7195773,0.63795084,-11.859478,-5.1261144,5.072015,-0.628816,0.5244572,3.9849138,0.07552085
0.53991985,-3.0487282,-1.5743821,-4.337277,-3.7277186,-6.275652,-2.4821968,9.954427,-0.00014056452,-1.0786091,2.2033772,2.671524
-0.6704838,-1.6780597,-3.5749798,-2.0871353,-7.5345883,-4.079769,5.6316295,9.000465,0.8125297,-1.6236498,0.5883426,4.6414623
5.185399,9.678584,-0.00040404795,-2.3853424,7.8003335,-4.8827863,1.8625433,-3.5041413,-0.50669026,9.594744,-11.315267,-11.294769
-3.2893255,8.576244,-8.216915e-05,-0.0904089,3.5462039,1.4881699,0.42406246,-2.4964597,-1.5454459,-3.3278039,-9.652794,2.5723798
-3.3130224,-2.5044496,-2.0077558,1.4140487,0.8930938,3.9760005,-0.9146896,-2.3151915,-1.2744623,-1.8419143,4.5167637,6.040495
0.63283914,-4.9833746,3.0313077,-0.16284086,2.374749,2.2441711,-6.117939,-5.874405,-0.009958015,1.1350574,4.899292,-3.0493414
-0.3187446,-4.333913,-0.049968153,0.9227138,0.62740535,4.6554217,-4.1306334,1.0326589,-0.004373693,-0.26666775,3.9790208,0.800691
0.6327907,-2.595734,-1.9512703,-4.421453,-6.213132,-9.744727,-1.4314038,10.123429,0.0058975583,-1.1769636,2.09111,2.6830359
-0.3234404,-1.1526499,-3.9231386,0.91500133,-6.0266542,0.014723375,11.256221,7.3993454,-1.1421707,-2.1245294,0.18082094,5.1664577
0.12674123,12.433525,-0.0002789789,0.5589831,4.848571,-0.20032999,-0.37538984,-2.5619097,-0.7519269,-0.8011762,-12.400924,-1.2418631
-3.7475195,0.90005094,-1.7077949,0.38416487,2.5676966,2.6128314,-0.53526276,-2.6547406,-0.9361221,-3.2803605,1.7305877,5.1469803
0.43868855,-4.7878537,2.6745746,0.18417516,1.7357632,3.1539297,-7.43295,-6.741263,-0.012721084,0.6692723,5.053471,-2.028646
-0.52501476,-4.0197983,0.09643125,-0.68663275,2.6364393,-11.46343,-4.788968,4.4093447,0.00017150166,0.32590833,3.7801933,0.47113568
0.06391307,-3.3711343,-1.3769141,-4.9463716,-3.2478106,-13.867458,-2.7994428,7.560099,0.0021400298,-0.6196487,2.3692129,2.5262127
0.19222945,-7.001658,19.168663,4.308561,-6.5738306,-0.39744225,14.325456,7.628559,-7.46423,-2.9129317,-0.43120927,5.87503
-0.75429606,13.499961,-0.0002630814,0.12246894,5.5676894,-1.5744702,-0.32125938,-3.392457,0.6619806,0.32931456,-13.305161,-3.4826643
-2.3695712,2.189152,-3.9104166,0.5173891,3.3075533,1.9344714,-0.54987586,-2.8193629,-1.2118927,-4.068052,-2.5971563,0.8499668
-2.9198685,-4.5550623,-1.2390236,0.42234117,1.382869,3.5090196,-0.59697056,-2.8027022,-0.93132,-3.8354135,9.002726,5.7357163
-0.2999143,-5.023216,2.3948107,-3.090675,7.706556,-3.1116598,-8.145317,-6.3693237,-0.032536495,1.7875161,5.56875,-2.2555704
-0.6555769,-3.7927773,-0.3575955,-0.9088866,3.2007658,0.9611342,-5.0398536,3.6581724,0.0002859123,0.29578435,3.3265018,1.0941747
-0.013709888,-2.3756275,-2.356772,-4.800708,-4.57249,-6.6189585,-1.0127908,9.269881,0.004555029,-0.8119241,1.8951912,2.928958
-3.7649808,-2.9459913,20.125042,5.2640247,-5.9659176,3.4296942,15.209456,6.42115,-8.080404,-2.7859426,-0.1617373,5.4767466
-3.3301556,13.976941,-0.00028480822,0.8931915,4.474352,-0.2200005,-0.2102461,-2.1187878,-0.9083228,-0.29068032,-9.08569,-1.4210635
-4.2053,2.2137263,-6.1372733,0.48933503,2.9322963,2.385302,0.09110393,-2.2352839,-1.8425589,-4.6437407,-3.4884896,4.4999647
3.852986,-6.7260494,6.479143,-2.5365427,-2.751542,-3.9395983,-7.842937,-8.678728,16.05696,0.773256,6.126007,-6.0458355
-0.059965998,-3.6148748,-0.18929258,1.3451047,0.27983552,4.446975,-4.0887775,0.5492151,-0.011685587,-0.25154394,3.9567919,-0.11052613
-0.27367464,-3.4786587,-0.9853137,-2.9360318,-5.0050106,-2.8575382,-3.9388921,6.5491595,0.6265159,-0.18718553,3.2172294,0.9673617
-0.27363867,-1.1146154,-4.104991,-1.6773864,-3.8856435,-2.8837094,3.3122485,9.879625,-0.0011149254,-2.2161,0.41478732,5.137944
6.911572,11.794808,-0.00030707434,-0.42471135,6.762164,-4.390573,-5.8663287,-8.046725,11.096243,11.706763,-16.794256,-3.9041297
-2.3249037,4.987298,-0.606621,0.079404674,3.9340808,0.8682062,-0.03229137,-2.648737,-1.0708488,-3.3427427,-5.224288,1.9166062
-5.249505,-5.1016836,-4.8805566,0.58193004,1.7532688,2.842205,-0.71710926,-2.4034538,-0.70772564,-4.7466354,9.346106,12.511081
1.0658343,-4.9628215,3.759018,-0.32282853,1.7991564,2.5073297,-9.778378,-5.6437273,-0.012573205,1.5473546,4.9264164,-3.725144
-0.5148875,-3.4218702,-0.28436095,1.3153971,-0.31687272,4.75459,-4.106037,2.7194483,-0.012531334,0.37315276,3.5582693,0.16961779
0.6248149,-2.9290733,-1.8332275,-3.4499412,-4.0840416,-4.2388105,-2.0655105,6.7239656,0.0005340547,-1.2675842,2.1998057,2.725095
-1.2024508,-2.7947521,6.9749727,4.440787,-5.8652735,4.374861,13.779643,7.940317,-5.1570463,-2.779543,-0.041296348,5.3683634
0.12340056,12.094991,-0.00031792803,0.27174336,6.1131334,-1.8880141,-0.5489319,-3.559421,0.38864374,3.150789,-8.243919,-2.167964
-3.9212918,6.509223,-0.3377922,-0.19675322,3.2203968,1.8035749,0.053433545,-2.5175455,-1.5168759,-3.442284,-8.648823,3.290132
-4.1741776,-6.059314,-2.4199388,-0.074358016,2.5861795,2.3885958,0.24627137,-3.713088,-0.015773714,-3.8119807,9.557275,5.786466
0.0013351962,-5.1054964,2.5404527,-0.74812096,2.3012161,2.311204,-8.462561,-4.5233,-0.019719679,1.1633241,5.010441,-2.687292
-0.25210923,-3.6697454,-0.700416,1.0516504,0.7380622,4.111127,-5.167763,2.5134628,-0.80590814,-0.4627844,3.7076917,0.77814037
0.5150361,-3.0843213,-1.6980426,-4.2777944,-4.8628974,-3.487906,-3.5156643,6.3819904,0.014915884,-1.2355851,2.359392,2.273667
-1.1624031,-1.6468709,-2.9826074,-0.37895113,-7.2966995,-3.6723363,7.1023736,9.365237,0.52950895,-2.2117286,0.2575289,5.1962485
13.362229,7.256317,-0.0003854967,16.373447,4.733762,27.07172,23.17939,-15.798533,-1.7905868,10.732054,-9.407515,-8.227422
-2.930454,12.940266,-0.00021810894,0.6286999,4.1844716,0.48550236,-0.39858833,-2.7504473,-0.8224149,-1.118968,-12.664978,2.6490688
-3.220262,3.8607633,-1.4025558,0.58797777,3.4329605,1.9795523,-0.2722728,-4.6996746,0.16820732,-4.415503,0.9443034,6.8134027
12.827503,-8.288108,15.517711,-0.12463653,-1.5159585,-0.24912402,-3.3374586,-6.246234,1.1805416,-2.1122203,6.546595,-4.7922535
-0.11271065,-4.695526,1.8360543,0.962811,0.73163396,4.359921,-6.9107647,-4.201264,-0.0074776374,0.47796756,4.9442315,-1.0119374
-0.89313865,-4.3967,0.23049845,-0.82413423,1.235177,-13.007635,-4.624663,3.7332463,-0.5907085,0.58350414,4.209319,0.3366878
-0.34131074,-3.11453,-1.445348,-8.272309,-5.8487806,-12.568782,-3.6417131,8.713793,0.00068057375,-0.649747,2.2087598,2.377252
-0.67864496,-1.8782037,-3.0777795,-3.1837194,-9.46014,-8.371286,5.872122,12.439479,0.5080668,-1.5534507,0.44972843,4.647296
13.339559,4.6946945,-0.00036938762,13.031486,5.614911,22.270998,23.169111,-13.245977,-3.5704885,13.468862,-14.676137,0.72454876
-1.5804769,12.239833,-0.00022468792,-0.57510996,5.6262097,-1.0943555,0.45598498,-3.0138943,-0.84455436,-2.694805,-11.027236,-0.8544856
-2.6272583,4.6512694,-3.3140905,0.41663143,2.5044944,2.5933583,-0.13584371,-2.2950284,-1.9027829,-4.8173866,-1.6848066,4.6845245
-4.778349,-5.2517405,-1.2012771,-2.206143,2.3292687,7.64247,-0.26971,-2.809846,-1.097796,-4.537144,10.421248,5.4873424
0.54659325,-4.940184,2.8566997,-0.016803563,1.8389573,2.841706,-7.5158854,-7.2736287,-0.011818128,0.37411878,4.936505,-2.0512297
-0.93984497,-4.4587374,0.29911077,0.6743733,-0.09129305,5.0938797,-6.7473626,3.6843975,-0.0047263475,0.49686503,4.469382,-0.1000077
-0.17420626,-3.1688461,-1.4312799,-3.4718869,-6.4983397,-4.3194256,-3.1064112,7.5372214,0.0006242463,-0.6176349,2.592455,1.9719502
-0.8140147,-1.6349527,-3.9936028,-0.66989803,-6.4968133,-3.014673,6.657234,10.467816,0.66250384,-2.10041,0.06422815,5.4620953
-2.5273747,11.006517,-0.0002983723,-0.027900295,3.8850245,0.26104337,0.5108497,-2.2212873,-1.1295336,1.4357789,-12.104513,-1.8732319
-1.999417,2.3704333,-1.3511987,0.60852236,2.6258845,2.5458314,-0.56509066,-2.6305907,-1.3579795,-3.3731303,0.07486938,2.6799386
1.3102493,-5.2671366,4.129834,1.1906276,-0.3917652,-1.273688,-2.857225,-4.3007016,0.003118231,1.3068414,5.1527715,-3.7769237
0.13073467,-4.243065,0.6456132,1.6471943,0.10273223,4.8834267,-6.0707,-0.8183993,-0.010712786,-0.59995353,4.0680766,0.517177
0.21174455,-3.343224,-0.9234159,3.1693118,-1.343404,6.4614983,-3.2844715,3.929124,0.0043242257,-0.5273502,3.2601743,1.3667424
-0.0046617403,-1.5452509,-3.6097262,-6.9368253,-7.969165,-8.310788,1.3444381,10.670007,0.008205224,-2.208781,0.7334394,4.425619
6.0496316,2.3885994,-0.00040742394,10.491002,-7.719162,50.045002,23.066326,-8.424432,-7.702063,14.06128,9.8311405,-50.15442
-1.4845371,11.460399,-0.00030514476,0.54565567,4.5111384,0.49403492,0.093366474,-2.9458418,-0.9395156,-1.6994044,-10.36573,-0.9574473
-2.681817,0.30580834,-1.4082679,0.5587644,2.563007,2.7432415,-0.5529504,-2.755139,-1.4216039,-2.576742,1.2715878,3.3794656
-4.7590733,-8.006475,-6.3874636,-0.10082802,0.33030966,1.8907306,-0.5747187,-2.3020906,1.1949743,-5.8964624,8.646965,1.2130902
1.0582728,-3.7655232,2.707452,0.3457728,0.96636224,2.575632,-6.609184,-6.4856005,2.097495,0.010455996,3.567343,-0.8327292
-0.530695,-3.8914435,0.19375524,1.874487,-0.9173001,-2.8580523,-6.1535196,3.83209,-0.0034653852,0.52125806,3.6597905,1.0042671
-0.8229245,-2.0252569,-2.3115158,-7.8111086,-1.7116115,-22.114195,-5.5266027,9.624718,-0.009533523,-0.41578326,1.8933176,2.4374914
1.3224151,-2.3590958,-3.782318,1.7352439,-8.491378,-4.9189262,9.928152,9.426911,-0.31120232,-2.9828682,-0.7259878,6.632213
0.13237283,13.2050905,-0.00032797636,-0.22667098,5.544369,-1.3022274,0.15849549,-3.2589827,0.035109743,2.9745176,-14.376245,-4.06941
-5.504466,4.654223,-6.8095937,0.14303811,2.902759,2.4019601,0.23782934,-2.5773945,-1.5301073,-4.656108,-0.91280305,4.252094
11.6520815,-7.929828,14.8429365,2.0973418,6.8365397,10.180143,-3.281809,-4.987141,-1.1471865,-0.02160886,6.457823,-7.601019
0.017993215,-4.246695,1.0629478,1.1431373,0.6205994,4.2193127,-5.093308,-2.524526,-0.13402279,0.27355587,4.699737,-1.0974288
-0.08280971,-3.6978056,-0.5742328,-0.5029583,-0.5048492,-8.644941,-2.2338164,3.436211,1.2049675,0.17687309,3.662277,0.81183183
-0.75353,-1.6098857,-3.3253193,-7.940313,-7.339539,-12.644111,-0.2128415,10.79324,0.0041275937,-1.4714211,0.85422766,3.7921245
-1.4767039,-1.3402125,-4.6339154,2.4066975,-7.2935815,-0.018583465,12.70477,6.215707,-1.5013229,-2.8819647,-0.8751792,6.896642
-0.27408075,11.703373,-0.00032295636,-0.053313427,5.4816265,-0.9674674,0.039228164,-3.59871,0.059305027,0.6856833,-11.547157,-4.4730773
-2.9706311,5.541806,-4.0269,0.53466076,3.5316336,2.1053638,-0.47591946,-3.0740824,-0.9541099,-4.2855797,-1.6375774,6.4603057
2.2338543,-5.3289022,5.123793,-1.2234613,-0.48586544,-8.518925,-3.1570075,-6.228286,16.377542,6.267661,7.891171,-14.532882
-0.118201315,-5.176197,1.4187557,-0.5792524,1.5919024,-0.5088265,-7.3340755,-2.5333433,0.0059307427,0.0816126,5.0549507,-0.78517914
0.3218615,-3.2407758,-1.366242,-3.717767,-4.196989,-1.457077,-2.7987714,5.0750766,-0.00042783353,-1.1994098,3.0230055,1.5199078
-0.6412214,-1.0838327,-3.730629,-2.7274346,-4.4698105,-5.615755,0.91526157,9.639771,0.0072535113,-1.0354682,1.34949,3.704429
5.0579133,3.5476897,-0.0003604741,10.578029,-3.5822155,50.041584,24.422459,-11.10765,-1.9407694,12.469906,5.2640853,-49.879723
-1.6810117,11.152309,-0.00019264378,0.29700676,4.6134505,-0.1484887,0.03533218,-2.2610352,-1.3026484,-2.5144985,-8.2328,-0.63527596
-1.30905,0.41290286,-1.4868554,1.1022735,2.85508,2.1632845,-1.0519098,-2.2528806,-1.2996502,-3.9775395,-0.6725998,2.7086651
5.7982955,-5.3132505,8.270345,-0.042333454,-4.3440685,-2.1061745,-0.2605798,-9.714895,16.89954,2.9340727,6.144487,-9.904157
-0.41432598,-4.0629964,1.1316587,0.2464467,1.4608693,3.1986144,-6.9536724,-5.670712,-0.011463594,0.6527105,4.391843,-1.2256975
0.08492411,-3.4573698,-0.4204327,1.6448543,-0.3414471,4.737774,-3.778924,4.1118455,0.0059094727,-0.1552147,3.489993,0.36895537
0.24741508,-2.9917727,-1.7046428,-5.192732,-4.5300736,-5.3662357,-2.119706,8.5453615,0.0009383154,-0.87317955,2.2196548,2.698943
-3.6106892,2.7927916,0.4155867,7.312673,-1.0739449,4.3330665,14.685895,2.8664386,-3.5194886,-2.7340386,0.042006668,5.2532287
-2.3561618,9.2053995,-0.00025377958,-0.4259926,4.4812155,-0.56941473,-0.051049203,-2.8300517,0.15144306,0.24964486,-9.391547,-0.29768988
-2.0876567,3.2483325,-4.557898,0.18456951,2.8917174,2.4550176,-0.124794066,-2.536243,-1.4233608,-4.0550637,-0.77619773,1.6173866
3.1478252,-5.521177,5.912536,0.24141486,-3.8040507,-9.27026,-4.796528,-8.655464,17.669712,4.53526,7.221139,-12.825995
