ancorasir/BennettWheelLegRL/experiment_data/2023-12-27_22-47-53/joint_position_env1.csv
Joint_1,Joint_2,Joint_3,Joint_4,Joint_5,Joint_6,Joint_7,Joint_8,Joint_9,Joint_10,Joint_11,Joint_12
0.38622516,-0.0,-0.0,-0.23533285,0.0,0.0,-0.38320208,-0.0,-0.0,0.44688585,-0.0,0.0
0.36388308,0.42382035,0.11030637,0.092565514,-0.0061232448,-0.26157573,0.01651853,-0.16928561,-0.3107237,-0.034912802,-0.4466799,-0.5121602
0.20775418,0.55441254,0.029792322,0.013654863,0.19875412,-0.23745772,0.03712706,-0.50853235,0.15629548,-0.29207367,-0.4329932,-0.05644298
0.31158748,0.1465008,0.21997648,0.101266965,0.30588263,-0.1282418,-0.21365818,-0.8684884,0.40000266,-0.28335252,-0.08315608,-0.46520224
0.35825536,-0.08406565,0.23434454,0.16873628,0.37984785,0.09764732,-0.789207,-1.0660338,0.40000343,-0.28600827,0.22555305,-0.52349913
0.34941992,-0.25722334,0.048775204,0.20864111,0.4613681,-0.1280175,-1.1584069,-0.64420706,0.39991412,-0.31463358,0.5378837,-0.46183047
0.3427237,-0.3177556,-0.17980222,-0.22032432,0.005117943,-1.0272938,-1.3190781,0.071849644,0.39847618,-0.44424185,0.61851346,-0.21215439
0.82893574,-0.12499565,0.40000027,0.041934237,-0.10360466,-0.4921656,-0.2766905,-0.06953059,-0.019153161,-0.008933073,0.49311173,-0.7211326
0.80991554,0.72562796,0.40000004,0.09433235,0.1940808,-0.44089022,-0.3384949,-0.31609192,0.017238548,0.18451215,-0.36421737,-0.7372605
0.33393505,0.7860942,0.012365054,0.103756815,0.32842523,-0.40418214,-0.3388632,-0.6340433,0.22996175,-0.09606317,-0.33983198,-0.07025292
0.4402087,0.43139067,0.269568,0.11508102,0.35350007,-0.37114608,-0.6399639,-0.98824984,0.40000483,-0.03352334,0.03859332,-0.3662686
0.44390893,0.10411061,0.33555055,0.1190004,0.3884548,-0.33140713,-1.1450553,-1.0140405,0.39998633,-0.033126485,0.36312315,-0.38370842
0.47207376,-0.13596508,0.29352367,-0.11561527,0.13023153,-0.76254696,-1.3567337,-0.5187487,0.39998162,-0.08220834,0.5499063,-0.2691148
0.46473584,-0.3428368,0.3896362,-0.21001609,-0.33250737,-0.8754741,-0.8868221,0.2542628,0.15435076,-0.18791583,0.63164186,-0.01972263
0.8634266,0.43366024,0.40000013,0.0017067736,-0.02105525,-0.53061455,-0.26950878,-0.26515394,0.022601243,0.2902853,-0.25370404,-0.7351275
0.6080952,0.9500137,0.24280709,0.018501613,0.23655777,-0.48216474,-0.27934024,-0.42056185,-0.08765525,-0.013968596,-0.7056233,-0.483426
0.3865322,0.6763553,0.06541589,0.027028192,0.38576162,-0.3788639,-0.30111367,-0.75553024,0.19083476,-0.15258981,-0.22939539,-0.12856847
0.47652313,0.33435464,0.28699544,0.081133656,0.44245926,-0.2291997,-0.861634,-1.1589103,0.3999708,-0.106149375,0.122235075,-0.33044574
0.43769363,0.06196774,0.28559247,0.12081879,0.4581444,-0.14067416,-1.1827871,-0.9629302,0.3999963,-0.089944,0.3995913,-0.33946985
0.43847105,-0.17455736,0.14725038,-0.20878944,0.102138594,-0.9138938,-1.4124321,-0.31494427,0.39382786,-0.1519148,0.6135841,-0.18804598
0.3696246,-0.25922966,0.2716835,-0.21769267,-0.31764445,-1.0524524,-0.83685297,0.30527377,0.16928113,-0.29866907,0.64843214,0.14110078
0.8852032,0.2830607,0.40000015,0.075143434,-0.10937212,-0.520718,-0.31611896,-0.13444294,-0.0048428164,0.37086865,-0.0685695,-0.7873727
0.66936094,0.8717912,0.35247627,0.09315397,0.15289436,-0.48578748,-0.3313201,-0.32079843,-0.042502698,0.08794435,-0.6249186,-0.5590756
0.34537894,0.74509364,0.025351517,0.10691774,0.31728336,-0.37857115,-0.35535622,-0.5881846,0.05024267,-0.22889969,-0.31139585,-0.0028803444
0.47452295,0.40347055,0.3116843,0.09041415,0.35123086,-0.42217454,-0.65599114,-0.94396067,0.4000043,-0.12847736,0.032858957,-0.34093693
0.4577575,0.089567155,0.37360567,0.09589359,0.42246822,-0.23066607,-1.0716816,-1.0683175,0.3999999,-0.11607459,0.32981303,-0.37394926
0.44164267,-0.13603295,0.29630232,-0.06836778,0.26470724,-0.69853693,-1.3700311,-0.6251995,0.38592,-0.14021978,0.5441382,-0.30318698
0.41091686,-0.26084304,0.121937506,-0.29822573,-0.12202914,-1.1021718,-1.2897052,-0.02504273,0.39268738,-0.20274654,0.6385248,-0.1097458
0.69683284,-0.27417004,0.4000002,0.12882845,-0.35533088,-0.3570132,-0.29863402,0.06570143,-0.08264248,-0.079135515,0.5373552,-0.35837284
0.92325705,0.38444474,0.4000001,0.09354492,0.048736006,-0.606453,-0.3040643,-0.26355362,0.06241294,0.17441219,-0.08452433,-0.8039334
0.65230304,0.88812023,0.30064064,0.15162738,0.23242001,-0.49773756,-0.33560598,-0.4096124,-0.017355425,-0.061554372,-0.53515244,-0.47189364
0.30673245,0.7334178,0.0075041438,0.1895905,0.2991875,-0.3791577,-0.36169985,-0.6932787,0.24576983,-0.123279564,-0.26892903,-0.2167417
0.44800174,0.38483748,0.30344492,0.21084869,0.4484163,-0.21512279,-0.7518647,-1.066669,0.40000352,-0.10492562,0.0740687,-0.39590192
0.43781418,0.10156825,0.3701699,0.25141257,0.46674874,0.012290908,-1.0456895,-1.0605829,0.39998218,-0.08046824,0.36142194,-0.4426962
0.4494072,-0.106703624,0.33129603,0.12792233,0.42573455,-0.43916327,-1.3096668,-0.69129175,0.39997476,-0.1056463,0.55597866,-0.37662748
0.42557806,-0.22066048,0.1677494,-0.27193615,0.008130999,-1.0257468,-1.3681431,-0.09572763,0.39620996,-0.17683657,0.63695663,-0.17893434
0.48541635,-0.3276699,0.40000024,-0.10341908,-0.36502263,-0.6962111,-0.69249326,0.23068589,0.13461274,-0.2187886,0.65715843,-0.09773685
0.942743,0.13714273,0.40000015,0.041757636,-0.055045642,-0.51856947,-0.30818155,-0.17914806,0.095473975,0.35926196,0.073174454,-0.7663296
0.73636544,0.82409984,0.37361154,0.004708315,0.22913931,-0.5145596,-0.29401633,-0.37612703,0.06681152,0.1264706,-0.58922,-0.61205107
0.4813251,0.8698461,0.058048196,0.014230847,0.39523473,-0.35064158,-0.33072105,-0.5733203,0.0095105255,-0.16157241,-0.5477477,-0.17334154
0.52080715,0.4839691,0.23855795,0.055128843,0.40694663,-0.41225174,-0.5695265,-0.9773605,0.40006253,-0.15610148,-0.015987666,-0.30228817
0.5014415,0.10268075,0.31909895,0.12630546,0.4494186,-0.03299366,-1.0768154,-1.110323,0.39374548,-0.12783748,0.36204714,-0.34901732
0.48089486,-0.11025359,0.24657345,-0.01706155,0.33405685,-0.5536471,-1.3519473,-0.7008167,0.3999954,-0.15297768,0.5459505,-0.25659767
0.44431508,-0.27909312,0.05515282,-0.31356567,-0.12033789,-1.1999968,-1.2439836,0.13186538,0.35609478,-0.23950914,0.63960344,0.031603165
0.81161135,-0.2471301,0.40000027,0.08426144,-0.26061693,-0.49610448,-0.18611774,-0.0064012534,-0.0033133097,0.120195344,0.5718539,-0.5684122
0.7922905,0.55735767,0.40000007,0.06162007,0.11224973,-0.56027615,-0.25979507,-0.33895332,0.20804787,0.26024067,-0.36853328,-0.6594279
0.63134307,0.859583,0.32208925,0.052280515,0.32881093,-0.44415638,-0.2517156,-0.53747654,0.13819559,-0.028370028,-0.77157784,-0.49065065
0.4555153,0.61402273,0.11486346,0.07969631,0.39879963,-0.38985923,-0.36125207,-0.8806679,0.37363926,-0.21849655,-0.18777564,-0.1796869
0.5058724,0.25674838,0.32047564,0.06935429,0.46121466,-0.2720749,-0.93369114,-1.1331931,0.38985288,-0.16496758,0.16324078,-0.36546808
0.48159057,-0.016705943,0.30405167,0.14239323,0.44931412,-0.048041858,-1.1691732,-0.93674684,0.39027876,-0.14610721,0.46052974,-0.37326425
0.44996792,-0.17770544,0.16369058,-0.14967363,0.3307129,-0.7339016,-1.3967869,-0.4368044,0.39993635,-0.18151309,0.6283442,-0.261644
0.37035042,-0.28812206,0.12842923,-0.3273392,-0.25203615,-1.1998513,-1.0957866,0.27359328,0.3305792,-0.3063429,0.6612811,0.04579549
0.9543033,0.14376001,0.4000002,0.011997318,-0.050777372,-0.5199697,-0.21368149,-0.15617725,0.056573443,0.2456808,0.27008873,-0.8556317
0.7774717,0.7974807,0.37105665,0.06951573,0.16480918,-0.4385231,-0.2454454,-0.33413556,0.010481803,0.112111144,-0.5132527,-0.642712
0.33763862,0.81160265,0.011505789,0.12839553,0.34201735,-0.33033186,-0.28484967,-0.60105443,0.10325728,-0.17584693,-0.3528418,0.08140798
0.4271111,0.36759183,0.32303146,0.09330874,0.2637975,-0.4989288,-0.70350707,-0.87259287,0.39998525,-0.06624408,0.03829846,-0.29820028
0.46136433,-0.13266703,0.3364228,0.04347209,0.38235667,-0.49367812,-1.3080758,-0.74330974,0.39994428,-0.10922102,0.48858663,-0.26312765
0.41636312,-0.30469036,0.38542694,-0.23041841,-0.32845718,-1.029438,-0.88535935,0.2799621,0.17308101,-0.2635622,0.6145262,0.099277
0.8928334,0.36847854,0.40000018,0.046855945,-0.03463317,-0.521209,-0.34652114,-0.19893713,0.10655919,0.32991362,-0.123445995,-0.7857197
0.64297235,0.8872596,0.3104083,0.04390157,0.24154268,-0.47445494,-0.33893222,-0.4009439,0.073893994,0.040481742,-0.65796274,-0.5082673
0.396917,0.67653024,0.07533905,0.048721466,0.35490707,-0.39168864,-0.38398036,-0.74874747,0.29375657,-0.15659827,-0.25327894,-0.11401905
0.48777577,0.29131085,0.32519457,0.048959937,0.44351965,-0.2654183,-0.94804615,-1.1625025,0.39999923,-0.082787596,0.1503425,-0.3960654
0.4787647,0.0030714746,0.33610356,0.107322514,0.45887154,-0.092812456,-1.1990777,-0.9682437,0.38820872,-0.095444396,0.42106086,-0.37623
0.46587873,-0.18116415,0.21549049,-0.1249781,0.23423547,-0.7442104,-1.3944504,-0.48503673,0.39999744,-0.130297,0.6060604,-0.26669
0.44420746,-0.30771288,0.07212584,-0.3053856,-0.2574349,-1.1978816,-1.0756193,0.2049573,0.30314237,-0.2489112,0.65527415,0.019734534
0.8510131,0.12813777,0.40000018,-0.01998861,-0.083160885,-0.54954374,-0.26609233,-0.17087342,0.08088188,0.34462276,0.08453842,-0.66303223
0.73122567,0.76867026,0.4,-0.009929323,0.22080359,-0.5305892,-0.26764688,-0.3669356,0.042355735,0.20342699,-0.52546173,-0.60933834
0.48428908,0.8178589,0.06798492,0.045844894,0.3887216,-0.30801243,-0.29537606,-0.56425565,-0.056067064,-0.1697833,-0.5806887,-0.26113197
0.508114,0.36284286,0.27894568,0.03534081,0.3604452,-0.43050405,-0.67147255,-1.0497832,0.40000284,-0.19572955,0.015468242,-0.32622764
0.51512885,0.120494984,0.32928553,0.07632188,0.39718977,-0.21194325,-0.96118027,-1.1405377,0.36454806,-0.18805748,0.27095953,-0.4066439
0.47349304,-0.14836699,0.24256754,-0.044097345,0.2597936,-0.5872064,-1.3261064,-0.6615065,0.39995357,-0.18958367,0.5480832,-0.33597842
0.47722852,-0.2836879,0.06647545,-0.2922011,-0.09894446,-1.0538031,-1.2965261,0.0072816964,0.39998546,-0.2717002,0.64921254,-0.1252576
0.9151462,0.100759074,0.40000015,-0.016780205,-0.14244491,-0.5426426,-0.2445304,-0.13404733,0.019681139,0.22901113,0.25432482,-0.8001433
0.732011,0.8212126,0.4,-0.017722022,0.17138699,-0.5589466,-0.26610646,-0.34012356,0.012438452,0.12971203,-0.5133343,-0.6559187
0.4783714,0.79672116,0.09999372,0.006235171,0.3741578,-0.3678779,-0.30702302,-0.5609551,-0.052050713,-0.12060607,-0.6243097,-0.38516715
0.4891343,0.455168,0.22259416,0.0062109856,0.3780165,-0.42661056,-0.5899365,-0.9586023,0.3999654,-0.21293081,-0.10419824,-0.2057919
0.50534165,0.14277394,0.3168292,0.04993471,0.43593106,-0.15338324,-1.006032,-1.1602153,0.3865031,-0.18435423,0.21242332,-0.31809437
0.46880627,-0.13129044,0.24130884,-0.02691469,0.34136984,-0.4953833,-1.3232723,-0.7207413,0.39996627,-0.18203108,0.49529216,-0.28520212
0.42838752,-0.25163448,-0.019348284,-0.31737912,-0.07554654,-1.1515614,-1.2982397,0.08640891,0.39999333,-0.2893497,0.61383486,-0.009336005
0.9562399,-0.030934753,0.4000002,0.09667622,-0.15942252,-0.4720392,-0.32865137,-0.1531547,0.035302144,0.1776711,0.27553418,-0.8343764
0.78530645,0.7429005,0.4,0.09497119,0.12807317,-0.4988729,-0.31890985,-0.31718445,-0.016469108,0.09713604,-0.44868425,-0.715865
0.47155815,0.89086944,0.11001477,0.12754439,0.339079,-0.3815324,-0.35380998,-0.52326804,-0.042142287,-0.15361461,-0.44712004,-0.15792164
0.4419046,0.43214473,0.26131546,0.070202805,0.36255786,-0.4204361,-0.66606754,-0.9415441,0.4000096,-0.10675218,0.022634583,-0.36496553
0.43769482,0.103453495,0.29816598,0.11215602,0.3978381,-0.33795172,-1.0890381,-0.99213034,0.39999086,-0.11623022,0.36928865,-0.40181896
0.46451032,-0.1856922,0.2101918,-0.20401041,0.07211402,-0.8386158,-1.3919015,-0.3778616,0.3999261,-0.17681724,0.60391134,-0.23198085
0.48232445,-0.34539974,0.40000018,-0.043931115,-0.31347302,-0.60545456,-0.64700276,0.21984096,0.01993678,-0.22383836,0.6589191,-0.10030908
0.88274455,0.3914528,0.4000001,0.060277436,0.08264897,-0.58768225,-0.32503712,-0.24725631,0.06869746,0.29533425,-0.14995858,-0.74177146
0.6746404,0.9169996,0.31635958,0.07761931,0.29665086,-0.48731303,-0.34361506,-0.42734692,0.013106325,0.06236323,-0.67345667,-0.5470692
0.44455498,0.6124099,0.16019897,0.09047658,0.28449112,-0.51335996,-0.3843822,-0.74356735,0.28778628,-0.13705897,-0.18228838,-0.24718763
0.5048315,0.23932019,0.3262847,0.11524092,0.37339154,-0.3549944,-0.9166925,-1.0901493,0.40000364,-0.13075213,0.20444654,-0.39197418
0.46352834,-0.010431395,0.26087546,0.10174529,0.34182304,-0.3849526,-1.2138168,-0.8522271,0.399997,-0.15042414,0.46396068,-0.34497884
0.47618955,-0.21331654,0.109372996,-0.26009735,0.026666414,-0.94428414,-1.3375654,-0.16168486,0.4000016,-0.24225612,0.61019975,-0.1317444
0.6462977,-0.29376662,0.4000002,0.044038523,-0.27985522,-0.38897952,-0.31232193,0.057116963,-0.054760072,-0.08110899,0.6305435,-0.34457028
0.8433854,0.62812454,0.40000007,0.048453227,0.14798686,-0.50297976,-0.32501638,-0.31972015,0.016783768,0.2238253,-0.32958218,-0.75364447
0.52066135,0.88654417,0.10016815,0.08301653,0.37930843,-0.30245754,-0.3379646,-0.57238466,-0.014901442,-0.13078314,-0.5073037,-0.1548879
0.49851638,0.4669551,0.2834841,0.11839962,0.42187983,-0.37726915,-0.63070345,-1.0457351,0.39999467,-0.09511095,0.07119101,-0.2783221
0.48042622,0.14067996,0.36518562,0.14530347,0.45434693,-0.19967934,-1.0722697,-1.1133384,0.40000057,-0.060873616,0.3721256,-0.30523401
0.45546728,-0.102731474,0.29462078,-0.07385084,0.34040096,-0.74165624,-1.3956016,-0.55793494,0.39999908,-0.08748198,0.5610479,-0.19419445
0.42967305,-0.30516732,0.40000167,-0.20489934,-0.31469956,-0.94883233,-0.8704913,0.26838496,0.12335963,-0.1890886,0.5878072,0.035718765
0.8615016,0.39143714,0.40000013,0.033787873,-0.0031670234,-0.47084704,-0.28470698,-0.29795378,0.072966695,0.3286307,-0.23704407,-0.695463
0.6344427,0.95920193,0.28149146,0.06487284,0.23587388,-0.3774398,-0.30179626,-0.47765478,-0.022327801,0.023400052,-0.7156716,-0.44284815
0.42622563,0.58721703,0.2280217,0.06949524,0.3152053,-0.4035484,-0.4585809,-0.89738286,0.40000096,-0.06326469,-0.144844,-0.20002596
0.45677003,0.29758835,0.39562464,0.047724664,0.46065548,-0.30608127,-0.93918616,-1.1194178,0.3999854,-0.0072647627,0.13569671,-0.32327262
0.45022073,0.009003453,0.39331102,0.02546419,0.37575006,-0.40780857,-1.3041489,-0.89328414,0.38321936,-0.015062551,0.41834605,-0.3394866
0.46821415,-0.20170215,0.3064121,-0.19697532,0.11084608,-0.80931234,-1.4011333,-0.35909048,0.3999502,-0.073789194,0.5792179,-0.21150056
0.41384357,-0.28710896,0.13295628,-0.32569814,-0.23549977,-1.1319468,-1.1578751,0.17575788,0.34586442,-0.1798119,0.6155527,0.040859107
0.950612,0.0041758134,0.40000018,0.034822885,-0.15779877,-0.5073155,-0.2731882,-0.2150267,0.10343123,0.27671248,0.3243965,-0.73258525
0.70599097,0.839132,0.38989174,0.048227567,0.18041366,-0.4891826,-0.25578815,-0.41071793,0.0015317365,0.08666962,-0.57214886,-0.6278899
0.44175562,0.53397584,0.14448601,0.098503925,0.29883555,-0.50667626,-0.37766424,-0.79890805,0.36627346,-0.16926107,-0.109398596,-0.24508184
0.4809332,0.1701426,0.2920286,0.10708122,0.38244063,-0.30249965,-0.93678135,-1.070627,0.39999852,-0.13847858,0.2633185,-0.3756454
0.459868,-0.10321443,0.24171771,-0.020087779,0.29871452,-0.5566906,-1.3122814,-0.72835326,0.39995098,-0.14890733,0.51979506,-0.30912146
0.42852628,-0.27379856,0.06735191,-0.32474914,-0.14690585,-1.0954677,-1.2633836,0.12040528,0.36849114,-0.25081497,0.64397275,-0.03291265
0.862786,-0.16229734,0.40000018,0.009694206,-0.28080624,-0.45927098,-0.24886395,-0.03690515,-0.045100857,0.14284146,0.5652887,-0.6510289
0.84119034,0.5110641,0.40000007,0.017278604,0.028024204,-0.5332185,-0.27666432,-0.22602923,-0.01514539,0.29253653,-0.2513337,-0.72870827
0.61035883,0.9240398,0.28351462,0.027059294,0.24535938,-0.4688297,-0.3041036,-0.40082794,-0.035967454,0.04211524,-0.73051864,-0.46416637
0.39744693,0.66823035,0.070275486,0.060498923,0.36034334,-0.29660568,-0.26871237,-0.6964754,0.07722187,-0.30299485,-0.18265307,0.045547932
0.46478844,0.27101466,0.35112485,0.011552589,0.31847554,-0.46079996,-0.904199,-1.0877541,0.400006,-0.15147261,0.23071955,-0.28684703
0.45328355,-0.027847808,0.35099265,-0.010682992,0.2708359,-0.48183218,-1.2405177,-0.8487194,0.39998794,-0.15996365,0.47046286,-0.22160393
0.43722895,-0.18952993,0.22148968,-0.23446117,0.09864263,-0.8814158,-1.3911983,-0.30308124,0.3999689,-0.19348933,0.60430634,-0.055326927
0.6370912,-0.29839486,0.4000002,0.004643422,-0.35539085,-0.40154502,-0.3702379,0.14465325,-0.052985318,-0.14423987,0.6165632,-0.17729908
0.80114335,0.50066924,0.4000001,0.024639647,0.06290995,-0.5554385,-0.2443004,-0.2898133,0.07638264,0.2930768,-0.3122754,-0.71812594
0.5811593,0.8348106,0.27465463,0.02464315,0.3496111,-0.45840323,-0.2651078,-0.5085681,-0.0043592555,0.011768078,-0.7929643,-0.5103654
0.47488722,0.64344865,0.09384805,0.0579714,0.4297855,-0.29858905,-0.31127656,-0.79581624,0.0986005,-0.281151,-0.24267972,-0.0051327352
0.5001246,0.31890678,0.32653782,0.0001385176,0.4472341,-0.42011523,-0.9168371,-1.0871123,0.4000059,-0.092144564,0.16938736,-0.30822536
0.50921303,0.104148194,0.33273962,0.07076916,0.4592053,-0.2636859,-1.1427424,-1.0842003,0.40000054,-0.107873246,0.37880892,-0.3032165
0.4970612,-0.1278124,0.26551226,-0.14183344,0.2043057,-0.698684,-1.4021273,-0.573547,0.3999383,-0.13045108,0.56406504,-0.19054657
0.46087396,-0.2850694,0.19952404,-0.2818756,-0.1979674,-1.0701498,-1.0720805,0.25508666,0.23546752,-0.3039321,0.59267193,0.18399346
0.94118494,-0.05556279,0.40000018,0.042100072,-0.1335312,-0.4721147,-0.2508145,-0.18889003,-0.009488131,0.25470454,0.3630099,-0.7192206
0.7813787,0.7528852,0.40000007,0.056812774,0.15249193,-0.46448523,-0.25315154,-0.3590057,-0.06285034,0.18399248,-0.4734256,-0.6891046
0.5450177,0.8969591,0.11683134,0.08273754,0.33271706,-0.34905127,-0.27702373,-0.54610413,-0.09102837,-0.13013807,-0.5337863,-0.30205616
0.4755192,0.42197984,0.27048403,0.023761341,0.33834586,-0.48588148,-0.73922986,-0.91020226,0.40000588,-0.11637317,0.06624147,-0.2913792
0.4903575,0.12481446,0.3176936,0.07065771,0.40305865,-0.32173377,-1.1250813,-1.0039196,0.40009025,-0.13128284,0.34956825,-0.31120548
0.5151611,-0.13165046,0.26003972,-0.14207342,0.17786439,-0.7622257,-1.3982239,-0.50925463,0.3992261,-0.18194523,0.5522934,-0.19361278
0.49522308,-0.29717526,0.19251172,-0.25692153,-0.23738863,-0.95852953,-1.001713,0.20462866,0.29614604,-0.32857865,0.62189645,0.1354213
0.89776117,0.041117016,0.4000002,0.03419815,-0.12577121,-0.53691757,-0.24064426,-0.19166197,0.054866392,0.25338513,0.21838146,-0.73107034
0.66686505,0.772854,0.3401294,0.058114327,0.18145934,-0.53032434,-0.27452347,-0.40161613,0.04578332,0.06620251,-0.6130372,-0.530291
0.48382056,0.77873755,0.07967835,0.06708334,0.3531895,-0.35857418,-0.27899787,-0.57950133,-0.039909035,-0.1575761,-0.5555337,-0.30250376
0.45263588,0.4381505,0.25854287,0.046592902,0.33512753,-0.3863724,-0.6273426,-1.0026023,0.39997184,-0.13604914,0.021277616,-0.2558158
0.4697135,0.17480858,0.34834418,0.058517285,0.42346975,-0.23608452,-1.0296056,-1.1070776,0.37738547,-0.114062704,0.27220985,-0.31351924
0.45813766,-0.04156129,0.31080496,0.027185721,0.3782783,-0.3720303,-1.2400671,-0.84711367,0.40000054,-0.11603548,0.4908545,-0.3008294
0.4664779,-0.18074992,0.18491626,-0.22969413,0.087636024,-0.8964522,-1.3605229,-0.2584197,0.39996693,-0.18052505,0.60600805,-0.14519605
0.53359103,-0.30156875,0.40000024,-0.0026883516,-0.3725804,-0.53004205,-0.5571362,0.21204793,-0.006777807,-0.19455478,0.6685462,-0.30017418
0.78742456,0.45134053,0.40000007,0.06711879,0.021075549,-0.5343241,-0.3010866,-0.24922748,0.11743405,0.2745099,-0.29394284,-0.64085805
0.6375185,0.8606012,0.35946605,0.04525399,0.27577734,-0.48380652,-0.2856557,-0.4336587,0.05901007,0.07246165,-0.7609082,-0.54776204
0.45193088,0.69683117,0.046409678,0.09920134,0.41075855,-0.2651724,-0.32349578,-0.6553533,-0.01822826,-0.22120307,-0.44253415,-0.20720409
0.50183195,0.32268134,0.30139703,0.06256979,0.43271142,-0.3749508,-0.83678806,-1.0854101,0.4000516,-0.13431776,0.07169702,-0.31345132
0.48939708,-0.0059040277,0.28318235,0.09847405,0.44403768,-0.41962358,-1.2135725,-0.90762186,0.3999775,-0.13181777,0.4345462,-0.3556304
0.5211387,-0.18530451,0.1612987,-0.25265872,0.18845864,-0.96514285,-1.4361852,-0.30996686,0.39996147,-0.21370456,0.5798722,-0.17625646
0.75114137,-0.26096597,0.40000024,0.085443854,-0.2364997,-0.4263056,-0.16572744,-0.013164233,-0.056302447,0.0728032,0.5801732,-0.49583566
0.8027594,0.67548895,0.4000001,0.07305938,0.1796875,-0.53179795,-0.27662715,-0.35212263,0.14316733,0.22449033,-0.4162263,-0.682587
0.5477799,0.8737236,0.10288736,0.124453105,0.38494912,-0.28387913,-0.26879722,-0.6199495,0.053530544,-0.16494316,-0.5149664,-0.24101259
0.52547365,0.41813877,0.2510783,0.05349717,0.41249627,-0.3757679,-0.7114802,-1.0950091,0.40000597,-0.1531182,0.06494194,-0.33230785
0.51274693,0.13236287,0.30670235,0.10560383,0.4449735,-0.17753898,-1.0167457,-1.0998509,0.39806235,-0.13178882,0.35542437,-0.379375
0.48143682,-0.14984423,0.18429923,-0.18055317,0.1090584,-0.8433059,-1.3591282,-0.35352746,0.39997584,-0.15980124,0.6162674,-0.23247755
0.48707023,-0.32289684,0.40000156,-0.15300436,-0.33940837,-0.9074067,-0.71880776,0.299662,0.08025298,-0.2502749,0.6440273,-0.04160216
0.86278045,0.48173103,0.4000001,0.011310575,-0.020065987,-0.5628466,-0.2101649,-0.23289105,0.027480792,0.27873036,-0.2578509,-0.6789813
0.6255876,0.93835366,0.26886502,0.060894743,0.23287465,-0.49644938,-0.24822696,-0.40693462,-0.043953408,-0.031792473,-0.67817724,-0.49499455
0.39521852,0.6063804,0.108218454,0.07428067,0.22863081,-0.5008912,-0.2666208,-0.76561683,0.26464972,-0.23230578,-0.15203798,-0.18446684
0.4616779,0.2417683,0.30671364,0.06762736,0.3541931,-0.37480918,-0.8814276,-1.093245,0.40000102,-0.1902028,0.22072218,-0.37053198
0.4390753,-0.055082288,0.26765803,0.0718406,0.38153645,-0.30184355,-1.2146754,-0.82230985,0.40004352,-0.20424514,0.509384,-0.3323874
0.4446677,-0.23217109,0.06953127,-0.22373103,0.007849965,-1.0119164,-1.3608643,-0.13044427,0.39997783,-0.29985404,0.658517,-0.108927384
0.9083067,-0.1396135,0.4000002,0.01264279,-0.19838153,-0.48061353,-0.24174275,-0.066386044,-0.097389966,0.107443325,0.49921888,-0.7221784
0.7918339,0.7962421,0.40000004,-0.0025658582,0.16696185,-0.5117025,-0.306217,-0.34803888,0.0034065086,0.14113149,-0.47998983,-0.7328663
0.44748214,0.78693867,-0.015787581,0.036633067,0.3805986,-0.35974756,-0.32365376,-0.63992554,0.096625365,-0.24518299,-0.38271636,-0.066068
0.5426448,0.38706318,0.2615477,0.008076229,0.4178192,-0.49660027,-0.775699,-1.0663328,0.40000957,-0.11617657,0.11565774,-0.37590364
0.5342579,0.10982234,0.28927615,0.06101973,0.412991,-0.36741644,-1.1062853,-1.0430455,0.40000057,-0.1348155,0.38105327,-0.38588318
0.5342476,-0.14126956,0.17417845,-0.14146887,0.22074138,-0.7754643,-1.394438,-0.5492961,0.39999464,-0.18404283,0.6043349,-0.21400373
0.49679938,-0.29234633,0.40000087,-0.15201692,-0.29409653,-0.69333076,-0.7314456,0.26293227,0.11799064,-0.26760152,0.7210818,-0.10487605
0.8765954,0.4565877,0.40000015,0.00082516513,0.14391227,-0.5246755,-0.29642954,-0.24120659,0.04411482,0.33519283,-0.24376698,-0.70485723
0.6027956,0.94691837,0.15572082,0.03362468,0.3622615,-0.33295506,-0.3194862,-0.47676295,-0.014311196,-0.04636104,-0.71628463,-0.3322171
0.46122283,0.6102884,0.13730495,0.0443954,0.37512133,-0.36154655,-0.35840607,-0.92386085,0.3944165,-0.1627216,-0.1861968,-0.1713978
0.5237662,0.22891228,0.33783895,0.07857874,0.44655907,-0.1089307,-0.94121546,-1.1798092,0.40000263,-0.09900207,0.21637636,-0.39075762
0.4857342,-0.08044526,0.30681136,0.064340346,0.4493478,-0.10633861,-1.2917649,-0.8318067,0.39989948,-0.09296008,0.516419,-0.3675505
0.44448218,-0.20227996,0.065802306,-0.31772655,0.040763177,-1.041454,-1.3998001,-0.05417967,0.39999872,-0.17947952,0.64694774,-0.14265266
0.69166183,-0.22600797,0.4000002,0.12190224,-0.33046767,-0.2518392,-0.18993534,0.028254544,-0.070456244,0.045737073,0.6079579,-0.48836213
0.7987907,0.66629744,0.4,0.07352608,0.15219405,-0.50521976,-0.28571367,-0.277364,0.07822825,0.20720598,-0.38958296,-0.7027515
0.5582337,0.9027247,0.17402194,0.08321262,0.3620658,-0.3480268,-0.29267916,-0.49241012,0.02004086,-0.09610577,-0.6124708,-0.29005268
0.45329216,0.5228021,0.20805174,0.08786008,0.27906835,-0.46143955,-0.53586245,-0.8728264,0.4000065,-0.16007715,-0.06310123,-0.21732472
0.46748817,0.22417332,0.3283659,0.11449979,0.35181114,-0.2822686,-0.97075516,-1.0958762,0.40000984,-0.114835374,0.24096553,-0.34303746
0.44761208,-0.0677018,0.31119883,-0.04829333,0.2835237,-0.6084787,-1.3421755,-0.7010691,0.39996317,-0.10802072,0.50163394,-0.28130576
0.44658267,-0.24669364,0.13200173,-0.31364065,-0.06949588,-1.1766217,-1.2803448,0.05288391,0.37784383,-0.2022318,0.613696,-0.020183552
0.6414575,-0.27867195,0.4000002,0.08119419,-0.36055452,-0.40668935,-0.43459305,0.115260914,0.0010212944,-0.09661814,0.56636477,-0.3223993
0.88483524,0.43886778,0.40000007,0.05853218,-0.041522957,-0.52632284,-0.26902106,-0.25369322,0.025449535,0.2345799,-0.2705953,-0.7556294
0.6008119,0.9356276,0.29915354,0.08809747,0.19774053,-0.4913025,-0.29516107,-0.40649176,-0.04289118,-0.015704578,-0.65398043,-0.45465365
0.35271353,0.7682781,0.0063699223,0.11698127,0.32379428,-0.38951868,-0.318742,-0.61623204,0.029756108,-0.22294846,-0.3160879,0.007183043
0.48385525,0.43351644,0.25065616,0.11849954,0.40092522,-0.3440563,-0.6355946,-1.036847,0.39999413,-0.12988862,0.034889795,-0.3332333
0.47525984,0.18897179,0.31070232,0.14360054,0.45415068,-0.13362554,-0.9969225,-1.086857,0.39467865,-0.10900159,0.28804106,-0.38910466
0.44156918,-0.02724923,0.26751864,0.12436843,0.44764367,-0.30450824,-1.2637097,-0.84535223,0.39998004,-0.109123126,0.50492793,-0.35562727
0.4505952,-0.18370296,0.14930052,-0.21897164,0.16202562,-0.8920269,-1.4246005,-0.3131102,0.39997122,-0.19136848,0.6035072,-0.17399251
0.47805637,-0.35293013,0.40000015,-0.22660308,-0.28286508,-0.9147517,-0.88995737,0.32335734,0.17878214,-0.29822198,0.6080962,0.021722738
0.9016466,0.17917977,0.40000013,-0.0063786777,-0.12452614,-0.46912074,-0.20473835,-0.10125957,-0.03374363,0.30847862,0.029764105,-0.7261895
0.6655752,0.8114696,0.35030758,0.0288667,0.119735494,-0.43371743,-0.23938818,-0.29016763,-0.033736475,0.11459017,-0.655857,-0.5599447
0.4735048,0.8076149,0.067508705,0.057641197,0.30192766,-0.3341033,-0.29991943,-0.4745942,-0.05331434,-0.11325095,-0.57653105,-0.3033474
0.42274007,0.50453365,0.22139533,0.06752665,0.34452382,-0.45625967,-0.50966066,-0.8949965,0.39999,-0.1346747,-0.05103438,-0.18474717
0.4583685,0.16957857,0.36270636,0.07595034,0.40903413,-0.36430356,-1.0556995,-1.031762,0.39999685,-0.092950016,0.26513514,-0.27218756
0.46342966,-0.08753396,0.34131792,-0.10627899,0.21666692,-0.68348294,-1.3868902,-0.6232549,0.39999962,-0.113296606,0.47557786,-0.22252336
0.42679277,-0.25046137,0.14226899,-0.30484104,-0.18646586,-1.1347058,-1.2111167,0.13524258,0.360693,-0.18683721,0.5906527,0.026934257
0.8116698,0.27079135,0.4000001,0.068965845,0.02406836,-0.5894887,-0.28704652,-0.3047533,0.14041306,0.36243048,-0.16209735,-0.6098225
0.6361745,0.9160086,0.32496312,0.08771664,0.3114461,-0.49871954,-0.2786406,-0.4902574,0.023520647,-0.0037756846,-0.7072314,-0.5218581
0.41764292,0.6280669,0.08684671,0.100409485,0.39973626,-0.3361962,-0.2903293,-0.79553103,0.21375401,-0.21510127,-0.20793766,-0.09089297
0.47572783,0.31506178,0.29251775,0.10030839,0.4700898,-0.28089562,-0.8273506,-1.1403437,0.39999938,-0.1309295,0.11851419,-0.3404669
0.47481,0.03227751,0.31618297,0.1116183,0.46319893,-0.2842936,-1.1977973,-0.9942173,0.39999914,-0.12890719,0.403154,-0.37644696
0.4651709,-0.17728595,0.20525107,-0.16839087,0.28524455,-0.8224497,-1.4505844,-0.40698627,0.3999587,-0.17726175,0.5937342,-0.26794714
0.43311563,-0.34732217,0.2821837,-0.27156693,-0.26880348,-1.0322558,-1.0643226,0.25348556,0.27724385,-0.28678283,0.63985634,-0.02248703
0.9108652,0.012295472,0.4000002,0.020190129,-0.11731996,-0.5001144,-0.25251937,-0.26461476,0.11548506,0.3570256,0.22085564,-0.72305346
0.7275615,0.8393447,0.39397302,0.021050414,0.24189892,-0.4878701,-0.23522158,-0.46728355,0.019792639,0.09159405,-0.6342514,-0.5935294
0.607689,0.79835653,0.23078157,0.07502584,0.29712945,-0.464647,-0.2908132,-0.51239157,0.015210986,-0.08470657,-0.62417877,-0.5367902
0.48199993,0.57293385,0.12509963,0.18065646,0.28301403,-0.32046583,-0.3682408,-0.6189256,0.06446623,-0.22839092,-0.18703781,-0.15917043
0.5301666,0.2721155,0.25020024,0.19578873,0.36182848,-0.19717576,-0.60196155,-1.1492952,0.4000035,-0.17939922,0.13753776,-0.39714047
0.49447545,-0.012370215,0.23115377,0.21661793,0.43570337,-0.13984329,-1.0472803,-0.9818931,0.39996848,-0.1450231,0.47253102,-0.40696216
0.46676764,-0.1959915,0.05851935,-0.09926578,0.220652,-0.7578998,-1.3524768,-0.41918835,0.39996254,-0.18526633,0.66566765,-0.24296694
0.59973675,-0.32728416,0.4000002,0.017555073,-0.36501884,-0.46429616,-0.5600846,0.16349049,0.049406026,-0.123668954,0.69594824,-0.38273317
0.852588,0.59173757,0.40000007,0.058874577,0.0956965,-0.57331496,-0.42005563,-0.21467495,0.019358523,0.25818622,-0.34815356,-0.7271362
0.5628915,0.94166887,0.25908136,0.07921087,0.31313333,-0.46134168,-0.43758175,-0.3963074,-0.04464824,-0.014541341,-0.6680843,-0.28430262
0.44409895,0.56740564,0.25750703,0.10541613,0.26241162,-0.5219151,-0.5115327,-0.78211206,0.4000052,-0.024928601,-0.12683873,-0.29068568
0.44983268,0.18856807,0.3793111,0.13823374,0.39134252,-0.28356677,-1.0469643,-1.0513244,0.39114755,-0.026110288,0.24046569,-0.3692338
0.44800276,-0.1458611,0.3553538,-0.10792685,0.12698701,-0.7461924,-1.4113156,-0.5281436,0.3997789,-0.071038336,0.49384886,-0.2689313
0.4364584,-0.27685696,0.17093228,-0.29801685,-0.15360542,-1.1751716,-1.257462,0.033834986,0.39991072,-0.14328282,0.60210544,-0.05691271
0.8671395,-0.1040239,0.40000027,0.0012164926,-0.1857065,-0.47899833,-0.31873384,-0.12771964,0.01507855,0.21289231,0.44863954,-0.7252135
0.7720757,0.6952981,0.40000004,-0.0071970886,0.12120958,-0.47038236,-0.32471335,-0.34749255,0.0012140214,0.19115576,-0.4681162,-0.6989081
0.42553514,0.8140128,0.020154193,0.0033207198,0.34880763,-0.30609664,-0.33665305,-0.59740293,0.012760475,-0.18849869,-0.40510738,-0.14314248
0.487231,0.44627208,0.28439525,0.015065,0.3785765,-0.3323341,-0.64160544,-0.9820046,0.39999577,-0.16151012,-0.013990165,-0.2961117
0.4924098,0.11789878,0.3899781,0.05072393,0.438569,-0.20633696,-1.0911614,-1.0840651,0.39840925,-0.12590379,0.30688682,-0.37752745
0.46165377,-0.17991272,0.31847766,-0.08536724,0.2267666,-0.57701945,-1.3530897,-0.6247347,0.39994153,-0.13524625,0.5635834,-0.27847645
0.41212058,-0.28145307,0.11969595,-0.35030493,-0.105906084,-1.0695695,-1.2842715,0.07362457,0.3766953,-0.22441569,0.6252475,-0.021449566
0.9260304,-0.1432568,0.40000024,0.076269485,-0.21280019,-0.4328886,-0.19494773,-0.12044668,0.012079069,0.15985022,0.49218175,-0.6940272
0.82854563,0.68553466,0.39999998,0.09178191,0.11273626,-0.5087043,-0.26133898,-0.3439613,0.06562652,0.13823245,-0.34425583,-0.7817756
0.50834805,0.87722284,0.12698834,0.12655231,0.30841714,-0.38535205,-0.28095308,-0.5159071,0.0040414836,-0.117672384,-0.48307437,-0.30567434
0.46066505,0.48590562,0.21378909,0.122595884,0.30480552,-0.38601577,-0.3792987,-0.91001314,0.40002352,-0.1896321,-0.056380816,-0.22642425
0.4499838,0.1545448,0.32065314,0.11072614,0.40328616,-0.2489989,-1.052343,-1.0662129,0.39999634,-0.11509486,0.30141458,-0.35940784
0.46324036,-0.076450676,0.29960662,0.07861182,0.37631258,-0.36163327,-1.2767379,-0.80314255,0.40000004,-0.1416227,0.50138354,-0.3043998
0.45610514,-0.2345952,0.07502724,-0.27662235,-0.01742177,-1.1060138,-1.3118852,-0.07001322,0.39997962,-0.24574617,0.6285466,-0.03908886
0.8633438,-0.1652147,0.40000027,0.030694922,-0.11581652,-0.5228438,-0.28528622,-0.15878925,-0.008372259,0.19589055,0.46055838,-0.6526971
0.8088581,0.7086352,0.40000004,0.07465307,0.16586706,-0.48318794,-0.32709458,-0.3606885,-0.017737025,0.2138537,-0.4223185,-0.6406859
0.3114486,0.70027584,-0.03082924,0.08724736,0.30649844,-0.40904957,-0.3386206,-0.73684686,0.25519663,-0.13983032,-0.30677003,-0.11091459
0.4773535,0.33630174,0.2915377,0.0573436,0.34285966,-0.3895541,-0.78307784,-1.0876579,0.3999999,-0.09801732,0.039346613,-0.3393639
