ancorasir/BennettWheelLegRL/experiment_data/2023-12-27_22-47-53/joint_torque_env27.csv
Joint_1,Joint_2,Joint_3,Joint_4,Joint_5,Joint_6,Joint_7,Joint_8,Joint_9,Joint_10,Joint_11,Joint_12
0.0,0.0,0.0,0.0,0.0,0.0,0.0,0.0,0.0,0.0,0.0,0.0
0.33414328,3.0160336,-5.480301,13.798849,-9.906674,14.9091425,11.545856,-4.9946675,-12.132867,2.4362845,2.0755157,-0.39836168
-1.4606345,-0.43091965,-0.95575047,8.189691,-0.026393771,13.899804,4.9691067,-14.495229,-18.982594,1.5199766,-1.7323189,0.23111105
0.019729078,0.32400918,0.49803895,2.8557167,-1.459341,9.400548,4.1481366,-10.82941,-10.462629,0.44975668,-0.346344,-0.14762752
1.3492427,-0.11142045,0.5133779,-0.5048039,-5.919533,5.4653664,4.3700404,-5.942635,-6.0349646,-0.0127443075,0.70813644,-0.62878084
-14.147146,-4.0625763,-10.00898,-1.2713712,-8.424517,-4.739276,-1.4483101,0.17138672,3.4698136,-5.1551814,9.067459,17.289347
-7.0629973,-4.550248,-6.885509,-1.6399977,-12.387547,-7.350362,-2.1314156,1.6859974,0.8843648,-4.935305,7.2260184,13.67128
-8.792913,2.3023796,-5.6580133,-1.24472,-5.667176,5.646942,0.61467314,-0.9119179,2.6907194,-8.978182,-4.074479,10.891303
-9.919944,3.06924,2.5059881,0.23100412,1.661757,0.5275235,-0.23398113,-1.1159711,1.7566606,-5.2294874,-2.8589668,9.918541
-0.46453857,0.47240758,16.428015,12.207277,1.6211929,20.0,-2.2226982,-2.2873664,2.7402694,0.65369225,3.0012321,-9.784088
-0.049541235,-1.5343251,5.945585,3.5183678,2.4842243,13.719368,7.417885,-5.479123,-4.0041146,0.6879028,1.6465213,-0.798615
0.29608738,-0.5089158,-1.2975199,2.8071468,-2.1338563,4.0829854,5.1517878,-0.56241536,-2.089193,0.08402431,0.103990495,-0.010843992
-15.8650465,-6.0798883,-11.7249,0.40237,-2.2423642,-0.78774786,-5.5724297,-3.0103116,4.40555,-8.12004,8.438123,13.256806
-6.878764,-0.67147684,-6.535052,-0.45232904,-0.46476912,-3.4902868,0.8048582,0.0860095,1.0950447,-6.733542,2.5252154,8.116298
-9.058285,2.9923723,-3.439287,-0.15817869,0.61689675,0.5253072,-0.0068194866,-0.9291334,0.26885286,-7.106937,-3.7944272,7.2926044
-9.082179,0.903783,2.9709551,-0.41644853,1.3033042,0.5239966,-0.5252228,-1.3101113,0.37679783,-5.760107,-7.8500047,3.989994
-0.73124385,-0.44671774,11.081747,5.13138,2.1818871,20.0,18.052443,-1.564985,-11.732218,-2.6415844,2.5782351,0.50681067
1.5228171,-1.7095997,-0.24392694,5.490553,0.11860955,11.539512,7.135888,-2.6830506,-5.781315,1.7992859,1.0140557,-0.43175113
-0.6067612,-0.9870982,1.8345476,1.7525696,-2.6098604,1.1728784,4.4943924,-1.1656299,-0.37118566,-0.6266494,4.17182,-2.649551
-10.704331,-4.6309156,-7.546082,3.1687713,-4.57942,3.5931213,1.0250597,-0.7281668,3.8168778,-4.415125,4.5812006,12.322038
-7.076098,-4.799426,-4.0272727,1.2706897,-4.9461403,0.761431,0.11057007,0.20980728,0.30002078,-0.1794864,7.026995,9.87906
-8.503687,0.7438529,-2.2628853,-0.54527116,0.89066833,0.8049302,0.22249246,-1.2662911,1.9009278,-6.9452515,-5.680012,8.3096075
-8.2719145,5.2487535,4.5698433,-0.3517055,1.2499661,0.3797822,0.11151242,-1.2238688,0.5250621,-4.016026,-9.947462,7.0278997
-1.1331546,-0.37154198,14.437278,8.009926,-0.3438816,20.0,14.656101,-6.146207,-4.5125723,-2.096055,2.4055538,-0.12107253
-0.19397306,0.1958065,2.9697847,8.050701,0.4128585,11.682869,8.25437,-3.7829533,-7.811682,0.57172227,-0.12841606,-2.221204
0.79474103,-1.1074688,0.7548213,4.2869053,-2.915907,5.5523014,6.717402,-3.6433954,-2.8977299,0.88216877,0.5766525,-0.27588916
-13.16577,-6.509758,-8.279304,-0.19019979,-4.7023387,-3.1055255,-2.6931293,-2.2096214,7.6864905,-8.0008335,1.3929439,17.302567
-8.828094,-4.2660193,-6.4200273,2.81079,-6.6853104,0.6419331,0.9179058,1.2237796,1.7467289,-2.2545083,5.8294373,10.536914
-5.398901,-0.26887894,-4.745189,0.8015778,-6.215398,1.9094999,0.21572042,-0.111190796,-0.29306406,-4.032874,3.2384505,10.662818
-8.339574,1.5574574,-4.983817,-0.80460644,1.9831266,-1.3362713,-0.26010323,0.14786196,1.9569345,-7.0349455,-0.6454165,9.534902
-10.274741,1.288873,3.1521878,0.2119677,1.3027267,-0.2631178,0.92735505,-0.20051146,1.8831353,-5.640232,-11.557379,8.809756
0.6766186,-0.6972834,15.557886,0.33696318,2.6254363,-0.17185307,-0.004668236,-4.2372527,-0.7397275,2.7747345,2.7173924,-10.073766
-1.8079363,0.23507214,6.059697,8.411314,1.5778558,13.72166,10.502734,-5.215517,-4.600205,-1.1906862,0.6339693,-2.9413579
0.5655403,-1.3807425,-1.7831236,4.476257,-3.0636969,6.144102,6.7158666,-2.4282846,-2.679491,0.96798146,0.51972806,0.8512025
-3.5215225,0.106286526,-3.244652,-0.30999213,-1.3790932,-2.5652993,0.9554488,-0.4119954,5.1937504,-8.744577,-0.62614703,16.017252
-9.9119215,-4.1645374,-9.252957,2.6229703,-5.608973,0.8165922,1.1079292,0.28573155,1.7117561,-5.752157,7.2858515,10.33532
-7.258784,-1.3694344,-4.307771,-0.6549997,-5.4921703,-3.4837084,0.4140997,1.0495406,-0.027646929,-3.4698873,2.4609094,9.335512
-7.243831,1.8922697,-5.3542776,-0.90316856,1.5559807,-1.312588,0.43993545,0.1169467,1.3530107,-8.1057,-1.6286889,8.379655
-9.689601,1.6511455,0.5236658,0.56953394,1.1844916,-0.11554909,0.8102505,-0.29758263,-0.06470972,-5.40951,-6.8829055,8.269997
2.7562447,-2.9387658,14.845475,1.5867453,2.1811147,-0.054691315,2.9727507,-4.175141,-1.6900198,4.997877,1.992085,-12.754765
-0.0073615313,2.0841556,5.038953,6.085524,2.737214,14.7831745,11.730548,-5.2806697,-4.4086857,-2.5347366,-2.1128716,1.5072759
0.90635633,-1.2356547,1.1553514,4.3333583,-1.7392441,4.2314687,7.145152,-2.7389512,-2.1876929,0.54509234,0.04110813,-0.0077843666
-15.657932,-4.627933,-8.690397,-0.66895235,-4.796826,-5.5414834,-1.4868658,2.3093665,-6.4359655,-8.129145,3.2498538,15.9049635
-7.625421,-5.0732136,-4.9350467,1.7894995,-5.8490386,-0.58209944,0.71735656,0.8154568,0.44408327,-3.13076,8.41028,9.072374
-7.0820355,2.1252697,-4.30042,0.29535568,-5.678782,3.3529305,0.2650317,-0.4270084,0.35934126,-6.151487,1.6454036,8.886356
-9.250732,2.0252197,-1.7752222,0.43102956,1.5942767,-0.3081727,0.44752702,-0.5623765,2.0347078,-6.893041,-2.4980893,8.590874
-0.120533645,3.6389468,-6.559085,0.10551953,1.1063969,-1.1036205,0.5549841,-2.218017,2.411178,0.6052735,-7.5298715,-1.5591693
0.15029281,-1.7257104,11.278085,7.320824,3.9692512,14.748729,12.181025,-4.1175294,-4.184784,-0.30709374,1.9104908,-0.3836567
1.3797742,-0.712001,1.0794091,6.9553547,-1.9595315,8.784356,9.63725,-2.0432029,-3.730125,1.118306,0.8912263,-0.35245085
-5.6847625,-5.6571016,5.247717,-1.2385175,-4.2699347,2.5817404,-0.2817297,2.6525044,-6.79604,-13.518607,0.3954749,16.974556
-10.24101,-5.3495293,-7.744759,1.5752355,-5.301532,2.0386343,0.9374504,0.58733034,0.36519596,-6.1554236,7.029614,10.271375
-8.881795,0.32519734,-6.4122963,-0.15023136,-1.3609325,2.1076145,0.43622184,-0.64359164,1.1468976,-8.463331,1.1856041,8.8257265
-10.946277,1.3486271,-1.620792,0.10340977,0.8502135,-0.029732823,0.6079222,-0.5979476,0.49254134,-8.003396,-5.824,7.543374
-0.61599445,1.2869756,6.97419,0.91199374,-0.14539695,0.9420378,2.561142,-1.5801066,-1.3907619,-1.6192605,-7.8225927,0.8184426
-1.2461433,3.0223022,11.115895,7.436055,3.3590918,18.418541,14.053342,-8.25619,-6.821754,-0.9754925,-1.3556437,0.89804935
1.1384203,-1.4202027,0.7782294,6.565376,2.366179,11.37669,9.423369,-5.839108,-2.5742083,1.3019618,1.0850155,-0.40018427
-16.246075,-0.045558453,-10.133214,0.78902066,-4.6796875,-0.9710885,-2.6174254,-1.1068975,4.0703382,-4.505933,5.1378713,17.549637
-7.4806137,-0.5959523,-6.163685,0.43022764,-4.482682,1.5242908,0.37128067,-0.42799783,0.21102048,-4.707542,2.5143802,11.267957
-7.986485,1.9757912,-3.1316178,-0.17852807,1.352363,1.1516862,-0.020321012,-1.2438054,1.3838915,-4.7829385,-3.6868434,10.48212
-8.471299,5.024213,3.3093057,0.19898334,0.28359532,0.4222976,1.1889603,-1.5436249,1.3960508,-4.79654,-5.1817694,5.9212065
-3.2405972,-0.88187003,15.00235,7.191139,-1.4030437,19.86797,12.801789,-4.1619797,-5.085184,-0.4485402,0.20757484,3.7787514
0.88987994,-1.6909428,2.5823114,6.449217,-0.16000807,11.181993,8.333588,-4.558761,-6.2784543,1.156328,1.210094,-0.57989955
-2.2442698,-3.4661467,-2.4610713,1.6754205,-4.1140985,0.52688193,5.2593975,-3.3385046,1.377103,-2.6074882,4.425633,3.3586142
-13.668847,-3.701125,-10.428541,0.9224892,-3.6621275,-0.58381236,-0.50849533,-0.68334985,4.1919446,-6.61205,4.5706587,13.653673
-8.567716,-3.4914057,-6.4550943,-0.37259537,-6.0065145,-3.1534977,0.2966876,0.25151253,0.35897288,-5.0443783,4.0970325,11.093953
-8.474732,3.1987882,-5.736486,-0.34088278,-0.23900223,2.825933,0.06989586,-0.814821,3.083463,-6.109858,-1.7437882,13.034918
-9.027935,1.7585981,2.8021588,0.29831338,1.5470352,0.36926556,0.3808153,-0.8957329,1.0207953,-4.327158,-6.776709,6.4371777
1.7041311,-1.5868182,14.968425,13.4551935,-1.7391872,20.0,-2.2333164,-2.7864728,5.0791445,-1.0699458,-4.2355433,10.566038
0.6358882,-1.654275,5.9859147,6.8509135,1.9515666,12.566929,9.467191,-5.7763605,-4.138004,0.6227619,1.297759,-0.4876544
1.1926924,-1.3784158,0.8016393,2.4558952,-3.5400877,4.2418685,6.135417,-3.1639545,-2.1959934,0.95105636,1.1294262,-0.5450194
-15.859347,-3.6162105,-10.128279,0.33855563,0.89014506,-0.051091135,-1.6637526,-1.2407923,5.3092246,-5.9653063,4.8405805,16.48965
-7.8709435,-5.736867,-3.2824435,1.0697548,-7.131594,1.7746708,0.64785266,1.128152,0.7433064,-1.3465457,6.4086866,8.372183
-8.788761,2.807074,-2.8331213,-0.41974664,1.363838,-0.7755163,0.3114462,-0.37994862,1.9985113,-8.0288515,-4.0320024,7.483684
-9.474057,2.6836288,0.7866948,-0.12344682,0.81130177,0.2256521,-0.07148886,-1.2215071,0.09550587,-6.2368097,-6.4545226,6.460865
-0.09214783,-0.96167326,14.268509,10.72267,-0.05870104,19.771715,-4.855627,-2.9635844,4.80775,-0.8559208,-1.3726597,7.6750746
1.371304,-1.603101,4.9022045,6.119976,2.0031176,14.066889,10.39386,-6.496315,-4.236035,0.77888465,1.2433434,-0.50061595
0.8069719,-0.5567175,1.6160892,2.0587356,-3.5368147,1.5512092,3.9097128,-0.88325477,-1.486516,0.83213234,1.529427,-2.514155
-10.3882,-3.400891,-7.9582667,1.3689244,-4.662159,1.5411357,0.5283499,-0.56543136,1.841413,-6.74213,7.1859756,10.639313
-6.357844,1.8488092,-3.2687125,-0.9898391,-4.960511,-2.180582,0.75526404,0.13497472,0.9252298,-3.562371,0.44564664,12.060533
-9.690252,3.2407956,-1.4304512,-0.54309607,1.3337474,1.1922388,0.019396901,-0.8449819,3.4378672,-7.70076,-4.521225,9.849999
-6.233402,3.6069903,7.7602396,0.51545024,0.88110185,0.60271645,1.6666989,-1.125329,-0.58175915,-2.0617309,-9.042597,6.316931
-0.8055804,-0.5485997,12.940045,6.145056,4.245603,17.091785,18.105732,-1.1071391,-11.036349,-1.8244371,2.9491487,0.8371453
1.2434568,-1.2209437,0.7292413,5.0247135,0.9484614,9.702959,8.290528,-2.8027205,-2.9049234,0.9737146,1.0651369,-0.5724287
0.24349952,-0.2794342,1.7251717,1.3409746,-4.5851116,-0.99169195,3.07804,-0.6878233,-0.4703789,0.096432924,0.38529634,-2.0089643
-12.003727,-4.4475403,-7.6494665,3.421082,-4.9406447,-0.67088056,0.8392687,0.8788531,1.541178,-5.494085,5.7095966,12.142668
-7.3387985,-1.4796779,-4.984151,1.3440138,-4.824947,-0.1085124,-0.050182223,-0.7388065,0.24757764,-4.160275,4.8099008,9.651129
-10.680427,0.8164255,-1.4952352,0.3379073,1.6006465,1.2288489,-0.0198659,-0.7641907,1.3451606,-6.559536,-3.8314445,8.404088
-4.8753796,6.51061,-2.9824724,-0.43874204,1.0456817,0.089259624,-0.21203709,-2.3618445,1.0856928,-2.642901,-8.864922,4.7927756
-1.014611,-1.916626,11.793496,8.876167,3.3724525,18.912868,11.811027,-4.995175,-2.921837,-0.1533705,2.4128594,-0.21040154
1.0679762,-1.7909054,0.5782386,4.585575,-1.50326,7.730424,6.685508,-1.7663999,-2.349294,1.2584476,1.6799233,-0.7067361
-11.95631,-1.9298816,-12.181221,2.0673914,-1.2824022,0.5734644,-0.3928113,2.9405806,-7.642597,-10.320506,1.0204616,16.285698
-6.498801,-4.77059,-6.182472,2.2171195,-4.2758756,0.4350258,0.2178762,-0.1516664,2.1182473,-2.7067585,6.9786816,11.700752
-7.033586,-0.76694214,-3.9927285,0.6458466,-5.257452,-0.42224157,-0.0053051114,0.9244726,1.3515036,-3.2028234,0.82423735,12.573694
-10.479639,0.5127093,-2.2967277,-2.5353549,-1.3149605,-7.3027287,0.04714477,3.711264,2.9277506,-7.2029614,-5.348321,8.657162
1.7400317,-1.3314122,10.847294,2.0798693,1.3633405,-3.3009453,0.92070484,-5.032553,6.2176437,-0.15600824,-3.2389007,13.799732
0.8004143,-1.9853559,6.90209,5.5206122,3.7997844,12.558822,9.141083,-4.2898746,-2.7862902,0.67266136,1.803011,-0.56454
1.0971143,-1.5619221,2.2053635,2.3346386,-5.1958036,2.0353785,5.8546853,-1.7136856,-0.33462808,0.499408,1.261944,-1.3561468
-12.527097,-4.855438,-9.013671,1.3801191,0.8403065,-2.577693,-0.5362892,-0.91346383,3.310459,-7.7787623,5.3593135,8.498415
-6.983577,-1.1141273,-5.1758485,-0.16551262,-1.5690217,-1.3245746,0.17817497,-0.013289213,0.3143463,-5.740493,1.5658245,8.371209
-9.283183,1.7669892,-3.8169003,-0.35229206,0.7382955,0.7738688,0.29279196,-1.057056,1.976831,-7.743232,-4.8518753,8.813104
-5.029296,3.8599665,-0.71680427,-0.058687687,0.9833431,-0.14726102,0.14637995,-2.2514162,1.1439915,-3.1932511,-5.797659,3.0494235
-0.3070059,-1.4992962,13.5165825,9.277652,3.12802,17.669178,12.899778,-2.251212,-7.111376,-1.6442081,2.4006412,-0.11235261
1.5085602,-1.6474671,2.1417289,4.2014217,1.8338786,8.628957,6.8833423,-3.5034802,-3.7033854,0.7086232,0.8119006,-0.24626338
-1.5051401,-1.3011451,-2.2418337,2.7363045,-4.636321,-1.110361,-0.17475247,-2.1642935,7.729596,-1.24242,2.6291409,3.2106152
-16.334806,-4.661498,-10.921305,0.66479194,-0.055582523,0.94772047,-0.6126795,-1.1965487,4.4519877,-10.042605,5.5032997,11.571977
-10.098687,-4.0841594,-5.331867,0.33527,-4.88078,-1.4281684,0.23029757,-0.23847657,0.78198206,-5.8713746,4.435778,9.587897
-9.46523,1.2880182,-2.5544753,-1.3840563,-0.33816946,1.7673111,0.026169538,0.8136411,1.0872891,-9.695574,-2.81134,7.1245832
-8.20614,0.03680587,4.558446,-0.12642044,0.67867815,0.10171741,0.4660871,-0.4344375,-0.17907274,-5.4183626,-5.1826215,4.326512
-0.4608513,-2.2201939,6.887695,8.443708,3.8817358,18.99648,11.574475,-6.110938,-6.1357355,-0.47568417,2.8724885,-0.7218962
1.1667241,-1.1933451,1.3551877,5.060829,-0.6002538,9.051147,7.7072206,-4.0760775,-3.913484,1.1286737,0.71125495,-0.1435206
-8.444547,-6.3866053,-7.2518644,2.574333,-1.5073757,-0.33709276,-3.270076,-3.2676156,5.8161826,-9.028673,0.5588298,18.56086
-7.396873,-6.261577,-6.125187,1.1784209,-5.9348264,-0.46539629,0.5840552,1.0333505,0.72584844,-2.7551358,4.651362,10.591852
-7.257998,-1.6658546,-6.498097,-0.4495042,-4.428229,-2.2420213,0.121184826,-0.19839144,-0.13079742,-5.312545,0.9363017,10.911793
-8.838014,-0.12367833,-4.3052416,-0.17462277,1.6076937,-0.50076485,0.46358585,0.1324172,0.11470361,-7.891165,-2.0524666,7.4319525
-7.0496435,2.5770106,3.4524465,0.035042524,0.80088687,0.10218716,0.14672637,-0.44308138,1.2440223,-3.0663886,-7.8674808,6.0577745
-3.8095791,0.27820492,15.139218,6.593043,-1.0686755,20.0,-3.2671757,0.27005863,1.7152286,0.21392727,0.63470364,6.5192404
1.3436353,-1.789031,2.4191685,5.3254604,1.4733548,12.7351675,7.774537,-5.402611,-6.112866,1.640005,1.5693564,-0.7701993
1.0424992,0.03972888,-1.2406964,2.6095939,-2.0064666,3.126443,6.1589265,-1.1935577,-4.3208747,-0.0023776293,-0.24981284,-0.18602681
-12.581041,-5.8260665,-9.042729,-0.9042922,-0.42783988,0.64648676,-0.6630583,2.0462286,-7.1756363,-10.126765,-1.1759759,13.907939
-8.15749,-2.990484,-7.46979,1.3440499,-4.8452034,-2.5568078,0.8245163,0.187064,1.7070026,-6.0574555,3.9708257,7.6992517
-7.772755,-0.74047124,-2.3362453,-2.7615259,-0.78873503,-6.16009,-2.0391555,2.0806596,2.9919367,-4.1406627,-2.9511368,8.082914
-9.771441,2.406256,3.3622913,0.46676958,1.2983634,0.6418307,-0.10123253,-1.4213839,0.70658654,-4.1222153,-7.874816,4.6469393
-1.1168418,-0.5601487,13.394293,6.8496375,0.49466658,20.0,16.639532,-4.335231,-7.198793,-2.4401474,2.9564486,0.2888875
0.40180898,-1.0069048,-0.8145133,6.4284034,3.4508982,8.967934,7.3305373,-5.068413,-3.2199764,1.0742831,1.1562064,0.14365721
0.8478068,-0.77169824,0.83781767,2.2833674,-5.2321157,1.9908739,5.178429,-1.3827959,-0.5245336,0.76303715,0.6554563,-1.4631977
-11.64857,-6.6136217,-8.349235,2.2180445,-5.6666183,1.2326107,-0.32921124,-1.3467071,2.9804392,-4.8601246,7.838729,12.447964
-8.449537,-1.0992017,-6.798564,-1.4037789,-4.9353566,-7.146487,0.30389142,-0.24963474,0.5019806,-5.994701,4.435284,11.363798
-8.482571,0.83401173,-2.1585348,-0.44038844,2.8635383,-2.0201752,0.7610924,0.17739916,2.4110599,-7.0824165,-5.08805,8.133182
-9.847357,0.41705137,2.7791457,0.48334217,1.5035512,0.66880155,0.14198852,-1.1995668,0.88079727,-4.726062,-6.203359,6.8700247
-0.4999342,8.17457,13.950603,10.695233,3.9445353,17.45565,3.0716267,1.8513393,-3.3647146,-1.304914,-3.796228,-7.29992
0.79806113,0.74429846,0.25019595,5.4219694,4.6896024,9.691822,7.2807574,-3.9762897,-4.1604514,-0.197703,-1.1400566,0.81716084
0.6579366,-0.76953495,0.83630705,3.2364528,-4.574491,4.144931,6.9514446,-2.6841116,-0.809217,0.5448874,0.8514633,-1.0455663
-11.881103,-4.88439,-7.0603046,3.316629,-6.4229364,5.6057224,0.55137706,-0.115552664,3.2901173,-2.6909654,6.8632627,13.049397
-4.7760057,-1.6087908,-2.4572356,1.2396734,-5.2071238,-1.9833691,0.60680556,0.54696333,-0.28615057,-1.7873273,5.938798,9.351995
-8.462638,2.9853423,-3.6799803,-0.747457,1.2376214,2.349396,0.3810048,-0.89323044,2.7021313,-7.453801,-3.9854274,9.279686
-5.5007033,4.8034353,0.93228316,-0.35509416,1.21452,0.038520455,0.040150642,-1.7010899,0.83097035,-2.5458715,-8.4062605,6.976384
-0.5512897,-1.4615636,11.845064,9.470706,2.256864,16.374447,13.832572,-6.757031,-5.2893496,-0.57098186,2.748847,-0.1735251
1.1292404,-0.8847716,-1.1568267,6.9364033,-1.1799269,7.676978,9.909454,-2.9548197,-5.0606503,0.32309413,0.49378705,0.23770046
0.3759699,-0.6474526,1.9756663,0.71230036,-5.6587515,0.28753495,2.5790021,1.3345151,-5.604513,0.030955076,0.6042948,-3.852068
-11.654055,-3.7832725,-8.101468,2.3108675,-6.813502,3.102671,0.388309,0.1833663,3.4063416,-3.2379856,6.5869966,12.167981
-6.1214247,-2.0532994,-4.2580314,1.2033663,-5.2713976,-3.0020328,0.4423051,0.3127371,1.0720469,-2.9230902,5.994444,8.669007
-9.236395,0.091469884,-5.954358,-0.052915096,0.54395485,0.42113388,0.016903222,-0.42879534,0.67720306,-7.6784735,1.7368617,9.480203
-11.561992,1.288952,-0.0015571117,-0.16898787,0.86244714,0.45382905,-0.44780064,-0.6873195,0.21860212,-7.0239325,-7.820752,6.538969
-1.010545,3.9346077,-6.093761,-0.49081802,0.509765,-0.73750556,0.08491039,-1.4101449,1.7468412,-0.2607174,-8.06651,1.5909851
0.2074176,-1.5558295,9.702237,4.66096,2.8965003,18.37381,12.394703,-6.7972717,-4.379494,-0.8898139,2.008574,-0.21932879
1.7720451,-1.316339,-1.7786291,4.46133,-0.24361527,7.875011,5.570282,-4.5057106,-6.3122,0.026390791,0.4084444,-0.36931562
-10.950838,-1.9588223,-9.475657,1.7506049,-6.9511714,-2.962964,-0.51523453,1.37744,-5.506954,0.07888317,1.4350367,-4.32732
-9.824872,-2.2148862,-9.646672,0.16307116,0.30292475,-0.83151865,0.7833569,-0.2147559,3.852098,-7.194084,5.0761395,12.417105
-7.471371,0.7092829,-4.2176647,-0.730083,-2.293255,0.12700915,-0.21767044,1.0688502,1.800072,-4.8032465,0.598122,10.896152
-9.936615,-0.23411697,1.5149177,-0.16392708,1.5740454,1.0063772,0.19426703,-1.2027912,0.9999851,-6.1064925,-8.404739,7.0749397
-1.5134037,0.76656055,12.571127,8.403158,4.2985835,20.0,16.918398,-4.48411,-6.5905013,-2.1728258,2.1965585,-0.40503502
1.6474798,-1.6874568,0.9041704,3.4864244,0.55974853,8.956325,7.507944,-3.2091284,-3.181357,0.6167972,1.051058,-0.65904236
-2.083211,-2.2562604,4.297704,-0.9337418,-3.4282694,0.42662477,0.98028815,1.7916965,-8.921198,-0.8104892,2.9705386,-6.4966364
-10.84031,-4.1377277,-7.9583035,-0.005027652,-4.5827756,-1.1400751,0.41669965,0.64782196,1.3036866,-6.6167502,5.31622,10.521148
-7.5511885,0.56076694,-5.0870013,-0.37157428,-1.1291986,-3.3478603,0.07761049,-0.3305564,1.0783081,-5.630369,1.8521606,10.743535
-10.860016,3.7180681,0.30611277,0.017755747,0.9933386,0.024585724,0.82704294,0.057413578,2.239577,-6.4469743,-10.022486,9.751779
11.960654,-4.920657,16.345316,9.489975,0.49855542,19.293034,11.098138,-9.746143,-5.223847,10.269587,-0.77908105,-16.844328
0.09578091,-1.4773207,10.149864,6.0006213,1.6572585,17.572212,12.667701,-7.2941732,-5.4453354,-0.2695539,2.1110897,-0.37842938
1.4458742,-1.6665145,1.173913,2.1877725,-3.5722044,4.344431,6.9688716,-2.2687845,-0.406618,0.60542464,1.3065114,-1.5948005
-14.780412,-3.6720445,-9.1961155,0.50755835,0.21508682,0.4469694,-1.9527874,-1.85397,3.1449149,-7.9903874,4.7740707,8.264267
-6.8648744,-0.7170365,-4.6615973,-0.7080977,-3.5170279,-2.0446475,0.5591848,0.34948707,1.549439,-4.4833765,1.3056736,9.954588
-10.739783,1.3719671,-4.957035,-0.32191467,1.0834777,1.136755,-0.36792445,-1.3148313,1.1406965,-9.05185,-2.03096,9.158949
-5.178054,5.8488655,-0.6960571,-0.27871346,1.0048437,0.03297329,-0.46013832,-1.441011,0.9559392,-1.6597654,-8.514201,4.631947
-1.5224968,-0.50340366,12.176446,9.0458145,4.5027246,18.853127,14.0601225,-7.6606617,-5.16314,-1.0221136,2.0412269,0.58712673
0.61588764,-1.1501963,-1.3708107,4.767684,-0.91430736,9.669707,7.2602916,-5.182075,-4.25277,0.7750826,0.95505,0.21521878
0.7491739,-1.4862185,3.1710813,1.6295695,-3.678122,-1.1625532,4.0092716,-0.27335572,-1.842824,-0.26082873,0.7812915,-2.1423314
-9.240121,-6.8595905,-7.13518,3.2694926,-6.659257,1.1550937,1.1829922,1.077575,2.445899,-3.390562,8.268278,13.880814
-8.32955,-2.2498927,-5.5920324,-1.0937376,-3.0403843,-3.168064,-0.05582857,0.20877385,0.6056906,-7.102879,-1.1121053,11.949131
-9.283117,0.833953,-0.6317003,-0.0016112328,1.8879757,0.93768406,0.44355327,-0.9664135,1.2153039,-7.0384655,-4.7596207,7.1474333
3.606503,-2.8798943,13.343485,2.4335365,2.3787937,-1.7882366,4.165868,-5.494134,-2.4461458,5.699729,1.2404068,-9.645941
-0.4765467,-0.73486567,9.070969,6.163161,2.387964,15.648384,13.106626,-6.6751494,-4.6296444,-0.023307867,0.8431759,0.19681394
1.2227119,-1.1910095,1.3145479,4.8153553,-0.1346848,5.9977536,6.333866,-3.2762485,-5.2100024,1.2203437,0.84426,-0.39226604
-17.223957,0.456208,-9.081825,-0.22955397,-3.7723022,-1.6455296,-2.6192384,-0.72263956,4.5394754,-5.165748,3.7458017,17.189224
-6.001744,-2.4468794,-2.366996,0.7142057,-6.8547964,-1.6970189,1.1286681,0.90539616,0.46307454,-2.7464,4.2058554,10.277586
-7.4072657,1.358279,-4.103267,-1.2931436,-0.084905684,-4.1707735,0.24001622,-0.13513756,1.2109207,-7.81767,-1.1341832,9.424317
-9.55248,1.9503199,4.472327,0.53856885,1.2050805,0.046505928,0.5524361,-0.6933613,1.1935626,-4.2396345,-6.3269825,8.085514
0.06504679,-0.90279484,14.893119,-0.32364178,2.7092776,-3.2479124,-3.2434978,-2.776166,4.3961706,0.11715555,-0.38136303,7.441984
1.0520551,-1.9161823,3.419963,7.2093105,0.648854,11.296104,10.939303,-4.3010902,-2.5611703,0.7672597,1.551269,-0.7790365
-1.7558129,-2.8161933,-2.6006198,1.245744,-4.1858,-0.9778397,4.7126527,-2.492434,4.127546,-2.2886114,4.8727217,5.958475
-12.774106,-0.89535093,-9.699038,1.9670271,-5.6314926,-1.0888598,-0.060278416,-0.3883202,5.116716,-5.060545,7.56188,14.972586
-6.149357,-0.25325525,-2.9778628,1.0192003,-6.1362753,-4.1536546,0.34152806,0.17312247,0.12526089,-1.3078593,4.779515,10.591985
-7.8683696,1.227823,-3.1878822,-0.11102545,1.463825,-1.4305273,0.4402709,-0.2863884,0.56946343,-5.0946417,-1.447719,10.593153
-11.174182,1.556729,0.49681783,0.12605906,1.0423095,-0.26650524,-0.22844023,-0.6772108,0.16005191,-5.8968945,-7.154809,8.875743
0.37517,0.4358983,7.9426417,0.85771847,-0.049799204,1.0871501,2.2366428,-1.9882224,-1.5199889,1.2594631,-7.967613,-0.19530225
-0.4361658,-0.32407904,13.6058235,7.7381597,3.3687325,18.14224,12.734448,-5.971175,-5.2112265,-2.4270413,1.7342672,-0.105377674
0.9311633,-0.98849845,2.7452772,6.895509,4.0792637,12.892715,10.673227,-5.89072,-2.8932035,0.9352193,0.5882218,-0.06521058
-0.3460883,0.15539753,-3.111755,6.1984816,0.36732078,4.9026885,6.2959967,-2.7067728,-1.1083465,-0.51488686,4.2420435,3.242838
-11.534091,-4.995485,-5.7915497,0.66580325,-2.2478523,-2.4762883,-1.6144986,-1.6105065,6.4531746,-9.247143,-2.9497373,17.89088
-8.441311,-5.098654,-5.98202,2.965804,-6.1332006,0.07273674,1.0728476,1.6117291,0.6826252,-2.7705317,5.1874084,10.826162
-8.111061,-2.5745885,-6.0626974,0.2970779,-4.7940416,2.3403988,-0.10038519,0.44450378,1.2903106,-5.983514,1.8186772,9.207034
-8.729799,-0.092635274,-5.3967834,-0.32625365,1.8910501,-1.1822929,-0.0063335896,-0.39250612,1.2962846,-8.037883,-1.5576731,8.876516
-9.259493,2.4515164,2.3965125,-0.3812677,1.1473545,0.5798209,0.15105486,-1.3464739,0.24464643,-5.360125,-6.9825525,6.139859
1.3429341,-0.89168745,13.600779,2.090764,3.0816736,0.028141975,1.266202,-4.682636,-0.71487,3.8538222,0.10967851,-8.810644
0.066914976,-1.3801575,8.312229,8.170835,1.103524,16.882664,12.093538,-7.6018014,-6.0686073,0.5252891,1.8458815,-0.46239045
0.6242248,-0.66614985,-1.8736547,4.4704423,-1.8197043,5.2694755,7.5300145,-2.5739474,-2.7928042,0.10957217,1.425106,0.89879036
-0.017346859,-1.1858125,3.093929,0.96220803,-5.363154,-1.2109928,0.546858,2.1932673,-6.6450806,-9.492023,1.6579783,16.346718
-9.173875,-7.071376,-6.3308306,1.0530834,-7.052595,-0.5589888,0.8749528,1.0906291,0.62105894,-4.971392,5.4949408,10.05796
-7.113578,1.3955746,-4.63805,-0.45990467,-1.1150382,3.7629502,0.37619472,-0.84194756,1.136084,-6.8883047,-3.2316082,8.298786
-10.540883,1.6833422,2.482532,0.40552413,1.720645,0.2653358,-0.3311808,-1.692461,0.4749633,-5.007325,-8.590154,5.234232
-0.105560064,-0.8385167,13.808817,7.874235,0.8027935,19.594318,14.747304,-4.177389,-4.813186,-1.8834937,2.5252962,-0.0714128
0.48740292,-0.6098714,0.6894803,8.891357,3.0690103,10.9654665,10.553303,-2.9278061,-2.8466933,0.4208647,1.8338459,-1.0878336
1.1315657,-0.4129973,1.6594633,4.7118077,-2.0833702,3.2510443,6.7952833,-0.62669235,-1.6629052,0.5470071,0.17100859,-0.024064064
-15.967009,-3.0307908,-11.652683,0.14285433,0.25076604,0.22931409,-1.2790036,-1.169071,4.816884,-8.54782,4.748996,14.503215
-8.844341,-4.233841,-4.5611334,-0.20407298,-5.731371,-2.2549388,0.08530331,1.4888079,0.69786334,-5.6901603,2.547187,10.748948
-8.562213,-0.3166132,-4.9973383,-0.64990747,-0.8535794,-3.5006795,0.05327201,-0.059449434,0.76981354,-7.3839006,-0.39565444,10.164601
-10.179732,2.4350388,2.3696148,0.1453718,1.5468862,0.36897564,0.1967187,-1.2228603,0.73466855,-5.9306564,-7.7239485,5.633748
2.4484308,-1.9016985,13.745619,0.89840984,2.379167,-1.4657993,2.4669466,-5.3473315,-0.31061435,3.6275978,1.9812264,-12.108935
-0.6177824,1.8521218,5.2480216,3.9841266,3.411985,16.186987,9.3407545,-10.826349,-2.8398232,-1.3987648,-2.2667274,0.37578595
-1.4238676,-1.62606,-2.995628,3.5871086,-2.5751817,9.147527,7.1676016,-5.5484157,-2.418766,0.31328154,5.5303407,5.5154104
-12.804104,-6.8032026,-7.752372,1.2384714,-4.6761703,-1.4970931,-5.63593,-2.9726472,4.45621,-3.9984317,7.526015,15.492455
-10.186023,-5.7437067,-4.660768,0.9813614,-7.2388043,-4.0145626,-0.033709288,0.08675516,0.37791145,-3.3171093,5.204747,11.161254
-5.27494,2.8642159,-2.0401783,-1.1772223,-7.177929,5.6685147,0.14099729,-0.76734734,2.0687852,-4.0885196,-2.2095575,10.109009
-9.838771,1.5131438,3.108759,0.9423568,0.9993129,0.15402555,0.6227766,-0.36531448,1.4458754,-5.020831,-5.680606,6.424913
1.7740545,-1.8602322,14.4080715,1.104413,3.154341,-3.1137352,-1.1292582,-4.313302,4.377099,0.6441026,-2.7557833,9.530226
0.98037136,-1.7957935,7.1913357,5.876693,-0.12585735,12.968712,9.6027975,-3.5967503,-4.1103477,0.66142285,1.6528902,-0.8000281
0.7495698,-0.7145352,1.1244562,6.9605412,-3.3999772,4.3200855,6.9301734,-0.27219063,-1.488853,1.4294184,0.8612968,-0.62584615
-15.915653,-5.447629,-10.134819,0.6565913,-2.0710466,-0.10465288,-1.1324437,-1.2928119,4.357193,-8.349209,2.067362,15.035273
-9.61212,-4.8363776,-6.3909135,1.1198963,-5.4283633,-1.9385103,0.5103073,0.6041637,1.753396,-3.3977695,4.8318324,12.860381
-6.5214434,0.3112923,-3.5212293,-3.7660425,-3.914015,-8.621464,-0.60819745,0.98772836,0.6242279,-5.05349,1.2469923,11.095545
-8.185791,4.649959,1.0137637,0.27156758,0.9125457,-0.21316552,0.5071185,-0.0063962936,2.2056134,-4.3186703,-5.736463,8.746932
2.1084056,-2.2663245,14.727472,12.805128,-0.6440582,20.0,-2.8662462,-2.976808,4.48666,-0.7645054,-3.5440698,11.177566
0.033276014,-1.5170975,10.919906,5.674364,2.1332471,14.976568,10.242194,-5.954136,-6.570257,-0.18055558,2.0898929,-0.38859272
1.1548381,-1.5233747,1.2873116,5.4447546,0.03275311,5.4025564,6.6825657,-1.8205366,-1.5286082,1.174531,-0.053450793,-0.22220004
-16.252811,-2.7914143,-10.513485,0.124079496,-1.5352964,-0.7404951,-1.0738864,-0.12385607,0.46470976,-6.5982323,3.9846458,19.506317
-8.524706,-1.3918892,-4.967592,-0.109595776,-5.8548326,-3.1006696,-0.31310487,1.2106403,0.80030507,-2.5599806,5.9585114,11.832331
-8.029909,1.1972287,-5.608248,0.070470184,-4.4401603,1.0783439,0.12910879,-0.4943986,0.99424744,-5.629298,2.2922223,12.079157
-10.207573,1.8464894,0.009802222,0.2522099,1.7942734,-0.8901615,0.081505924,0.30675983,2.6745584,-6.379355,-5.047274,7.549942
-0.2593305,0.3069991,8.938296,0.7313676,-0.3466152,0.9054204,2.3112974,-0.955312,-1.2430815,-0.039824367,-9.020681,2.474862
0.5632452,-0.99890375,13.032033,5.7789583,4.425432,19.198256,16.569244,-5.834241,-4.032731,-3.2169437,2.4757395,0.09114981
1.1657267,-1.194438,0.27016386,6.055845,-0.019454837,9.126796,6.7880116,-4.1462173,-3.9168286,1.7612641,1.0555673,-0.41341603
0.56165075,-0.64044905,2.3126678,4.7071037,-3.4183178,2.005799,6.4708967,-1.4227028,-1.8554409,0.45534337,0.76073813,-0.91986084
-14.681333,-4.0375166,-11.661755,0.31121695,0.87434053,0.43885684,0.16807222,-1.0200645,6.0657563,-7.930798,-0.22083259,15.839378
-7.273417,-1.9104679,-5.7436247,1.1960114,-2.424144,-0.96991825,-0.047136426,-0.23143941,-0.14024144,-3.397753,5.200986,10.504529
-9.26383,-0.52724195,-2.290296,-0.73073936,0.4587083,-0.57672703,0.019887805,0.04683447,1.37936,-7.6050577,-7.0504894,6.0535326
-0.8694911,0.92954636,5.6674666,1.801799,0.05718255,1.1251154,3.5310445,-1.5877018,-1.7748723,-1.3197124,-6.12516,-0.37450266
0.382558,-1.0062475,12.6455555,4.3695254,7.140736,17.252874,17.426188,-1.5886478,-10.147499,-3.2915378,3.2185688,0.6797457
