ancorasir/BennettWheelLegRL/experiment_data/2023-12-27_22-47-53/joint_vel_env48.csv
Joint_1,Joint_2,Joint_3,Joint_4,Joint_5,Joint_6,Joint_7,Joint_8,Joint_9,Joint_10,Joint_11,Joint_12
0.0,0.0,0.0,0.0,0.0,0.0,0.0,0.0,0.0,0.0,0.0,0.0
-0.73330164,15.107722,-8.995219,6.6034403,-4.496871,14.387823,14.341894,-0.74604553,-18.70449,-4.5830407,-21.24028,-0.28351283
-3.1423366,-6.515425,2.497963,0.898906,1.2380475,-0.2154616,-2.0932102,-2.2899728,3.0023599,-0.5511314,9.180655,-11.461227
1.6865712,-3.1502678,1.3970723,0.9036657,2.3220804,1.1586497,-9.856289,-6.9572825,-0.009472666,-0.7695672,3.8646123,-1.129067
-0.033129815,-3.3313189,-0.6753992,1.8356731,0.42083663,5.0143037,-3.6294603,2.6218073,-0.006922107,-0.17044765,4.338403,0.26164642
0.11873123,-1.614161,-2.6866612,-2.8943317,-2.1048434,-13.70114,-3.500325,5.1025615,-0.056933463,-0.9780283,2.4341152,1.720129
-0.94557893,-0.29399294,-5.337111,-7.5870643,-8.942362,-12.262553,-0.27566984,10.7137985,0.0075000366,-2.7433822,-0.040552884,5.287027
11.915479,2.2083395,-0.0003965033,11.715231,-4.5670304,15.05434,20.754313,-6.520649,-5.0988517,5.1072946,-4.5312004,4.78563
-6.5244746,11.0260315,-0.00012340501,0.7748814,3.5263789,0.82491183,-0.49086803,-2.1312718,-0.8831671,-3.1010613,-10.636738,3.0168793
-6.8588467,-1.3432233,-9.12363,1.0450441,3.0394526,2.0579157,1.1288903,-6.0484295,4.9009366,-3.420071,7.261762,17.374641
1.0892463,-5.0919027,3.3395708,-0.22777449,4.070163,0.586042,-6.504272,-4.1529074,-0.011406776,0.8805156,5.3593,-3.3582902
0.060720436,-4.1584563,0.20613956,0.64739645,1.6622922,3.2409182,-4.9081492,0.14756578,-0.009384933,-0.82799613,3.2274914,1.5554627
0.32520288,-2.810872,-1.1703323,1.2593082,-0.3721795,5.1328635,-2.2170737,6.388581,0.063543044,-0.94547206,2.3895457,1.6067376
-1.411809,-3.003733,-0.41497838,-2.3834968,-12.366194,-6.489628,6.543392,11.808369,0.28847757,-2.3733473,-0.0951688,5.521975
1.2352977,11.490482,-0.0003362394,-0.89977324,6.6517973,-3.254723,-0.119618505,-3.8206944,0.9976707,1.8660042,-12.646509,-4.4124837
-3.7945,6.563664,-4.0923107e-05,-0.6846523,4.835808,-0.046134587,0.30930105,-3.04664,-0.4717044,-3.1853683,-6.9899297,1.4386442
-0.4406233,-2.3817122,-0.57141715,0.8306598,2.216883,2.821883,-1.2507857,-2.8236015,-0.62676066,-3.740711,5.7141685,2.0764332
2.8208892,-5.2272253,4.5539174,-0.5492689,-0.32707253,1.736437,-11.0128,-4.569425,0.0014520241,2.8564672,7.6603336,-11.20875
-0.7759226,-3.4091103,-0.32281554,0.48829722,0.63967526,3.7610288,-3.2756414,0.32626274,-0.0151377795,0.024783995,3.506807,0.07409416
-0.08665722,-3.1919146,-1.6147277,-3.9635603,-5.1654725,-5.3254685,-4.2795496,7.755522,0.0021711693,-0.65533227,2.452065,2.4660654
0.4308774,-1.5887251,-3.5499744,-0.83758646,-7.3038774,-4.6451807,4.6262007,10.825314,0.83300567,-2.44662,0.56124616,4.6217465
4.9791694,13.793952,-0.0003935066,0.6082947,4.7363253,-1.1648042,-0.75783086,-3.0441172,1.2034969,10.416302,-10.068602,-13.123215
-6.3438625,6.5978203,-0.000109868604,1.4680113,2.2533202,2.0553083,-0.87638724,-1.8249214,-0.7817433,-2.8237817,-11.821325,3.9432547
-5.304573,-5.1559424,-6.6934776,1.3404535,1.6670809,2.9409251,1.0293103,-6.224068,2.435467,-3.8078244,8.865183,10.270596
2.7177641,-5.652424,4.757317,-0.066643886,4.0791893,0.2667209,-9.81547,-2.9578547,-0.013955293,0.83705056,5.538181,-4.710925
0.04454346,-3.2285678,-0.19513774,1.190807,0.6323795,3.5685747,-3.0852227,-0.30728063,-0.09594712,-0.40755558,3.3732696,0.21513599
0.29055804,-3.3268402,-1.2186444,-1.0485266,-0.55061555,-2.1599915,-1.9172649,4.609477,-0.017215518,-0.7301031,2.9181125,1.5448754
-0.388338,-1.3356422,-3.4086509,-6.223513,-9.268229,-7.675004,-0.22467059,12.711095,0.00018869154,-1.493543,1.0717803,3.6562474
9.0894165,-0.6192967,-0.0004186749,15.763907,-3.3420498,18.980537,19.20942,-4.8972077,-4.92482,2.765148,-6.400898,9.277275
-0.13130102,14.302258,-0.00026901718,-0.42182466,6.0988355,-1.946923,0.29031688,-3.2283013,-0.12716526,1.0801493,-14.267077,-1.0735265
-3.877168,7.3166265,-7.066038e-06,-0.03095916,3.6903162,1.3871765,-0.0030130744,-2.7614682,-0.9117307,-3.7703505,-7.3499737,2.0704594
-3.193812,-3.3860176,-2.316035,0.87481064,2.1903338,3.1777775,-0.8679063,-2.728774,-0.9917059,-4.166384,8.464047,4.995473
2.509008,-5.757192,5.3068275,0.28122628,-4.678286,-3.709414,-6.332573,-2.9359388,0.8739362,4.2543964,7.7854567,-12.365953
-0.07602381,-4.03964,0.9580086,0.68145216,1.0547025,3.4531915,-6.3701363,-3.3219535,-0.012433427,-0.09303528,3.8004198,-0.023155317
0.19437504,-3.7996285,-0.14968857,2.908679,0.70766693,6.4323745,-5.008706,5.6006107,0.2654065,-0.56056005,3.0844142,0.9234496
-0.28261626,-2.489992,-2.269439,-5.053825,-5.304386,-6.5819106,-2.8983026,8.976126,-0.00020330561,-0.86084306,2.1835358,2.5722935
-1.1539606,-1.3297718,-3.9346874,-1.2999231,-6.180185,-6.592269,6.1090207,11.293116,0.10901713,-1.3379219,0.60494787,4.718495
13.323259,7.498717,-0.00040630694,-6.163093,7.433305,-7.2695875,24.985292,-16.390629,0.5927924,17.179087,-12.085324,-2.3354099
-4.0362225,13.524184,-0.00022580946,-0.20365137,4.985942,-0.4904306,0.5604719,-2.4636366,-1.2563878,-1.4466678,-11.303325,3.4154687
-3.9399765,2.6084166,-6.034627,0.40263334,3.200822,1.8913118,-0.5909863,-2.7653732,-0.9436848,-4.7391396,-1.8229878,3.6750119
4.5334506,-6.698078,7.5676026,0.47655573,-2.1667683,-7.5856886,-3.1749473,-9.303797,23.032143,0.71035856,5.821488,-5.5099077
-1.4959427,-3.9714966,-0.13862988,-0.50612545,2.1469684,3.6193235,-4.7318277,0.4091287,-0.010565108,0.5216104,3.553087,0.5231183
-0.5355471,-3.32832,-0.9634887,-2.1957183,-5.9801764,-2.5752935,-2.8154352,5.730648,0.00040046364,-0.10674776,2.989559,0.8967003
-0.6389291,-1.6302329,-3.4569376,-1.7363992,-6.85265,-5.264338,3.4159184,8.894571,0.56292284,-1.567842,0.82964563,4.0615773
8.240888,0.8894839,-0.00028383353,11.720666,-6.0570583,20.656645,24.130007,-1.0631422,-20.983372,4.2810626,4.2809668,-28.032597
-3.3095796,11.73783,-0.00018692913,0.504501,4.440302,0.12368496,-0.035284158,-2.364844,-1.3013357,-0.5168912,-9.8220415,0.1652446
-2.685054,1.4356583,-1.2403029,0.9386859,2.490822,2.4595845,-0.8077175,-2.4319263,-1.1312257,-1.8763943,-3.0190656,3.0537975
2.433282,-5.378628,5.800437,-0.74780285,0.8243675,-0.011103272,-1.2126938,-3.971642,-0.3274786,6.9150734,8.163114,-15.998155
-0.023595452,-4.502544,1.081079,0.40189138,0.94024783,3.7519174,-5.990252,-1.6986122,-0.00825326,-0.18815224,4.164249,-0.18191063
-0.19922873,-2.851479,-1.256333,-4.586235,-4.5484524,1.0631702,-6.4092226,7.001286,-0.0036955713,-0.40204,3.1296985,0.79401356
-0.38713694,-1.687016,-3.4406033,-5.1220007,-7.4990234,-6.869647,-0.46426377,10.269318,-0.0070693344,-1.6438168,1.0835955,4.2103558
-0.19735223,5.5724673,3.2646663,9.030669,-4.3449545,5.1421204,19.034662,2.3157818,-3.809398,-1.7342383,0.41956133,4.7749863
-1.7739421,11.855244,-0.0002658362,-0.4795533,4.404816,-0.28380692,0.3804768,-2.7288268,-0.39022952,1.4842312,-13.206112,0.6037565
-3.6186585,5.117396,-1.7498386,0.5055668,3.3065445,1.9417796,-0.4409725,-2.6918402,-0.9546515,-5.7463055,-5.3992844,1.3003433
-9.41996,-6.382158,-13.317488,-1.9298027,2.285497,-13.542839,-1.4201872,-11.652265,28.561298,-9.840658,2.939423,34.215908
1.0901854,-4.516759,1.8717037,1.2337906,1.4283118,3.2410028,-4.5997376,-6.810189,-0.012573917,-0.90693474,3.8627858,-0.22708276
0.8992717,-4.0690665,-0.6755418,-3.2620664,-4.436617,-4.0478206,-2.823977,7.5185294,0.00033747335,-0.8261754,2.9107776,1.9804062
-2.8331542,3.2134838,2.1539412,6.49166,-3.0805109,0.9315694,14.570699,3.423351,-2.1652339,-2.0615869,0.40633088,4.6450562
-2.4407694,11.10271,-0.00024267944,-0.67590314,4.53648,-0.49161336,0.9291382,-2.5358596,-0.2593653,0.08895445,-10.420825,-0.6553649
-2.6149259,5.359475,-7.7015557,-0.07344956,3.128679,1.900896,0.7666086,-2.041988,-1.9564718,-4.6920004,-7.4959984,5.9511933
-3.4779322,-5.5382557,-1.0438157,0.7836456,1.0429637,2.8098812,-1.2252436,-3.3338776,0.12160537,-4.1355286,9.46543,3.8324177
0.26108947,-4.6551948,2.3687782,-0.6978469,2.5524402,1.8155236,-9.429937,-4.7203326,-0.013477016,1.2146443,4.862539,-2.7795155
-0.51744664,-3.1768441,-0.6435006,-0.012555927,1.3897977,2.7845097,-4.183856,4.388315,-3.0971847,-0.21096264,2.8885689,0.8169911
-0.068836845,-2.653525,-1.7851824,-3.6523142,-4.555147,-6.982649,-3.3291004,6.11593,-0.0008147302,-0.92400926,1.9607079,2.25067
-0.68071765,-1.6650032,-3.619248,-2.0699599,-6.6232033,-4.838327,5.8820434,11.726639,0.86674535,-2.059733,0.2791123,4.881348
10.010967,9.768715,-0.00042882864,-1.3462361,8.049101,-8.399389,-8.0444355,-8.354987,12.924971,10.74837,-11.039052,-15.439359
-3.9266288,10.93416,-0.00018026683,0.103965804,3.1905024,1.7492485,0.67735785,-2.1040654,-2.2764187,-3.9737144,-10.495872,2.1456652
-6.2279243,-8.464054,-1.9946235,1.4890888,0.82613665,-0.47240812,0.7721703,-5.333136,0.966713,-4.994549,11.1842,6.6612825
0.92134213,-4.6030893,2.0015652,0.8221261,1.3409826,3.2581959,-6.99371,-3.676626,-0.010368343,-0.025808267,4.670428,-1.6363991
-0.28791943,-3.8992991,0.1063254,-0.9911393,0.9920269,-4.6156507,-4.7317214,3.2462249,-0.0042461026,0.2009125,3.8951275,0.011144638
0.8892175,-2.9424982,-1.699283,-4.087332,-5.417483,-7.000067,-2.3386402,7.1895757,0.26371357,-1.3639877,2.3599026,2.4509053
-0.11838259,-0.7467058,-4.0266657,-2.2214665,-4.0291667,-4.0565777,3.2750208,10.302644,0.005793444,-2.03518,0.60617024,4.3908443
2.1663334,12.052834,-0.00030710438,1.3095895,3.3200598,-0.08217135,-5.3356977,-7.2644415,10.722074,10.825303,-13.952861,-7.337504
-3.3999953,6.615189,-7.0450114e-05,0.084865384,3.179167,1.2624197,0.46201617,-2.0242784,-2.0653148,-5.1285443,-9.244903,1.115165
-2.511239,-3.4708195,-1.2399747,1.0619609,1.3482449,3.2720249,-0.9765667,-2.4849336,-1.3917412,-2.2829509,4.6255927,3.425865
0.15942247,-4.8385663,3.567112,-0.96682423,-1.3121407,-2.0415142,-11.935769,-5.373797,0.0021297778,2.7829616,5.3757663,-4.9692774
-0.3006032,-3.4998636,0.14330953,0.008061993,1.073669,-5.5548625,-5.2329264,4.4712563,-0.0006474887,0.2419663,3.4069774,-0.34781566
0.6618679,-3.3857727,-1.0140116,-3.0466633,-3.2696438,-2.8074548,-1.6587065,6.1846967,-0.00055163645,-0.8899873,2.3699605,2.283082
-0.7749863,-3.2140324,2.5330517,0.49068704,-6.0194216,-6.5055842,8.260295,10.929718,-0.8383908,-2.8030522,-0.07667801,5.4910326
2.3472562,10.440236,-0.00036244857,1.3831954,3.011422,1.0601187,-1.441288,-2.5756361,0.9175224,5.972485,-13.03022,-5.972989
-5.5639224,9.840987,-0.89229995,0.37228772,2.6675596,2.119297,0.08700482,-3.1691012,-1.0178428,-6.0371933,-9.281073,3.6002176
-5.4891915,-4.441299,-0.9240422,1.134938,1.2919259,3.567041,0.27894622,-4.375969,0.855191,-2.4187212,10.833262,9.096631
1.3093221,-4.8287354,2.486823,0.5290462,3.434392,1.4975896,-9.593227,-6.075256,-0.010679214,-0.47391155,4.583135,-0.9298871
-0.16934997,-3.9564235,-0.19014475,-0.5774313,-0.80734926,-3.3583326,-4.872379,4.626724,0.0018372742,-0.12089182,3.4452167,0.86332715
0.032401986,-2.2433584,-2.3986135,-3.2605898,-2.0498648,-6.2154436,-0.9601066,8.969768,0.0054314733,-0.6925836,2.2185872,2.4092345
1.6003907,1.7175231,3.5901241,8.103955,-5.4951415,9.607042,18.933395,1.6881539,-13.394729,1.8752477,-1.2031758,-2.427864
-2.425545,13.620669,-0.000268316,-0.15071903,4.603863,-0.87889373,0.60318625,-1.819003,-1.4824188,-1.1576241,-14.689993,1.2323818
-3.7740388,1.8929437,-1.2491748,1.0660671,2.6042333,2.3555183,-0.57297564,-1.918828,-1.4796729,-4.466379,-1.2907594,3.1230602
1.7338096,-5.2042947,5.464738,-0.3591553,-3.5484774,-2.907486,0.43188462,-3.4300768,-2.288111,3.9708798,6.0609393,-9.190088
-0.42254654,-4.019061,0.6612389,0.5873708,0.17036892,4.229434,-4.283409,-1.9175509,-0.009894846,0.05250939,3.9619923,-0.52612245
-0.4818536,-3.250851,-0.89648193,-3.546117,-1.4496188,-14.504038,-4.745625,6.491434,0.00023161422,0.20771568,3.4695935,0.7041644
-0.26236692,-1.8239086,-3.134044,-3.9492922,-5.636102,-6.23343,1.96153,10.684875,0.0013577272,-1.2200952,1.4473112,3.6722326
7.145387,2.6538198,-0.00029644324,11.9398775,-3.4778585,11.91814,20.309814,-6.0544286,-4.435264,3.2844424,-7.2040324,7.1436477
-5.2492123,11.917823,-2.7155995e-05,0.8048331,3.560981,0.91598535,-0.20434245,-2.1994603,-1.48692,-4.7837563,-12.324974,8.976891
-3.4510784,-5.425773,-0.75193197,0.6615871,2.3780253,2.4626126,-0.41904604,-4.3428454,1.067979,-3.3489814,9.451183,5.396729
0.5846333,-5.092079,2.748688,0.06779337,1.474504,3.375359,-8.07,-5.22077,-0.006041077,0.8112306,5.1250553,-2.2237458
-0.3564781,-4.147388,-0.009479988,-1.1267487,1.5822705,-10.917978,-4.976743,4.7021837,-0.000451718,-0.058011428,3.3479233,0.69690317
-0.3582952,-2.1606183,-2.5467827,-5.58495,-8.312618,-8.211664,0.27406126,10.514013,0.45423114,-0.9795722,1.4604669,3.2783031
10.301081,0.37473223,-0.00042383512,14.988352,-0.5457954,28.786743,23.03433,-9.299553,-13.445106,11.8708935,3.588079,-35.743416
-3.3913867,10.583678,-0.0001795154,0.07535047,3.4986863,1.0756884,0.40165022,-2.1642458,-1.7302351,-4.9393134,-11.009187,1.9448543
-2.5866482,-0.66252613,-1.9634532,0.41457778,2.628322,2.6174395,0.10950354,-2.2029052,-1.8456799,-2.840135,0.57906294,3.5982842
1.701295,-5.9961047,5.1521983,-1.6350198,2.3191862,-0.8535745,-7.0850706,-3.1691394,1.1090775,2.0177212,5.856246,-5.67228
-0.44771007,-4.002332,0.75882435,0.8211705,0.22328754,4.2179747,-4.9532623,-1.2728004,-0.008240899,0.47602743,4.2351313,-1.1679497
0.12389689,-3.9520807,-0.3100464,-2.2535284,-3.875555,-2.4051707,-4.6841474,6.379848,0.0024424396,-0.63271433,3.1497316,0.9326602
0.22518866,-2.9721293,-1.9854612,-5.3454685,-4.858618,-5.472384,-1.2351074,8.118667,0.0021464746,-0.76334393,2.2281864,2.8430214
-1.1256473,-1.7104319,-2.2626424,0.62854195,-6.556707,-4.5827866,9.399832,8.64047,-0.81599694,-1.9641516,0.11148216,4.9324636
3.696452,10.614922,-0.00039741094,-0.2717463,5.2634454,-1.9078814,-0.5861202,-3.0857258,0.69083124,7.8434834,-13.181502,-6.9189587
-5.3186307,6.149188,-0.7464161,-0.56104875,3.7124429,1.3254857,0.67517155,-2.3198197,-1.8610383,-5.695716,-7.27876,3.01436
2.4812195,-5.546343,6.3077097,-2.0501668,3.5351558,0.8402543,-0.20396465,-3.379791,-0.7877141,4.1568227,6.3012214,-9.827495
-0.24321124,-4.2617717,1.1564454,1.3352402,-0.09192391,5.0065975,-5.482361,-2.0102336,-0.0034162635,0.43971008,4.5945454,-0.90421414
0.22947673,-3.0256367,-0.94751626,4.1449428,-0.6332216,9.308732,-6.17841,6.0113606,0.21082658,-0.74191475,3.2656856,0.79535866
-0.115271546,-2.3585534,-2.652308,-4.545489,-6.099515,-8.15654,2.116429,13.475499,0.011868737,-0.9829208,1.4596555,3.9594977
4.7008524,2.2467537,-0.00073085225,11.954138,-3.0919898,14.77359,21.24251,-1.0940224,-19.105494,5.464437,2.3474252,-17.030659
-0.6657791,14.437645,-0.00029325433,-0.7005202,6.207437,-2.212699,1.047024,-2.4051979,-1.2725939,0.238433,-13.795969,-0.09549446
-3.13835,6.181709,-3.5219612,0.5535896,3.5832815,1.5831642,0.046322998,-2.1103373,-2.203204,-5.447978,-5.9672275,3.6730814
-6.0509496,-5.9044394,-1.1274372,1.0913773,1.4173828,2.9986246,-1.0519522,-3.7134519,0.80517155,-2.055908,11.234679,7.2138247
0.18192708,-3.8792908,1.5204966,0.1395714,2.6312935,1.7786739,-7.0929103,-5.8584666,-0.012320236,0.37484467,3.8212943,-0.8166535
-0.4584843,-4.0255585,0.14256503,-0.6211339,-2.096548,-3.0050535,-4.8799725,3.5742722,0.0058402764,0.14295866,3.29313,0.39068028
0.34663174,-3.6535945,-1.0438068,-4.2322245,-1.9720805,-3.4943326,-2.611604,6.9498744,0.0018060913,-0.6257989,2.3792725,2.539904
-0.35213396,-1.2451885,-3.7318964,1.4580635,-6.977971,0.015037656,8.808021,6.9275956,-0.5252253,-2.2704532,0.11436504,5.1488037
0.8249385,13.057592,-0.00034258154,0.41297936,4.3924065,-1.223635,-1.0392305,-3.1062438,0.91594756,2.5662036,-14.420406,-6.4581957
-1.3162973,4.281031,-2.2167493e-05,-0.3532746,4.2366614,0.9680582,0.42714742,-2.345021,-1.8472705,-2.5336304,-6.2919073,-0.39973474
-3.7427266,-6.237066,-0.6143406,0.55827045,1.3557261,3.1402032,-0.7025991,-3.43198,-0.27334577,-3.8605118,11.193707,5.5697947
0.41796404,-4.3556623,2.320871,-0.1155967,1.6534762,2.7123272,-7.8317547,-5.511425,-0.011465142,0.76509434,4.452118,-2.1144865
-0.83884674,-3.6799479,-0.07339376,1.4228112,-0.6071005,5.245062,-2.7591584,2.7968056,-0.54537505,0.18032756,3.5341856,0.47375348
-0.51543,-2.9813943,-1.3006253,-4.5798287,-1.7092111,-18.587908,-4.3101053,6.5630465,-0.0026299374,0.19774373,3.1619122,1.2363302
-0.7945302,-1.5845395,-3.6141,-1.7914029,-5.4732137,-6.452619,7.186276,10.224341,-0.7151815,-1.4426763,0.56198615,4.7182593
12.281631,7.109398,-0.00041462842,-4.4465322,8.476543,-7.7534347,22.193983,-13.896159,-1.4051723,14.562898,-12.668943,-3.4760118
-4.744637,12.176512,-0.00014923699,0.12337789,4.7506227,-0.0741107,0.36818713,-2.3294413,-1.3218002,-2.5001872,-9.488469,1.0944651
-3.5834746,-0.51790446,-1.7099285,0.89863163,2.1917157,2.8347175,-0.20507237,-2.0070128,-1.5544655,-3.3677988,2.026963,4.4546633
1.9918352,-5.9531665,4.216375,-0.54426783,5.2444673,-0.3341804,-7.3815255,-4.7795305,-0.020059165,0.17441252,5.5271316,-2.9136078
-0.7513884,-4.3035765,0.21774815,-0.36767158,0.919595,1.2483138,-4.608969,1.109746,0.37198776,0.5813156,4.202539,-0.28715855
0.059855305,-3.1631744,-1.4949183,-3.971346,-3.979802,-7.307479,-3.1454432,10.242745,0.0003013208,-0.25200635,2.9177985,1.7815131
-2.5087063,-2.478179,7.4502954,2.6444721,-5.4400606,-1.9447047,9.654938,7.8184133,-4.1682267,-2.6774995,-0.3096751,5.7638445
5.85013,10.452628,-0.00037484255,-0.43171084,5.771972,-2.3453963,-0.21449448,-3.6108756,0.62111837,8.294997,-12.966559,-8.293127
-3.560197,5.35377,-0.06732366,-0.18332377,4.20749,0.9655964,0.3191241,-2.386392,-2.1003356,-4.522321,-8.146242,1.159832
-4.6245127,-5.8607917,-6.744368,0.23690484,3.1883757,1.5708294,-0.5847992,-4.139428,2.092104,-5.3114676,9.104599,11.631989
0.43153465,-4.2084737,1.7199377,0.36548737,1.6916721,2.8999581,-7.4573064,-7.1341915,-0.011973016,0.4816201,4.883846,-2.0173745
0.026550226,-3.436426,-0.46061254,2.4845362,-0.75598645,5.5192113,-1.8268567,2.7884355,-0.00699352,-0.641698,3.5733783,0.9358646
-0.50932306,-2.4335456,-2.003905,2.6076279,-1.474621,6.1067314,-3.2931743,4.6804185,0.003886871,-0.6891556,2.3100276,2.1616342
-0.50434804,-1.5164874,-3.4808812,-4.263354,-6.737829,-7.8133106,-1.470337,9.044518,0.0012285098,-1.6746942,0.836124,4.0884957
12.006685,0.99818003,-0.00038448913,-5.4469676,8.445679,-8.539044,26.030746,-17.299805,-7.076584,16.586885,-5.209319,-6.50908
-3.5523868,9.933498,-0.000131053,-0.34121022,4.306329,0.51990473,0.3287301,-2.829424,-0.7426727,-3.5926178,-12.036409,1.5965564
-2.6638353,0.4461816,-1.6914809,0.8182541,2.2593791,3.0204167,-0.757707,-2.7416203,-1.1287922,-3.0363512,-0.63770175,3.9419827
3.1119177,-5.994372,5.9239407,-0.9036563,-3.890612,-3.447673,-7.9326305,-2.787101,0.011047758,3.3824053,7.4177055,-12.086341
-0.18190803,-4.109825,0.5849222,1.0679591,-0.21873094,-0.09843314,-4.003879,-0.52987415,-0.00059047644,-0.38055292,3.3278046,0.4850749
-0.12572938,-2.4124923,-2.0557358,-3.4127293,-2.7170389,-10.172194,-2.4564173,7.765322,0.0005889158,-0.71271557,2.2404463,2.3135166
-0.41814256,-1.8251038,-3.3725364,-2.4958982,-6.493738,-5.0085635,4.5053434,10.240756,0.00091438834,-1.5825303,0.93163604,4.090262
3.1527586,10.469607,-0.00038635667,0.1996359,5.037969,-1.3234555,-1.0594531,-3.2512007,1.179563,8.778709,-12.2516985,-6.325669
-4.297231,7.2509594,0.008298588,0.48080495,2.3153758,2.6935177,-0.14274883,-2.4310815,-1.277586,-5.3408113,-6.9968395,3.5567522
3.1110954,-6.121683,6.1323185,-0.35609758,3.3319054,0.04708244,-5.6302457,-3.4488556,1.1249255,1.2326231,5.4070415,-5.264989
-0.33728403,-3.9141994,0.23036127,1.0584763,0.16043393,4.431085,-4.6123605,-0.11035228,-0.0021483023,0.045748353,3.8661647,-0.15187024
-0.34240666,-3.3906755,-1.2377365,-2.8632329,-1.4780589,-15.55455,-3.9084897,7.4878526,-0.0007219664,-0.16380623,3.1642315,1.3365824
-0.8256931,-0.776821,-4.3421345,-2.4482915,-3.9141467,-6.4163175,4.6379943,10.328791,0.3151622,-1.9441222,0.42748752,4.8953986
13.6580305,8.905264,-0.00040711486,4.5197062,3.5540016,-0.6037905,-9.361028,-5.844821,8.987625,7.0846767,-9.301812,-16.9802
-4.994876,9.984985,-2.6086858e-05,0.35261863,3.3625727,1.4586823,0.5034483,-1.7168877,-2.6073406,-3.8805177,-11.282477,3.2434034
-6.3770514,-7.340031,-2.0597422,1.2262195,1.9716604,2.7613459,-0.79791224,-3.2057922,-0.22717178,-5.068603,9.973285,7.5296392
1.3301914,-4.8149924,2.9640713,-0.15914065,4.7112446,-0.1248765,-8.259407,-6.252081,-0.008797457,0.24530895,4.532939,-1.6505476
-0.87543505,-3.9839656,0.01214084,-1.5636,-0.74428827,-3.4841604,-7.129674,4.4045954,0.0019316071,0.58331746,3.5706208,0.4926452
0.17598864,-2.919595,-1.6449974,-3.9473722,-2.5650012,-6.6146827,0.120913394,10.78512,0.0060484484,-0.52895874,2.1669052,2.6076264
6.346653,-1.3694998,-0.0003333431,13.209688,-4.492744,21.112125,24.32401,-2.3873956,-23.762163,9.91127,5.7226987,-35.087112
-2.8114188,9.024167,-0.00012819257,-0.11228593,4.8519926,-0.21473688,0.4520824,-2.6121225,-1.4109488,-4.8467546,-9.504458,-0.016444892
-1.3139411,1.3414546,-4.4570255,-0.19953282,3.4842474,1.758052,0.13735507,-2.3289967,-2.1707726,-3.1367927,0.5162679,1.2047657
0.365157,-3.844437,4.3070736,-2.3922546,3.0774152,0.79212785,3.8042846,-6.1021037,13.418861,-4.737043,11.987596,17.27776
-0.6069388,-4.376129,1.734998,-1.9948543,4.996977,-0.29579568,-5.994785,-2.7239776,-0.05684222,1.2614167,4.063924,-0.37854937
-0.40695852,-3.633833,-0.21729048,-0.68096364,2.1799374,2.2027833,-3.3295577,3.2357445,-0.03504733,-0.5407831,1.9421525,2.2280166
0.5182152,-2.6641786,-1.8680546,-2.7428567,-2.640198,-4.796682,-1.550949,9.332813,0.00031534303,-1.4850819,1.285888,3.3591292
9.018364,1.2417648,-0.0003825518,14.975394,-5.2702103,50.04812,25.421898,-12.275446,-0.796684,11.304046,12.883786,-50.195126
-4.744708,10.479478,-0.0001280013,-0.0060183704,3.3149798,1.0463059,0.45686513,-2.2144148,-1.1402164,-2.3880386,-14.166675,4.0934944
-7.412437,-1.7365022,-11.175327,0.9189641,2.1661875,2.6533866,-0.8780955,-2.7591908,-0.15463161,-3.0386708,5.7958193,7.968624
1.7495506,-4.841613,4.5517235,-0.33714068,1.448265,-1.0119568,-9.783223,-2.5040534,0.0050439835,3.1262743,6.038652,-7.9357686
-0.6609073,-3.2421756,-0.55604434,1.0274954,0.03805524,4.366222,-3.1740427,2.1319833,-0.009321924,0.2245142,3.6523254,-0.15946181
0.48962265,-3.3989904,-1.1304274,-4.009625,-5.5242796,-5.1141114,-3.327657,8.796056,0.00030365377,-0.86553127,2.5584762,1.9088045
-2.3242562,-2.7648513,8.453964,0.9134357,-5.526287,-4.9484854,8.748577,10.054953,-3.2577212,-2.036415,0.17612316,4.755923
4.212333,12.591769,-0.00038633728,0.47934955,5.457367,-2.1936276,-0.96853364,-2.9551182,0.5447917,6.9689617,-13.128722,-7.6029816
-4.675363,5.8783984,-1.0929837,-0.20234928,4.208644,0.60858124,0.14497642,-2.3585994,-1.511725,-5.634312,-8.255263,5.0933504
-4.197876,-6.030974,-1.4008013,0.62550944,1.6800274,2.9117587,-0.8777435,-2.643847,-0.7132185,-4.5368543,6.6678357,3.0498254
0.8789921,-5.5933776,3.3664188,1.4557444,-0.39395532,-2.295267,-10.237666,-5.2747793,0.0022453896,0.5720532,5.1134877,-1.9280074
-0.22856104,-3.4986641,-0.5437838,0.75903624,0.63350505,3.7451575,-3.075733,4.1543536,-1.7550924,-0.5561335,3.1607344,1.0023139
-0.09377155,-2.900442,-1.7220981,-3.4206166,-6.500312,-4.700006,-3.5440392,5.435706,0.0026924964,-1.0923065,1.7883253,2.6999645
-1.1638803,-0.06939635,-4.9392834,-1.3919146,-4.1427975,-5.061774,6.206263,10.710143,0.008874678,-1.8183223,0.30412322,4.9687734
12.389332,4.258352,-0.00040008186,13.547506,2.9315748,29.53292,23.377548,-15.597825,-7.1153116,14.234173,-9.371026,-4.673487
-3.330632,14.235813,-0.00018356668,0.680237,3.8544192,0.6126128,-0.09407747,-2.1965237,-1.274983,-1.9438056,-12.691293,2.0684297
-3.7904174,2.0007033,-2.3321185,1.1666349,3.0391223,2.2200825,-0.99621576,-2.5282452,-1.2854903,-4.5629945,-0.34215266,6.542428
10.618845,-7.871818,14.0001745,-1.9022683,-2.4421623,-2.7445138,-3.3572133,-6.2352114,-2.874934,0.10517314,6.033785,-7.175468
0.73190844,-5.094598,2.1569824,-0.032373413,2.7532823,2.204907,-8.986632,-2.920992,-0.012126367,0.08388027,4.688828,-1.3309854
-0.20394832,-3.9199445,-0.37707856,0.73448086,1.915659,4.4742446,-5.0623116,4.40176,-1.9040905,0.0050565526,4.1429815,-0.12554508
0.4541176,-2.7828934,-1.6828237,-4.3210235,-5.163579,-5.975814,-2.7077298,7.8476224,-0.041094866,-0.9336081,2.4621332,2.0937366
-0.65438443,-1.577781,-3.3668592,-3.241782,-7.2343807,-6.065277,4.122375,10.809493,0.5260214,-1.0674226,1.0742126,3.8665733
12.478514,3.290764,-0.00043928553,17.581377,0.6869461,31.507185,23.010023,-11.702612,-5.1479287,5.620591,-6.992762,4.544202
-2.0823889,10.988422,-0.00026997383,0.26422608,4.7376175,-0.47094825,0.15087986,-2.1134818,-1.1673933,-0.47463506,-13.93167,-0.20681994
-3.0541217,7.2751503,-1.045351,1.393986,2.007831,3.1493118,-0.9894578,-2.1031964,-1.2810843,-3.1829011,-3.5586233,3.7356977
-5.188389,-7.198375,-2.7078035,0.8089456,2.2091117,4.0077987,0.89875245,-4.5566936,-0.20748556,-4.915728,10.709491,7.6236386
0.8332871,-5.445909,3.289188,-0.6281416,3.277666,2.0314598,-8.076136,-6.027283,-0.007992724,0.97522056,5.814451,-2.785351
0.21612436,-4.2299957,0.08553308,1.7915516,-0.094797306,5.139887,-2.6433945,2.9387355,-0.002315416,-0.57638925,3.9262083,0.97396857
-0.0091141015,-2.6345172,-2.0074584,-5.1247535,-7.093866,-1.6674334,-4.1799254,6.2173357,-0.00016985665,-1.1429982,2.2143202,2.2374697
-1.2890941,-1.7401495,-3.4418612,0.114013776,-8.697745,0.0041338485,8.12532,8.393346,-0.33048376,-1.9632771,-0.09266016,5.466225
-2.6279297,10.354097,-0.00024922425,-0.33853602,5.157414,-0.56683934,0.7886897,-2.9881077,-0.5639435,-1.6796441,-9.92029,-0.8952245
-0.8256961,1.9287943,-1.0403682,0.037437893,3.0107894,2.3999803,0.19723442,-2.664209,-1.7898045,-2.4655786,-3.016647,2.0450432
0.5531098,-4.9627614,5.300822,-2.2556279,2.9163237,2.5144656,1.6988852,-4.669142,-1.3706348,8.202559,8.092624,-17.530556
0.47782063,-4.5545726,1.4611036,0.29301023,1.8129122,2.801822,-7.1195025,-2.8234525,-0.012907063,-0.46875027,4.08017,-0.47011232
-0.28461865,-3.51022,-0.84964126,-0.46851355,1.7053558,1.7714056,-3.1954248,5.1020465,-0.024094768,-0.053200904,3.5732417,0.67798597
-0.1100653,-1.3913234,-3.2766454,-3.8867505,-4.4998655,-8.937947,-0.8856652,11.336442,0.002444921,-1.5015142,1.4169915,3.4167774
2.0383377,1.815139,-0.0019604247,6.7272334,-8.6524,49.74398,22.719736,-1.471058,-14.032561,10.83686,11.552919,-50.095573
-1.350761,12.25547,-0.00023853965,-0.2370928,4.8726134,-0.9059453,-0.11036278,-3.3141372,0.6008582,0.25461158,-14.0280285,-1.2324606
-1.9899262,1.5988802,-1.7402053,0.18175507,2.8795455,2.451902,-0.27546063,-3.0736825,-1.0572855,-4.218935,0.1192847,1.2310226
-1.0883065,-6.17951,2.0202649,1.8488803,-2.3651648,1.8467016,-0.6746904,1.0030911,-0.23756264,-0.20857751,3.646109,-2.5052478
3.2033179,-0.85856164,5.807638,1.3854468,-1.3379321,2.958884,3.4101958,-1.3036464,-12.33962,-1.6943072,5.488405,1.4577407
3.537204,-2.7942555,2.7666783,-2.2929595,-1.8884145,6.8237166,-9.237309,-7.9246893,22.102758,-1.7831509,2.5358663,-1.0102861
0.18722996,-3.2548094,-0.0775269,1.0174907,0.7954974,3.743482,-6.0840745,2.7605033,-0.006619414,-0.56886476,3.3299742,1.251094
-0.8061645,-2.4664447,-1.7287791,1.0713289,-2.2998006,4.51852,-5.2350826,4.23754,-0.10263317,-0.36652833,1.9542881,2.1259775
-0.675988,-1.3056335,-3.6018093,-5.8383265,-7.61836,-9.175358,0.29369277,12.881452,-0.0033024363,-1.7893484,0.49255714,4.7492075
11.788306,7.7948084,-0.0004066308,-3.7349038,9.388528,-10.214929,20.847557,-16.161953,-6.5462112,12.872258,-4.3686695,-30.0459
-3.4891226,9.294605,-0.00024385226,0.24846376,3.7342882,0.97242457,0.12708737,-2.889205,-0.4949333,-0.83624375,-10.524834,0.45944446
-2.5485134,1.3897009,-5.95164,0.09711916,2.3641665,2.8809543,0.44547704,-2.4216146,-1.970757,-3.6459775,-4.2316604,5.2486954
9.925891,-7.621704,13.919955,-3.8378954,-2.8159914,-13.204097,-5.170416,-6.1919365,16.98575,1.8384404,6.141404,-8.619094
0.86879003,-4.002915,1.0189974,1.3309804,0.9501183,3.4624104,-4.782342,-3.1886287,-0.010825516,-0.7200302,3.7122447,0.05836603
-0.43995264,-3.3710747,-0.59412074,-1.0782666,-5.394116,-2.2706983,-3.7911694,5.3933206,0.002268622,-0.10030818,3.1997914,0.5654292
0.084501415,-1.4162304,-3.2961457,-2.9760914,-2.6633317,-3.1047578,-0.97393274,7.840074,0.002017507,-1.56986,1.3780743,3.6425054
-0.3458874,-3.5935194,25.064665,5.1536593,-6.577574,5.1328716,15.709892,5.1348195,-7.1960793,-2.4956257,-0.06870765,5.4380517
-0.8850889,12.15467,-0.0003116617,-0.12822668,4.897514,-0.81976175,0.36456555,-2.7803168,-0.4760142,0.7146838,-12.4753475,-1.4436417
-3.4322824,5.3092775,-0.46559188,-0.5322066,4.063608,0.92368037,0.4580558,-2.5457816,-1.5415529,-4.0789423,-5.3778677,0.7497299
-0.699067,-3.715972,-0.282229,0.9477085,1.1858003,3.515394,-0.63400733,-2.1812403,-1.6451097,-2.4926634,2.789526,1.5035946
-0.21982378,-4.4625444,3.046997,0.80964327,-1.38584,-2.7142186,-9.835846,-4.07888,0.0023648236,2.5274463,4.7371645,-4.376751
-0.4044658,-3.4008377,-0.034783885,1.0494208,-0.35856614,2.2974534,-3.7823548,2.8043303,-0.44093063,0.03790603,3.2653,0.22149162
0.4718984,-3.6003437,-0.558517,-2.8911877,-4.32005,-4.527668,-3.6031094,7.0716467,7.446727e-05,-0.7469925,2.463943,1.7016872
-0.5987426,-1.8524141,-3.2612276,-3.5592926,-6.9850016,-6.294011,4.983949,10.652909,-0.09658321,-1.9445865,0.3505478,4.9055285
10.794312,4.8677487,-0.00043196068,-6.6839457,8.052668,-9.271632,27.956451,-14.261643,-15.612909,15.991195,-0.76484317,-34.277462
-5.3405766,12.364569,-0.00014227384,1.1169331,2.8946357,1.4844204,-0.06679269,-1.6332543,-1.9377576,-2.5956244,-10.502198,2.7570667
-7.819314,-8.832826,-0.99338853,0.853066,2.690112,2.133735,0.53120136,-4.736602,2.0339985,-3.9005966,13.113574,7.3887873
0.45441723,-5.3875265,3.3999069,-1.4355394,4.723227,0.0027668308,-7.764383,-3.520897,-0.010241702,1.6602249,5.5701013,-3.560282
-0.30754685,-3.9922698,0.08268181,-0.13597772,-1.9244236,1.8699093,-3.0775223,1.0261059,0.0049392283,-0.2880882,3.0267613,0.79691464
-0.17589568,-2.3301382,-2.2112591,-3.8179834,-2.8983393,-4.5621533,-1.3234317,8.933185,-0.0002662812,-0.73937595,2.11047,2.315836
-5.0172276,-1.769865,15.85583,5.7594266,-5.412876,5.4282756,14.535608,6.0714545,-9.540908,-1.9648769,0.40377054,3.9637907
-0.34182826,12.824485,-0.00031890115,0.13654655,5.1496406,-1.3758886,0.4527469,-1.9345036,-1.836738,0.70881045,-10.232548,-2.8677323
