ancorasir/BennettWheelLegRL/experiment_data/2023-12-27_22-47-53/joint_position_env22.csv
Joint_1,Joint_2,Joint_3,Joint_4,Joint_5,Joint_6,Joint_7,Joint_8,Joint_9,Joint_10,Joint_11,Joint_12
0.4421954,-0.0,-0.0,-0.22472109,0.0,0.0,-0.18268582,-0.0,-0.0,0.41183934,-0.0,0.0
0.24790345,0.30614227,0.20491543,0.024986247,0.116257,0.08674563,-0.09820384,-0.19179572,0.12216695,0.059289027,-0.3488919,-0.4190379
0.1785954,0.5573138,0.11581727,0.07649806,0.20151803,0.059896518,0.10336223,-0.37260392,0.13965239,0.010541226,-0.62987655,-0.23609222
0.26124367,0.36876115,0.12323901,0.2481573,0.29701045,0.021984335,-0.09680834,-0.873578,0.40000388,-0.080118574,-0.14230718,-0.3830459
0.37193286,0.04304582,0.25921616,0.4325095,0.360242,0.19302073,-0.54740953,-1.1468531,0.39999756,-0.16686378,0.10460369,-0.44796348
0.3614759,-0.21919264,0.16162115,0.46907154,0.44431376,0.17328452,-0.9871554,-0.75756717,0.39997184,-0.15093105,0.46801332,-0.48596343
0.36564752,-0.27729115,-0.07166188,-0.07361713,0.35453475,-0.776221,-1.3522869,-0.31966105,0.39995036,-0.2608337,0.59975594,-0.33708826
0.37302327,-0.3376823,0.2646171,-0.16403696,-0.3468531,-0.9952833,-0.83294225,0.34167153,0.1740962,-0.41675904,0.63156253,0.0053110523
0.93618715,0.28112417,0.40000018,0.0725262,-0.03416103,-0.4866214,-0.28548458,-0.30817515,0.06508745,0.33771446,0.051429205,-0.8312716
0.6265284,0.92534506,0.25474206,0.11158382,0.24456248,-0.38834512,-0.28673178,-0.48223415,-0.09091187,-0.03675526,-0.6380955,-0.47386438
0.38583592,0.628146,0.13603425,0.07479468,0.21485777,-0.51464003,-0.346501,-0.76601297,0.32697684,-0.10909639,-0.18024725,-0.19698958
0.46820286,0.27280974,0.32008323,0.11219289,0.36362132,-0.32038742,-0.87922657,-1.1379273,0.38585094,-0.097641386,0.1832009,-0.34576938
0.45158964,-0.0030109754,0.32228294,0.03415007,0.3367408,-0.44461992,-1.2425169,-0.9261777,0.3999853,-0.09855973,0.4368523,-0.32034418
0.42583638,-0.2301894,0.11486276,-0.3491511,-0.09329754,-1.1038461,-1.3181022,0.05521387,0.37995726,-0.18580244,0.6044231,-0.033805877
0.9509196,-0.05249869,0.40000015,0.07235478,-0.22919248,-0.43147454,-0.21646865,-0.13207777,0.09895647,0.22673774,0.34094587,-0.7976753
0.74941796,0.7715788,0.40000004,0.062875435,0.09835556,-0.47313225,-0.17717806,-0.31329188,0.035981018,0.13073927,-0.53098536,-0.6481374
0.4187828,0.8051748,0.06967477,0.09831065,0.3391297,-0.32969782,-0.23768544,-0.55746704,-0.0053508906,-0.12486086,-0.5962539,-0.26962647
0.4564672,0.4143134,0.2904441,0.06518882,0.3271402,-0.44368452,-0.61873335,-1.015385,0.39997455,-0.19517437,-0.0020641512,-0.23410663
0.4637016,0.12657917,0.3660352,0.09007892,0.38536474,-0.34248695,-1.0216306,-1.0378726,0.39999875,-0.16841981,0.28085497,-0.31626606
0.47829214,-0.17609072,0.30550638,-0.08473968,0.075497255,-0.59403855,-1.3086872,-0.5185165,0.39837658,-0.19150381,0.54205567,-0.20212772
0.45021376,-0.28443056,0.087861925,-0.2794029,-0.13841496,-0.959995,-1.2117078,0.035806708,0.39164165,-0.2687474,0.63232094,0.038665652
0.90403247,-0.16538118,0.40000024,0.0010379404,-0.19279483,-0.48120332,-0.2199604,-0.11955911,-0.045200404,0.06193212,0.48715657,-0.6818385
0.86022294,0.5763005,0.4000001,0.030258246,0.06737381,-0.4941039,-0.26524812,-0.2988816,-0.026776602,0.21946342,-0.21600159,-0.78914297
0.5689516,0.8999432,0.17177163,0.045696624,0.26492944,-0.36747476,-0.28002706,-0.48533675,-0.09054332,-0.059554692,-0.6362998,-0.40940714
0.39085278,0.6405537,0.096484,0.061914526,0.35387146,-0.38533875,-0.3515303,-0.796997,0.28276837,-0.2137898,-0.11247247,-0.12994245
0.48092574,0.2762816,0.34594527,0.063552156,0.46075064,-0.21815945,-0.9037348,-1.181492,0.39999655,-0.14124998,0.25230697,-0.35684767
0.46909937,-0.0051722485,0.3656621,0.038650706,0.43735337,-0.38665926,-1.2767458,-0.90753144,0.39999273,-0.12817451,0.5035285,-0.33668125
0.47677153,-0.20222968,0.29050508,-0.19317517,0.109898716,-0.76026887,-1.4052126,-0.4179399,0.39957002,-0.17115991,0.62575233,-0.1728145
0.49233428,-0.34925774,0.31509608,-0.3072471,-0.2960525,-0.9478252,-1.0240115,0.23631413,0.23800765,-0.29429814,0.63452256,0.08906555
0.87005633,-0.055415273,0.40000018,-0.056926318,-0.08458782,-0.492331,-0.25136054,-0.15501267,0.0037894195,0.3215038,0.29110736,-0.6514268
0.8027295,0.63461465,0.40000004,-0.071970716,0.16131078,-0.47941306,-0.24754605,-0.32535955,-0.011137155,0.30332607,-0.48060238,-0.6497486
0.58278626,0.87534744,0.17020619,-0.0535906,0.32342523,-0.33664793,-0.2550694,-0.48470733,-0.07488099,-0.020242583,-0.79364765,-0.4769653
0.42396986,0.6717086,0.068177514,0.0145911835,0.40973407,-0.23615745,-0.29322422,-0.7056299,0.011860223,-0.2802235,-0.29764968,-0.021303218
0.46512723,0.41749164,0.30182895,-0.0089883795,0.41035277,-0.33351368,-0.7430942,-1.0689458,0.3999964,-0.1730926,0.06871436,-0.25951186
0.4584042,0.16275036,0.38240272,0.003923682,0.4552834,-0.13110821,-1.0598418,-1.1236657,0.4000018,-0.14285034,0.29595065,-0.29872996
0.44847354,-0.033785667,0.3609061,0.021009907,0.41747594,-0.3062472,-1.2394639,-0.8723817,0.39999977,-0.15051943,0.46372935,-0.2578718
0.43656647,-0.17611615,0.24276805,-0.21413688,0.22380643,-0.85485864,-1.4330552,-0.3652557,0.39998308,-0.20893288,0.55932695,-0.087838694
0.46405023,-0.32194343,0.3084401,-0.2814304,-0.17114346,-1.0352107,-1.0790565,0.30355555,0.23559543,-0.35471746,0.56420535,0.16628672
0.9745032,0.004429063,0.40000015,0.029863754,-0.089289516,-0.45411998,-0.24338606,-0.20618378,0.039884355,0.22449657,0.23751828,-0.78669226
0.7819318,0.7353903,0.40000004,0.029150452,0.19173688,-0.45348078,-0.23670241,-0.3741653,-0.0036172331,0.16748376,-0.492528,-0.731352
0.44378638,0.79573303,0.028542746,0.07880599,0.35566324,-0.3058624,-0.24351498,-0.5784952,-0.041921943,-0.14070843,-0.51077706,-0.26727343
0.47637963,0.37774825,0.2753365,0.07273223,0.4113772,-0.33686,-0.79761463,-1.1068481,0.39999643,-0.16475497,0.13995141,-0.3002899
0.46480277,0.13518794,0.30907327,0.11244274,0.45229962,-0.13758041,-1.0711014,-1.0678098,0.39999956,-0.14530672,0.38365418,-0.32979196
0.47647008,-0.084315576,0.24180186,-0.10977106,0.31014544,-0.67231804,-1.3903644,-0.5974554,0.39997178,-0.17930286,0.59033346,-0.2511198
0.452465,-0.1813803,0.05922143,-0.32762697,-0.009217782,-1.116067,-1.2986162,0.0003018476,0.3999986,-0.25554174,0.66750234,-0.04623754
0.900624,-0.119268365,0.40000024,0.00078372034,-0.22535847,-0.47867474,-0.14179029,-0.1771723,-0.017983722,0.15752918,0.39140514,-0.69681823
0.8143276,0.69250995,0.4000001,0.029721208,0.062185474,-0.502031,-0.20107144,-0.38670364,0.026993705,0.20708925,-0.39659664,-0.7056187
0.4990901,0.8559213,0.085782334,0.1213209,0.30666637,-0.34580877,-0.23521067,-0.6141675,-0.06629697,-0.1455688,-0.5191576,-0.21053779
0.44733268,0.4376274,0.24520406,0.07586297,0.33077526,-0.36582646,-0.6384738,-0.9886314,0.39999607,-0.07988039,-0.066410035,-0.28440648
0.4621886,0.12254253,0.31784356,0.12062407,0.42598116,-0.14378963,-1.0600477,-1.0722816,0.40000165,-0.0652578,0.269448,-0.37027034
0.47316954,-0.08913543,0.26882806,-0.036239583,0.30513585,-0.5340333,-1.3332975,-0.7077673,0.39998603,-0.08801858,0.49424854,-0.33993298
0.46183568,-0.23202202,0.10822763,-0.3044181,-0.023213703,-1.0233905,-1.3469042,-0.087651476,0.40000018,-0.15812087,0.60843194,-0.14899996
0.6375569,-0.33616975,0.40000024,0.02171802,-0.2998158,-0.43253705,-0.41648206,0.049924877,-0.0155041255,-0.08963679,0.64829844,-0.39700103
0.94541764,0.3717131,0.40000013,0.061932877,-0.0046742824,-0.522986,-0.32291448,-0.29159632,0.00035802118,0.24782068,-0.052470926,-0.8162582
0.6252184,0.9714889,0.24043503,0.079197064,0.2608457,-0.47095698,-0.32460502,-0.45806137,-0.07850187,-0.02249382,-0.69842863,-0.38941932
0.4462435,0.572502,0.17972846,0.093026035,0.22280423,-0.45920977,-0.4012589,-0.8780519,0.40009534,-0.14772929,-0.16306387,-0.24059653
0.4495894,0.04311302,0.31248146,0.05851322,0.29352844,-0.45208183,-1.160996,-0.9501694,0.39997327,-0.12074373,0.37065673,-0.35525
0.4561699,-0.2568167,0.10906135,-0.27890003,-0.14199708,-1.0205826,-1.2649776,-0.03810446,0.39999202,-0.19168015,0.6465523,-0.11563943
0.84244263,-0.22827129,0.4000002,0.09418201,-0.2771435,-0.4528472,-0.28299153,-0.05590676,-0.03378511,0.07132763,0.54215074,-0.62582374
0.83680975,0.5036646,0.40000004,0.108908355,0.07376611,-0.6032091,-0.33634773,-0.23728292,-0.01990816,0.19911328,-0.2168697,-0.7236777
0.5528319,0.91741055,0.20102812,0.17315415,0.30707148,-0.47136074,-0.38115636,-0.42607412,-0.08366066,-0.08023725,-0.5814488,-0.30280638
0.42962575,0.5086416,0.2193393,0.08404367,0.30176425,-0.51522875,-0.51558226,-0.8357078,0.39995587,-0.10053318,-0.11045802,-0.2812176
0.46623486,0.20864716,0.30698532,0.15863238,0.39017707,-0.26608986,-0.9544079,-1.1489716,0.39881596,-0.117747314,0.19855165,-0.34738246
0.453341,-0.07710595,0.2946231,0.04937248,0.2861672,-0.52059907,-1.3135918,-0.7778788,0.398542,-0.10760662,0.47181585,-0.31370983
0.4616832,-0.24960713,0.1473697,-0.25729907,-0.010062986,-1.0918981,-1.3066074,-0.08665226,0.38750562,-0.16110122,0.62547284,-0.1404109
0.79652447,-0.31526387,0.40000024,0.09360477,-0.4484409,-0.3653304,-0.18165915,-0.00045226072,-0.101277,0.049930833,0.540404,-0.5451569
0.8449697,0.5128292,0.4000001,0.084546074,-0.05916066,-0.5462294,-0.28499183,-0.30232954,0.1025374,0.16136453,-0.21361172,-0.7410752
0.57698,0.90167224,0.23861131,0.10016087,0.22598362,-0.47358638,-0.29908553,-0.5059964,0.013029299,-0.08677757,-0.6584399,-0.42533553
0.44207177,0.56947124,0.166521,0.066553175,0.30016783,-0.42768043,-0.5038468,-0.85241526,0.4000021,-0.16341507,-0.0910089,-0.29667044
0.48118842,0.28683382,0.31623635,0.060748372,0.3849846,-0.28227988,-0.8806546,-1.0871019,0.4000022,-0.15192813,0.1780226,-0.39023548
0.45608094,-0.0216129,0.3031944,0.08463592,0.43366733,-0.16880281,-1.2026802,-0.8985068,0.3871946,-0.15524177,0.4731683,-0.34431958
0.45535904,-0.19716163,0.18485413,-0.14069048,0.21524209,-0.7893745,-1.3838804,-0.38616613,0.3999942,-0.21358733,0.6190977,-0.21318893
0.5803713,-0.35113084,0.4000002,-0.04400882,-0.3787665,-0.45222816,-0.50510734,0.18781134,0.045207847,-0.1912527,0.6006344,-0.24725765
0.9375487,0.37733233,0.40000018,0.035205726,-0.015706075,-0.42639914,-0.24433984,-0.29878196,0.040322103,0.28868946,-0.079769894,-0.8044233
0.51166755,0.9053823,0.14331847,0.082719564,0.25562426,-0.30251357,-0.27206206,-0.511436,-0.06335848,-0.08501098,-0.5442017,-0.30897555
0.43678957,0.44484144,0.2432202,0.051415283,0.40268072,-0.3400553,-0.62983435,-1.0008821,0.39999652,-0.107350715,-0.033198185,-0.2785674
0.4573125,0.1298882,0.30435124,0.1283797,0.43997258,-0.10852281,-1.0410361,-1.0656796,0.39999646,-0.09615774,0.31597447,-0.38158628
0.44915652,-0.104490474,0.17204906,-0.010131148,0.36192852,-0.58738804,-1.3614821,-0.6206658,0.39995924,-0.15140231,0.5748314,-0.2888799
0.46008542,-0.28851283,0.1698874,-0.23427834,-0.23738442,-1.0704819,-0.99141663,0.2501079,0.22162831,-0.31956527,0.649479,0.05252554
0.99552625,0.16678931,0.40000018,0.11076084,-0.025875753,-0.5616038,-0.35181552,-0.15433589,0.028868329,0.1903293,0.13824715,-0.93772787
0.79885906,0.78869325,0.4,0.1369777,0.19188279,-0.50910866,-0.35813135,-0.31874752,-0.0034914066,0.08199892,-0.42412314,-0.7500517
0.4603362,0.8273483,0.08415047,0.181602,0.33876702,-0.33602116,-0.36963955,-0.5571687,0.035071947,-0.17284824,-0.35224018,-0.11197799
0.50175613,0.35977963,0.31387642,0.118581265,0.36260018,-0.3808245,-0.76580924,-1.0435296,0.40000474,-0.10364447,0.08685894,-0.3558303
0.49140823,0.032337707,0.3466401,0.13948186,0.3819127,-0.3384093,-1.1722773,-0.94834983,0.3609923,-0.08230853,0.42982605,-0.38452
0.49107555,-0.20632055,0.22142494,-0.24286518,0.09367092,-1.0001745,-1.3946867,-0.24862945,0.3999569,-0.15533896,0.60489786,-0.19700105
0.57792413,-0.30204222,0.40000024,0.021813883,-0.32734543,-0.5120218,-0.5469827,0.13118534,0.032872062,-0.11549552,0.69373775,-0.3077139
0.8411699,0.52678573,0.4000001,0.076688044,0.061142027,-0.5207971,-0.41783693,-0.26204696,0.040601306,0.22829331,-0.27137688,-0.70542186
0.60913515,0.9467477,0.2952484,0.086400434,0.27862632,-0.4154423,-0.4130291,-0.44293165,-0.036536284,-0.034338392,-0.6051361,-0.37552398
0.4995857,0.5489196,0.20865493,0.11125884,0.3717706,-0.35874698,-0.5420504,-0.85724443,0.39999622,-0.09679282,-0.07955888,-0.3258142
0.51905406,0.16339625,0.34867412,0.17948851,0.4324999,-0.16297649,-1.0285571,-1.1393496,0.40000784,-0.062312845,0.3279365,-0.4267617
0.5261592,-0.11746324,0.3003989,-0.072742514,0.24988343,-0.705121,-1.4132733,-0.63328016,0.3999725,-0.08145103,0.5925069,-0.33693874
0.4870368,-0.27491832,0.14010529,-0.3234691,-0.24091911,-1.0832331,-1.1850263,0.11276205,0.32504568,-0.19609433,0.6749631,-0.025265602
0.96275884,-0.14782995,0.40000024,0.033853594,-0.24998198,-0.5035509,-0.35920596,-0.11792254,0.07110315,0.18555713,0.47569263,-0.7520212
0.7442216,0.7938767,0.3733767,0.052766252,0.14734073,-0.51489323,-0.3497544,-0.3544297,0.0013299024,0.0880088,-0.5642456,-0.62686855
0.34505343,0.7282287,-0.04799973,0.0879006,0.31169456,-0.3936422,-0.35626355,-0.70216084,0.15073316,-0.17641248,-0.30740502,-0.0543736
0.5267361,0.31494164,0.31109586,0.12626919,0.42742443,-0.31454834,-0.8274913,-1.0909829,0.40000248,-0.07333747,0.13316053,-0.38926947
0.5054641,-0.00567721,0.32199296,0.10927159,0.44385883,-0.30705604,-1.2405705,-0.8988485,0.3906755,-0.0585325,0.4648006,-0.4006753
0.50458795,-0.21398796,0.1807479,-0.23755096,0.0920424,-0.90958345,-1.411385,-0.25028205,0.40000004,-0.12552182,0.63469446,-0.21871796
0.6649099,-0.33332613,0.40000018,0.11508914,-0.40162173,-0.34314674,-0.37352452,0.04956892,-0.059481423,-0.054285925,0.7020621,-0.48826936
0.8719187,0.5236618,0.40000007,0.043239176,0.09938696,-0.5994002,-0.3242252,-0.32359618,0.03727273,0.18531,-0.2045122,-0.79797685
0.6214015,0.95433784,0.23139414,0.066098675,0.31335095,-0.4843042,-0.32567918,-0.48036534,-0.06901947,-0.044484165,-0.59699845,-0.36974433
0.47765884,0.52489954,0.18798114,0.071375296,0.37306285,-0.3747287,-0.5305823,-0.9822932,0.40000057,-0.119369596,-0.093964875,-0.3109657
0.4900945,0.26165956,0.29180387,0.09121814,0.45728996,-0.18523534,-0.9728196,-1.1386251,0.4000014,-0.08708106,0.19711848,-0.4108563
0.49205875,-0.018207945,0.2661468,0.10256306,0.4831995,-0.27515438,-1.2675486,-0.91091514,0.39998484,-0.097482346,0.5031285,-0.38608772
0.5005735,-0.17671631,0.12493483,-0.19636235,0.19722429,-0.8309076,-1.4200402,-0.3839008,0.3999665,-0.17476374,0.6381657,-0.21766543
0.44961113,-0.28234464,0.10845692,-0.28849527,-0.17982085,-1.1063904,-1.0993217,0.23378481,0.31595212,-0.3007828,0.65297073,0.08700413
0.9217111,0.18921566,0.40000015,0.036737066,-0.043248277,-0.54204637,-0.27828273,-0.17909937,0.0066506155,0.22182858,0.036130544,-0.77110386
0.6326301,0.98430485,0.27268848,0.11396625,0.25819322,-0.4630087,-0.31721374,-0.3910447,-0.056426615,-0.015250939,-0.628025,-0.3795439
0.44181144,0.4586069,0.2609017,0.05976872,0.15741196,-0.5212329,-0.6312156,-0.87331754,0.3999929,-0.014361492,0.047584955,-0.31494927
0.4473035,0.13394377,0.32717127,0.03969288,0.26224044,-0.50195277,-1.1498386,-0.91566277,0.40000033,-0.020351036,0.35395244,-0.3287441
0.48519245,-0.14854711,0.27289695,-0.16620572,0.08127618,-0.72627157,-1.369065,-0.49179012,0.38652185,-0.08386873,0.5589526,-0.16473714
0.43300337,-0.28688735,0.16577369,-0.28847408,-0.21568805,-1.0940669,-0.9676458,0.1934613,0.31309253,-0.22167686,0.6238968,0.15886655
0.97421885,-0.05535641,0.40000018,0.08902532,-0.19727781,-0.50117576,-0.2664793,-0.10355046,0.017759731,0.28399393,0.28069922,-0.732724
0.7934467,0.63436425,0.4,0.09534089,0.06906944,-0.5365537,-0.2880397,-0.28165993,0.04244758,0.1796861,-0.4821544,-0.64717615
0.56427807,0.8880409,0.22174154,0.1037984,0.27450013,-0.4555705,-0.30590165,-0.45178264,-0.00026555682,-0.062050283,-0.69631207,-0.44214192
0.3716443,0.62382513,0.11066069,0.07982731,0.32258838,-0.4619532,-0.33044162,-0.686576,0.19565296,-0.20453258,-0.18577063,-0.1179143
0.4784024,0.24112299,0.3324152,0.10472578,0.31413049,-0.45303816,-0.8454504,-1.0463551,0.40000665,-0.18066415,0.18843473,-0.31431288
0.4451174,-0.046510648,0.31320179,0.041670136,0.1753749,-0.4907466,-1.1875739,-0.801706,0.3958862,-0.17307599,0.45473418,-0.2909151
0.42707402,-0.2247673,0.17883585,-0.22460566,0.0361365,-0.9158794,-1.3601383,-0.25065625,0.39996374,-0.19768243,0.6179842,-0.14137535
0.72078246,-0.30797732,0.4000002,0.035204962,-0.37442985,-0.4157433,-0.18654725,-0.020986432,-0.0802681,0.05275167,0.51437867,-0.4863271
0.747128,0.7311927,0.40000004,0.039277695,0.027012987,-0.5094585,-0.25719538,-0.3113828,0.013048837,0.16987938,-0.44242787,-0.6199896
0.4317779,0.82377946,0.06985239,0.079716474,0.32127607,-0.39426413,-0.3023408,-0.6126779,0.057607338,-0.20626254,-0.409266,-0.11942159
0.496918,0.4019588,0.31405225,0.069668606,0.43728948,-0.3158473,-0.7059201,-1.1386068,0.40000406,-0.117807,0.008718453,-0.36797512
0.48197246,0.077349536,0.3674354,0.1446861,0.42672658,-0.1736086,-1.0781755,-1.051997,0.39999965,-0.094369315,0.35600704,-0.42450526
0.45525882,-0.13358305,0.3016767,-0.08192414,0.26048326,-0.7594683,-1.373869,-0.5573517,0.39426434,-0.109385945,0.5486574,-0.3479562
0.44167414,-0.3339885,0.31741324,-0.24624385,-0.3067685,-1.0364127,-1.070973,0.22149816,0.23745729,-0.19485253,0.6359735,-0.10406856
0.866315,0.23934847,0.40000013,0.0111308,-0.028966228,-0.57603127,-0.36256593,-0.15674499,0.04454336,0.31971338,-0.032835685,-0.7393251
0.6771865,0.8516415,0.36572292,0.0145957805,0.22091313,-0.53339356,-0.35880077,-0.32991555,0.008775618,0.12243607,-0.61085296,-0.54500115
0.47116172,0.8104369,0.086262174,0.048584677,0.3820457,-0.33788753,-0.36717802,-0.57787216,0.014903603,-0.18543634,-0.42955747,-0.14137165
0.5013032,0.45173326,0.2711957,0.04374946,0.3270935,-0.4746549,-0.6137832,-0.9836319,0.40000248,-0.159513,-0.090358764,-0.29825187
0.4947116,0.097388476,0.34671605,0.0748838,0.4284784,-0.25146723,-1.1326948,-1.027342,0.37934756,-0.13230588,0.28867385,-0.395847
0.4940712,-0.14959015,0.26950362,-0.0014676284,0.38646412,-0.4679009,-1.3662833,-0.6373188,0.3999771,-0.1680595,0.5273388,-0.31421357
0.44905615,-0.25910923,0.026009621,-0.29670998,-0.02561484,-1.1495614,-1.318555,-0.0015795311,0.39999884,-0.24314454,0.63756514,-0.06335559
0.88100684,-0.15147793,0.40000018,0.05438429,-0.15143189,-0.46563902,-0.24047746,-0.114552006,-0.013211009,0.209317,0.34056258,-0.65237856
0.80087334,0.6674715,0.40000007,0.07801159,0.14534187,-0.5262738,-0.28889287,-0.29069334,-0.019628175,0.19828841,-0.4105693,-0.6716083
0.45210406,0.83421886,0.06527011,0.14532836,0.34056693,-0.3182565,-0.26221848,-0.64717185,0.05554456,-0.16322464,-0.35377532,-0.052997306
0.50805926,0.3786586,0.2971097,0.043806307,0.25543398,-0.539973,-0.7733297,-0.9637199,0.40001047,-0.057298716,0.10949788,-0.3272484
0.4836671,0.062529854,0.31546295,0.022237945,0.30342105,-0.45407048,-1.198145,-0.896289,0.3999908,-0.08406334,0.3740485,-0.28188536
0.49082568,-0.12429909,0.23920265,-0.05627572,0.18383318,-0.6192885,-1.3298712,-0.5446669,0.399965,-0.1374524,0.5073083,-0.12774624
0.4684475,-0.23227327,0.049598802,-0.30860347,-0.10671472,-1.0516071,-1.2584883,-0.00589268,0.39999855,-0.21120468,0.59333956,0.095401555
0.7243328,-0.3239554,0.4000002,0.06376995,-0.35318682,-0.2908116,-0.14859913,-0.03765559,-0.1149139,-0.0065826685,0.65145856,-0.41607457
0.8752127,0.5453231,0.40000004,0.010105215,0.09593936,-0.53064156,-0.20862545,-0.28698018,-0.04185863,0.22332154,-0.15212703,-0.7958553
0.5370501,0.8853019,0.16053551,0.06795477,0.31565332,-0.36776948,-0.24065207,-0.49366957,-0.11646422,-0.06721742,-0.6561172,-0.45734242
0.46238396,0.5628,0.1415172,0.08265392,0.3553541,-0.3857082,-0.39172706,-0.8939712,0.37199113,-0.17511135,-0.13514587,-0.18202037
0.548095,0.1856259,0.34774,0.082741015,0.47335154,-0.25042292,-0.96918595,-1.1764187,0.39683497,-0.13203442,0.23585214,-0.3473508
0.5067562,-0.08197689,0.28596666,0.015174625,0.41532418,-0.47584543,-1.3442099,-0.7691305,0.3999885,-0.122394584,0.51435685,-0.32019934
0.45802733,-0.29946887,0.2030729,-0.28383547,-0.15997854,-1.1211965,-1.1209877,0.20953092,0.27502188,-0.25115123,0.63392806,0.017445493
0.9603533,-0.018294793,0.40000015,0.036169324,-0.16621707,-0.5197611,-0.25658423,-0.22891866,0.069558494,0.20681362,0.26864222,-0.8555919
0.6679073,0.92501724,0.274998,0.066176236,0.16562667,-0.48895916,-0.25218302,-0.41576338,-0.06526392,0.0016508922,-0.6696466,-0.5535121
0.4034659,0.60389906,0.14200853,0.10913857,0.29910538,-0.45469496,-0.32142636,-0.80348384,0.30132398,-0.17405592,-0.13654202,-0.20037068
0.45682892,0.2240257,0.311318,0.15662387,0.40321282,-0.25750396,-0.9355936,-1.1246326,0.39999425,-0.13784514,0.26066312,-0.35434884
0.45667034,-0.10460233,0.27609682,-0.06572792,0.21911453,-0.6594863,-1.3779807,-0.5901615,0.39994228,-0.1687359,0.5273846,-0.23169772
0.44844118,-0.2629009,0.115401015,-0.3088461,-0.16986814,-1.0797138,-1.2108684,0.062097024,0.35939127,-0.2601482,0.62881166,0.019873591
0.9137614,0.12684588,0.40000015,0.024050308,-0.11144064,-0.50721073,-0.14816123,-0.21849453,0.06174465,0.27888343,0.23456118,-0.7904634
0.7028004,0.86322325,0.3698701,0.043936595,0.1918525,-0.46547416,-0.13820054,-0.40922242,-0.012775954,0.09198537,-0.6105863,-0.63749975
0.34976533,0.65129554,-0.03062624,0.12884417,0.3853565,-0.26724946,-0.15811951,-0.70823985,0.0020300809,-0.23764573,-0.3518211,-0.14972506
0.47797918,0.3504148,0.29812804,0.038023606,0.26279694,-0.47396964,-0.6716779,-1.0382906,0.39998308,-0.16662663,0.10277957,-0.24423291
0.49056146,0.037834704,0.3513666,0.03603591,0.41681418,-0.3385505,-1.1734209,-0.95283717,0.40003064,-0.15052077,0.39336386,-0.27433822
0.48257303,-0.1724469,0.22389838,-0.15756124,0.24060144,-0.8139977,-1.3941553,-0.44359785,0.39999458,-0.20049505,0.5799306,-0.14685874
0.49717408,-0.37242138,0.40000018,-0.08782087,-0.31148407,-0.69137454,-0.77181226,0.22213587,0.02077007,-0.26800355,0.64406973,-0.108912684
0.8245596,0.51214856,0.4000001,0.018099649,0.011144415,-0.5353256,-0.22834413,-0.27789474,0.01761967,0.27855816,-0.28754163,-0.6582408
0.5439205,0.9136577,0.17566669,0.059170913,0.27480075,-0.43017104,-0.2677031,-0.48270828,-0.054107323,-0.060194574,-0.64217615,-0.40874743
0.42347866,0.51686996,0.20941517,0.04877738,0.1624309,-0.48673993,-0.41374883,-0.7997805,0.40000004,-0.1798179,-0.124570265,-0.22543177
0.4578176,0.1917914,0.3266884,0.07499439,0.32590786,-0.32362345,-0.9542182,-1.0934016,0.39930016,-0.16185762,0.21020447,-0.34863472
0.43561503,-0.10980503,0.29737198,0.050490048,0.33116764,-0.41191316,-1.2826774,-0.77638596,0.39996436,-0.17628722,0.4705583,-0.29198956
0.4476052,-0.28738365,0.13209671,-0.20770563,0.041563515,-0.9045178,-1.3163013,-0.17568669,0.3999576,-0.25358284,0.60896075,-0.08921509
0.9137004,-0.26832935,0.40000024,0.076623715,-0.28434202,-0.45770472,-0.17659603,-0.07343685,-0.05299873,0.007087516,0.5534978,-0.643292
0.71032983,0.7798948,0.37515622,0.10591297,0.093225226,-0.51210845,-0.23436914,-0.33204287,0.013925079,0.1141523,-0.52297395,-0.6265399
0.40464693,0.7752559,0.015564312,0.14948256,0.3478184,-0.339043,-0.27240124,-0.6200532,0.027567055,-0.21976122,-0.3477285,-0.067220986
0.4817737,0.34651488,0.2774695,0.09943351,0.37352592,-0.45880035,-0.7611735,-1.0076014,0.40000567,-0.12870309,0.15628366,-0.3118153
0.49462104,0.11843309,0.30840027,0.11443589,0.396556,-0.3427795,-1.0898894,-1.0099453,0.39832446,-0.13748856,0.37094635,-0.31350026
0.45130914,-0.13154392,0.21858239,-0.16967686,0.24105406,-0.7892739,-1.3741574,-0.4492098,0.39995492,-0.15203142,0.5741994,-0.19134769
0.48639223,-0.34288025,0.40000054,-0.15482825,-0.29338357,-0.8942819,-0.7894791,0.27805528,0.06712892,-0.23979838,0.63366514,-0.112445265
0.9113733,0.4162339,0.4000001,0.036240403,0.089007154,-0.5226251,-0.24899575,-0.2578752,0.023386614,0.2824361,-0.18306218,-0.7840586
0.6195247,0.9501911,0.21493912,0.06026581,0.32252955,-0.38867766,-0.2569647,-0.4463291,-0.08270994,-0.026419694,-0.76094395,-0.5060631
0.41281068,0.61387867,0.13749394,0.04000593,0.27332574,-0.43512553,-0.37215596,-0.88760537,0.3866698,-0.09531947,-0.111254565,-0.15261604
0.47083294,0.28235373,0.32775167,0.011130914,0.37336686,-0.36979613,-0.93400127,-1.1123203,0.40000087,-0.04734255,0.2052064,-0.27661058
0.47355208,-0.0012543971,0.3258117,-0.025110284,0.27144498,-0.5516643,-1.266236,-0.89628965,0.39999944,-0.05896973,0.45852596,-0.2542643
0.4900596,-0.20215224,0.20476742,-0.29758894,0.017946957,-1.0431446,-1.3174504,-0.1806942,0.39594284,-0.11441089,0.6146078,-0.07364335
0.7190587,-0.28264484,0.40000024,0.10218318,-0.43509173,-0.39437997,-0.31934726,0.072269686,-0.07843508,-0.015726851,0.64906925,-0.41384152
0.8875746,0.48972243,0.40000015,0.06958907,0.020294772,-0.56845474,-0.33006504,-0.20670265,-0.013311468,0.24937189,-0.096650325,-0.8187124
0.68626106,0.87721115,0.3403061,0.08308817,0.21481237,-0.49672237,-0.35092825,-0.36466736,-0.053603757,0.037854467,-0.66228455,-0.57163894
0.3790998,0.79265904,0.013487894,0.103582345,0.3680239,-0.354707,-0.3421552,-0.6013948,0.06971187,-0.22679925,-0.37678725,-0.018962307
0.476943,0.44781625,0.27195108,0.058895327,0.30057317,-0.50585395,-0.6576482,-0.8924775,0.40000585,-0.13523565,0.01317697,-0.3355452
0.48202074,0.18314952,0.3412762,0.09089618,0.37215078,-0.30571032,-1.0220679,-1.0652834,0.40001038,-0.13912478,0.26813096,-0.37797943
0.45466605,-0.044590633,0.31050205,0.040197264,0.32938972,-0.43266696,-1.2877526,-0.78096056,0.39998844,-0.14772204,0.4682208,-0.31707323
0.4510054,-0.1918427,0.20223866,-0.20416719,0.08961638,-0.9012487,-1.4062814,-0.28218427,0.39996016,-0.1952878,0.5826472,-0.169617
0.43599448,-0.32307902,0.4000002,-0.18043332,-0.35897726,-0.8378839,-0.8359953,0.2629809,0.15327848,-0.25444922,0.62598765,-0.046750955
0.92111725,0.09087756,0.40000018,0.056255747,-0.10489052,-0.5104251,-0.32539618,-0.14340007,-0.00024259867,0.338487,0.16510801,-0.7375527
0.72716105,0.76476026,0.38874954,0.044370104,0.16605872,-0.5085788,-0.31533515,-0.31553602,-0.025532912,0.16149461,-0.509606,-0.6227831
0.5684652,0.90615183,0.1919122,0.06668179,0.35661247,-0.38347957,-0.3255922,-0.469534,-0.10270247,-0.075007506,-0.68210125,-0.41087
0.4563362,0.5584631,0.17868471,0.03473873,0.39454088,-0.42452055,-0.458888,-0.8868267,0.40000364,-0.14539406,-0.15224653,-0.19100139
0.51665115,0.29588062,0.33924493,0.015797,0.40769112,-0.3717591,-0.93450695,-1.0990747,0.40002778,-0.10223269,0.11347294,-0.35697275
0.51873994,0.04471178,0.36073375,0.03408102,0.42042485,-0.30953914,-1.1968313,-0.983668,0.40000468,-0.099520005,0.37211555,-0.38791648
0.52831,-0.17716369,0.24380133,-0.12362897,0.21569416,-0.7133894,-1.389938,-0.5047009,0.3999546,-0.13872261,0.5971149,-0.2572976
0.50933313,-0.29219177,0.08239713,-0.2621485,-0.18122247,-1.0926056,-1.1029848,0.2104271,0.34565523,-0.25434572,0.6684598,0.027890785
0.957618,0.08431854,0.4000002,0.01683999,-0.055958405,-0.5552947,-0.3278442,-0.20655191,0.060375378,0.3034208,0.1973741,-0.8199028
0.6608758,0.94487953,0.28337982,0.036150377,0.2866288,-0.4452224,-0.33738518,-0.46166417,-0.02572838,-0.024606444,-0.64957553,-0.48465478
0.45024106,0.5709451,0.16907068,0.051789377,0.31891027,-0.3992758,-0.39885145,-0.8579176,0.3275767,-0.20447935,-0.10728306,-0.2527677
0.50112116,0.18313517,0.3505369,0.06141331,0.42614007,-0.29882294,-0.9925094,-1.1053717,0.40000287,-0.17905599,0.26997355,-0.3888297
0.47587508,-0.045012996,0.31632832,0.07230394,0.403984,-0.3361117,-1.2377177,-0.8981998,0.39234692,-0.18215676,0.4922285,-0.35467297
0.45859092,-0.23539454,0.15920481,-0.2018319,0.07931623,-0.89223725,-1.3484337,-0.23084073,0.3999594,-0.23939575,0.6387067,-0.15235661
0.64000094,-0.38299626,0.4000002,0.07956211,-0.4289603,-0.31000915,-0.40693542,0.07833382,-0.023213936,-0.13994758,0.70922637,-0.44386342
0.89163435,0.39787278,0.40000013,0.03652967,-0.027731635,-0.53047633,-0.28179628,-0.34141707,0.042518068,0.26147518,-0.055176415,-0.78292763
0.6342613,0.9916311,0.26043534,0.06004909,0.23471063,-0.4595464,-0.27866915,-0.48868406,-0.098275654,0.01001543,-0.68184525,-0.4809505
0.48545897,0.52795017,0.17686191,-0.002895636,0.23602398,-0.4954458,-0.4350464,-0.8319971,0.39999336,-0.1665384,-0.11988241,-0.25497624
0.5700955,0.393193,0.26457247,0.022869423,0.2751606,-0.4588388,-0.5689918,-1.0639008,0.39999694,-0.20726623,0.1320168,-0.28725016
0.5596736,0.23924991,0.29419413,0.027317448,0.33174044,-0.35887933,-0.8245763,-0.97662246,0.4000042,-0.18564738,0.49625894,-0.26494023
0.48510784,0.04169129,0.24042545,-0.014031418,0.41304913,-0.38146648,-1.2655213,-0.7928592,0.39997754,-0.19274966,0.6072187,-0.13034877
0.47811067,-0.087641075,0.07305259,-0.31348184,0.1630127,-0.9938935,-1.3403072,-0.15776664,0.3999963,-0.34882474,0.62633675,0.16786051
0.86903924,-0.21182962,0.40000018,0.04295185,-0.09998696,-0.3983233,-0.068535335,-0.06145043,-0.02625143,0.03605796,0.50827605,-0.6567941
0.6913481,0.72915065,0.34859467,0.04337689,0.17949934,-0.4409068,-0.09706782,-0.2608648,0.04692634,0.2479453,-0.65612596,-0.65675825
0.36827007,0.6270009,0.08934032,0.062058628,0.39822066,-0.29831415,-0.13344848,-0.51714265,0.080998994,-0.08481275,-0.59714746,-0.46000466
0.37340453,0.43624634,0.26098686,0.035839345,0.28847426,-0.29329965,-0.40706593,-1.0527643,0.34190708,-0.24311024,0.03944285,-0.11938441
0.36849707,0.09829622,0.4069756,-0.017565822,0.35091376,-0.27850777,-1.0588679,-1.1055542,0.40003672,-0.15786408,0.3349641,-0.23989433
0.3732952,-0.1636203,0.34186378,-0.12274669,0.20035803,-0.6726629,-1.3529794,-0.56374496,0.39995083,-0.18656072,0.5518172,-0.16844425
0.31914234,-0.32005262,0.3481594,-0.30611,-0.32797104,-1.094734,-0.98326486,0.2674726,0.22201315,-0.3016359,0.62052214,0.14254428
0.8929476,0.06455135,0.40000024,0.08261602,-0.17709273,-0.4798279,-0.28996995,-0.18277639,0.08257345,0.2979597,0.1616319,-0.6937887
0.6587551,0.853751,0.37300953,0.05771575,0.19747294,-0.49387768,-0.2892062,-0.43258548,0.04256948,0.10034062,-0.64006376,-0.60497403
0.37533984,0.6925822,0.057193574,0.068099186,0.32558817,-0.41870868,-0.3199035,-0.7323145,0.22480612,-0.2149239,-0.35696492,-0.025709208
0.4725948,0.2979156,0.32403055,0.031110309,0.32988107,-0.3646461,-0.839486,-1.059293,0.4000056,-0.13606603,0.039581124,-0.32732677
0.47110122,0.037315343,0.3342368,0.026293641,0.27633905,-0.49932832,-1.1889564,-0.9021383,0.39996848,-0.13523173,0.32217368,-0.37560475
0.49831137,-0.22851221,0.24920072,-0.19007632,-0.0039677597,-0.7629285,-1.3227495,-0.3038512,0.37840173,-0.17603321,0.55884796,-0.24450648
0.49072462,-0.35212004,0.40000013,-0.07965493,-0.3443569,-0.75883514,-0.6964891,0.21321623,0.14245151,-0.2893475,0.63047254,0.035542063
0.95551693,0.23290813,0.40000013,0.02572038,-0.022283262,-0.5808404,-0.2590584,-0.3416347,0.07838323,0.28618148,0.059951454,-0.8172406
0.6657395,0.89802814,0.31235355,0.07581769,0.21543212,-0.49725273,-0.27334702,-0.48550153,-0.032306653,0.00892163,-0.6201186,-0.51786256
0.3880807,0.6628502,0.06847301,0.10627114,0.3370932,-0.41443938,-0.2178162,-0.8024478,0.18226174,-0.20581502,-0.21236148,-0.11149092
0.45602217,0.3740396,0.26920977,0.08040848,0.3438772,-0.34751648,-0.7463961,-1.0773365,0.40000418,-0.13082078,0.10136287,-0.33377957
0.46365803,0.09420217,0.31494284,0.10952135,0.39023206,-0.2371998,-1.1035941,-1.0495733,0.40004298,-0.1315286,0.37341657,-0.35363135
0.456236,-0.14848793,0.20994869,-0.101869576,0.13886419,-0.7277211,-1.3341713,-0.46493515,0.40000024,-0.14837036,0.6188279,-0.24352531
0.4157052,-0.22541915,0.013572485,-0.3271278,-0.16029342,-1.1564233,-1.1804081,0.15971112,0.38780338,-0.25276366,0.66629606,0.01620377
0.88012934,0.055165242,0.4000002,0.061340097,-0.14939237,-0.5004317,-0.29538265,-0.12911509,0.045492243,0.33641666,0.15150127,-0.72440434
0.6757116,0.8455185,0.40000004,0.07033202,0.18975599,-0.47076488,-0.28205305,-0.35257718,-0.023108516,0.117689095,-0.6883284,-0.54794246
0.36334562,0.7437029,-0.014357229,0.1164861,0.36963055,-0.30049282,-0.3069392,-0.65400153,0.10977301,-0.2297323,-0.36967713,0.034045674
0.47835264,0.3291254,0.3116653,0.056802806,0.3269987,-0.47617617,-0.79181814,-1.046264,0.40000695,-0.13738786,0.094016306,-0.30485258
0.47235352,0.08459668,0.32092533,0.0915882,0.32338762,-0.34896654,-1.1122046,-1.0146924,0.39797923,-0.15725784,0.32155222,-0.30498797
