ancorasir/BennettWheelLegRL/experiment_data/2023-12-27_22-47-53/joint_position_env13.csv
Joint_1,Joint_2,Joint_3,Joint_4,Joint_5,Joint_6,Joint_7,Joint_8,Joint_9,Joint_10,Joint_11,Joint_12
0.17951947,-0.0,-0.0,-0.40592483,0.0,0.0,-0.34802297,-0.0,-0.0,0.2171895,-0.0,0.0
0.35764283,0.28858367,0.37203255,0.04308834,-0.114891805,0.26743793,0.07972179,-0.22191565,-0.15184899,0.122278646,-0.38270196,-0.4995679
0.23536958,0.6258052,0.059319653,0.08021644,0.120305225,-0.035147246,0.016615674,-0.51113456,0.013163486,-0.06778856,-0.3961231,-0.060157083
0.35552612,0.38582465,0.086661935,0.22545967,0.27181846,-0.116659395,-0.1992082,-0.99796844,0.4000069,-0.14847203,-0.16337872,-0.3994873
0.43879852,0.030437218,0.22459933,0.38967142,0.3630688,0.08847832,-0.57460916,-1.1949866,0.39999962,-0.23426701,0.13797088,-0.44579914
0.4191431,-0.1965348,0.095387235,0.3430184,0.47640342,0.025305856,-1.0882677,-0.7276902,0.3999177,-0.22313562,0.48840618,-0.4300781
0.4227163,-0.26768416,-0.1244691,-0.16733065,0.1979664,-0.9170227,-1.3913512,-0.22906496,0.4000216,-0.33956513,0.5871626,-0.22680597
0.56796324,-0.34896216,0.4000002,-0.0037311488,-0.2282477,-0.41800132,-0.5240868,0.16639586,0.030244565,-0.25414753,0.6188259,-0.2850835
0.84295404,0.47970507,0.40000015,0.04802871,0.10591383,-0.48038375,-0.25432396,-0.29072958,0.09255503,0.3442993,-0.24788673,-0.72668505
0.6305026,0.89333564,0.21925583,0.06090905,0.33341378,-0.35981607,-0.2563917,-0.48749018,0.024288563,-0.058777064,-0.68291855,-0.45577174
0.44364852,0.6092418,0.12131416,0.060771264,0.34925318,-0.4022571,-0.32651612,-0.87590134,0.36033168,-0.17995393,-0.16276485,-0.087062225
0.48270264,0.3043832,0.29109314,0.10246128,0.41251862,-0.15938538,-0.8306229,-1.1865721,0.39999735,-0.097573444,0.15923251,-0.26315135
0.45296523,0.053658366,0.30234078,0.10231209,0.39367118,-0.22107807,-1.1820956,-0.974751,0.3999799,-0.07326294,0.39395523,-0.26439023
0.4453486,-0.1792204,0.14307302,-0.25823537,0.0351544,-0.9978297,-1.4050295,-0.14879496,0.38665745,-0.1303529,0.59867626,-0.073635824
0.8402064,-0.19127111,0.4000002,0.06659323,-0.31906393,-0.46813676,-0.31549135,-0.017048396,-0.035164088,0.14794672,0.5236467,-0.6084752
0.84493476,0.5466335,0.40000013,0.053123552,0.013319269,-0.5646473,-0.36753184,-0.25076026,0.046402898,0.24433501,-0.24146873,-0.7529579
0.60718024,0.95694846,0.23250665,0.059875473,0.29480463,-0.45505312,-0.38203287,-0.46876517,-0.04233257,-0.05812396,-0.63549477,-0.417497
0.45871574,0.57604754,0.19721714,0.09153683,0.33452696,-0.3970811,-0.4609258,-0.8464858,0.39100575,-0.10913492,-0.1592666,-0.29538482
0.4740219,0.24354053,0.3453099,0.10832347,0.39542243,-0.19877815,-0.8997889,-1.1177807,0.3999996,-0.07430228,0.18784694,-0.42958727
0.48433053,-0.10606895,0.337481,0.0064524217,0.27737188,-0.5753583,-1.3062745,-0.7408157,0.39999935,-0.09516921,0.5204082,-0.38350636
0.46795738,-0.26082736,0.13922076,-0.27043226,-0.032990612,-0.9611169,-1.3474895,-0.1272569,0.39998144,-0.1613943,0.66112745,-0.16169225
0.68175715,-0.35260555,0.40000024,0.03175836,-0.38335222,-0.42007402,-0.30957952,0.028495116,-0.051569242,-0.09002086,0.69900346,-0.45816064
0.90510255,0.47210908,0.40000013,0.020802971,-0.019190796,-0.5598211,-0.27490592,-0.29766852,0.067437425,0.23583838,-0.07860344,-0.8139121
0.6411538,0.9399923,0.3014439,0.07676216,0.25068787,-0.49351653,-0.30769125,-0.46722668,-0.012725978,-0.03135347,-0.63181883,-0.5590443
0.40989357,0.68774533,0.02845662,0.09618661,0.3451323,-0.399546,-0.2775308,-0.77318066,0.16058078,-0.19608763,-0.28692043,0.03469441
0.53887916,0.3225133,0.28970674,0.038731467,0.33796164,-0.41559705,-0.7782085,-1.0576798,0.40000266,-0.07639778,0.1295165,-0.36715293
0.53401995,0.045419794,0.29639226,0.06891525,0.34221578,-0.42495245,-1.1921937,-0.98904824,0.40000018,-0.09803121,0.3967598,-0.35308704
0.53343135,-0.14048596,0.22246076,-0.12156795,0.10919121,-0.7476972,-1.3627384,-0.50381404,0.3999596,-0.10854473,0.5771242,-0.25038728
0.51681775,-0.24184953,0.040822167,-0.3050167,-0.13753806,-1.0626352,-1.2308134,0.074240744,0.3855946,-0.17207666,0.66268307,-0.03903401
0.7120805,-0.3197703,0.40000027,0.100477144,-0.39433855,-0.36956048,-0.3409204,0.0651186,-0.037900012,-0.0472492,0.62352234,-0.35965514
0.9388844,0.3154729,0.40000015,0.10079739,-0.04965515,-0.55302566,-0.3138445,-0.20381698,0.029771011,0.25598943,-0.066842616,-0.7681315
0.68634635,0.89665484,0.30134186,0.120186165,0.1739962,-0.50239813,-0.3182925,-0.35371417,-0.046895925,0.00089673384,-0.57896405,-0.5191008
0.31982082,0.7476916,0.009166579,0.15487367,0.30316254,-0.4147731,-0.2936656,-0.69862497,0.1600815,-0.17144778,-0.25495017,-0.009771358
0.46020678,0.4207747,0.2980339,0.13782121,0.354016,-0.37565994,-0.6455672,-1.0130864,0.40000093,-0.08828492,0.08616767,-0.3012896
0.43635863,0.15210845,0.35187307,0.14465705,0.3955147,-0.30854097,-1.0786333,-1.0036241,0.3999972,-0.06422782,0.33791235,-0.32785553
0.4521995,-0.059019282,0.31509933,-0.02836002,0.31530732,-0.63623667,-1.3727968,-0.6307075,0.399993,-0.0989489,0.5145214,-0.2424693
0.45386797,-0.20661215,0.17924972,-0.31991336,-0.041598022,-1.0723684,-1.3521651,-0.08272357,0.39627022,-0.1706213,0.6120842,-0.047353268
0.5816771,-0.33570075,0.40000018,-0.009905757,-0.3942894,-0.47323063,-0.51624894,0.14029478,0.017733289,-0.17618532,0.6576337,-0.17530812
0.9360704,0.267057,0.40000013,0.030504785,-0.029281339,-0.53879446,-0.2959886,-0.16686025,-0.029738532,0.26604307,0.03460353,-0.8361753
0.6494232,0.8873847,0.27452832,0.074778795,0.21534337,-0.47181284,-0.32979235,-0.34568208,-0.062058054,0.028430376,-0.5920844,-0.52791613
0.31180382,0.6981347,-0.01671375,0.10701255,0.37628272,-0.3834993,-0.3613102,-0.66506064,0.20951642,-0.18199283,-0.32255325,-0.04388551
0.48433623,0.22787158,0.34345326,0.061520595,0.32687038,-0.46565142,-0.89317423,-1.0071908,0.4000041,-0.10395977,0.14564525,-0.36696067
0.4655144,0.014171581,0.312397,0.029408153,0.30911523,-0.4410926,-1.1629105,-0.86971956,0.40000045,-0.11066854,0.3833486,-0.3786421
0.47876492,-0.21862465,0.19698067,-0.20965536,0.10585458,-0.8003963,-1.4093628,-0.373776,0.39995962,-0.15991092,0.58460325,-0.2101109
0.43397108,-0.329143,0.1408874,-0.2834749,-0.22523223,-1.0989461,-1.1163546,0.1576644,0.30491373,-0.25902557,0.6318609,0.04747269
0.95023185,0.14260308,0.40000015,0.029637048,-0.06451092,-0.5757575,-0.2542556,-0.15897408,-0.010112818,0.20795007,0.13907985,-0.8390507
0.7236064,0.8296492,0.40000004,0.06374803,0.19768769,-0.544003,-0.28035578,-0.33044493,-0.039344892,0.0922336,-0.5257707,-0.6268871
0.35452297,0.71862286,0.03281837,0.16009223,0.35591978,-0.30284384,-0.32133093,-0.6244246,0.033806495,-0.21110539,-0.27679434,-0.07191062
0.45949888,0.34011388,0.31136855,0.08725918,0.2716295,-0.5023348,-0.8235354,-0.9805966,0.4000087,-0.12722088,0.11595572,-0.35459805
0.45762372,0.034228306,0.3318373,0.0760585,0.2888522,-0.3854593,-1.1621008,-0.9204753,0.39387766,-0.1498245,0.39714488,-0.34604686
0.42838576,-0.16301027,0.22153437,-0.11568325,0.20260951,-0.7562341,-1.3641007,-0.47510132,0.3999587,-0.17544146,0.5725825,-0.21935749
0.4031965,-0.32325467,0.19133583,-0.26135626,-0.25551233,-1.1387428,-1.0265946,0.22418477,0.26059082,-0.28711706,0.6395497,0.041480538
0.94403493,0.1606134,0.40000018,0.059036147,-0.044430744,-0.5297872,-0.3453507,-0.17998084,0.021034641,0.26894647,0.11070865,-0.81291103
0.7434985,0.84188485,0.39498627,0.067273244,0.20112452,-0.4920364,-0.33571702,-0.33696705,-0.033189777,0.10895426,-0.56762564,-0.63129693
0.47454402,0.8646162,0.046023466,0.11036852,0.37694472,-0.32207075,-0.36542723,-0.5974221,0.06744792,-0.19469848,-0.45148936,-0.0029577443
0.45874912,0.45355096,0.2648347,0.0721604,0.41989553,-0.35366833,-0.6624219,-1.0104427,0.39999676,-0.0982244,-0.020024743,-0.30916056
0.46532306,-0.011204494,0.2982261,0.089153394,0.42588797,-0.27510715,-1.250001,-0.82686466,0.39999872,-0.09699393,0.47598746,-0.3634582
0.43826646,-0.2581655,0.08574296,-0.33542538,-0.2099063,-1.0859389,-1.1455714,0.17438647,0.35409528,-0.22519213,0.6416213,-0.028485913
0.88879466,0.012688857,0.40000018,-0.0030609574,-0.12802826,-0.50386107,-0.27328664,-0.2451069,0.13691801,0.37862632,0.25474986,-0.7380614
0.73757845,0.7046793,0.39013445,0.0031019773,0.13320799,-0.4849131,-0.2574117,-0.40761623,0.06792939,0.21289068,-0.5004036,-0.6103671
0.5290793,0.8690657,0.10451755,0.03815783,0.33127955,-0.31797823,-0.2821681,-0.58970696,-0.05079838,-0.1424307,-0.59492415,-0.36506665
0.48746628,0.47075346,0.24113752,0.024364984,0.3546909,-0.37527004,-0.57318336,-1.0201465,0.3999987,-0.14453484,-0.014938668,-0.24442288
0.48765603,0.17905143,0.3370398,0.03511926,0.44578236,-0.1547342,-1.0462505,-1.1774718,0.39640424,-0.10245316,0.27508014,-0.31424588
0.46018815,-0.06761608,0.300222,0.012534063,0.43991446,-0.40762025,-1.2962785,-0.8246657,0.39997044,-0.097616985,0.5086642,-0.29790744
0.44930348,-0.20292532,0.1452983,-0.26885545,0.05980264,-1.0279931,-1.3555938,-0.2001168,0.39999968,-0.16290636,0.630143,-0.14568254
0.5984744,-0.3047672,0.40000024,0.0579752,-0.45155546,-0.32750887,-0.39436662,0.10655441,-0.008475655,-0.07484133,0.65240645,-0.40393323
0.8743704,0.4099095,0.40000015,0.030446257,-0.08982263,-0.504597,-0.28303292,-0.2648374,0.04943899,0.24539553,-0.13021265,-0.76501614
0.629111,0.9485958,0.21025117,0.055775,0.23804224,-0.46436152,-0.3087511,-0.47648007,-0.032151226,-0.017882455,-0.66421103,-0.5062374
0.456251,0.5671579,0.1554439,0.088099524,0.37387148,-0.34539554,-0.37782127,-0.8714143,0.35829854,-0.17274496,-0.15269509,-0.23729107
0.49764058,0.29450405,0.2986673,0.1357324,0.42228997,-0.11631405,-0.8374154,-1.1557021,0.40000167,-0.12380627,0.1506392,-0.40038136
0.49429104,-0.025984516,0.31762603,0.0926736,0.46809426,-0.18993753,-1.2190735,-0.85159737,0.3999749,-0.09924473,0.49220255,-0.40692613
0.48848096,-0.1788535,0.18663053,-0.23479141,0.12155242,-0.83979553,-1.419928,-0.32092145,0.39996654,-0.1591706,0.62452894,-0.24896884
0.6714228,-0.32994428,0.40000018,0.046319768,-0.3437163,-0.41174096,-0.36329016,0.040092528,-0.06821755,-0.0031476407,0.6563407,-0.43601137
0.8919211,0.4574848,0.40000013,0.06276819,0.008610837,-0.52633744,-0.32932284,-0.2567397,-0.01901619,0.29245564,-0.23831986,-0.79800004
0.56015396,0.91896343,0.19942968,0.10417154,0.28495824,-0.4099349,-0.34851006,-0.4490126,-0.12856314,-0.09877059,-0.6297111,-0.39860526
0.43211836,0.5322488,0.21642266,0.024830678,0.2963956,-0.4849871,-0.50332713,-0.81152385,0.40003684,-0.0851638,-0.094924785,-0.2831194
0.47827074,0.21431737,0.33316228,0.07812844,0.40629303,-0.28190896,-1.0113976,-1.1309651,0.40000302,-0.10204053,0.21497995,-0.34918353
0.43963757,-0.06780968,0.26953784,0.0871647,0.43608052,-0.29514667,-1.2651685,-0.8147775,0.39999992,-0.09735612,0.5083567,-0.31004658
0.4473087,-0.23698223,0.06181292,-0.26495615,-0.06997906,-1.0337802,-1.2956418,-0.08230059,0.3871749,-0.19986667,0.650909,-0.07832926
0.8316523,-0.16587403,0.4000002,0.035593703,-0.2897975,-0.43072367,-0.26155183,-0.13827282,0.0058983206,0.21098411,0.49092677,-0.65077114
0.87242186,0.57216597,0.4000001,0.02639072,0.037200764,-0.5270639,-0.2841578,-0.32753682,-0.0069452506,0.23728019,-0.21910363,-0.77227163
0.6053073,0.96374536,0.23164213,0.055371463,0.2536858,-0.41894627,-0.2720352,-0.47570375,-0.13343486,-0.0509891,-0.696854,-0.39866805
0.47251534,0.5905572,0.122778475,0.05442203,0.27132878,-0.5050326,-0.44381887,-0.92478263,0.40000317,-0.15467976,-0.07178879,-0.26805484
0.534696,0.23278867,0.2845242,0.095582955,0.3908707,-0.27283522,-0.94597167,-1.1279414,0.38962293,-0.13914809,0.29504743,-0.36859718
0.5010816,-0.07362447,0.26701742,-0.045126583,0.23768848,-0.68046886,-1.3372451,-0.68034464,0.39999515,-0.13782378,0.5408442,-0.27422756
0.45809838,-0.27752462,0.20223902,-0.29732144,-0.1781201,-1.191631,-1.1268711,0.1911063,0.30818442,-0.24484421,0.6233108,0.05613101
0.8944154,0.2642603,0.40000015,0.008775805,-0.09536438,-0.55013126,-0.23741734,-0.2300443,0.103440806,0.25002983,-0.040387347,-0.71249115
0.68683034,0.8761908,0.39599317,0.026583504,0.18555306,-0.5380194,-0.24856538,-0.40629196,0.05217709,0.073078625,-0.68207616,-0.6010631
0.42344257,0.7196114,0.0345328,0.09001474,0.3627457,-0.32957855,-0.30960488,-0.6461898,0.0076820613,-0.25992933,-0.34335107,-0.15992457
0.5156323,0.33589667,0.2787092,0.078182004,0.40948144,-0.3513847,-0.7758312,-1.0581205,0.40000156,-0.18734375,0.081596136,-0.3900928
0.52939945,0.035126176,0.31499818,0.13836789,0.4626466,-0.08977448,-1.0909456,-1.0561712,0.4000012,-0.19182272,0.39346597,-0.40714702
0.48489198,-0.18338075,0.20484404,0.040143065,0.45422137,-0.3259942,-1.2871708,-0.669758,0.40000135,-0.192162,0.6141314,-0.30628237
0.4378574,-0.2933007,-0.0037293378,-0.3127135,-0.09882043,-1.1738007,-1.2735648,0.10346253,0.3999969,-0.28438184,0.6786858,-0.032812066
1.0079179,0.0251783,0.40000018,0.06791363,-0.13948502,-0.52732325,-0.33496663,-0.19303542,0.073860556,0.2103918,0.2350898,-0.868633
0.6545324,0.96037805,0.29258814,0.087869845,0.24307258,-0.47657773,-0.3353877,-0.43782166,-0.019685438,-0.02240858,-0.6133871,-0.5154353
0.4689984,0.5352583,0.19704618,0.097872786,0.32024175,-0.44216067,-0.45061037,-0.8642421,0.3999924,-0.12415923,-0.17371094,-0.27695674
0.501805,0.16951817,0.32663646,0.163695,0.4082077,-0.24075066,-0.9808675,-1.1087233,0.3999777,-0.09412364,0.23373714,-0.42534667
0.5051729,-0.14733051,0.30624473,-0.036723714,0.20860216,-0.61045444,-1.3467878,-0.6711387,0.38987467,-0.11206058,0.5103313,-0.33698547
0.46272072,-0.32900962,0.060162947,-0.25849807,-0.19689204,-1.106778,-1.1629941,0.12594253,0.33498523,-0.1809883,0.657293,-0.046495136
0.8723849,0.044480063,0.40000018,0.0656669,-0.1705627,-0.5900944,-0.34611908,-0.087665685,-0.0036162601,0.30807436,0.17273761,-0.6765796
0.7140912,0.7316939,0.4,0.08141727,0.1038616,-0.60045344,-0.3616407,-0.26052314,-0.020086324,0.14569266,-0.45845214,-0.6252648
0.5286942,0.85645413,0.11792177,0.108533755,0.34721646,-0.44280928,-0.3921875,-0.46978337,-0.10562756,-0.17701082,-0.5208669,-0.2095459
0.47818372,0.555474,0.1553073,0.102270015,0.4015993,-0.37223512,-0.45828533,-0.83334947,0.40002942,-0.23194356,-0.1377103,-0.25511304
0.488638,0.21231604,0.28690967,0.13929082,0.44423768,-0.17260051,-0.96818066,-1.1101134,0.40001804,-0.1994834,0.21982898,-0.39692906
0.46511078,-0.021662124,0.25557524,0.13691132,0.4697646,-0.29561025,-1.2236347,-0.85672206,0.39996302,-0.1981754,0.4761869,-0.39599663
0.47001037,-0.18161699,0.15187185,-0.18533413,0.098235235,-0.79723686,-1.3816037,-0.32377076,0.39994764,-0.24833435,0.61058486,-0.25643024
0.49015993,-0.35404426,0.39195988,-0.12720333,-0.26696724,-0.7616665,-0.8330551,0.27497646,0.15145932,-0.37414676,0.6269505,0.010733228
0.94004804,0.4189254,0.4000001,0.061306626,0.009564366,-0.51736975,-0.2502647,-0.18579918,-0.04746314,0.2245843,-0.05280975,-0.89167786
0.4369333,0.85649586,0.0555878,0.1346554,0.33304924,-0.35726693,-0.3296312,-0.49029842,-0.08992094,-0.13432838,-0.45427427,-0.1922394
0.41615286,0.4248141,0.27724302,0.11598722,0.35350186,-0.3375148,-0.6142973,-1.0493102,0.40000162,-0.11005178,0.019256234,-0.29340523
0.4270182,0.079395786,0.36749005,0.14477798,0.41420746,-0.24200183,-1.1025602,-1.0517585,0.39999783,-0.08939639,0.3479751,-0.34406373
0.42541468,-0.20611867,0.2870684,-0.17648597,0.17614885,-0.81251305,-1.3968214,-0.43600476,0.3999837,-0.1107727,0.59628385,-0.23761907
0.3761798,-0.32857588,0.3094411,-0.28113288,-0.2878691,-1.1795019,-1.0682796,0.25778973,0.2956581,-0.2267463,0.64391005,0.046231244
0.84749013,-0.05163587,0.40000018,0.061649136,-0.22591035,-0.5162815,-0.3089212,-0.10368551,0.06139855,0.2941869,0.27797705,-0.6912284
0.75639904,0.57520336,0.40000004,0.052242287,0.079947725,-0.5742658,-0.3273018,-0.30982673,0.10945872,0.26850623,-0.40661332,-0.62971145
0.6212234,0.90202945,0.29025668,0.050285567,0.30504924,-0.46946943,-0.31674704,-0.4838062,0.022034481,-0.005195814,-0.764061,-0.4462596
0.46314222,0.597661,0.120542385,0.14010175,0.32970098,-0.4763636,-0.3862008,-0.80489445,0.37648106,-0.15474561,-0.1589691,-0.21756214
0.5177543,0.2615632,0.28264627,0.17720467,0.44593412,-0.2402006,-0.8985235,-1.1455742,0.39874348,-0.1170396,0.20481297,-0.38188854
0.50368714,0.0039825854,0.27836525,0.16179442,0.39885175,-0.35770363,-1.1700876,-0.9206637,0.3999779,-0.11212545,0.46435076,-0.3668745
0.5016996,-0.2075698,0.10781148,-0.287181,-0.033362146,-1.0834411,-1.3388296,-0.11046079,0.39997527,-0.195049,0.6254974,-0.12873608
0.9042433,-0.27454317,0.40000024,0.10660023,-0.30165336,-0.42374423,-0.2968418,-0.07373868,-0.05604601,0.12059891,0.53424364,-0.6911937
0.8084812,0.71701336,0.40000007,0.105383806,0.09620085,-0.53939974,-0.3433797,-0.31183958,-0.015342555,0.13267024,-0.34668276,-0.7531321
0.45215067,0.7955293,0.06636588,0.13095902,0.34633225,-0.38459438,-0.3659497,-0.5561222,-0.0040262267,-0.21490563,-0.38758326,-0.112551816
0.48654252,0.3929343,0.27118474,0.13893114,0.44576916,-0.26552337,-0.7076284,-1.0315418,0.399999,-0.13760415,0.038127784,-0.40908906
0.48703998,0.1377826,0.31265527,0.21430819,0.45886558,-0.0203167,-1.0048687,-1.050331,0.39995494,-0.13688625,0.32140175,-0.45600063
0.4712094,-0.080952965,0.24649511,0.17906012,0.50020075,-0.36449394,-1.2742528,-0.701432,0.39997974,-0.13651523,0.58050424,-0.41539252
0.42739376,-0.24812642,0.09218045,-0.33243942,-0.12952805,-1.153091,-1.1931148,0.19406134,0.35576138,-0.27496833,0.67430913,-0.07691271
0.8834534,-0.18460983,0.40000015,0.010866652,-0.2584692,-0.461776,-0.27666798,-0.12833203,0.037178557,0.14659722,0.45192593,-0.71272755
0.7629754,0.7163821,0.40000004,0.021757606,0.082497485,-0.50191057,-0.28259292,-0.3318134,0.0018665101,0.12837833,-0.43835366,-0.69814813
0.5534486,0.9000963,0.18487269,0.0670656,0.2831185,-0.38780233,-0.3095612,-0.48345986,-0.09834829,-0.08973774,-0.6235328,-0.41946384
0.5007735,0.42528045,0.27356,0.044985734,0.3441312,-0.40667182,-0.5693587,-0.9326937,0.40000108,-0.13873412,-0.08945338,-0.30570945
0.4979823,0.09831864,0.3498803,0.08345823,0.4230441,-0.13068,-1.0198146,-1.1281885,0.37575373,-0.09653127,0.2797907,-0.43859142
0.48979414,-0.14955562,0.2611471,-0.030185489,0.34967783,-0.57938355,-1.3524994,-0.658729,0.399963,-0.11603466,0.56366414,-0.3930448
0.46482924,-0.33983088,0.21497047,-0.2577637,-0.23129675,-1.0424234,-1.0760725,0.20410012,0.3037485,-0.22889242,0.67144173,-0.098235786
0.9491562,-0.05300433,0.4000002,0.04017815,-0.17487934,-0.54179484,-0.44852227,-0.04770211,-0.00886317,0.23482043,0.23894128,-0.77739143
0.69169945,0.87702024,0.4,0.018711435,0.22271778,-0.5536991,-0.42972377,-0.29105848,-0.052912813,0.08646605,-0.60176736,-0.61351585
0.3786432,0.7350629,0.057905164,0.0470063,0.37734434,-0.43010744,-0.4661793,-0.65437454,0.2689604,-0.14727141,-0.30462348,-0.1661375
0.48715886,0.32796058,0.336734,0.100663126,0.4522527,-0.2205265,-0.8889011,-1.1595647,0.4000027,-0.121026084,0.10226445,-0.3584562
0.46957883,0.05792546,0.36779445,0.10205265,0.42716643,-0.31010836,-1.2098159,-0.9920891,0.39997724,-0.107375845,0.368694,-0.3859207
0.495382,-0.18446997,0.30244365,-0.11467584,0.29663345,-0.73287386,-1.4468546,-0.53390497,0.39996308,-0.15901189,0.56679726,-0.2741757
0.46670288,-0.2969792,0.10481235,-0.30385858,-0.1298747,-1.1696032,-1.2515637,0.12283687,0.3890579,-0.23301046,0.6461218,-0.046107326
0.91493607,-0.13002905,0.4000002,0.04453991,-0.2326662,-0.46795407,-0.29131824,-0.13940029,0.08895481,0.29531527,0.28653523,-0.6825397
0.73045623,0.8067305,0.35339215,0.035376854,0.14405623,-0.49736148,-0.29291368,-0.38913944,0.06617278,0.13561012,-0.6541012,-0.6333149
0.53534186,0.8141089,0.18050711,0.049343217,0.3562323,-0.3722913,-0.32205272,-0.5720394,-0.018552342,-0.12426555,-0.64041644,-0.460282
0.44919986,0.49441704,0.23558322,0.07209503,0.36387482,-0.33505124,-0.4850875,-0.9769106,0.39998162,-0.1722776,-0.107809134,-0.26067588
0.45472628,0.1310736,0.35981697,0.11324011,0.42417607,-0.034272652,-1.0318619,-1.1280848,0.38086766,-0.1292358,0.26151654,-0.3840051
0.44425866,-0.1717528,0.24121957,-0.15568988,0.110247925,-0.78188205,-1.3716464,-0.4197695,0.376918,-0.16810594,0.5646863,-0.26917017
0.427762,-0.32081392,0.21086453,-0.16865766,-0.22719342,-0.97568816,-0.9662832,0.2052719,0.25696066,-0.2789909,0.64228123,-0.032555938
0.86626345,0.28209186,0.4000001,0.034920588,0.08306381,-0.556451,-0.36472824,-0.18480344,-0.014489725,0.31235498,-0.14856294,-0.6657941
0.56516004,0.93420297,0.18631472,0.113660075,0.34682938,-0.34978542,-0.39753735,-0.42577776,-0.13120173,-0.058404822,-0.5880102,-0.29406726
0.46715292,0.43041176,0.27945107,0.12219392,0.4163063,-0.35072562,-0.6686061,-1.0165645,0.40000495,-0.06906392,-0.04130238,-0.27777258
0.47037122,0.059644125,0.33620876,0.18000102,0.40777463,-0.3254011,-1.1604861,-1.0029557,0.39999494,-0.056838907,0.3412322,-0.34030244
0.47771877,-0.16707392,0.24048479,-0.11343505,0.15330248,-0.83186835,-1.3762339,-0.43281263,0.39999896,-0.08296876,0.57090616,-0.24801628
0.5364958,-0.3746309,0.40000018,-0.11327613,-0.44000942,-0.76284575,-0.62936836,0.23497336,-0.051473897,-0.17307015,0.63443726,-0.15812615
0.8577268,0.4372014,0.4000001,0.019799097,-0.04978848,-0.53719825,-0.3339924,-0.2480936,0.06788664,0.2680084,-0.22186261,-0.7094258
0.59640986,0.9360015,0.25714415,0.031143744,0.30727214,-0.4758188,-0.33958948,-0.46879712,-0.03963084,-0.012464823,-0.7203536,-0.48187408
0.39230156,0.6939453,0.056220032,0.08595411,0.34084448,-0.3965914,-0.30674988,-0.69980955,0.08372328,-0.26247653,-0.27875194,0.011217953
0.47418788,0.33547905,0.29302704,0.12117389,0.40863994,-0.34925336,-0.8627588,-1.0690117,0.40000123,-0.14702928,0.1262575,-0.3500418
0.46734995,0.030163987,0.28429663,0.12858137,0.4042233,-0.32008696,-1.2076932,-0.8898562,0.3999636,-0.16355261,0.43534595,-0.33570856
0.4750499,-0.1581887,0.12529665,-0.21268712,0.11140697,-0.9860503,-1.3624846,-0.18020663,0.3981815,-0.23980014,0.60994065,-0.150815
0.62190986,-0.25822705,0.40000018,0.033207674,-0.3286261,-0.389649,-0.32939047,0.0861076,-0.023077928,-0.15210143,0.67266566,-0.44252312
0.8509588,0.62424934,0.4000001,0.060735453,0.06795619,-0.4866193,-0.2211593,-0.35742128,0.04943258,0.17383729,-0.2254593,-0.8000912
0.44391066,0.8528218,0.08604939,0.11224974,0.30296198,-0.33592594,-0.20788333,-0.5929524,-0.010543884,-0.14590257,-0.4751136,-0.18478079
0.44654286,0.3355224,0.30585986,0.05721862,0.29038644,-0.43174872,-0.69346434,-1.0666889,0.40000224,-0.13652317,0.10159929,-0.28591764
0.44280306,0.048487514,0.32059857,0.0669181,0.37737274,-0.31675276,-1.1078507,-0.996665,0.40000045,-0.13293068,0.3856486,-0.30010867
0.46086234,-0.1717818,0.23264322,-0.13305503,0.10336596,-0.6971719,-1.3393004,-0.5049004,0.39995387,-0.18397045,0.5656571,-0.16956937
0.5252326,-0.3534694,0.40000015,-0.035105065,-0.28311265,-0.7399242,-0.67897016,0.19525601,0.028843788,-0.24379209,0.590028,-0.03983608
0.82256913,0.60822564,0.40000004,0.035298742,0.12044164,-0.55094105,-0.19472143,-0.25743443,0.009962884,0.19757818,-0.38388377,-0.71130633
0.46623302,0.8136552,0.076053195,0.13068265,0.33500344,-0.35659114,-0.2828661,-0.57121,0.026647877,-0.13689777,-0.43253013,-0.25136545
0.48640767,0.35615456,0.3016202,0.11635113,0.41014785,-0.3898886,-0.71522707,-1.1007402,0.4000007,-0.113338165,0.14834861,-0.38708186
0.5076394,0.09911816,0.3535807,0.14137162,0.42670617,-0.32175192,-1.0848933,-1.1200359,0.39999524,-0.114075296,0.4066871,-0.41552687
0.51232016,-0.16905454,0.27268144,-0.15656704,0.23020096,-0.8284887,-1.3944587,-0.4653328,0.39998558,-0.15692772,0.6273972,-0.28016505
0.49972406,-0.38565493,0.40000027,-0.19836785,-0.3515143,-0.9565392,-0.8298072,0.29040128,0.15882075,-0.2881485,0.6542271,0.07124615
0.9430714,0.26957074,0.40000018,0.0033263115,-0.0047498117,-0.540242,-0.3179031,-0.19685093,0.031219391,0.25117669,0.08690133,-0.8257787
0.65262115,0.9168352,0.29007444,0.028861877,0.26088428,-0.4349651,-0.31599498,-0.39379415,-0.05011326,0.038282555,-0.6764487,-0.522934
0.41679275,0.5865721,0.15084353,0.062238507,0.37230024,-0.34963858,-0.36969304,-0.81394684,0.32553416,-0.18756437,-0.17020647,-0.18212903
0.47621426,0.24551961,0.33501104,0.089534305,0.43968815,-0.20257014,-0.8965455,-1.1518573,0.4000003,-0.14868648,0.16833505,-0.3444842
0.45865366,-0.0382557,0.3243723,0.14593983,0.43741122,-0.046223555,-1.1721524,-0.90233546,0.3897991,-0.13895044,0.4515357,-0.33740553
0.43912086,-0.21051772,0.17749888,-0.20363764,0.21171515,-0.8594031,-1.4220576,-0.31727788,0.39996946,-0.18731074,0.6083766,-0.18771333
0.58379334,-0.3218523,0.4000002,0.006624947,-0.32661507,-0.5561443,-0.58225745,0.19411531,0.036834177,-0.13803342,0.6755168,-0.2205889
0.87487596,0.4536264,0.40000013,0.020913871,0.08766193,-0.5126791,-0.2850078,-0.31790608,0.13852766,0.3107858,-0.2383275,-0.74327165
0.6909517,0.9330648,0.30064866,-0.0029274812,0.2911249,-0.44365016,-0.2745248,-0.48288038,0.07837088,0.0117292,-0.71487063,-0.5017211
0.36210975,0.767726,-0.0015536109,0.051623918,0.37808046,-0.3260136,-0.31353995,-0.71039116,0.13982171,-0.24440102,-0.30018917,-0.015484047
0.4855414,0.47709954,0.26872545,0.07036511,0.37772778,-0.2700535,-0.65594846,-1.0490222,0.39999533,-0.14635754,0.020219127,-0.3230691
0.4818923,0.19332275,0.35783777,0.11033426,0.43370235,-0.03390394,-0.9818469,-1.1160673,0.3999983,-0.11770933,0.30295298,-0.37530565
0.46935707,-0.010258066,0.32964537,0.07203193,0.4067912,-0.34649733,-1.2520651,-0.84571874,0.39999557,-0.11599151,0.5119261,-0.35312226
0.47401276,-0.17447768,0.24702549,-0.20612136,0.18563008,-0.8703655,-1.4049928,-0.3236575,0.3999446,-0.16104487,0.6273665,-0.2162027
0.48319796,-0.35943356,0.40000033,-0.20451981,-0.33076823,-0.9005186,-0.92295444,0.27400357,0.15896414,-0.25166002,0.64653736,-0.02401121
0.91561586,0.15000218,0.40000015,-0.0048892493,-0.12798369,-0.53792703,-0.2826176,-0.19297369,0.042429723,0.26175734,0.100401424,-0.7765296
0.7035565,0.8110419,0.37189767,0.01055247,0.13418087,-0.5303513,-0.28651434,-0.35123962,-0.009333426,0.10013123,-0.5543611,-0.6004851
0.53842187,0.8314456,0.15865925,0.07094794,0.31891656,-0.40156156,-0.3388221,-0.51392394,-0.08013492,-0.1288091,-0.61869174,-0.38823086
0.4519566,0.56273884,0.18063603,0.0676803,0.32000867,-0.49130923,-0.4623335,-0.79127246,0.39998886,-0.1844415,-0.18317957,-0.2090559
0.5106334,0.32247636,0.30035645,0.09855037,0.43180212,-0.36035228,-0.83062136,-1.0693277,0.40000534,-0.1828982,0.06494456,-0.3219707
0.48367783,0.06511587,0.3097609,0.14151993,0.4426484,-0.21697518,-1.115907,-1.0518066,0.39999992,-0.16604918,0.33961624,-0.36899263
0.44970903,-0.15340503,0.18693972,-0.051175263,0.339652,-0.60072607,-1.3330674,-0.60540223,0.39997104,-0.17755337,0.5872206,-0.29464838
0.42829615,-0.2872757,-0.011592913,-0.35598534,-0.1921114,-1.1655083,-1.2011855,0.20996706,0.36839795,-0.30514705,0.65223897,0.006528636
0.98252875,0.056550838,0.4000002,0.04844725,-0.13365601,-0.51195437,-0.35169703,-0.052683037,-0.015011991,0.32371837,0.22352068,-0.87079024
0.5947751,0.905893,0.2698882,0.052217253,0.28744087,-0.44156837,-0.36600655,-0.3665625,-0.052343898,0.020805994,-0.67305726,-0.50218076
0.43586326,0.586343,0.16569647,0.07808179,0.36062315,-0.4487972,-0.41119677,-0.78447115,0.35157612,-0.1642844,-0.18724662,-0.18837714
0.4818231,0.22758628,0.32407886,0.109334394,0.41743088,-0.28874248,-0.99060917,-1.0752497,0.40000486,-0.13352591,0.18091787,-0.34372017
0.4749467,-0.025246814,0.31687406,0.080666006,0.4148743,-0.34980926,-1.2318428,-0.8482432,0.39999846,-0.13986759,0.42454532,-0.33877176
0.487646,-0.24683803,0.19059494,-0.185608,0.08892518,-0.7888425,-1.3744947,-0.37038425,0.39997494,-0.19748156,0.59920657,-0.15758575
0.49083024,-0.3969005,0.4000005,-0.16476332,-0.33082557,-0.8691391,-0.80187935,0.26312965,0.11478169,-0.30653936,0.633199,0.03319519
0.91770506,0.27524152,0.40000013,0.013925119,-0.06588278,-0.5373376,-0.18966044,-0.32595435,0.1204479,0.32841134,-0.082626045,-0.7750843
0.68742406,0.89400595,0.3307154,0.053902294,0.19132407,-0.4844119,-0.20897971,-0.4878176,0.024079047,0.043529842,-0.6960817,-0.5736035
0.3768507,0.69075376,0.018368034,0.09004838,0.3188087,-0.4173714,-0.26106822,-0.8202248,0.30170205,-0.18230979,-0.20010851,-0.024002932
0.4860647,0.6349887,0.18541838,0.059295367,0.31945932,-0.45671177,-0.53363365,-1.101565,0.39143598,-0.1522528,0.057929765,-0.21792267
0.4841892,0.49533343,0.29993948,0.03272765,0.33562964,-0.37539017,-0.63603973,-0.97852933,0.3999985,-0.3256185,0.6645339,-0.105884306
0.42245328,0.29431108,0.37755784,-0.008626379,0.3620747,-0.41088596,-1.1002593,-0.83846384,0.40000415,-0.3097309,0.7016697,0.068617396
0.33660322,0.057642277,0.35635245,-0.421051,0.06042569,-0.9980541,-1.2431239,-0.031506777,0.36790603,-0.43812677,0.66000134,0.4081275
1.0937196,-0.11726355,0.4000002,0.010461091,-0.13843863,-0.42923096,-0.25262955,0.07123383,-0.11669163,0.03034612,0.5871203,-1.0113401
0.7929696,0.61410236,0.40000004,0.017025037,0.18003972,-0.43669698,-0.23997743,-0.16326825,-0.05681934,0.17023581,-0.34401196,-0.81877536
0.47157624,0.8146296,0.07467423,0.030287938,0.36390844,-0.25262776,-0.2843778,-0.42309427,-0.018768547,-0.066264495,-0.6604837,-0.36167058
0.3982076,0.5149864,0.20411426,0.033083413,0.319802,-0.37002182,-0.30175388,-0.84180164,0.36851203,-0.21205169,-0.08421141,-0.1775532
0.4212232,0.20086493,0.34340727,0.05157107,0.38511682,-0.2518194,-0.93384635,-1.1646212,0.39179957,-0.16314633,0.22263609,-0.3110393
0.4216451,-0.0939758,0.31816444,0.014325997,0.34331357,-0.4009165,-1.2448466,-0.82298917,0.39999908,-0.16837583,0.50482136,-0.29203698
0.44782808,-0.2924668,0.13864645,-0.31264666,-0.013925244,-1.1275457,-1.28959,-0.018881124,0.39922562,-0.27452925,0.6306496,-0.027642606
0.7036581,-0.29290283,0.40000015,0.075252704,-0.3546849,-0.3789785,-0.17824164,-0.02132495,-0.05247446,0.014701446,0.47813484,-0.46729603
0.69983834,0.7411956,0.4,0.073452584,0.09544222,-0.5073891,-0.2373791,-0.32039642,0.034200042,0.12119585,-0.53154033,-0.60153127
0.43406454,0.8343356,0.07820948,0.14816661,0.33184928,-0.3483552,-0.28525627,-0.5966683,0.0379193,-0.15051413,-0.40650094,-0.15504931
0.4506597,0.38381782,0.31344274,0.06453044,0.3380446,-0.40106973,-0.7124131,-1.0043715,0.39999795,-0.1104374,0.079909414,-0.33828408
0.45924258,0.10907422,0.36500922,0.07912236,0.3976407,-0.32375324,-1.1183153,-1.0426159,0.40000027,-0.10832997,0.34936836,-0.3672873
0.4829881,-0.14071578,0.30102226,-0.06185499,0.22987226,-0.68260425,-1.3446555,-0.56119245,0.39997676,-0.14387096,0.581158,-0.2790087
0.44767585,-0.3323106,0.21035191,-0.24950841,-0.2810177,-1.006278,-0.98560196,0.20642726,0.25915012,-0.27609974,0.6641289,0.05246217
0.94203186,0.017845288,0.40000015,0.03915425,-0.07474788,-0.5516638,-0.33039218,-0.18977827,0.014821959,0.2241945,0.18658069,-0.76906455
0.7022882,0.7858393,0.3789795,0.0762307,0.18173583,-0.48750928,-0.34393555,-0.36378506,-0.051544927,0.099521086,-0.54056525,-0.585905
0.41971138,0.73712635,0.049387448,0.11202054,0.3226445,-0.34373632,-0.33962956,-0.6397757,0.050323583,-0.25140548,-0.34865466,-0.03868933
0.50504047,0.3461655,0.28547952,0.06263516,0.38290238,-0.37789127,-0.6986478,-0.9878646,0.4000014,-0.16657658,0.02321397,-0.3805752
0.5235091,0.08348091,0.3125923,0.14240533,0.43099993,-0.1125883,-1.0139457,-1.0605729,0.38383785,-0.18158416,0.31317085,-0.41434494
0.47875977,-0.14193453,0.18017691,-0.046330463,0.31733835,-0.6740592,-1.3548554,-0.5327452,0.39994547,-0.1939474,0.5755574,-0.32425252
0.45709628,-0.25195375,0.010587634,-0.27596614,-0.11411842,-1.1954414,-1.2804704,0.104402415,0.3999951,-0.2767669,0.6474533,-0.07485472
0.9089546,0.010990667,0.40000018,0.06767825,-0.10896501,-0.5464173,-0.29909682,-0.09556363,0.0049298727,0.17273259,0.17395678,-0.7465307
0.6516438,0.85287887,0.36951828,0.11044425,0.24336545,-0.54982007,-0.36050722,-0.33481216,0.019400926,0.037453894,-0.59180534,-0.5493655
0.37100953,0.7409648,0.0695128,0.12924834,0.32206735,-0.41166964,-0.3926044,-0.6402436,0.18491484,-0.12501313,-0.28309813,-0.10392988
0.47934273,0.32040572,0.35479102,0.12752998,0.37641442,-0.40493453,-0.84881526,-1.0106236,0.40000105,-0.056899883,0.119689405,-0.3516655
0.4711358,0.058432315,0.38115638,0.10209845,0.39528942,-0.3926991,-1.2215765,-0.9500374,0.40000296,-0.052572228,0.3658658,-0.32827148
