ancorasir/BennettWheelLegRL/experiment_data/2023-12-27_22-47-53/joint_torque_env15.csv
Joint_1,Joint_2,Joint_3,Joint_4,Joint_5,Joint_6,Joint_7,Joint_8,Joint_9,Joint_10,Joint_11,Joint_12
0.0,0.0,0.0,0.0,0.0,0.0,0.0,0.0,0.0,0.0,0.0,0.0
2.8810697,0.6327834,-4.0025887,-0.893384,2.3976095,-7.00797,2.7058086,-0.053988576,2.6439745,4.3682365,2.4858758,-4.9760323
-0.3024391,0.24343204,0.20351195,6.646675,-3.0339794,10.110051,9.253231,-4.588606,-7.2860065,4.4792,4.6991677,7.657923
1.1433811,0.98564404,-0.56242466,1.6351808,-3.9570575,7.211277,4.4717703,-1.7130693,-11.884843,0.23594832,-0.76868725,-0.2629825
-0.9533522,-1.5081446,0.3309685,-1.6707029,-5.341988,1.6384069,-0.74194294,0.58449817,-0.87202954,4.183525,3.7672753,9.706386
-6.8617234,-3.5574558,-3.233628,-0.64336884,-9.53517,-2.0950613,0.41484618,0.5199515,1.3032962,1.9310565,4.8428607,15.581952
-8.713541,3.3595786,-3.4111876,-9.177822,-2.4837523,-18.27512,-2.7683396,3.4363208,4.443883,-3.908204,-4.65093,13.537323
-6.206916,4.4965854,2.5690835,0.6555815,2.3005862,1.3099384,0.7589438,-1.7979381,3.1995904,-1.466952,-4.4238987,8.005315
-0.8161464,-0.4996009,14.741938,6.0437555,1.2645142,17.776361,15.936562,-5.1372614,-9.864718,-2.7696407,2.8668327,0.841774
1.6410406,-1.61692,0.29904473,3.9876437,-0.0596236,10.335054,7.1128254,-5.4115067,-2.9016051,1.5658021,0.7865834,-0.092773914
0.2884457,-0.92104304,1.3445841,0.9520396,-5.0914855,-0.6296855,2.3433256,-0.07569647,-2.4179585,0.076553345,1.7730136,-3.714241
-10.800846,-5.4108024,-9.298731,2.2915502,-5.252042,3.2215216,1.1276727,-0.56606555,1.2135557,-8.181792,7.5339165,11.569998
-5.601147,1.4027152,-4.5348444,-0.68579817,-2.5864787,-6.34041,-2.1875038,3.039408,0.87116885,-3.9575567,3.3657537,11.449261
-9.388301,0.44465786,-2.6141434,0.15565109,1.3747642,-0.72735023,0.42158732,-0.63464427,1.2010955,-7.7761917,-1.7437254,8.538244
0.79884124,-0.6366197,8.63721,0.62992,0.52564037,-2.1074114,-0.0632782,-2.8562975,3.2904117,-0.18131828,-2.0894759,4.150802
-0.8634131,-1.2496767,12.760595,8.462247,2.7254899,17.643393,12.903554,-7.260328,-4.7171116,-0.6273421,2.0553892,-0.14426434
1.8946115,-1.5111313,0.254776,4.109261,0.44898844,8.716914,8.203456,-5.9248767,-3.053318,1.423725,1.1545017,-0.40308
-15.791423,-2.2358336,-10.629043,0.19199425,-1.3078283,0.9109869,-1.049274,2.0834467,-4.0041018,-6.0196667,2.5006893,16.438902
-8.216218,-2.8995838,-5.973621,0.8721894,-7.2494664,-2.6185064,0.5656209,1.2920368,1.3350707,-4.241503,7.4588084,9.864553
-7.5280285,0.4892851,-6.0852795,-0.8193269,-0.65638304,-6.0645275,-0.036041737,-0.6453769,1.0292894,-6.546686,1.4017235,9.875802
-9.257407,2.8148441,-1.1365765,0.13160944,1.4187977,1.0353284,0.09444001,-1.2374053,1.99724,-6.6378546,-3.3123639,7.7627707
2.6572914,-2.077073,13.933013,1.5175619,1.7523793,-3.4566174,0.026309013,-3.3912458,4.862967,0.9177151,-3.2130184,12.770353
0.12808761,-1.7182541,10.032772,8.571165,1.452152,13.469558,11.886669,-5.5223513,-6.773514,-0.028856039,2.1993027,-0.35122955
0.77297485,-0.33749974,-1.8511126,8.598615,-0.06951094,6.6153483,9.305808,-2.4203506,-4.6946025,1.2277913,0.9226598,0.3459611
-1.188932,-1.7001433,1.2145516,3.3866115,-6.1841574,-2.2092528,3.847764,-0.06877661,-3.05029,0.9281472,4.7768135,-3.5672078
-11.881049,-5.5408154,-11.6526,2.8105762,-3.3332384,-1.7078146,0.38589835,0.033500195,5.0980763,-5.049763,7.693694,16.164581
-6.1187606,-2.7422984,-5.778562,1.5939604,-6.510687,-3.7525103,0.50078213,0.60016036,-0.3828604,-1.9135804,5.9524646,11.865925
-8.111104,-0.06787479,-5.900501,-2.8857903,-2.9183526,-11.546581,0.29895878,-0.5954194,0.9860392,-7.2876987,0.21387458,8.703088
-9.290094,2.8506064,-2.6434448,0.6159353,1.0345743,-0.30252504,0.93705565,0.4789877,1.0317512,-6.2807636,-5.29208,9.8896475
0.7435341,0.9480356,12.170039,1.6967831,0.42110538,0.79299545,4.544038,-3.8244298,-3.1788774,3.7302234,1.4735239,-9.496904
-0.8140594,-0.50107145,11.628937,5.777218,3.6453466,17.109867,13.458407,-8.186992,-5.5352483,-0.90501034,1.6611767,0.4117391
1.3268139,-1.9660804,0.0926831,2.528076,-0.8759025,7.54316,7.25824,-4.048969,-1.7456775,0.38220286,0.53407097,0.13274074
-2.8240314,-3.042244,2.14928,-0.41921508,-4.174501,1.7700698,0.19313729,2.0051525,-10.563116,-10.728037,-1.6352072,18.227676
-11.667844,-4.4463267,-7.9032164,1.5364363,-5.8465943,4.131295,0.21569967,-0.566875,1.7085352,-6.1855264,5.467849,9.540157
-6.503896,-2.564169,-4.905401,-0.20676684,-4.822563,-1.3091576,0.68135834,0.36407256,0.9757775,-5.0381665,3.7710738,9.372102
-6.6200757,3.232636,-3.7225897,-0.5563338,-0.42216426,-2.268077,0.56668615,-0.11849904,2.085929,-5.260953,-0.6221614,11.2222395
-9.420861,1.3325999,0.3977015,0.26074815,0.67772794,-0.24546027,0.26692337,-0.12443924,1.2882221,-5.4444604,-5.4375343,7.456749
-4.3387737,5.1652765,6.700473,0.27094293,0.16231847,0.4987648,1.5637703,-0.8391578,-0.80046684,-2.3297825,-7.177645,3.4452846
-2.0373368,0.8345485,11.841236,7.925614,2.1647654,20.0,19.467749,-1.6899958,-13.676636,-1.5210361,2.6848936,-1.3388772
1.2291312,-1.0917745,3.2153635,4.3877273,2.711125,10.860674,7.0923023,-4.7555118,-4.261174,0.5839298,0.60965395,-0.21209979
-2.0934565,-3.2248895,-2.6650958,2.0345707,-3.8575153,0.7876159,3.979841,-3.7502198,3.6226346,-2.4963827,6.57045,5.870752
-8.92651,-5.6535406,-6.524869,2.4213612,-6.4391093,1.7341944,1.0610547,1.0597451,1.6623026,-3.5646396,6.8783536,10.081529
-7.0441403,-1.7883022,-5.6222343,0.41020694,-4.912812,-0.33190382,0.375952,-0.34895432,0.9207479,-4.7700596,3.7080617,9.941826
-11.279814,-0.5590377,-3.5489376,-0.24577379,1.440579,0.61428237,0.0020326376,-0.8371148,0.72919416,-8.985863,-7.443948,6.4471035
-10.591215,0.012761354,-0.17293692,-0.07995093,1.017302,0.2558372,-0.4608978,-1.2868781,0.9086854,-7.413194,-6.8178673,4.846952
-4.98462,0.86597776,16.907248,8.0113,-0.63334036,20.0,12.211578,-5.4736423,-7.3636246,0.35766315,2.6109433,-9.85434
1.2320867,-2.2046733,5.9045153,7.152957,1.1363134,14.50243,10.926255,-6.198957,-4.5569134,0.96779597,1.5174518,-0.65965796
0.76783204,-1.0438206,1.575305,4.238925,-3.2510943,2.9071836,6.2015257,-0.5385978,-2.6802118,0.57836473,0.32842553,-0.4783976
-15.048138,-3.0068972,-10.966606,0.3541968,-4.2778344,-0.12718958,-0.82169724,-0.70610523,4.2431293,-7.520103,3.9241304,16.103575
-5.261444,-2.9646306,-4.531125,0.40843862,-5.175969,-2.2229939,0.77177644,0.11719465,0.48279852,-4.5818353,3.7350078,9.596193
-6.8417573,0.9706391,-4.5288377,-0.6898943,-0.51426697,-4.188918,-0.06308174,-0.7358327,1.2842859,-5.955341,-0.29814744,10.103992
-10.627731,3.3390937,-1.4465084,-0.11904144,1.339124,0.752331,0.15855807,-0.8782661,1.0683005,-7.48805,-7.1241684,7.8908954
3.2582626,-2.8211837,12.965197,2.1707268,1.5022461,-1.0522375,4.2134876,-4.7165275,-0.5261495,5.872199,3.2973905,-14.788456
-0.32172033,-1.0833054,10.133122,4.4122424,3.3239114,16.514553,10.550305,-6.9701095,-4.8818426,-0.75081706,2.109323,0.42910206
1.100367,0.34681213,-1.9383029,7.120982,0.8803841,8.615372,6.532314,-2.2288613,-5.377785,1.5621891,0.5144589,-0.14423317
0.43444943,-0.76536274,2.8290486,3.5885634,-3.649777,-1.1382214,4.480061,0.45462918,0.16251826,0.33888102,0.46654654,-1.4245834
-10.277334,-7.204209,-5.9273567,1.6665235,-6.804701,1.945647,0.32792926,0.56684387,0.48470208,-2.8105545,7.380937,10.323552
-9.121401,2.8913736,-2.4665315,-0.40235817,1.0913193,0.07203364,0.003785342,-0.8642607,0.46220675,-8.0949135,-3.9509835,6.6142077
-9.108833,3.4833837,4.4248333,-0.660954,0.81140643,0.5644021,0.3560052,-0.5220914,0.15343565,-5.9387684,-8.957691,6.4366903
-1.2006476,1.9197102,12.806177,6.850361,8.632467,18.53482,16.28535,-8.166985,-5.8740554,0.28069592,0.9985986,2.0887995
1.246794,-1.5052104,2.9581504,6.3193026,2.0739784,13.94576,10.607075,-4.939277,-3.7159827,0.7026232,1.4594595,-0.6081575
0.83789515,-0.5567384,1.7588239,4.214218,-1.0313462,4.421662,7.027137,-2.0937686,-0.027178794,0.7462585,0.26962423,-0.9287667
-14.633233,-7.3089437,-11.829788,0.40054578,-1.5663269,0.44830537,-5.9459276,-3.5312233,4.783421,-6.6607585,7.59643,14.9284
-7.66364,-4.069974,-6.1353483,0.10931578,-5.850849,-2.2859058,0.8098273,0.73330104,0.8411861,-3.57284,1.9160933,10.533003
-7.6069574,-0.64677894,-6.8005724,-0.27648294,-2.150492,2.6767209,0.3147514,-0.8946228,0.05631216,-7.248385,-0.82921064,9.627041
-8.979377,0.83689576,1.0302176,-0.17474532,1.8632109,0.72777605,-0.40145278,-2.0385537,0.46585596,-5.806314,-6.5632553,6.0841837
-0.7830672,-0.23318148,15.306526,10.747656,0.87575865,20.0,-4.24481,-1.8444428,3.240053,-1.3194957,-0.99350536,8.193718
1.5895445,-2.0038362,4.18741,6.858772,1.6057642,12.527519,10.493437,-4.0607,-3.0500865,0.9108391,1.4096665,-0.7247288
0.60003567,-1.0252984,1.9100866,1.0993388,-3.7997413,-0.57595634,5.0103936,0.14696431,0.39762795,-0.24901795,1.787184,-4.620008
-12.369148,-2.7695508,-9.143755,0.63823766,-6.144994,0.6107941,-0.17275333,-0.662662,3.8575225,-5.9918356,4.838353,10.664743
-6.1591954,-1.2711737,-4.4323907,-0.23121172,-2.9912286,0.3235116,0.79595375,-0.33035684,0.81011873,-5.047607,0.1625464,9.555624
-8.918888,1.3860445,-4.5337124,-0.38388884,1.1528957,0.617069,-0.1287514,-1.0726681,0.43266922,-8.366045,-1.3782389,8.065034
-1.1156054,1.1240647,7.119634,0.4814577,-0.29675734,0.94340026,1.9877453,-1.1610932,-1.0698978,-2.3995094,-7.2728395,1.8932621
0.21925259,-0.82346916,13.497059,6.5244274,7.302678,18.509016,18.60564,-5.4282727,-5.7782035,-2.6231294,3.029431,0.9955931
1.8273649,-2.1576955,0.82620335,3.0201366,0.68015087,8.785111,6.7388062,-3.6837807,-1.8125093,1.3736804,0.9501636,-0.8818362
-16.723665,-1.920825,-11.681699,0.7066004,-1.0613565,1.2391357,-2.9163985,1.6653132,-3.9272807,-6.4259763,2.9739926,16.30888
-6.7138643,-0.5105641,-5.3161497,0.34916502,-3.859091,-1.5025916,0.72470593,0.38056958,1.4354931,-3.991313,3.02361,8.834772
-9.434976,-1.6527674,-4.5040045,-0.45842576,1.0276227,0.031611323,0.12602842,-0.25672555,1.0590258,-8.319875,-1.3773459,8.107341
-8.481902,1.2446392,2.9188886,-0.20906901,1.1042442,-0.51412916,0.7635933,-0.24673462,1.5176036,-5.929832,-11.149346,6.1918917
-1.00582,-0.82306004,11.738453,9.091019,3.1184657,17.51624,15.83234,-4.4707956,-7.922694,-1.931643,3.089324,0.720891
0.7550218,-1.5133338,2.4843445,6.329251,1.3684597,11.758392,7.993746,-5.5111685,-3.696775,1.231509,0.97130346,-0.11243713
1.3059335,-1.197334,2.066547,5.840645,-2.3948154,4.9905434,8.578911,-1.6684554,-2.3948045,0.56982505,0.5461801,-0.3198657
-11.344475,-7.2347374,-7.5045004,0.51823807,-3.419351,-0.74868727,0.42425632,1.8632078,-7.0180435,-9.676253,0.24364686,15.166405
-6.4619884,-4.426334,-5.864128,1.1875205,-6.642434,-2.8211994,0.6781373,0.81976956,0.5135649,-2.5758069,4.950752,8.619975
-9.286128,1.0742232,-6.842894,-0.38460374,1.2253724,1.7175202,-0.08563125,-1.240623,0.9385901,-8.743324,-1.7366037,8.490111
-8.4993105,2.281399,3.3403964,-0.30553737,1.3708088,0.56623745,0.34650135,-1.4278922,0.91352683,-4.645546,-9.502488,7.7400017
-0.7812177,-0.9562788,14.859408,7.345872,3.707409,16.547033,15.284082,-3.9850507,-3.0904012,-2.2098382,2.2631507,0.10890579
1.4217823,-1.7614369,1.90777,7.333779,1.6544311,9.461116,9.956505,-3.7057695,-3.4754467,1.2798772,1.4101853,-0.5534456
0.6012709,-1.0914606,3.6088011,4.251338,-4.8340607,-1.5634329,6.88622,-1.3659868,0.62605643,0.20946908,1.8537555,-2.3397365
-10.693698,-3.7466483,-9.935784,0.20126724,0.32580358,-0.7778734,0.71005297,-0.4047351,3.5598752,-7.76421,3.524629,10.462245
-6.1024513,-2.2028341,-5.3341947,0.099714994,-4.021553,-0.6625503,0.40091836,-0.48869216,0.41288173,-5.3659554,3.360702,7.484596
-8.559291,2.534505,-3.8378847,-0.7388073,-0.09441161,1.0692508,0.81499547,0.35708952,0.9205714,-7.265143,-4.6944385,7.7156067
1.353525,1.0837595,13.515593,6.374615,-3.4252,6.9444637,11.796147,-3.8532777,-6.5766864,1.3991026,-5.225433,-2.6389976
-0.20200408,1.9217644,10.217296,5.0383563,3.7043848,18.277946,10.359993,-7.508576,-7.7370796,-1.3971837,-4.2496223,0.49352956
1.2698575,-1.2320397,1.2477804,4.367427,0.52333426,7.166163,6.9846163,-2.5963383,-2.0539293,0.9498768,0.77837175,-0.29884434
-15.08425,-2.0355966,-10.112812,0.46449345,-1.96518,-0.78992575,-1.5851915,1.246181,-4.229912,-6.036302,7.0056915,15.999848
-7.376095,-2.7196016,-4.7229156,0.2909956,-5.520613,-3.5757039,0.4523332,0.35223848,1.5260555,-2.5321522,4.191487,10.81314
-7.7904806,1.5905288,-3.1804929,-0.73835397,-0.36223245,1.951771,-0.34775734,0.15544415,0.8680847,-5.5433617,-1.7505448,9.670585
-11.234016,2.647585,1.5941265,-0.50836635,1.4123778,-0.4563203,0.4739337,0.14425659,0.31622604,-6.857964,-11.792376,7.3914475
-3.0767732,0.18397188,15.197441,8.006287,-1.4697013,20.0,12.675468,-6.6656,-5.184495,-0.5894289,0.6178613,4.3715553
0.5036205,-1.4554663,7.1643343,7.2417636,3.354487,16.011305,10.777794,-8.42049,-3.2261987,0.91763234,1.5903845,-0.7081797
0.94350076,-1.0779266,0.88506114,5.223536,-1.4902619,6.3633156,7.2251735,-3.7528203,-2.8918028,0.9910631,0.4315685,-0.024563313
-9.734968,-3.2705014,-8.585878,2.146864,-1.475301,-1.0509577,-1.7456712,-1.6916859,8.360548,-9.426491,2.154337,16.77679
-8.858044,-4.1600127,-6.7095485,1.1012367,-5.349555,-3.313627,0.64611554,0.5357357,1.1949419,-4.7723055,4.638129,11.877832
-8.251975,-2.1195893,-5.162627,-1.036873,-4.503296,-4.6404023,0.4265604,0.63685226,-0.18792477,-6.6742053,0.97481775,9.628667
-10.423026,3.4129295,-2.7637916,-0.03220558,1.4767493,1.0034173,0.17881131,-1.0368695,2.815544,-6.598611,-4.398406,11.022666
-3.016249,6.5858755,-4.7229366,3.1691222,1.7565291,-0.83852196,4.9678974,-4.873601,4.119749,-0.79674745,-5.270807,1.4154174
-0.2861669,-0.8956528,12.082339,7.1228843,4.233284,16.117647,11.071555,-5.869001,-5.360822,-0.3938883,1.5474095,0.0705235
1.3771822,-0.81536305,1.4100244,3.9300404,-1.6621594,2.6067944,7.0125384,-1.5815468,-0.47697496,0.21483672,-0.59018636,-0.7080045
-12.78114,-4.7536025,-11.024789,1.9088105,-4.479274,-0.80917656,-0.71647453,-0.93529606,4.110396,-4.90784,7.4607983,14.040009
-7.284931,-4.5787864,-7.1085773,1.1892319,-4.8271217,-4.2386594,0.3870809,0.52670574,-0.4179055,-5.5920386,5.776442,8.986075
-7.66073,1.4291941,-5.2001495,-1.1471279,-0.7082763,4.77588,0.4299984,1.1772032,2.7295508,-7.7012672,-2.7477481,9.268256
-9.6000805,4.3454566,2.0978832,0.46366227,1.3997304,-0.13952637,0.54439783,-0.11518669,0.41595185,-4.3175874,-8.534761,8.2453165
-0.11944246,0.12554264,17.110237,-0.84880733,2.9573479,0.42521572,-1.6230431,-3.2131186,2.1756647,0.5498624,1.4370415,-9.411833
0.33923316,-0.9831767,5.9114985,4.79494,1.3298801,14.72131,9.888374,-6.532365,-7.373494,-0.30334866,1.149507,-0.14295518
1.3668857,-1.6613008,1.2415535,3.4901106,-1.0861323,6.6412525,7.135331,-3.7513297,-1.6303949,0.99684787,1.4387089,-1.0573552
-15.853679,-5.845092,-9.096952,0.15229753,-6.841344,2.8669233,-1.1369624,-1.7841446,3.4453757,-7.606472,3.9672406,11.275877
-7.9157195,-1.7180257,-5.0308743,-0.4651253,-2.566742,-0.5153351,0.693557,0.9329647,0.056218415,-6.6985297,0.16438174,8.30052
-7.6616616,3.647584,-4.3851104,-0.5592153,0.57515985,0.6603415,0.30009806,-0.8914511,1.1921382,-7.580834,-3.3633454,6.842831
-11.0293045,1.1258955,2.1199718,-0.35017586,0.90150917,0.16260552,-0.33114076,-1.2606413,0.3605695,-7.301288,-10.250742,5.182274
-3.0008507,4.4294953,11.666549,8.698359,4.594444,19.709484,12.489727,-7.1908646,-4.9816566,-2.7644293,-0.8874588,0.9966028
1.568613,-1.9430048,0.042082176,5.0863686,1.2066324,11.31584,8.341838,-4.032523,-2.3397365,1.5278852,1.2810972,-0.5447488
-11.037454,-0.9506147,-8.782591,-1.4470527,-0.85440874,0.92446136,1.9085106,2.1338208,-3.9213176,-6.924905,-0.7518399,13.582738
-8.144598,-2.3099005,-6.7827983,2.1512957,-5.538613,4.1325307,1.2892752,0.96537995,1.0092304,-4.8147507,6.607719,8.656507
-7.2213173,0.08953655,-6.055785,0.3066277,-1.1399206,0.48516333,0.13837147,-0.02275467,0.12004483,-4.665556,3.912985,9.311748
-10.258418,3.7737875,-2.6677718,-1.3869765,0.22847143,2.471343,-0.49186644,0.22576404,0.5439522,-7.127186,-5.135573,9.589366
0.8060658,0.37744665,6.5706215,2.5797994,0.07986069,1.4741216,4.4333534,-3.0031064,-2.5294707,0.057792842,-5.621694,-1.1076093
-0.5671875,-0.3453622,12.989471,7.8468666,5.7450657,18.926748,14.640483,-2.8398924,-10.503666,-2.0974379,2.1081328,0.21141434
1.1344979,-1.4588082,0.57853824,4.9382386,2.3692508,11.262463,8.073994,-3.2902906,-3.1078026,1.0729007,1.333971,-0.37142116
-1.9648288,-1.3485503,-2.6398644,3.472294,-5.0500593,3.1960392,6.0479264,-0.78830373,-0.8886902,-0.9033004,5.6466913,5.2777314
-12.548016,-5.399874,-10.244271,1.9979738,-1.9977186,0.9682424,-2.4326034,-2.9923346,4.332246,-6.526291,5.097878,13.903375
-7.623297,-1.8120581,-5.637183,1.4112267,-3.884714,-1.4695829,0.45892692,0.23764127,0.5435375,-2.8216248,5.058968,11.164017
-8.578137,1.975446,-5.2869954,-0.05285287,0.4687258,1.3170562,0.015411615,-1.3323536,1.9151642,-7.2264147,0.2112881,9.707695
-4.7499466,2.2726254,5.2635865,0.5627955,0.8522761,0.52166355,1.6878695,-0.9134207,-0.7975847,-2.1054244,-5.7258596,3.9129267
-0.82462525,-0.26925278,14.088354,6.4630857,3.0538132,19.743507,18.011496,-4.325571,-6.200754,-2.3935773,2.7977095,0.57818556
1.3819182,-1.3784633,0.8657231,6.1476026,2.3696222,9.946502,9.141292,-4.4693103,-1.7575784,1.0401058,1.2343578,-0.46059752
0.4651804,-1.0635965,3.1754904,0.10339421,-5.195062,-2.7041004,0.31501698,2.1301944,-4.832739,-7.6268325,1.0436785,14.269091
-9.152378,-3.9347942,-8.093204,1.4768174,-6.1251626,-1.0487151,1.0277798,0.9478253,2.869443,-4.8098807,5.5136013,12.356436
-6.2869654,-1.9754046,-4.5042677,0.46432683,-6.161122,0.84230304,0.3569877,-0.16946876,0.15149961,-4.903604,2.9877906,9.65466
-9.33442,2.0286882,-4.8873076,-0.1478591,0.594206,2.826972,0.26883292,-0.63602495,2.3562775,-7.2770233,-1.4671481,10.835299
-10.168643,1.2947197,2.6856015,0.031947017,1.6783175,0.28044105,-0.05000925,-1.318541,0.8723768,-5.1110387,-8.004172,7.0708647
-2.5243754,-0.32977343,14.776805,9.005179,1.2053161,20.0,13.146237,-8.6117735,-4.6704726,0.49685478,0.8108256,5.8200006
1.3186159,-1.7877569,2.3534434,7.2624097,2.9868386,11.795395,9.437467,-6.2730513,-1.7857533,1.4155501,1.2713072,-0.35409164
1.0589881,-1.3319806,2.1732793,3.103861,-3.8290064,3.6890848,7.9579887,-1.48111,0.16506237,0.094041586,1.1740752,-1.5455918
-12.22007,-3.7209089,-9.198426,0.60521233,-5.325401,-1.4362216,-0.3511243,-0.2985351,3.36571,-6.254021,6.6658998,11.949004
-7.6900926,-1.8588176,-5.731474,-1.014394,-5.0708284,-5.6837754,-1.4306576,1.4463185,0.5626811,-4.1850452,5.240494,12.005281
-9.858205,2.7635725,-0.4659617,0.2138567,1.6112792,0.8038552,0.3511859,-0.67050695,1.3945374,-4.7002344,-9.337623,8.279577
-3.285409,3.7770584,1.343782,0.08125639,1.1438034,-1.0004508,0.6576848,-2.122086,1.6607566,-0.050616384,-8.516165,1.6447392
0.009930372,-0.63638353,6.6347775,6.303666,1.1993084,17.16256,11.10456,-6.656076,-7.3778477,-0.69774073,0.2664175,-1.901257
1.3398428,-0.67665076,0.91252255,4.705925,-1.2257491,5.0114822,7.1718364,-0.3463608,-2.9530487,0.61944747,0.6902745,-0.060465515
-14.551504,-3.2068467,-9.873465,0.89931303,-4.3103366,-1.760642,-1.2885323,-1.4619064,5.6778316,-5.1536307,6.151577,13.2465725
-7.367729,-1.0557697,-5.9128056,0.44833276,-3.991941,1.688986,0.23276937,-0.061958313,0.3454328,-5.115976,3.146758,9.409979
-10.862445,3.5497346,-6.0035105,-1.2413945,0.10127258,2.4108725,-0.22985661,1.3663845,1.9608177,-11.2316885,-3.4683123,7.3345594
-0.5289471,2.9838102,-4.318761,-0.2127738,0.82969975,-0.694859,-0.058662415,-1.7965276,2.0218859,-0.53095394,-5.9812346,0.502861
-0.79113436,-0.77569866,8.677839,8.645099,1.7491915,17.55045,13.667522,-7.1958117,-7.2792015,-0.5138153,1.4336014,0.1439715
0.6634351,-0.8565118,-1.0803807,6.2747216,-2.2906651,7.238311,7.487494,-3.9398017,-3.3857002,1.4089386,0.89274573,0.38485146
-10.2875395,-5.474517,-6.454735,0.7028525,-4.790259,-5.1742287,-3.39784,-3.6977525,8.207154,-7.3070526,3.0003395,17.246065
-9.520246,-2.930488,-8.001912,2.0763278,-5.3331637,-1.7515271,0.7741475,0.82120657,2.2820845,-4.8200297,6.6562777,12.0380335
-5.0914865,0.23376429,-3.6445549,-0.3134482,-6.020461,-4.430042,0.40252578,-0.472813,0.16461146,-3.099108,3.1611643,10.085778
-8.995176,0.70519894,-0.61932707,-0.108168125,1.9851727,-0.3288567,0.4094113,-0.5079379,1.6356444,-6.093062,-7.005585,8.794821
1.5543199,-0.8308466,10.304021,3.2528105,-0.25240552,1.6700172,6.043499,-6.0949817,-4.962201,4.712462,3.070021,-11.926104
0.52784216,-1.8695779,7.767733,5.5388684,2.5108879,13.266056,9.503297,-6.833535,-4.5185184,0.45792103,1.7754478,-0.43360978
1.4915292,-0.7992822,1.9227481,3.7040157,-3.0122862,1.3078011,5.9039893,-0.23282039,-1.0397031,0.92409205,1.06186,-0.9484737
-14.810922,-3.9839847,-10.71757,2.2403426,-5.351967,1.1039757,-1.3827763,-2.0143259,4.591402,-5.334637,9.11459,16.427732
-7.8755183,-2.859833,-5.398128,0.04095298,-6.282871,-2.9355826,0.2959535,0.179901,0.32708725,-4.3979273,5.296832,11.062483
-7.0693517,2.5722964,-3.9168367,-0.78343594,-5.5524964,5.2303543,-0.086681366,-0.94711494,2.384816,-4.763458,-0.36578155,11.862571
-11.911034,1.9323831,1.268327,-0.012620211,1.5404632,0.5151708,-0.08695638,-1.4935362,0.7568379,-8.039092,-8.30331,7.3269825
-2.0892801,3.3983455,11.397858,5.349166,2.7214122,19.632088,17.414532,-1.212018,-11.753729,-2.8308995,0.17428303,0.10863781
1.4928344,-1.7412508,0.54433024,4.6064086,0.41962707,10.623281,7.047912,-4.226134,-6.862411,1.4439795,0.53851295,-0.38672686
-0.8302252,-0.5123596,-2.451762,1.9239072,-4.9408407,-1.2161131,3.9738832,-0.33570206,0.23356408,-0.92594075,0.7571368,0.54790187
-11.764624,-3.83299,-8.556468,1.0072253,-3.8995214,-1.5329597,-0.1777978,-1.214139,4.3432875,-4.6171308,5.347625,15.879986
-7.724952,-2.091904,-5.0160303,0.5595949,-5.1921225,0.013075113,-0.11870813,-0.14610541,0.5342558,-2.388449,4.8111863,12.268437
-9.2990885,1.3869005,-3.1214745,-0.1593368,1.7852848,1.1316328,-0.081568,-1.3264897,1.2612872,-7.2920876,-3.1183305,8.674305
0.10326481,-0.0082376,8.156489,1.2044573,0.0063630342,1.0630646,3.3335977,-1.569267,-1.1914369,-1.1035053,-5.19159,1.9384713
-0.43530595,-0.64906883,9.898475,6.4073644,1.9493144,14.291944,10.946981,-5.8772173,-6.6496797,-1.1595085,1.483139,0.20857841
0.9562447,-0.6330739,-1.6445376,4.9760876,-1.0301434,6.717489,7.8630347,-3.7582521,-4.476112,0.6985314,1.4552443,0.535449
-7.816016,-0.9518025,-9.163582,0.24144858,-1.2778759,1.03302,0.75635064,1.9085767,-3.778628,0.21925735,0.08562112,-5.817876
-7.805331,-4.139326,-7.963846,2.3056173,-3.928443,-0.6684983,1.1000855,1.016686,1.5164241,-4.2368493,6.6507225,10.305928
-7.5283036,-0.45078397,-6.698068,-1.5237886,-2.0783854,-4.1828127,-1.8620725,1.5563567,1.6739928,-5.208319,2.5404968,12.068431
-10.499284,-0.27641368,-4.560629,0.058876753,1.260246,0.5895145,-0.11668557,-1.2245898,0.6177756,-8.815654,-5.023773,6.654514
3.0278344,-2.1058202,14.297504,1.4828134,1.7631989,-3.528592,0.31187344,-3.1510668,5.5743074,0.33542442,-3.8907313,14.544288
0.20696157,-1.2111964,11.5242815,3.6560805,2.237875,16.51058,10.843291,-7.878566,-5.5039296,-1.310205,1.2261782,0.30921066
1.2141855,-0.93389964,-0.62253535,5.937092,0.621958,7.2896852,6.5257654,-2.617155,-5.890793,1.0996385,0.74385595,-0.07253611
0.12001562,0.07695031,-0.7630515,1.7766585,-3.9976654,0.48656273,3.2670016,-1.4625807,-0.48023003,0.51262236,1.7391634,1.2496464
-16.445238,-7.378683,-10.753873,0.18663532,-4.9472795,0.061647177,-1.56008,-1.4819657,2.4054089,-9.050446,4.370699,13.764591
-9.09349,-3.2311091,-7.0739145,1.8638313,-4.814743,-2.9678626,0.52461123,1.0514094,1.0825417,-5.328471,6.8393936,7.3585286
-7.9025917,-0.5707849,-6.3920646,-0.7555466,0.31686318,-4.862674,-1.7117627,2.336246,2.261575,-7.457695,2.0467215,9.415241
-10.744909,0.23949361,-4.4422975,-0.22822857,0.43349302,-0.3262111,-0.21743387,-0.7286515,-0.12243348,-9.258386,-1.6638163,7.7979164
-8.979514,1.923729,2.6337237,-0.24280524,1.4557915,-0.27203918,0.26234913,-0.46554375,0.1995914,-5.6555166,-7.6311173,7.295877
2.2742825,2.284082,16.759083,1.6380796,8.290471,-7.403805,1.4328051,-4.418526,-0.10878557,1.7853045,-7.479748,14.049404
-0.20028102,-1.2368712,6.3405395,5.3145223,4.412607,14.847006,8.463416,-6.285438,-4.564274,0.32766294,0.8644352,0.0045303106
1.8365088,-0.92940885,1.5893791,3.9028616,-0.8974808,6.562476,6.0179276,-1.4210253,-3.985095,1.4409916,0.8298291,-0.51025987
-9.130211,-3.266304,-6.351721,1.4064798,-1.2655721,-0.4641704,-1.4300878,-1.4171906,5.225359,-7.644149,1.5057316,14.822411
-9.172545,-5.8752985,-6.2524886,1.18152,-6.005017,-1.4169252,0.9087758,0.70970917,1.7550241,-4.8683414,5.4778094,10.027162
-8.584043,1.5885767,-5.226847,-3.3719888,-5.269412,-7.527283,0.25254726,-0.12727499,1.9869653,-4.2939672,-1.3815546,10.924065
-10.220412,1.8315,-3.799107,0.49254704,1.3278071,1.1376379,0.28027266,-0.64716005,1.9470948,-7.003868,-2.799843,8.62884
1.2040732,-0.42563242,6.8856235,0.9779568,0.82216465,-2.1662354,0.68841934,-3.3425803,3.7484515,0.114660025,-1.3562562,3.607159
0.4153992,-1.5516105,5.106248,5.3446083,-0.19041765,11.457903,9.212671,-3.8004653,-5.590251,0.46399236,1.5765018,-0.6207502
0.9286859,-0.89654815,1.1410528,2.207211,-4.5347967,-1.2006937,5.2781467,-0.93441486,-0.00078353286,0.23962831,1.1121869,-1.8884664
-9.897488,-3.1919491,-8.395634,1.7032719,-5.7055507,-1.1014397,0.93357587,0.19012427,3.6099262,-4.9792233,5.633966,13.427362
-7.2748785,-2.1681757,-3.3786407,-0.64869756,-6.776923,-2.3440921,-0.26722336,0.84316635,0.5841422,-1.8173121,1.1489232,12.677862
-9.235221,0.6009803,-5.099774,-0.28189254,-2.3156052,4.5069017,0.15105772,-0.71748185,1.6256938,-7.140771,-4.1007404,11.25735
-9.4791975,1.8574888,4.0229864,0.6493417,1.6049218,0.08785343,1.0795968,-0.12147999,1.6826138,-4.0033894,-9.208391,7.5406046
-1.9760056,2.4032602,13.600583,6.7071576,4.995045,16.494822,16.64464,-6.4312463,-7.5296345,-2.0104861,0.05188942,1.2079897
1.0804987,-1.5096049,3.1528704,8.114303,1.5125263,12.62445,11.227634,-5.118224,-3.7154272,1.1588349,0.96768856,-0.11226928
0.8365085,-0.26831388,1.7231699,6.045538,-3.6054554,2.8196883,8.3327265,-0.916306,-2.5523813,0.48517966,0.473176,-0.98908544
0.74400425,-2.3215213,1.4551334,9.3492,3.3986812,10.6880865,10.292743,-2.5650768,-8.782239,1.0344554,-2.3933575,-3.278511
0.031170845,3.2981606,3.8241625,10.493535,5.0518074,12.617285,7.3380613,-3.8517966,-14.979003,2.080781,-0.6747854,-1.1601214
-1.7737448,-0.6262531,-2.532605,3.4365315,-0.8391719,7.1252465,4.5601864,-3.7243562,-0.2506876,1.7845399,3.2999303,5.626174
-14.346282,-7.1549993,-7.080273,5.177008,-7.6369658,3.5611362,-2.998242,-2.7840924,3.4947934,-1.6055964,9.472076,18.05281
-8.865267,-4.159868,-2.2653608,0.7163791,-7.695191,-1.0489461,0.010239363,-0.2794189,1.6692781,-1.2532716,0.9785528,14.195601
-7.620564,2.4141383,-1.5672727,-1.4859313,-8.322239,6.786663,0.039794445,-0.8986294,2.750472,-4.93731,-4.7712736,11.06187
-9.820949,2.7394795,4.685643,0.7157345,1.5592766,0.18479681,1.2329601,-0.31533766,2.6608984,-6.0540867,-8.044315,7.635295
1.1097217,-2.1725762,14.951746,0.38706493,2.4758666,-3.8144493,-1.4581261,-3.162673,3.6348667,0.56703043,-2.156004,7.3704796
1.752902,-1.7903476,6.3041687,4.9068832,1.052749,12.8413,9.100327,-7.4199276,-5.6288247,0.87006855,1.5524368,-0.4245538
0.7408922,-1.1245404,1.0354024,2.4817748,-5.065729,1.5519077,5.2966228,-1.8731945,-0.8345176,0.9020556,1.9283497,-1.7467504
-11.122478,-2.066206,-10.007962,0.66269726,-4.5829983,-0.9731078,0.47219658,-0.48134232,4.289463,-6.578914,6.4119234,14.391018
-8.250293,-3.6207013,-4.654768,-0.44289362,-6.616509,-3.262479,0.31968117,0.16784358,0.3569922,-4.7811236,4.243306,10.143821
-8.738064,4.4702506,-0.50002885,-1.5960522,-0.613456,-0.87369967,0.36823052,2.9252641,1.7047614,-5.4194946,-5.9626584,9.763001
-9.175632,3.2671528,6.65461,-0.07195702,0.68746233,0.37039828,0.93122554,-0.3921733,-0.04348529,-4.8010836,-10.055889,5.2355995
-0.77445495,-1.4558768,13.96561,6.5046525,3.6449382,19.408352,12.737697,-6.579812,-4.696279,-1.4237638,2.55211,0.08027649
1.470126,-1.4012713,3.3750634,7.2252784,1.8661661,12.612292,9.274151,-4.7660794,-6.7068315,1.6087961,1.4407008,-0.42927676
0.9603183,-0.5917776,1.6641562,6.1648626,-1.436541,4.8947935,7.6196938,-1.3591425,-4.3702774,0.55579495,0.23473716,-0.20438015
-13.65906,-9.693889,-9.148815,-0.854648,-0.40543127,-0.8506199,0.016264915,-0.38096786,2.4373083,-11.8707695,0.8398056,17.757223
-9.04782,-3.5077114,-5.526431,0.09761822,-5.695375,-1.11233,-0.2575482,0.41277084,0.317273,-2.618874,5.202246,10.966044
-8.667209,-0.8266139,-6.0966825,-0.25720966,0.018942237,1.1875095,-0.103292465,-0.84771204,0.26411,-7.659804,0.9169842,8.718494
-9.7895355,0.37847131,0.2817163,0.16947508,1.4799592,-0.28456044,0.6942986,-0.6556783,1.1234319,-7.214592,-6.391357,5.634497
3.0152345,-2.9169488,15.80822,1.8095007,1.8839912,-1.2441368,3.7141771,-4.703797,-2.526586,5.288542,2.1700976,-13.590716
0.55109483,-1.3216457,10.440364,7.3813033,3.1791961,17.416876,14.0316105,-6.998855,-5.24464,-0.421238,1.9116712,-0.22194153
1.3267334,-1.4606419,1.0393171,6.1382065,-0.053545,6.361328,8.410198,-3.0624392,-2.392061,1.0922246,0.863122,-0.063842416
0.15168023,-0.86660147,2.915214,0.41855544,-1.7990752,0.14508295,1.2404385,1.5378904,-4.309532,-0.023284435,0.899117,-2.559391
-10.24224,-4.7106586,-7.581341,1.7832868,-4.8901052,-1.6603619,0.54274225,0.7310717,1.506102,-4.3386874,7.0823803,10.30366
-8.048065,-1.0965289,-5.316636,-0.25375193,-4.5806065,2.244631,-0.060411334,-0.62240577,0.6732395,-5.016898,0.7408986,11.095553
-10.14534,3.4308264,-3.1952386,-0.70447195,1.8805178,-0.5610895,-0.008707225,0.1455245,0.070168376,-7.918995,-4.0147853,10.720128
-4.379523,3.4780436,8.318443,0.5082911,0.289603,0.61960924,1.332449,-1.1776102,-0.9957903,-1.3554572,-7.679687,3.8388915
-1.9249425,-0.43263388,15.699477,8.370136,5.313551,18.526907,14.734663,-6.612149,-5.5558915,-1.3463941,2.995534,0.93998146
