ancorasir/BennettWheelLegRL/experiment_data/2023-12-27_22-47-53/joint_torque_env29.csv
Joint_1,Joint_2,Joint_3,Joint_4,Joint_5,Joint_6,Joint_7,Joint_8,Joint_9,Joint_10,Joint_11,Joint_12
0.0,0.0,0.0,0.0,0.0,0.0,0.0,0.0,0.0,0.0,0.0,0.0
5.5648265,-2.8876917,-2.8919322,14.076999,-7.777562,15.14222,13.981185,-5.96919,-11.821739,4.303248,2.8234746,-1.4793038
-1.6462085,0.04145816,2.0876284,9.404721,1.5805271,16.0103,8.494463,-14.162006,-16.939787,0.66114306,-1.3764441,0.30288196
0.29134667,-0.49034297,0.5333559,4.113508,0.0144792795,9.689208,7.4910874,-6.0333004,-6.033848,0.48573413,-0.38359886,-0.06716478
0.120829344,-0.80118275,0.6151495,-0.049999237,-6.257811,0.43129694,2.3416328,-0.78150487,-1.0022836,-1.187651,1.3446662,19.000349
-7.5130296,-3.5139809,-4.7942686,1.0348393,-11.659126,-1.0144525,0.79256773,0.7679813,1.2937516,2.28302,6.625639,20.0
-6.1801653,-1.2446028,-3.1783032,1.2619796,-12.39949,5.663515,-2.4106288,1.2899232,1.3917747,-0.43162042,0.6110716,17.974487
-7.340207,2.2174785,-1.4332145,-1.5318441,-2.9998007,-2.131836,0.17025876,-0.7983024,3.1169858,-3.9035628,-1.6922448,13.674583
-6.1759725,5.1356397,9.541176,0.47971916,1.1365824,0.40262318,-0.3085208,-1.5329137,0.40796694,0.55055714,-7.7272787,4.7082033
-0.5165279,0.17669106,14.360653,5.9187055,4.880606,17.018473,13.602428,-4.713669,-3.5970197,-3.1095715,1.4418368,0.009077311
0.6136626,-1.6841767,2.2717576,5.8598123,2.0111647,7.9958286,6.2073374,-3.1800928,-2.2601995,1.474681,1.4232554,-0.56264687
-0.80987406,-0.05869913,-2.6424375,1.6801966,-3.4558976,-2.58489,-0.41155517,-2.3269887,7.578366,-0.41499853,2.0906205,2.232263
-9.696827,-4.537988,-5.771388,2.666011,-5.5143356,4.013648,-0.081156254,-0.6625562,0.50955796,-3.5279474,6.7462506,11.409151
-8.615054,-1.3261847,-4.3782396,-1.0432925,-3.2930744,-4.2010646,0.27982593,-0.10489035,1.4206144,-6.142243,0.7988155,9.241645
-8.597522,1.7221692,0.90999806,0.12392187,1.4873757,0.578871,0.5005108,-1.2788262,2.438131,-5.264216,-6.0095067,7.331544
0.90662843,-0.14019227,7.717236,0.3318386,0.8356352,-1.8663864,0.6015196,-2.3757505,3.6927285,1.3584509,-7.545096,-1.7384162
0.4410466,-1.4106593,10.681616,7.8437324,2.4251316,16.267769,13.261239,-5.957614,-3.3329823,-0.0073886365,1.5202439,-0.30667314
1.0670456,-1.0976973,1.065501,5.8106103,-0.6510582,7.001226,8.361679,-3.5963168,-2.213836,1.0490718,1.078397,-0.5168605
-18.911499,-1.8117785,-13.847858,-0.037823975,-5.340787,2.2908142,-3.0630352,2.6595006,-10.587378,-5.6817946,6.2748566,16.527063
-8.25615,-1.1691201,-6.443718,0.7964239,-4.4999676,-1.0362926,0.20752501,0.7759199,0.07509568,-3.2329433,7.4067965,10.586249
-7.1983647,0.8299677,-3.398685,0.099200666,-4.303572,1.0729748,0.08067,-0.34853995,1.1348407,-4.127117,2.6305451,10.933379
-9.924393,3.1171544,0.6266823,0.10070276,1.4126705,0.74437237,-0.06702835,-1.2003074,1.6878126,-6.11438,-7.427244,6.608493
-0.9546678,3.7814054,-6.430794,-0.22182417,0.58029294,-0.6354432,0.6247821,-2.314456,2.0263088,-1.7847108,-7.97339,0.42730308
-1.2076203,-0.67341423,9.883056,6.2095833,4.623707,16.308825,11.793514,-8.816899,-4.337466,-0.36150336,1.5795636,0.71591556
1.0991802,-1.3209271,0.6696893,5.5475764,1.9715352,12.165914,10.131122,-5.539882,-2.811448,0.7603631,0.8245802,-1.8345847
1.2436419,-0.8561872,1.8931255,2.634,-3.014246,0.28114665,6.77944,-1.20897,0.72124755,-0.3113165,0.15477777,-1.5630951
-12.177753,-3.9823604,-9.935123,1.940121,-4.93059,1.2448474,-0.11856747,-1.0876024,3.6709785,-5.408124,7.4276457,12.366085
-5.1719403,-2.6444478,-2.4844592,0.73089653,-7.476037,-0.50439334,0.9060594,1.0269055,0.7849801,-0.8361927,4.306655,10.091725
-7.034891,0.39020765,-4.386698,-1.4862823,-3.46248,-6.043556,0.20486605,-0.052149534,0.034080982,-3.3900304,2.2966704,11.399082
-8.470016,3.1559987,-3.1559548,-0.10625696,1.5966722,-0.40476322,0.69251513,-0.22555399,1.6466374,-7.7582855,-3.2701108,9.771935
-5.959606,4.307192,6.230813,-0.0685828,0.36080623,0.5868193,1.4271183,-0.6664605,-0.52359086,-2.3587782,-8.950752,7.357154
-2.1918848,1.3931527,14.651378,6.2483697,5.851528,16.649292,19.965588,-3.1721513,-12.299177,-2.98527,1.8495717,-2.8577223
0.07325101,0.3428135,3.1764534,6.0573783,1.8210078,12.786394,7.894677,-5.150873,-4.7215166,0.1727637,0.20609665,-2.426098
1.0377095,-0.5046296,-1.5867062,5.219455,0.524318,6.5905714,7.3397703,-2.8132148,-3.5347786,0.8109392,0.008402944,-0.19841507
-0.7367954,0.46930337,-2.1440387,0.80968106,-1.8324012,-1.5531919,3.8632357,-1.7715399,2.3785927,-1.5382638,1.234201,2.0332904
-12.3371935,-2.4574842,-10.48041,1.9829295,-3.107387,-0.57521355,0.12647343,-1.0427415,3.73905,-7.489933,6.02575,13.1529455
-7.216106,-1.279815,-5.283867,1.0320855,-4.799878,-2.4323986,0.51843095,0.95326,-0.020743892,-4.697771,6.6244764,7.8439775
-9.398282,0.23985553,-3.8529334,-0.60791755,-0.39133954,-4.9668717,-0.08202267,-0.20644331,1.3209919,-5.500198,-2.1181684,11.373035
-9.772357,1.4635992,-1.3218637,0.21635008,1.0744388,-0.43906546,0.5010436,-0.31887674,1.8830365,-7.4392214,-4.3118296,9.305558
0.9043864,-0.7666087,11.248887,1.5011222,-0.1661396,1.282295,3.5940475,-2.0355172,-2.1338754,-0.1625483,-6.268888,0.9198072
-1.0948193,2.5225391,11.833943,2.854277,1.8742728,16.46058,12.806292,-6.409839,-5.870226,-1.6706673,-2.3293915,2.220482
1.1646934,-1.8982382,1.0927124,4.536463,-2.3540597,5.432781,5.503262,-1.8346643,-4.0836606,1.5280906,0.9573616,-0.49983096
-11.207833,-1.287678,-8.946892,-0.35928923,-1.3673047,1.0607522,1.2176361,2.2385864,-4.9577417,-8.789274,-1.0018382,15.5450115
-8.184272,-3.893531,-7.1945443,1.8829613,-4.926532,1.0540621,0.8471916,0.77423143,0.34791967,-3.6489253,7.099339,10.998907
-9.544707,0.40515208,-6.7783136,-0.351667,0.78023195,1.5309916,0.16588664,-0.82826376,0.15266776,-8.802175,-0.4924916,8.079518
-11.5508585,1.3703172,-2.2594447,-0.07663727,0.86593235,-0.053985357,-0.035758078,-0.658936,-0.14315772,-7.773979,-6.4095025,8.277619
-0.5543486,3.0520778,-3.9910147,-0.044028044,0.816777,-0.3719781,0.4857688,-2.0588267,2.2566226,-1.0569017,-6.7463894,0.34176922
0.40152204,-1.5548177,10.495828,6.5263577,2.1268067,17.09874,12.50698,-6.9158554,-5.772775,-0.124216795,2.4857497,-0.32243866
1.2861621,-1.5489829,1.0021908,6.0033092,-1.4130393,7.358516,9.1703,-3.0853283,-2.3749928,1.0440385,0.9662021,-0.47548032
-4.2699347,-3.494396,3.3300745,-0.024056762,-5.7018466,-1.3046489,0.47862566,1.7928596,-10.908134,0.14650273,2.7200594,-9.634714
-9.002803,-4.567554,-7.536895,2.810413,-5.890381,-1.7666106,1.0520799,0.79725146,1.7463888,-4.3028545,6.159643,12.115294
-8.275328,-0.6445966,-4.989683,-0.36743504,-6.1956816,-6.6206493,0.47452855,-0.3661306,0.08506346,-3.518473,3.6786056,11.138279
-9.03244,1.914529,-4.9300933,-0.4633093,2.1741116,-0.5581722,0.08863497,0.3212142,2.3025122,-7.9966326,-0.68614745,9.908942
-10.571409,1.8994358,2.2664213,0.26493913,0.63794637,0.18211222,0.859035,-0.5905094,-0.1587234,-6.355411,-7.5398006,6.9438696
0.9240241,8.346791,15.862714,7.9820204,5.9362264,20.0,5.704817,-0.5768528,-5.8256645,0.99349546,-2.506105,-11.914779
1.1160831,-1.8873167,4.6891313,3.718007,0.7013061,13.426637,8.621412,-5.779462,-2.5634968,0.8938771,1.6063771,-0.75057614
-16.265629,-3.2091486,-11.138834,-0.10685849,-0.3448527,0.4711995,-1.4929351,2.5750384,-5.441945,-9.160294,1.1441088,16.078995
-7.0393615,-1.1031733,-6.029842,0.18909031,-0.80440927,-0.11553131,0.4245019,0.46345997,1.0215427,-4.36414,5.509175,9.389649
-9.811161,3.059351,-4.5526752,-0.44976842,1.095441,0.2999214,0.075205415,-0.63554573,0.93935186,-9.437784,-2.7399542,7.1483784
-8.650683,3.8040345,3.1465454,0.07854068,-0.8023932,1.2504842,1.3981253,0.58782053,1.2609715,-5.564546,-7.640168,5.112576
-0.023311138,-0.92395794,14.325224,12.764693,2.6055708,20.0,-4.4314775,-1.9747791,1.9493974,-0.6602731,-1.4191685,9.024067
1.2708619,-1.7430584,1.5451866,4.6414003,2.8797517,12.601062,8.35938,-5.5887566,-3.6836758,0.90417045,1.251565,-0.5613705
-0.46589458,-1.7062848,-3.523855,3.9377375,-1.9697913,3.6402323,5.276597,-0.9927685,-1.5438504,-1.015867,2.715541,1.0218242
-14.197704,-8.455987,-9.895037,-1.3958781,0.0064828396,-0.03553474,-1.097095,0.8720765,-5.6782246,-11.191233,0.52030087,17.960674
-9.551833,-2.449917,-8.278281,2.2056816,-4.778366,1.8842452,0.8418901,1.2613921,2.2107322,-3.9520984,6.022562,11.488243
-5.9789414,2.187641,-4.7463107,-0.3220703,-1.7700304,2.2236052,0.468755,-0.7920072,1.907093,-5.043912,-2.018136,9.142716
-9.208293,2.2908974,-1.7652452,0.15739155,1.4136498,0.50581264,0.21138728,-1.2501187,0.94599307,-5.9740257,-6.815528,7.465848
0.9592209,-1.4022024,13.618809,0.32259893,2.6668515,-3.2578697,-1.870182,-2.351728,2.3881955,0.1382513,-2.7387762,10.673916
1.4113793,-1.7397594,4.879089,5.2072306,0.77861226,12.729369,9.263932,-4.176961,-4.905578,0.835258,1.6583972,-0.5598053
0.72381186,-1.5118971,1.3581548,4.9921904,-2.2359962,5.907922,7.243395,-2.109805,-2.98213,0.7279599,0.8470306,-0.49988198
-17.194693,-5.2413054,-9.431305,-0.12677658,1.4522336,0.987519,-0.19076157,-1.388894,5.1137495,-11.224662,-3.583398,18.247936
-9.579412,-2.5001297,-6.4449453,2.529724,-4.5695996,2.8628173,0.55345976,0.59789455,0.17022055,-3.7404249,5.909633,10.301413
-7.6202917,2.184187,-0.7791796,-0.8041146,0.943958,-0.9098356,0.07837498,-0.5102334,1.59826,-5.8098164,-3.0279799,7.928323
-10.991317,3.0932684,3.8966346,-0.50594795,1.2588596,0.64036226,0.21505761,-1.343637,0.5315344,-7.607644,-10.669651,5.9306955
-1.1334643,-0.38266945,12.8863535,6.4352655,-3.1089768,20.0,13.47283,-4.146803,-8.07263,-2.3122296,3.1283503,0.3792143
1.6305382,-1.37744,-0.07193592,3.204916,1.6229707,10.730232,6.923828,-5.696048,-3.530322,1.219675,0.9767215,-0.49685073
-0.9269681,-0.5653608,4.7859306,-0.7379869,-0.45118284,0.29071283,0.61797416,2.4188395,-4.6849504,-10.027509,-0.4468994,16.91866
-10.327453,-5.1777554,-5.935023,-0.32562515,-6.0562186,0.22548246,0.68797827,0.78021204,1.6335744,-5.53116,2.5331216,11.084127
-8.294314,3.8617084,-6.542907,-0.46954632,0.9212216,-1.8627787,0.20740223,-0.05528021,1.7793274,-7.7865705,1.9627936,8.751186
-11.878804,2.1449716,0.7604704,-0.071754575,1.1046185,0.2647798,-0.51401186,-1.1922474,1.0641576,-7.09918,-8.269477,6.1870613
2.4336967,-2.4716604,14.247158,2.16889,2.8200948,-2.3099003,3.6931067,-4.613867,-0.20959783,5.404544,3.142931,-13.331004
0.11085449,-1.3780918,10.4794445,6.8738823,2.3598216,15.426848,11.921516,-5.483877,-5.3334866,-0.34797192,1.8843288,-0.13737935
1.595296,-1.3808233,1.0134618,4.424453,-0.9493625,5.041774,5.810381,-2.022962,-3.9377286,1.2558627,0.550508,-0.35888374
-13.534421,-5.254924,-7.8014627,-0.14403704,-1.8665733,-0.98939204,-1.505961,2.4704702,-7.190478,-6.7960625,3.5286222,15.293407
-9.527517,-3.5681381,-5.6606326,0.6924668,-6.798282,-1.7688416,0.4293021,0.59510034,0.6388246,-4.8342657,3.9212332,9.099841
-7.6845264,-1.4862154,-2.6371257,-0.5136441,-4.980482,1.274616,0.09685314,-0.50414395,0.6476808,-5.4885464,0.7325767,9.781339
-10.39377,2.6338112,1.3821089,0.37150598,1.1074011,0.9829366,0.066675305,-0.8014722,1.3475604,-5.3138585,-6.14053,8.157106
3.2490368,-2.3723154,12.294153,2.3347607,1.5612546,-3.6416197,0.94818497,-4.6379867,6.2242303,-0.026786327,-4.3016424,17.375828
0.34103954,-1.9059534,3.9518924,5.6784687,1.9148499,14.465704,7.839383,-5.7194657,-6.5903163,1.3245844,1.9521508,-0.94386697
0.7887188,-0.9425184,2.2412772,4.2915077,-3.3091621,6.1154237,7.436623,-2.0459871,-3.008525,0.41265166,0.53401184,-1.0146627
-15.430053,-4.918047,-13.096634,0.41066673,0.764079,-0.37695616,-0.7508135,-1.2029252,4.680228,-8.091547,6.2756596,13.325276
-6.815787,-1.6193268,-7.3751135,0.02661933,-2.6567576,0.39016438,0.4189837,1.2542232,0.7571672,-6.217905,4.012823,9.688324
-8.010497,1.6459571,-5.2224927,-1.7734269,1.7081058,-4.996871,-0.07797164,3.828168,1.5950114,-7.4749126,-3.6142778,7.0853505
9.66766,-2.2337735,11.729744,10.225083,-0.6914685,17.383757,13.9749565,-9.094647,-8.306691,6.310019,-0.6992998,-10.433251
0.8374196,-1.7616892,6.774818,4.707359,0.9475813,13.964131,8.681211,-6.405265,-6.0821924,0.65903103,1.9112735,-0.62527597
0.9267069,-0.747849,1.4920738,4.7858167,-2.5533814,4.2529325,6.721296,-2.1734262,-2.9522464,0.83563745,0.26081133,-0.4149233
-15.2937,-3.7305956,-10.1622925,0.15514523,-0.15141487,-0.36069012,-1.0571084,-0.9973779,4.6953254,-6.3163524,4.6183844,14.955711
-7.5865974,-4.2798724,-5.5249195,0.41784126,-5.1875815,-1.8914872,0.57524705,0.6404742,1.2524301,-5.9991937,6.7041063,7.9568477
-10.369554,2.9957926,-4.567007,-0.56635785,2.2069604,-3.8601112,-0.06541324,-0.06635475,3.5850396,-7.9753313,-4.1277456,9.654762
-2.6970925,4.471983,-0.5554738,0.20124173,1.0298245,-0.507166,0.62672424,-2.815015,2.1829233,-0.024287462,-5.4544826,3.1267002
-1.7660193,-0.9197874,14.301126,9.599519,-0.6698909,19.345215,12.715247,-6.666988,-7.3489285,-0.51736164,3.3882384,0.43776655
1.6978724,-1.1903954,-0.03891128,5.1491475,0.5410187,8.749783,7.317716,-4.5860167,-4.0366197,1.359415,0.79648256,-0.31558162
0.69523036,-0.4280312,-1.3435266,2.6179645,-4.510144,2.5261924,5.523436,-2.4225154,0.16452104,0.20360804,1.5091577,1.2956345
-9.804943,-3.1816835,-8.64135,1.4643159,-4.7875834,-3.332286,0.33008385,-0.08848977,4.537116,-4.267189,6.419383,16.147472
-8.97656,-3.4794679,-5.355781,-1.7200285,-7.2167954,-7.639992,0.218858,0.31589472,-0.083070904,-4.280997,3.6466465,12.114767
-7.890854,0.5938294,-4.8102736,-1.7440581,-6.7296915,5.149604,-0.09294915,-0.830601,0.79254115,-7.0671387,-0.95662606,11.160709
-10.766035,0.6590246,1.9518921,-0.114997864,-0.9066396,0.28369093,1.7532091,1.2908902,1.0193268,-5.970888,-7.103308,8.777519
-1.0376091,0.6832137,15.666884,10.273445,-0.0070352554,20.0,-3.242319,-2.1252942,2.6805627,-0.64711666,2.141913,-9.991691
1.5601931,-1.8839583,0.7025478,5.3488417,1.3440443,9.246881,7.6948547,-4.178901,-3.2188263,1.7245606,1.1289494,-0.44708157
-14.527398,-1.7687769,-11.637432,-1.1249893,-2.01167,-0.028498769,1.3847276,2.0494747,-4.387441,-6.382683,1.518693,13.951054
-7.8699822,-2.5716524,-7.417358,0.6858537,-4.9100575,-3.7583983,1.0115082,0.9205389,0.9413026,-5.6312046,4.566534,10.136384
-7.5935917,-1.8073273,-6.2045293,-0.7798183,-4.8882427,4.0443153,-0.82172036,-0.23442292,0.52268887,-7.4971952,1.1968588,11.137522
-10.293464,1.7771285,-2.1970792,-0.098273516,1.4088838,-0.05247116,0.21352696,-0.3315096,2.1489565,-6.592168,-7.2762227,9.595838
-5.279493,2.9366677,6.2762794,0.48643982,0.34509015,0.33888412,1.8286929,-0.87673974,-0.5585394,-2.1670036,-7.722839,5.246202
-4.544535,1.2177296,14.907531,3.205207,3.6310668,16.529596,17.205254,-2.7173,-10.33949,0.40411043,2.3481236,-3.019413
1.3270507,-1.9456294,5.1778846,5.1783113,2.1426916,11.386736,8.970475,-3.5036871,-2.9920578,0.83050513,1.3977206,-0.64775276
0.21354055,-1.0347099,2.0255208,2.6348746,-4.923644,0.7646532,4.4014077,-0.9274888,-0.46168783,0.43933678,1.9994798,-2.7711859
-11.772739,-4.0296197,-8.053105,1.5345446,-4.64784,1.3788527,0.27518845,0.027334213,1.2546523,-6.312583,5.804337,10.864203
-7.34774,2.2180612,-5.8491416,-0.66671395,-1.777993,-0.76323164,0.66892743,-0.4388163,1.2061478,-7.053872,0.9740325,9.946915
-9.223742,1.5860188,-3.436882,-0.2375586,0.14731467,1.394295,0.081959486,-0.56516266,0.8707295,-9.105904,-0.8002448,6.8598933
5.841588,-1.2966819,16.494823,10.195807,-0.46503687,18.426777,13.55353,-8.554999,-9.0334835,5.140516,-2.6274717,-6.213535
-0.2675787,-1.3250451,11.95491,6.5634136,0.5512886,15.922959,11.738737,-5.4269495,-6.511736,-0.62947035,2.3785243,-0.45842868
1.4022235,-1.5286243,0.3886659,4.76907,-1.3952448,6.795382,7.4845786,-3.8909667,-3.362788,1.1370734,0.74616563,-0.57937145
-13.202759,-2.0065947,-9.744492,-0.38616538,-0.43211246,-3.2079163,-2.443163,0.5083624,8.251563,-11.357594,-3.5556593,19.71281
-8.244593,-3.2914293,-6.907904,5.892382,-9.706603,11.075639,1.7223384,0.4780848,2.0521882,-5.309859,5.71105,10.327209
-6.5322356,-4.4899697,-3.8768482,-0.43515465,-3.403191,1.3036213,-0.81414557,0.79824114,0.38095677,-5.205111,3.3844376,8.481763
-10.160572,1.1408374,-1.1530032,-0.16031814,0.64769673,-0.3034129,0.17543632,0.31584215,0.079622984,-7.0488367,-6.3957148,6.240963
-1.3729265,1.4679353,7.251712,0.81978536,0.10274863,0.7818341,3.3736548,-0.9608655,-0.8917422,-2.855948,-9.226114,4.4537973
-0.5344238,-0.90976334,13.618452,4.56209,3.2423916,18.784565,16.457493,-5.014383,-4.4949365,-2.416081,3.0146127,0.13510442
0.8435066,-2.094762,-0.8341936,5.4543743,2.5002275,10.886479,7.2080793,-5.7803717,-4.4988055,0.73164463,-0.8160386,0.3282094
-4.929753,-2.0969765,-3.1346614,2.0398042,-5.060349,-1.0488651,2.2643428,-3.6545045,4.877372,-1.378367,6.089904,6.300091
-12.448947,-4.4572363,-10.186989,2.2795157,-3.9662256,0.85417163,1.0079429,-0.11425483,2.9549544,-7.0195975,2.1904573,13.013507
-7.641359,-3.2579753,-5.843787,0.6374573,-3.7448797,0.34647775,0.31968045,-0.21489596,0.69427025,-5.423325,4.571939,8.049573
-9.846954,0.69276696,-2.737012,0.06559372,1.149796,-0.49255037,0.4052015,-0.21461916,1.6439881,-6.872231,-6.0777454,8.88772
-0.39056003,3.3402534,-6.638527,0.18041754,0.7929487,-0.9736974,0.4159956,-2.052908,2.57966,0.12731338,-5.196051,0.12575507
-0.028737098,-1.6402903,12.984817,5.4397826,1.9834385,14.369015,10.2322,-4.9066424,-8.33862,-0.71391726,2.1305609,-0.31278622
1.492719,-1.4444991,1.4116261,4.677379,-2.1087222,5.775012,6.091838,-1.6031497,-3.439024,1.6946896,0.8897473,-0.47615623
-16.615538,-2.5777774,-9.736625,0.19230628,0.6775658,0.8844348,-2.3164108,-0.90603113,4.5835834,-6.5325723,3.9434955,16.025904
-8.826892,-5.3048525,-7.567074,1.7942297,-5.8175325,0.35514712,1.0137908,0.7741823,1.0628551,-5.4146633,7.9722357,9.472602
-7.4068737,-1.5586277,-5.176973,0.049954236,-4.569288,1.609724,0.14847183,-0.5443809,0.96136075,-5.159899,2.8910666,9.875364
-8.792723,2.8061438,-4.307315,-0.39641225,1.2170833,2.040886,0.07177937,-1.3761625,3.3993948,-7.216308,-1.7401308,9.478382
-4.16388,5.462415,-1.9629579,-0.06699133,0.96538854,-0.12686636,0.03828287,-1.3787513,1.5553821,-1.4601226,-7.349292,4.538565
0.08429915,-1.7107792,10.910379,8.714556,3.0179944,19.221613,11.069072,-4.6928334,-7.727503,-1.3784583,2.5551448,-0.29264712
1.7637148,-1.9834309,0.6619948,5.550573,2.2735634,11.518303,9.017512,-3.8309088,-2.969409,1.2765014,0.9963453,-0.5431924
-7.822454,-2.4493756,-4.805687,-0.3170593,-5.4952564,-1.9151433,-0.20406067,2.2407255,-6.5639114,-6.065015,0.6306033,14.690781
-8.045439,-3.0559912,-7.1442804,1.7313429,-4.213626,-1.5843422,-1.5298002,1.4904629,1.860686,-4.867506,7.22099,13.278583
-8.802054,0.7946878,-4.3434052,-0.13203406,0.32553577,1.8541923,0.33077848,-0.8610666,0.49957332,-7.364714,-2.6070137,8.015391
-8.345399,3.8810701,0.013702154,-0.10121691,0.9982164,0.9206455,0.26140338,-1.2018049,0.7354699,-5.5550327,-4.2760787,7.612076
-3.3121526,2.3301888,13.521819,11.45511,3.6419792,20.0,17.964352,-6.274667,-9.873031,-1.7396407,0.42709255,0.60056686
1.7514253,-1.8274767,0.95314425,4.777269,1.7966248,11.52643,9.611623,-4.9899673,-2.1612997,1.0081787,1.00367,-0.52603805
-12.707792,-2.9111493,-9.289986,-0.06149578,-1.0751216,-1.0805424,-1.5598847,-1.7020948,6.5932393,-7.093101,2.00307,16.685154
-7.2908645,-3.2234263,-4.3033643,0.4120291,-6.126301,-2.5400445,0.8325286,0.6983787,2.068763,-3.98185,3.4155278,9.470303
-7.112653,0.93579006,-4.801958,-0.30800045,-4.835307,-1.5951086,-0.42615038,0.69334364,0.7126496,-4.778494,4.986982,11.936167
-9.996785,0.017849863,-0.85575604,0.31830573,1.8645993,1.2128377,0.08932418,-1.0994267,3.2133853,-6.4593368,-4.212426,8.474405
1.5209289,-1.850642,14.435875,1.1624708,4.0622,-2.2559967,1.3824205,-4.6370068,0.82631063,3.6178079,3.5070004,-11.188378
0.81394696,-0.90415096,5.582581,7.5540347,3.7243211,14.254167,11.857219,-4.1137753,-4.6237993,0.326187,0.6323519,0.05211872
-1.1769754,-2.736003,-3.0112813,2.6276662,-2.446051,0.1255573,3.7463493,-2.9090476,3.9598856,-1.491466,5.258983,3.7212162
-13.355584,-3.5305898,-9.3963175,0.26987213,0.9243684,0.003383696,-0.43010998,-1.2768637,4.4116616,-7.0975504,3.7058604,13.499114
-8.116223,-1.0005494,-7.0658364,0.067531824,-0.9875058,0.31200397,0.39243865,0.21230614,0.62692666,-6.4603467,4.3884506,9.147688
-9.595301,1.5014234,-4.934319,-0.8454468,0.9580221,-0.8664293,-0.22778189,-0.14839435,2.4153454,-9.501971,-2.6802564,9.373831
-6.212003,4.5150476,5.776335,0.23239829,0.99668026,0.24784005,0.71155334,-1.0848362,-0.32487616,-2.9162521,-6.549588,4.304323
-0.7795594,-0.8885627,14.658417,8.269249,5.6407857,17.11884,15.436721,-6.0697017,-4.068297,-1.5205107,2.636409,0.14952326
1.4989259,-1.6705852,0.4332204,6.4925733,2.0253587,9.083167,9.010851,-4.6130433,-2.910885,1.3611437,1.0914092,-0.5800216
-1.6936965,-0.35480976,-3.7982144,1.4017496,-1.6752455,-2.2581854,-0.3463316,-1.1013995,7.606242,-2.91909,-0.7891879,4.8761444
-9.775648,-6.7741446,-5.4003606,2.220021,-7.2746153,0.17082739,0.8031459,0.9482689,0.64275104,-4.632005,6.5515757,7.9748816
-5.554462,-1.3520854,-3.2451344,0.62068295,-6.34973,-3.6848493,0.5282351,-0.18635905,0.22788018,-2.1573398,4.590199,11.181864
-7.5783906,1.8541191,-1.9135664,-0.22188878,0.19892442,3.4470735,0.5585048,-0.525933,2.820116,-6.4349527,-2.4354324,9.158587
9.225718,-4.071473,14.939426,8.537426,4.8835106,-8.708535,5.4265423,-9.545794,4.896222,3.7581172,-7.164757,16.050667
0.8198061,-1.5591824,7.683474,5.9782743,1.3120296,15.065397,10.4751215,-6.5171537,-5.7326007,0.9031633,1.6847973,-0.68861663
0.76793146,-0.8780825,-1.3610989,4.389532,-2.5529222,5.38461,6.6761875,-1.7633426,-4.2451015,0.51950574,0.034414947,0.27805638
-1.1872325,-0.16659737,-1.6507947,1.0428631,-1.5167397,-2.1175692,-0.55052876,-0.52412844,5.476806,-2.6115932,-0.85663176,3.5019135
-9.058398,-4.2056284,-6.4294014,0.92145836,-5.9420314,-1.7566466,0.81108785,0.7642391,0.8491501,-5.41745,5.9832172,9.064994
-6.8314223,2.2264085,-2.9837542,-0.12326938,-2.0358648,1.8434615,0.37784648,-0.746361,1.4471378,-4.7446074,1.180921,10.258321
-10.262774,2.9181037,1.0703535,-0.29178905,1.2955389,-0.57338405,-0.20813102,-0.18214226,1.2368066,-6.3347297,-5.4022174,8.850198
2.6966414,-2.5784435,14.474681,2.1459494,2.7235734,-1.3846035,3.634307,-4.395443,-0.83058596,4.8907704,1.6971054,-12.695833
0.14823079,-1.1080694,7.594332,4.0130234,1.0543082,13.549033,7.954605,-6.0758677,-3.5752478,0.31573105,0.63507986,-0.076744854
1.2635838,-0.94028986,0.9113139,4.1433086,0.037292242,7.2673264,6.0310864,-3.7506173,-3.8157508,1.3038491,0.49107456,-0.13451529
-9.494256,-2.759275,-7.8655376,1.4807954,-1.0033091,0.84169483,-2.47728,1.879067,-4.831716,-10.109441,2.0970442,15.642642
-9.504318,-4.051448,-5.9132533,1.945096,-4.667405,0.6101248,-0.99264956,0.24383223,1.25276,-3.556745,5.157903,12.012456
-6.9637995,-0.26045537,-4.646709,0.4796725,-4.4489384,0.9197606,0.45426285,-0.23501611,0.58459795,-3.9390574,-0.11235213,10.794748
-11.762975,0.7638904,-0.61760724,0.002240181,1.2795404,0.6081016,-0.17903382,-1.2527013,0.37101418,-7.9123755,-7.9209795,6.1189256
0.16379714,-0.22847521,9.083849,0.8129543,-0.07110667,1.0008982,3.203279,-0.657902,-1.2696699,-1.9889832,-8.50453,2.020836
-1.5512698,-0.14177704,13.854042,7.8366857,1.3887854,20.0,14.711081,-6.3935103,-5.1099844,-1.8835006,2.5348349,-0.27833295
0.8726592,-1.7757535,3.3392365,6.0945897,0.4941063,13.489499,8.47556,-6.2530036,-5.1814547,1.057734,0.67628336,-0.13936448
0.36599576,-0.17500636,-2.2653456,4.6913633,-1.5449986,4.4534087,7.172043,-1.0366132,-1.7013576,0.49565864,1.0248333,0.30062485
-10.337504,-5.0542245,-7.469102,2.0285053,-1.4315276,-2.1948786,-4.6402555,-0.30889094,8.2281475,-10.613744,-3.008718,15.315914
-9.225941,-5.018226,-8.470793,2.0477521,-2.363578,4.5027113,-0.7588968,-0.8632636,1.6880444,-8.37296,4.380132,8.107029
-8.382659,-1.5103965,-6.3419795,0.019586235,-1.1841681,-1.2685902,0.080877066,0.03595841,1.5544575,-5.4621043,3.5206304,9.834155
-8.089244,1.226463,-3.1234894,-0.38929904,0.2065264,-0.5332062,-0.03758645,-0.22563148,0.5703408,-6.6097684,-1.2707455,6.5873537
-10.272581,1.7129914,-1.7402332,-0.9017495,-1.0873735,1.5296459,0.2990467,-0.07178545,0.8717424,-7.717119,-7.4304104,6.7195644
0.92138237,-0.5984661,8.336735,1.2142212,-0.5546777,1.4298308,3.6141005,-1.6742094,-1.3936155,-0.6169565,-7.799334,-2.8953536
0.26677585,-1.5361471,12.535177,7.290898,4.6649656,19.455494,16.00163,-3.026453,-10.174112,-1.9252566,2.4842708,0.1013608
1.1031637,-1.4138815,2.4637187,6.035265,2.518216,11.771817,8.073351,-3.1403809,-4.3056993,0.84144974,0.82038116,-0.1700722
0.8065561,-0.95249903,1.509068,3.218338,-1.71975,4.4293303,5.2846017,-2.0767248,-4.263217,0.5272839,0.5869225,-0.40826786
-16.287096,-5.819377,-9.251394,1.2254403,-3.5049274,-1.8959231,-1.2983298,-1.9611543,4.4867654,-8.54216,4.179373,15.434155
-8.765696,-2.9456441,-4.027709,1.3994379,-6.2123027,-1.8990768,0.48897028,0.70034844,1.0848564,-1.8985553,5.072172,10.806069
-8.006556,1.5425899,-5.3094907,-0.4059533,-1.9135058,2.4947696,0.43163323,-0.63778996,1.0311285,-7.140251,0.6853274,11.268256
-10.985668,1.7071275,4.064774,-0.001054287,1.434041,0.59988594,-0.08469987,-1.1293507,0.30692345,-6.011028,-7.456624,7.7182236
-2.0556917,-0.01964879,15.826666,10.982039,5.7351694,20.0,16.494085,-8.860205,-4.815441,-1.1581693,2.1354961,1.2580018
1.5804951,-1.5205669,3.9553785,5.798799,2.0527902,10.765218,8.620415,-4.508459,-3.2481568,1.1401381,1.4212437,-0.6176094
-0.043480396,-3.5672672,3.1225379,3.5130625,-4.1389933,2.599766,8.8274555,-1.9107763,-0.5546883,-1.6691065,3.2834394,-2.2912722
-14.204621,-2.254273,-8.409634,0.36490214,-3.4787562,0.12203467,-2.191164,-1.6254165,4.2282276,-5.3078613,6.1740866,14.372168
-7.959997,-2.1416254,-3.6384368,-0.2332136,-7.0947247,-3.331651,0.37084723,0.73726094,0.9649753,-1.8914614,3.899014,12.368228
-7.64855,1.0244809,-2.6555178,-1.2070276,-5.8640394,6.1229095,-1.0315516,0.6301539,1.9223918,-6.698923,-2.330861,11.000089
-10.1704445,0.36015165,1.9025755,0.7349286,1.3203835,-0.30966234,0.94711566,0.5074377,2.4396408,-5.9570427,-7.2730303,7.98905
1.0191174,-1.5179342,14.4096155,0.7869258,2.870814,-3.0858974,-1.5412216,-2.5822954,2.1104112,0.8782282,-1.9646232,8.253378
-1.636116,-0.25125217,-0.0221228,-0.0049207658,13.00233,20.0,2.3735607,-2.5512075,-3.1150875,-0.8617035,1.3483877,-0.17077065
-9.467863,-13.634142,-3.0261655,11.104613,10.58291,19.59526,3.5076406,0.4196427,-0.00032377243,-0.08398533,4.4068155,-2.2075877
-8.504127,-4.524337,-3.92301,2.537736,18.363976,14.032891,2.7493095,3.229537,-3.699494,-0.57442844,-2.2469695,1.9518182
-7.2591,-4.8704047,-0.67846364,7.790531,18.355139,20.0,3.018954,0.30219567,1.1328597,0.14467543,1.1449897,-0.14207852
-9.913503,-3.3671412,-0.3081064,5.140339,19.088886,18.141058,1.4744604,3.450032,0.042600393,0.18254751,-0.47271234,2.819498
-9.132148,-3.225212,-0.036114097,3.0463533,12.562753,17.26434,-0.35740733,-0.7957618,2.964154,2.3395987,3.1781073,6.155875
-4.5611877,0.13973612,4.216974,0.45149222,8.204178,15.48683,0.1811992,-0.7224176,-0.96800256,-0.050608903,-0.19727743,1.4290235
1.2267647,-1.037889,8.2401,5.4064317,7.834245,20.0,7.798983,-6.7324286,-9.762347,1.3279836,1.4694357,3.28021
0.18859267,-1.2616668,2.2274258,0.8778538,3.9855661,12.644075,3.8029068,-2.7408824,-1.4988921,0.18141022,1.2251959,-0.64253235
0.48913193,-1.0963094,5.6348906,-0.38597035,-0.7955145,0.6000818,-0.27367353,1.9697435,-9.665598,-8.159867,2.1588435,16.387842
-7.9948897,-1.6814631,-6.765636,-1.0204947,-6.5089254,-0.88814825,0.81644225,0.4693749,0.7316443,-6.652682,5.394007,9.656447
-7.585281,1.0481277,-6.000438,-0.6897507,-3.7189713,2.3390253,0.10814214,-0.94637823,1.393595,-6.8477826,1.0654895,12.101944
-11.586465,3.202096,-2.2228882,-1.3000059,1.2850522,-1.6347883,1.5087306,3.4703813,1.4098233,-8.379184,-6.1113443,9.985375
1.0531676,-0.4489014,11.375105,1.3952708,-0.32441664,1.4267597,2.4814444,-1.7981749,-1.4277661,1.2428143,-6.0585184,-0.38744426
0.04915774,-1.6440201,9.706006,6.678547,1.8347502,16.439129,12.824773,-6.5083904,-6.124939,-0.6780855,1.8717699,-0.2723182
1.826531,-1.4186337,0.2351962,4.245898,0.40881348,8.852196,8.136418,-3.3542023,-3.8386085,1.0661734,1.0110803,-0.46401072
-0.083201885,-0.70803285,3.2537632,2.246026,-5.60383,-3.0513337,-0.1401869,1.8919849,-5.447515,-7.4125214,2.0944064,17.3207
-8.199588,-1.2423303,-7.0460763,1.1259747,-5.306541,-2.777911,0.7991514,0.43585646,1.7868264,-5.158749,4.0122633,10.013868
-7.4693108,-0.25630236,-6.1981025,-0.52299345,-5.1992226,6.246469,-0.4755795,0.79917884,1.1241444,-6.9670944,1.293529,11.117794
-9.917585,2.040554,-0.3207134,0.120869875,1.7228909,1.0286248,-3.3408403e-05,-0.82913876,1.6005973,-5.1194735,-6.506273,7.3829722
0.88409543,-0.21107948,8.584127,1.8036308,-0.33855653,1.2831507,2.7514167,-2.5622425,-2.2726295,0.14968018,-3.2510242,-0.4261126
-1.3304133,-0.08598089,15.837672,10.040258,6.134559,18.022194,14.674888,-8.923338,-5.563674,-1.3981063,2.7404308,-0.13882732
1.3992655,-1.8104739,1.7971902,4.387653,0.12712288,9.466515,7.309715,-5.385799,-3.9845839,1.3246024,1.4549594,-0.6146424
0.58828354,-0.3859253,1.7982141,0.679143,-5.6480174,-2.8001661,0.34231222,2.0634768,-6.7440023,-7.4619846,3.5374875,14.746427
-10.652593,-3.6051054,-8.872045,0.82530975,-5.050324,-1.7036781,0.82987857,-0.04286313,3.542283,-6.378368,5.410965,13.555933
-7.3072343,-1.3488731,-4.8239737,0.06659222,-7.1013103,0.6539843,-0.020874023,-0.45835721,-0.17021257,-5.7155027,3.4529326,9.746085
-10.437724,1.177269,-5.359417,-0.13229203,1.7177551,2.630269,0.10375786,-1.1982489,3.0028996,-8.3091755,-3.2313056,10.718786
-5.234582,3.8187401,6.697959,0.8135676,0.62318516,-1.94746,1.2819462,-0.8496196,-0.8433111,-0.4229976,-6.9914136,3.845517
-1.5141071,-1.2809138,10.609408,10.186752,1.3762972,17.582668,11.035063,-7.0055237,-7.1537538,-0.42400396,2.9606986,0.39876795
1.6498673,-1.9621708,0.27653813,6.035236,-0.7500503,9.042999,8.138201,-2.9027143,-2.846828,1.5427746,1.0216832,-0.73692393
