ancorasir/BennettWheelLegRL/experiment_data/2023-12-27_22-47-53/joint_torque_env11.csv
Joint_1,Joint_2,Joint_3,Joint_4,Joint_5,Joint_6,Joint_7,Joint_8,Joint_9,Joint_10,Joint_11,Joint_12
0.0,0.0,0.0,0.0,0.0,0.0,0.0,0.0,0.0,0.0,0.0,0.0
-3.1653562,4.2470546,-2.42187,-0.94527054,4.1670256,-10.474983,14.801422,-3.4453385,-4.523568,-10.250634,-4.230245,0.98419476
1.3971469,0.2031548,-2.4593663,5.4271955,-0.45124784,12.119144,9.100255,-7.2101955,-11.561259,2.661827,1.2363577,-0.5775847
-1.482214,-0.07717466,0.7077295,4.5996933,0.4093275,8.866362,4.3653765,-5.230117,-5.1876974,0.54030097,-0.14534104,-0.2829823
-1.5186057,-1.2471423,3.7809808,-1.6846834,-5.082556,-1.9961543,-0.8154125,2.35526,-3.2584329,3.3435397,6.94051,18.365768
-7.381381,-2.9971528,-3.2246342,-0.8540659,-10.387566,-5.016838,0.12509274,-0.13641977,0.5857421,-1.1664548,3.8187633,14.922168
-7.7625213,2.3150153,-2.631188,-7.9874525,0.012578726,-20.0,-2.6754131,3.249581,3.4234746,-5.613194,-5.889301,13.3887205
-8.681552,2.7259104,2.7852237,0.7967589,1.8382809,1.2690392,0.22254258,-1.6704893,3.0544205,-4.329501,-2.7650952,9.967642
-1.453022,-0.24906325,15.146233,8.198774,-0.6940558,17.68947,-4.5721025,0.06629753,2.088919,-2.7963305,-0.49428535,3.7378912
0.66899896,-1.8808904,2.5070605,3.6989903,-0.4268149,10.313832,8.093415,-6.0828047,-3.1852012,0.18284976,0.57644224,0.042487025
1.1290717,-0.8835846,0.88934124,2.1708946,-4.269153,-0.6892611,4.4657235,-0.45948696,-0.7849864,0.54494953,0.66247916,-1.8374324
-9.554657,-2.1247804,-8.591777,1.0357834,-5.3086634,0.54138744,0.66856956,-0.3480065,1.9320264,-6.1240225,6.7600145,13.528952
-9.370221,1.3997424,-7.9428,-0.6518307,-0.31120467,-2.4299667,-1.1910768,3.0555582,1.6869586,-9.8100815,0.45007455,8.779227
-8.443306,1.9346666,-0.18531394,0.4428959,0.4263265,0.118409514,0.7984818,-0.4675169,-0.22321595,-5.329271,-6.271766,5.6698055
1.9784601,-0.5121271,12.982438,2.344853,2.0318933,-3.2174969,1.329978,-3.264894,5.299838,-0.13120651,-3.6369672,12.256228
0.37223527,-1.3736401,10.517611,5.8689337,1.44099,16.195005,11.491608,-3.6899757,-6.2355413,-0.86295843,1.9839973,-0.12239039
1.2740344,-1.5924823,0.93623114,7.252003,2.8470364,6.9168606,6.9424524,-2.5648873,-4.4507475,1.5543326,0.29681766,0.17161307
-8.561243,-0.38522267,-9.665406,2.8227463,-4.101362,0.9457184,3.0733538,0.7787659,-1.5458101,0.5442028,0.09265423,-2.361177
-9.141004,-3.646023,-9.822836,3.45746,-3.389402,-0.006056547,0.8703902,0.60402393,3.0038824,-5.1392593,7.600646,13.167823
-7.9519997,-1.1119274,-4.2180285,-1.5691748,-5.3116245,-7.061675,0.5103946,0.48314047,0.122537404,-2.9589882,-1.1495914,11.146142
-6.8245983,4.4092875,-2.0599759,-0.4972577,1.1695133,2.4457803,0.5388372,-0.98650837,3.4835873,-5.6868305,-4.6712704,8.6035
0.36988938,2.80762,-5.6972237,0.44472718,1.2294106,-0.9189553,0.61044216,-2.6080904,2.613091,0.94759136,-4.524196,-1.7022154
-0.25994682,-1.077703,15.534654,7.443469,5.587351,18.341393,15.55075,-4.67752,-3.5026362,-2.1581242,2.4889777,-0.011874914
0.93350196,-1.1020818,-0.23781297,4.8145747,1.2004675,9.58612,6.856146,-3.812697,-4.853995,0.9916481,1.0868485,0.30542135
-1.3761234,-3.0409672,0.08114219,1.9734455,-5.170406,-0.419235,3.44294,-0.35670376,-7.773467,0.9818442,5.6481314,-3.452279
-10.548607,-3.9744024,-8.822999,2.8278694,-5.1068974,2.031593,0.807518,-0.25439572,2.5002074,-4.2737594,7.2099247,12.910008
-6.4988647,-1.1988914,-6.7212205,-0.39287394,-0.6965679,-3.192592,0.70713735,0.00557518,0.44701442,-6.075919,1.92168,8.881783
-9.414721,-0.120706916,-2.5485451,-0.26372123,0.86809325,-0.096600294,0.13977075,-0.2515149,0.45237285,-7.372916,-4.964526,7.9318027
-8.906143,1.583858,2.9070513,-0.2750473,1.1733475,-0.19183588,0.68373346,-0.2993145,-0.09853628,-5.0892906,-9.593009,6.6104145
-0.60045576,0.42691064,14.814351,10.251915,1.5010266,20.0,-2.5937605,-1.9187527,4.0352445,-1.5068293,2.1014395,-8.634106
0.16701245,-0.60468054,6.842919,6.611924,1.2794142,14.170338,11.143077,-3.9399571,-5.7019463,-0.6541244,0.6433573,-0.031634104
1.0113351,-0.6182827,-0.6571076,6.856934,0.58185065,8.755079,8.274517,-2.8290339,-7.257899,0.9485421,0.7476814,0.07678503
0.22220159,-2.036572,2.4929216,4.435811,-2.4812174,1.1782684,5.9269648,-0.8255621,-2.6806712,-0.44162178,2.0987306,-0.7867737
-14.325535,-7.670252,-9.294453,-0.73450327,-0.3713839,-0.41869813,-3.2654376,-3.1168957,5.431768,-7.279383,4.2973824,13.5823
-9.60282,-5.266383,-7.628253,1.8066795,-5.3912034,-2.3692038,0.90180945,0.9183107,1.6069221,-6.407821,6.4972315,8.387945
-8.870601,-2.3387408,-6.097959,-0.8833679,-4.2053065,-6.759029,-0.019189715,-0.4893074,0.79888636,-5.3947625,2.3315578,10.135693
-10.748382,-0.25433052,-4.212969,-0.35741735,1.5583519,-0.9497745,-0.41128886,-0.5576277,2.633467,-8.469246,-4.005497,8.098595
-10.215573,1.6556195,3.1225734,0.313779,1.1416712,0.070380926,0.72898364,-0.072853565,0.29969865,-4.04862,-8.475408,8.762245
-0.19196653,0.15441883,14.793498,0.37835693,3.1297245,1.0452337,-1.532381,-3.7907763,-0.2670753,2.4794488,2.2248816,-9.043856
-0.47022665,-1.0629997,4.8833647,6.0681334,2.7085147,13.513713,8.96047,-6.164065,-3.8167465,-0.03485775,1.070034,0.080516815
-2.4269001,-3.9031024,-3.9548726,2.3044257,-2.4965162,2.6506708,5.8744335,-4.6965637,1.992374,-2.4691205,6.791944,4.842271
-11.174884,-3.0410872,-9.498869,0.96286845,-4.1011667,-2.56525,0.3311572,-0.4927535,3.6899073,-7.183017,3.7646255,11.92621
-6.759756,-1.9533184,-5.429356,1.0473158,-4.8793564,-2.104537,0.83793354,0.43866777,0.9617242,-3.9897106,5.26683,10.737045
-9.107268,2.816772,-3.70091,-0.371215,1.358943,1.3798459,0.31367302,-1.1654615,1.1617434,-8.859288,-3.0349064,7.091819
-9.97753,1.8080243,0.89710855,0.17567754,1.1010962,0.58298445,-0.32210934,-1.0261955,0.570841,-5.7787914,-3.8003242,7.214921
-3.2795208,1.5839672,14.763167,5.7628765,-2.3087175,20.0,-1.4334574,1.4192576,-1.150285,-0.68361855,3.0974994,-10.30611
0.9631475,-1.6633301,7.2957926,4.9857345,1.120444,14.929036,9.99015,-4.0953164,-6.5026217,0.17943478,1.4202027,-0.5498658
0.88143766,-1.1908176,1.6346533,5.0912013,-2.1627045,5.63784,6.023559,-2.4207478,-3.8650024,1.3926952,0.7307464,-0.52258515
-14.581791,-3.5535023,-8.139145,-0.07699704,0.95919156,0.1486957,-1.6672115,-1.8416682,4.436951,-6.661022,2.1523225,14.777969
-8.181951,-4.6918244,-4.1019807,1.6853956,-4.9117537,-0.17931175,0.11079383,-0.016682208,0.22599809,-4.8929086,5.8775167,7.504136
-7.538225,1.706012,-3.849015,0.07307969,-1.181101,-0.93160653,0.23385298,-0.22697449,0.51361364,-4.1962986,2.06047,10.644506
-11.504239,2.595172,-2.1512663,-0.16726112,1.1218865,0.69850063,-0.050738066,-0.9116006,2.1928406,-7.991572,-7.534715,9.056
1.1465542,-0.5236887,8.739101,1.5098634,-0.74070394,1.3111515,4.065425,-3.061357,-2.4590166,1.853781,0.121833205,-6.6100626
-1.3385973,-0.21497631,12.302459,7.5066905,3.705736,17.999752,12.422302,-8.563766,-5.886835,-0.8113233,1.777298,0.3724723
1.2159507,-0.7421806,-2.133057,4.1311693,0.41330647,7.9408226,6.929037,-5.1705008,-2.3004513,0.12266636,0.39482284,2.6524413
0.9162588,-1.0211632,3.9620728,0.91910845,-1.0596981,0.72272277,0.4183169,2.1851869,-6.0633497,-10.126852,1.0732086,12.562645
-5.8165154,-1.0900452,-5.122478,-0.43940595,-4.6836357,-2.5546675,0.6526513,-0.28398812,1.481513,-4.373083,3.04572,8.54313
-9.689746,2.6266181,-1.3342689,-0.3552332,1.2402979,0.47195697,0.114299074,-0.6978054,0.5523699,-6.590962,-6.781273,7.508891
-5.6574345,5.5427904,-1.6045163,-0.34428036,0.92905116,-0.024785638,0.098184586,-1.1150255,1.2826431,-3.346376,-10.408192,3.3023958
-1.6323429,0.067629814,12.435895,7.6390038,1.5444436,20.0,11.723666,-7.067502,-5.1484103,-1.5533531,1.2106886,-1.8301615
1.5064635,-1.4967768,0.08305934,5.9508166,3.0732388,7.8883123,5.7383275,-2.5064368,-3.7773373,1.5686355,1.3463717,-0.46360254
0.2710464,-1.1084135,4.0417633,1.4558002,-2.5790534,-1.2283118,2.707072,0.35558057,-0.5044497,-0.074186325,0.8278794,-2.3875864
-13.114906,-7.0463953,-9.3715,2.037412,-4.0112524,0.25994503,-1.1459682,0.3458438,2.0612743,-5.891441,8.036415,11.410792
-8.498594,-3.6347039,-5.4755087,1.3423836,-5.5921683,-2.9962914,-0.020635009,0.015081704,0.68896973,-3.695842,5.652194,10.757279
-8.384414,-0.7538129,-4.7062573,-0.07615781,-0.32774377,2.7956014,0.42569828,-0.42034578,0.47152755,-7.417089,-1.0914556,8.124956
-8.883207,1.242213,2.702402,-0.074302435,1.5104415,0.8075738,0.0007008314,-1.2702088,2.1805124,-4.295461,-7.293368,7.5258317
0.88744926,-1.3821105,15.154129,0.7830925,3.2037892,-3.149335,-2.0765762,-3.9448776,4.8503914,0.5460634,-3.058806,8.894795
0.7395873,-1.4394107,7.1754293,7.0623913,0.5376121,12.173623,10.151074,-4.078335,-5.109725,0.56954795,1.5996366,-0.70979524
0.77530766,-1.4641125,1.5648384,2.4844387,-5.2059655,-1.4342055,4.348214,-0.532166,-0.47348368,0.28550076,0.50337744,-0.53538823
-16.241005,-1.9478333,-9.459062,3.0049791,-5.6321135,2.9167023,-1.0622234,-2.165099,3.0500617,-5.213439,7.0976934,15.349555
-6.6782217,-1.9072206,-2.2251177,0.4781755,-5.0831723,-2.215787,0.5255587,0.8609843,0.79678625,-1.4951258,3.7787778,10.058782
-7.709919,0.0751766,-2.719323,-0.11888504,-1.6324123,1.6977537,0.28353906,-0.8311081,0.6635271,-5.468498,-1.2984825,9.946754
-7.793604,3.023961,6.1499767,0.2854897,0.9700384,0.2449534,1.192873,-0.65524673,-0.3914143,-4.651733,-6.352612,5.323321
-2.8294432,-0.35722446,15.016445,7.7740316,2.7828975,20.0,19.488232,-4.822481,-11.172897,-0.40456724,2.024418,3.2523546
1.6151618,-1.1701822,3.660288,6.1888247,2.4472604,11.300894,8.189666,-2.9909241,-5.163727,1.1367483,1.4117341,-0.45000064
0.577929,-1.3082197,3.3683546,2.7898402,-1.8149366,0.83711517,4.659793,-0.17453682,-0.040777743,-0.07434726,0.20913029,-1.5420856
-9.914792,-7.0425587,-7.655757,2.1222577,-5.8718576,2.3820648,0.47943616,0.27826977,2.1698666,-2.8371992,9.758378,10.9280405
-7.5837703,1.0335455,-6.517114,-0.7726454,-0.27109742,-5.737515,0.90219975,0.42097712,0.9684336,-5.9894123,0.5988796,9.424023
-10.206323,0.6929799,-1.6578188,-0.18298244,0.6839795,-0.38586426,0.21025224,-0.58077145,1.2025927,-6.800515,-10.668143,6.997614
2.1064668,-1.899017,14.234007,1.6928277,2.1111834,-3.224165,0.183918,-2.9436655,4.4593673,0.11898041,-3.7482135,13.178727
0.14673199,-0.59371233,12.429011,5.630498,2.8790538,16.549,12.417686,-5.0356693,-5.493882,-0.59976685,0.8809624,0.17095625
1.6609219,-1.2049673,0.06577003,5.8331237,1.1097885,8.221877,7.2977967,-2.3685303,-4.5140376,1.6668973,1.1780391,-0.5041691
0.44331455,-1.1400082,2.051267,1.2295954,-5.8297477,-3.2390351,0.40280962,1.8886724,-5.4288993,-6.6933594,4.3522124,13.315393
-7.9696536,-5.6655164,-6.1120725,2.5150714,-7.091939,1.2596395,1.1304066,1.4877148,0.48061222,-3.1827915,8.171555,9.967602
-7.1563745,0.09515691,-4.9753094,-0.5624181,-4.9308643,2.885181,0.24311662,-0.4639778,1.1686552,-6.036346,0.57675433,9.638597
-9.529454,2.1636348,0.6040537,0.17690945,1.5599011,0.66571045,-0.04505557,-1.6856089,1.4613323,-5.0146523,-6.2806597,7.1757107
2.4813032,-2.2020512,15.579821,1.2277985,2.1619096,-3.3990898,0.013311386,-3.5090866,5.874324,0.46891022,-3.7394598,12.34887
0.014585793,-1.8277898,10.361296,6.838453,2.7289593,15.562534,12.018372,-6.828604,-5.357643,-0.29675645,1.8483,-0.34248537
1.1035233,-1.6241021,1.4190414,5.3680177,-1.6782677,6.115773,8.02126,-2.7234623,-0.5287379,0.9501709,0.4719056,-0.53226495
-14.30105,-3.468794,-10.302056,1.611045,-4.681942,-0.21495616,-1.6570475,-1.5993075,4.2548795,-6.254473,6.2967834,13.043747
-7.4677825,-2.6725626,-6.8557296,0.01031065,-3.2489297,-0.40941,0.32957816,-0.056864977,0.22515492,-6.0587463,4.3785987,8.513281
-8.924965,-0.9387679,-4.380054,-1.6624742,-1.2516263,3.6053615,-0.11523652,1.65096,3.0657837,-8.767142,-4.6058574,9.682225
-3.8796518,1.7692907,7.9866533,3.6028042,-0.6891899,3.04086,6.896073,0.87545204,-2.114656,-2.8201413,-7.143887,5.395197
-3.2397132,2.6851215,10.1523285,9.000073,2.1095648,18.32644,12.749542,-5.968234,-5.408451,-2.5184207,-1.7531962,5.0622554
1.3799309,-1.2352749,0.5751927,3.028598,-1.6255242,6.689872,7.4933147,-4.0610256,-1.9698822,1.0267482,1.409924,-0.8117857
-15.342911,-0.23778605,-9.9951,-0.13974193,-3.7616477,-0.8775358,-2.3547742,-1.071109,5.370231,-3.1669168,3.932224,18.793764
-7.0446234,-0.7316345,-6.160626,0.6219131,-5.043494,-2.7303996,0.44266582,0.44745126,0.32513645,-4.2190266,6.4854608,9.590084
-6.699212,2.4122906,-3.94138,-1.5891497,-6.609519,8.480251,-0.637192,1.7232823,2.078734,-5.285422,-1.8459795,10.776432
-9.963596,3.5439477,2.7995532,0.021825552,1.5758297,-0.41149116,0.65632844,0.37631083,0.5318862,-5.4833913,-11.691475,9.37944
-2.1508555,-0.45577335,16.125677,13.758539,-0.20999336,20.0,15.430215,-7.1404715,-4.896634,-1.0712724,2.3206532,0.7750516
1.2003598,-1.8533194,7.565886,6.719933,1.0693675,11.962685,9.775228,-4.793589,-4.5875535,0.67801166,1.4734077,-0.43736258
0.79695344,-1.4758136,1.200583,4.0880713,-4.1641655,1.1501842,5.8994055,-1.0505774,-0.4995064,0.5884484,1.2178011,-1.4597254
-14.297426,-2.6430936,-8.122723,1.6620842,-7.0165534,2.3000758,-2.2266088,-1.6067891,3.7423675,-7.153461,3.6439166,11.589997
-6.5998282,-0.89288926,-6.3487034,0.4300629,-3.6454697,-1.5621704,0.58781314,0.43739188,1.907961,-4.7454963,7.2088327,11.786639
-8.386132,2.8858197,-4.700555,-0.3026296,-0.40794563,-3.5119796,0.30833197,0.28429866,1.5955205,-5.7078567,-0.70434606,11.143103
-10.909744,0.63524485,-1.5378375,-0.05444479,1.2805452,0.54527164,-0.10355857,-1.0337603,1.2462169,-7.7001677,-4.8429646,7.416142
5.2856455,2.2978036,11.737638,7.824992,2.477272,-6.601941,6.9375553,-8.452644,4.8661795,0.7457564,-5.885641,13.589541
0.29158843,-0.7711997,7.7294636,7.765749,3.5967498,15.761582,11.544023,-6.008764,-6.165775,0.19516182,1.0936017,0.07706103
1.0027652,-0.8409054,2.3383238,1.6640074,-2.2143352,-0.33434534,5.282468,-0.72925866,0.044517815,-0.45245743,0.46134186,-2.130891
-9.157161,-4.2203913,-9.482235,1.2661738,-4.8179674,-0.20940053,1.2015285,0.85790634,2.5967035,-6.636722,5.2688985,11.367142
-7.7071424,-2.176523,-5.920747,-2.2081308,-4.296123,-5.9672194,0.19314289,-0.23726606,-0.096340775,-5.8601823,0.6748662,9.010234
-8.361915,0.048009515,-1.6901095,-0.7915175,-1.3517992,0.91609097,0.37142533,0.69086695,1.6270491,-6.1484394,-5.518438,8.67567
-1.1307347,1.9348016,5.87868,0.3645258,0.026769161,0.6071402,2.290855,-1.3838906,-1.4256434,-2.5141625,-8.690164,3.041903
-1.7628818,0.42355108,12.804024,8.748232,0.5508704,20.0,16.640726,-2.4815302,-10.80587,-2.2779117,2.7075157,-1.119257
1.2716596,-1.228137,1.9684821,5.4047427,0.57695675,11.655498,7.6336136,-4.5073576,-6.3210707,0.7065762,0.6487856,-0.2909764
1.3461934,-1.179002,1.7264988,2.6557798,-2.548754,3.7222152,5.648753,-0.6053593,-4.0743055,0.4371798,-0.2875538,-0.42478228
-14.280339,-0.33302188,-10.262734,-0.03422779,1.1255407,0.2125426,-1.3655088,-1.2684497,5.2995653,-7.270982,4.1903095,14.054058
-6.2243147,-1.831778,-3.16484,-0.23657632,-4.8012123,-0.98493254,0.54007435,1.2656697,0.26513442,-1.5577322,3.2113845,9.974845
-7.8334446,1.7031621,-4.5491977,-0.20733881,-0.720853,1.2334785,-0.040521145,-0.8477106,0.10944761,-6.707604,0.4080007,8.7312765
-10.232528,3.2715793,2.2730258,0.20288718,1.2901709,0.4608307,0.100711584,-1.5003357,0.5142378,-5.730312,-10.212328,6.097905
-2.1634629,2.5574632,10.898114,8.72438,3.3380814,19.485703,10.042034,-6.9614635,-6.3387384,-2.4606774,-1.890738,0.3489051
1.2755537,-1.7381403,0.44858027,4.8604755,0.7732636,11.308844,8.274397,-4.5797586,-3.4041677,1.1584175,1.2837827,-0.64972305
-0.3401394,-1.0744395,4.651391,-0.27416518,-1.7205517,-0.61880946,0.7200251,2.7517953,-7.5441594,0.31117272,1.4332333,-9.550355
-8.033505,-4.5612187,-6.7878404,1.2117014,-7.0312214,0.94727075,1.529733,0.7380171,2.01542,-5.536338,5.2028055,9.912845
-7.4122624,0.07849693,-5.41744,-0.42514366,-4.767422,2.5239751,0.2632103,-0.5157633,1.6302229,-5.8870125,0.14204645,10.567443
-9.950164,-0.7843807,-2.5516095,-1.0022027,-0.945328,1.8172731,0.42966735,1.5320225,1.7345102,-7.6493335,-5.063991,7.155796
1.1992899,-0.31675076,7.589928,1.4544663,-0.15638399,1.3320022,3.788168,-2.5001192,-2.1887836,0.02646166,-5.609551,-1.5014722
-1.9589316,-0.5871272,12.163382,10.702198,1.5477648,20.0,13.490418,-8.333993,-4.7432685,-0.6554328,1.9465065,0.6893773
1.1350441,-1.5183196,1.0387399,6.1535406,2.3352637,11.4974785,9.786229,-4.1556067,-2.4435244,0.7076906,1.250999,-0.595518
-4.3476577,-3.5064344,-2.5103166,0.9419377,-5.8952417,-0.22706544,3.766458,-4.267101,6.220849,-1.3028176,6.1095915,7.700427
-8.8132305,-5.6402307,-8.002911,3.1425636,-5.608225,0.9449358,-0.600013,-0.40911388,0.8688595,-5.7584114,9.306984,10.989038
-7.5260468,-2.0619383,-4.4032784,-0.82476074,-6.899739,-4.93832,0.105235934,-0.66361785,0.13797298,-3.7254088,3.185307,10.663786
-7.866505,0.91045135,-2.896727,-0.080655575,-0.9504803,3.8449755,0.28747058,-0.57602715,2.0539982,-7.1048956,-1.131223,8.628748
-5.8817244,3.9934475,6.8378515,0.42302704,0.97451735,0.34943795,1.6805749,-1.295079,-0.6679983,-3.6656833,-6.847679,6.1692753
-1.4100232,-0.13685226,14.630233,9.478238,-3.3365383,20.0,15.417399,1.4843886,-12.422478,-2.6330764,2.1255703,1.2827582
1.3555024,-1.6183631,0.0047827587,5.0400343,0.99327993,10.88413,8.51548,-3.9800725,-3.855943,1.0071884,0.9610386,-0.7810106
-0.9322808,-0.80505824,1.7112662,-0.41186503,-0.54128695,-0.78719753,1.3396126,2.9426506,-8.338496,-10.038885,0.06955361,19.087458
-9.051189,-2.1878932,-7.5760193,1.8934362,-3.8708324,2.758662,0.6248226,0.7286794,0.7977212,-4.5779486,8.92927,10.231143
-6.733604,0.5221392,-4.6425176,-0.17606437,-2.3583813,-0.3401792,0.5596137,-0.24309349,1.2520214,-5.335054,4.094828,10.046603
-8.036405,2.4760098,-2.1115804,-0.25943565,0.6634988,0.79560184,0.24821019,-1.018877,1.0553356,-6.987902,-2.4968376,7.202683
-10.232473,2.4606643,2.25583,-0.1514374,1.1336572,0.19035852,-0.45426702,-1.1373491,0.49695113,-6.3558555,-6.1731005,5.874259
-2.6155012,0.10394573,16.743776,5.620076,0.1380775,18.1913,15.035181,-3.1587381,-6.218773,-1.1211333,1.6638114,4.3253717
1.526431,-1.5100892,4.43182,5.374204,0.44450498,11.831864,10.098759,-5.7025776,-3.167139,1.1352961,1.2167673,-0.5168092
1.6565591,-0.9625672,1.1977715,5.8901544,-2.1423466,4.644857,8.294055,-1.2176498,-4.38138,1.008006,0.11703527,0.023339987
-15.077962,-3.9037645,-10.324017,-0.35669363,-0.45126843,0.5805905,-1.3946948,0.6078291,-3.9839125,-8.588459,3.7508335,15.88327
-7.6075087,-4.2606287,-3.904875,1.2814665,-6.465395,-2.1207597,-1.2391088,1.0043211,-0.67497957,-2.62133,5.871367,10.553114
-10.390814,0.15857804,-2.94272,-0.11970234,1.9458838,1.0579591,0.15020478,-1.0419254,1.6524556,-8.025538,-5.384763,7.917339
-6.3679795,1.7921965,-0.36703682,-0.14133258,1.3620591,0.2689805,0.5176811,-1.5335612,0.5815889,-4.41791,-7.65175,4.8097887
-1.0007403,1.2367396,11.189234,8.027717,3.819833,15.634091,13.48185,-5.6253195,-5.100145,-1.699334,1.0752416,-1.7057302
1.5129824,-0.90403914,0.8336656,5.338918,-0.6033401,8.123946,8.522755,-4.9866576,-3.257627,1.5269102,0.82751304,-0.23008704
-13.056139,-1.4603081,-8.625024,1.3742303,-4.5449204,0.22297907,-0.9841609,-1.9940684,3.951027,-2.8855438,5.788858,15.462408
-6.1409082,-1.6610267,-3.977059,-0.55890113,-6.4831715,-2.4780283,0.63465416,-0.030747533,0.26485363,-2.895456,0.70156336,11.485702
-8.058925,0.5334639,-3.2167385,-1.0576932,-3.7705975,6.7939105,-1.3305613,0.611181,2.1976547,-6.403204,-0.43973398,10.91619
-8.808756,5.3749056,5.138491,0.07918453,1.4000938,0.5298984,0.104268074,-1.3128858,0.9026241,-2.961811,-8.267842,6.928135
-1.1231787,-0.13012838,14.92206,7.2014084,4.5538497,17.41563,16.572802,-4.6438684,-4.13591,-1.8543518,2.5859828,-0.15793896
0.97892404,-1.8156023,0.2927501,7.04256,0.30869806,9.5793,7.1284423,-4.7978826,-5.334375,1.8965597,0.6614156,-0.05218506
-5.2298174,-3.1291568,-3.968223,0.3305453,-4.242534,-3.834055,3.4314754,-2.8557186,6.127414,-2.770407,3.141758,6.251764
-10.873282,-4.4452047,-10.105422,1.9073498,-4.1757016,1.0192218,0.81027555,-0.108760595,3.0850503,-7.053464,7.677636,10.415417
-6.62385,0.2616756,-4.3382387,-0.06866568,-4.8225355,-1.0983738,0.38616836,-0.38116908,0.056388617,-5.5178933,1.1618857,7.90559
-10.495452,1.4483373,-4.625122,0.3783574,1.2736609,-0.43318653,0.009544015,-0.35048342,2.6905358,-8.381459,-3.1869926,8.635369
1.0376639,0.12580365,7.6831427,1.6480274,-0.2606535,0.9878478,4.0196667,-2.7026968,-2.5103714,0.81479526,-4.295158,-2.9601648
0.29891974,-1.7764444,11.18786,6.364373,2.9640763,16.160732,11.786319,-6.0765877,-5.83156,-0.10005164,1.6621344,-0.46178868
1.4261572,-1.41694,1.5740466,3.014525,-3.0769527,2.4558372,6.783444,-1.7603751,-0.89076066,0.3469478,1.2323469,-1.4236784
-14.096223,-6.365552,-9.547708,0.21554773,-4.617878,0.18830746,-1.744884,-2.2352154,3.8225086,-6.3734202,5.053731,13.16673
-7.5941634,-1.3076017,-6.4767013,0.22174042,-4.974513,-3.1743147,0.40196693,0.34636855,-0.16588739,-4.9287467,3.5037005,10.813408
-9.967196,0.58019006,-3.7849107,-0.038007736,1.3685279,1.3412044,0.1305275,-0.9795265,1.5740029,-8.001501,-1.7465398,7.984025
-5.522746,4.384021,0.4607916,-0.21908331,0.8898518,0.21705687,0.10295677,-2.1434011,0.7340218,-3.0502481,-5.0393558,4.7196774
-0.8564098,0.78464985,10.026289,8.131059,1.1432269,16.233503,11.5141325,-5.1042714,-6.9025064,-1.0838313,0.6438365,-1.9172542
0.9381511,-1.397454,1.3882403,3.28229,-2.2452965,4.1347313,5.0915236,-2.371867,-0.88554543,1.1662947,1.5425464,-1.2277813
-13.780338,-4.2423067,-7.924414,1.6410197,-6.385807,4.3794765,-0.6486716,-1.5766717,4.2624516,-5.4228554,6.345383,11.619408
-7.2718124,-2.6200955,-3.6500378,-0.6189685,-5.746215,-0.38245606,0.42448545,0.3256752,0.8499427,-3.1056175,3.9435868,8.436652
-7.6462955,2.6301284,-0.88908136,-0.88022,-2.2075975,-0.7729143,0.2225964,-0.5970917,1.0274079,-5.8425403,-5.75943,7.5618353
-9.966974,1.4222181,1.3537754,-0.19677281,1.0179985,0.8639231,-0.35932565,-1.6021471,1.180054,-6.543425,-5.6560473,6.9225636
-4.952405,1.4035182,14.993267,7.3555875,-1.041945,20.0,13.430495,-4.479044,-5.7582197,-0.28535652,3.0851908,-8.407757
0.32688951,-1.4179649,2.8622723,6.3208284,2.6431832,11.854907,6.8166966,-5.978178,-4.4405007,1.155825,0.80536795,-0.2358188
-0.5329664,-0.71954703,-1.6100801,4.2889967,-4.2335296,3.4636703,6.479545,-2.4597692,-2.638869,-0.104457736,1.3504372,0.952214
-15.921352,-4.5155745,-11.16773,1.6786827,-4.118,-0.8151209,-1.9278522,-1.4455192,4.04405,-5.334195,6.5281663,17.622393
-9.618844,-4.307368,-4.6347594,-0.18628803,-6.5736237,-3.27661,0.048445463,-0.00913012,1.1116998,-3.2054129,3.5802999,10.803458
-7.0348096,0.02666223,-3.9336395,-4.092806,-1.648467,-10.276724,-1.2687606,1.0320649,2.3492813,-6.3024497,-1.9502325,10.910455
-11.218077,2.7625782,0.8150091,0.17637324,1.6202168,0.6728401,0.28392118,-0.96422243,1.6730224,-8.18816,-9.202418,5.5734215
-1.207715,-0.51670885,14.83341,10.936668,2.1357079,20.0,-5.688943,-0.23543167,1.1677669,-1.5345736,-0.42772377,5.729021
-0.08760166,-0.5438595,6.7221236,5.68245,-0.20439243,14.256701,10.025141,-2.8996148,-6.6700463,-0.6302968,0.5927625,-0.02064228
1.4108695,-0.67835295,-1.3619906,4.853731,0.9967593,7.4918118,6.8111563,-2.068935,-3.3236048,1.3103023,0.979269,0.19441521
-0.982471,-0.8896475,-1.2833649,1.0671219,-4.8967085,-2.5946548,0.47166848,-0.10131872,2.857405,-1.0491607,0.776351,1.4856393
-11.22141,-4.5691233,-9.5419445,2.7108862,-4.732648,1.5101306,0.67006946,-0.1697123,2.7113407,-5.4888725,5.979867,11.883206
-7.347657,-3.624874,-6.7761936,0.93910086,-4.707449,-2.552311,0.43864226,0.5093847,0.538251,-4.1585484,6.6091886,9.507261
-8.428062,-1.5902749,-6.23471,-2.7555575,-1.3923683,-7.027384,-1.3488965,1.6727676,2.0741036,-8.48529,-1.77018,10.220061
-9.976078,3.1088598,-2.0541487,-0.05415988,1.2027929,-0.31140995,0.15680023,-0.00092458725,2.2356555,-6.1235113,-7.5473657,8.512505
0.75506246,0.33794987,7.7678137,1.8089533,-0.4996513,1.2869272,3.3384123,-2.9944122,-2.28441,0.9566412,-4.53602,-2.8657215
-1.5427389,1.4370027,15.060784,7.5034833,4.5075426,16.70096,13.752257,-6.836853,-5.273953,-1.8775158,-0.07265425,0.22750092
0.8239436,-1.0519257,3.0496678,6.438323,2.7697678,9.511016,8.541531,-5.4970856,-3.849751,0.608569,0.8054476,-0.2468409
1.3586216,-0.75709265,1.7884876,3.201892,-3.0908766,0.48728323,6.5943575,-1.3539693,-0.607055,0.34108448,-0.08510351,-0.92907953
-15.734788,-6.110791,-10.427471,-0.41899493,-2.474656,-0.25554037,-1.612216,-1.239693,3.1689084,-8.888316,3.10834,14.532934
-10.948721,-4.606474,-8.403026,1.1511042,-4.44626,-0.40125525,0.57353663,0.955294,0.45442668,-8.582632,3.6245685,7.435877
-6.8199153,2.9435828,-5.2036552,-0.38831294,0.1072402,-1.7511895,0.53230333,0.17384648,1.5367252,-7.3558974,-0.49496007,7.4779596
-10.387835,0.3149538,-2.9137664,-0.06835413,0.94776475,0.8967719,-0.24173647,-1.4465237,0.59264934,-7.879446,-3.9493914,6.9712715
0.6483898,-0.8214158,14.903128,13.266769,1.0558736,20.0,-3.741706,-2.7399158,3.49331,-0.18202925,-3.5674834,8.46592
1.602195,-1.838979,0.12590729,3.593996,2.3475506,10.174521,6.6387186,-4.006081,-2.2081742,1.4916074,1.3065405,-0.56641686
-10.776369,-2.8174806,-8.19847,1.7805356,-0.879647,0.17601502,-0.9219703,2.0227137,-4.323922,-7.8865204,1.2150576,13.053241
-10.065388,-2.2736137,-7.5250297,1.7418883,-4.2881994,-0.4913652,0.7248597,0.7214987,2.8493652,-5.932937,4.20405,9.075261
-7.2120094,-1.2763761,-4.147961,-0.71177584,-1.2585229,1.3939595,0.07742596,0.64868665,1.1140373,-6.230203,-1.6954753,7.9592524
-11.046369,1.3608515,-1.9391314,-0.35388756,0.8561237,0.1691525,-0.34973934,-1.082828,0.29701543,-8.226843,-7.2675962,5.369957
0.15724796,0.51735985,7.6206894,1.1352205,-0.4407767,0.7485602,2.494422,-1.6237224,-1.2729865,-1.2695941,-4.8306117,-0.71914625
-1.5391276,0.3948574,8.552921,4.4553165,2.6414657,16.019554,9.644835,-5.2880406,-6.452347,-2.3616283,1.2177753,-2.6260285
0.8932607,-0.7781298,-1.5187593,6.582786,0.14768386,8.238356,5.4008236,-2.4723096,-6.414055,1.8733205,0.9365258,0.13752031
0.7776928,-0.61642766,4.075924,4.726693,-3.419627,-2.638158,3.8685694,1.6186111,-1.8358802,0.16214073,0.11274624,-0.969028
-14.204799,-15.355749,-9.504757,8.110605,-0.18523394,2.8675704,-0.6466856,-0.47960734,1.9464805,-5.105753,12.884022,8.699189
-11.30887,-16.936476,-9.366653,3.900027,-3.5128288,0.8002167,-3.8168268,0.1686889,1.4193689,-5.2579412,2.2994328,3.933434
-6.469747,-8.516415,-9.95999,1.478388,-2.5621753,-4.152531,-0.51519454,0.54937863,1.7043022,-6.086198,0.5237322,5.263778
-9.19944,-4.754368,-11.24933,-1.813407,1.202651,-5.7840014,-0.56890655,2.816829,2.5749168,-8.526919,-7.042164,3.9561713
0.8536733,0.0045781136,2.3126082,0.35616684,1.5850768,-0.27395782,1.5602026,-1.8197575,3.3211231,-3.0442843,-8.593657,6.220152
-0.6907282,-1.9360685,8.816295,5.666911,1.7266643,17.562506,10.89161,-8.79957,-5.8732624,-0.5411102,2.0267727,-0.30281425
0.61711526,-0.7367629,-1.1410232,5.835898,-1.2854857,9.698615,8.4893465,-4.0014834,-3.6705084,0.9255965,0.8856008,0.39519358
1.5072327,-0.20443988,2.6826854,2.218775,-4.422311,-1.5053233,5.8161993,-0.5926795,-1.585884,-0.76837397,-1.4136946,-1.0461041
-8.737643,-2.4072049,-9.167769,1.7362738,-4.4787874,-1.5903897,0.63346624,0.42850673,2.987224,-3.862973,7.2930365,12.280043
-7.7996793,-0.7666558,-5.3441405,-0.298486,-6.0901575,2.7856739,-0.08117437,-0.8386574,0.018571377,-5.5563083,0.013807058,10.709858
-8.803011,2.1417341,-1.7796196,0.18284869,1.004425,0.3780868,0.4213765,-1.0931921,1.7335743,-5.2621813,-6.2112007,9.379302
-3.0922332,5.7485647,-2.4865973,-0.1631825,0.84450877,-0.3639391,-0.16082859,-1.8603545,1.4362324,-1.4497449,-6.8428607,1.2528665
-1.5041993,2.18649,7.8247123,5.882475,4.1376967,17.243723,10.528065,-5.906595,-3.0852149,-0.6808269,-2.5871482,2.9527695
0.66314244,-1.1739864,-1.5252235,4.531651,-0.38132703,8.768685,6.7142467,-2.1480706,-1.4161758,0.9878322,0.8906629,0.5075903
-14.9654045,-1.6789186,-9.861641,0.28699607,-1.3238589,0.62017846,-1.2166686,0.9224591,-0.8629012,-5.7379193,2.9049482,16.55293
-10.813739,-4.912918,-5.8608265,0.28289133,-6.275197,-0.8602514,0.40799952,0.78162843,0.63408864,-5.215369,2.3403094,9.564535
-7.778454,0.21404147,-4.4826927,-0.312312,-0.3936813,2.5896518,0.3985746,-0.7469988,1.3160487,-6.8690944,-0.39112675,9.911526
-11.332342,3.1044493,-0.2752266,-0.14943337,1.1655556,0.7223823,-0.43655038,-1.4136825,1.0257343,-6.766009,-6.2325296,8.209415
5.5833597,-0.99214,15.024435,5.846067,6.954033,-6.0665035,3.2511597,-7.1068697,1.9860435,3.180552,-8.493862,11.689953
0.22794789,-1.5590458,10.03063,5.0833087,2.0872307,17.533293,10.45146,-6.1473656,-4.624644,0.31343266,1.8625813,-0.61386824
0.6856029,-1.0110377,-2.069388,3.0396748,-0.22638452,5.7972083,6.775676,-3.1147766,-0.9265568,0.26871634,1.8405038,0.9797323
-17.738789,-1.4235454,-12.054993,-1.6124687,-1.3814831,-1.2104292,-1.1560509,0.040802002,7.051033,-6.434318,2.547093,20.0
-9.857896,-4.4832444,-6.848139,2.2162814,-5.7310467,1.7263316,1.0317867,1.0709124,2.136972,-4.5518036,5.051112,10.892212
-7.110237,-1.4180877,-4.7972045,-0.10949123,-1.1385319,1.846798,0.5977769,-0.76688576,0.78668064,-7.3076677,-0.35883904,7.6466026
-10.529531,2.6164093,-2.343185,0.12888765,1.2169142,0.9193034,-0.28700656,-1.5484953,1.5534301,-7.4768662,-3.6416788,7.5480704
1.6160398,0.15036118,12.726295,1.6136508,1.6050745,-3.2373133,0.6355953,-4.085972,6.2841234,-0.032742977,-4.0001993,14.612188
1.1548452,-1.7834425,6.7236133,6.8583984,2.0775764,16.218863,10.009448,-5.42813,-7.336955,1.0420802,1.574389,-0.7015823
0.51813304,-0.8575874,-0.36673445,3.0899527,-2.0420797,6.0949264,5.2263746,-2.9106863,-1.034668,0.9747219,1.0067521,0.0037519932
-17.012787,-3.2524648,-10.75019,0.476426,0.2957964,0.8021403,-2.6425648,-2.9711826,4.590173,-6.968931,3.424871,15.742761
-8.841738,-2.8797042,-7.0855465,0.2653641,-0.89923203,0.14606524,0.76897144,0.37479138,1.7265106,-6.668302,3.515594,9.363699
