ancorasir/BennettWheelLegRL/experiment_data/2023-12-27_22-47-53/joint_position_env33.csv
Joint_1,Joint_2,Joint_3,Joint_4,Joint_5,Joint_6,Joint_7,Joint_8,Joint_9,Joint_10,Joint_11,Joint_12
0.232152,-0.0,-0.0,-0.21704577,0.0,0.0,-0.38346657,-0.0,-0.0,0.15148681,-0.0,0.0
0.27704194,0.31208885,0.077749945,0.22812608,0.053439006,0.24167952,0.0055707316,-0.20035458,-0.028384587,0.1602555,-0.6009351,-0.46368182
0.065873116,0.4346655,0.007836044,0.11721562,0.1939453,-0.09854263,-0.06291807,-0.2806592,0.28092465,-0.17268276,-0.45235857,-0.16666298
0.2725323,0.30702922,0.2662414,0.17828275,0.31102264,-0.10476347,-0.14483097,-0.4282544,0.39810482,-0.14625737,-0.2902706,-0.41053846
0.5408984,0.51523256,0.32492378,0.34591064,0.31173092,0.119614005,-0.17567776,-0.6653423,0.29232308,-0.08492845,-0.20422345,-0.4813894
0.42223984,0.05865176,0.24392305,0.4580623,0.4119409,0.2660121,-0.60266805,-1.1526582,0.4000019,-0.16411684,0.22264752,-0.6317028
0.44216508,-0.18479925,0.22383247,0.5167287,0.5137818,0.31163242,-0.8771166,-0.9021554,0.39997503,-0.15398727,0.53902346,-0.6186587
0.40298507,-0.22838895,-0.035830244,0.13613173,0.46539396,-0.5863356,-1.3317006,-0.4207639,0.39999607,-0.24264771,0.6958866,-0.48107916
0.3030258,-0.31101847,-0.103059426,-0.2891604,-0.24523763,-1.1998585,-1.0275683,0.35124034,0.3942879,-0.42358473,0.68122816,-0.074437425
1.0074639,0.14423095,0.40000018,0.062727034,-0.1430033,-0.47775608,-0.2724587,-0.18427387,0.052675873,0.30336088,0.21134704,-0.92745894
0.6969956,0.87780005,0.3808544,0.08806675,0.15422839,-0.46849078,-0.26834026,-0.35865787,-0.02478356,0.07553016,-0.5922272,-0.57302636
0.37023824,0.69567794,0.081854075,0.14238967,0.27379018,-0.41785923,-0.3124243,-0.80328995,0.3373129,-0.10115999,-0.21706203,-0.16290334
0.4636216,0.3736045,0.31484407,0.14175965,0.39446917,-0.30149397,-0.7980058,-1.0896094,0.40000534,-0.052726507,0.114085145,-0.34960622
0.4620021,0.011043708,0.3741801,0.1424866,0.43456727,-0.32060874,-1.2374306,-0.8928292,0.39999962,-0.034623813,0.4618412,-0.38994867
0.5096771,-0.21657695,0.2209485,-0.29002768,0.12391161,-0.9624214,-1.415703,-0.21068375,0.399999,-0.13838787,0.6455969,-0.16617882
0.50068414,-0.37435642,0.40000013,-0.09802678,-0.3744553,-0.82094723,-0.68894076,0.23313563,0.098071076,-0.24978337,0.6515517,0.09155981
0.94035167,0.2726688,0.40000013,0.036889326,-0.026850585,-0.5192396,-0.3734443,-0.2025312,-0.012350607,0.29483527,-0.0034554221,-0.8337398
0.643124,0.931261,0.24426684,0.02645881,0.24128467,-0.42381102,-0.3783571,-0.42740893,-0.06471527,-0.012220703,-0.6568566,-0.48655823
0.45439488,0.6729852,0.07788508,0.032282867,0.37867498,-0.40776202,-0.4020908,-0.7964594,0.35724953,-0.17168003,-0.21947795,-0.212298
0.5361284,0.27087775,0.303845,0.111426346,0.4674728,-0.1552797,-0.9236476,-1.1961681,0.40000185,-0.13053875,0.20992461,-0.39653635
0.5094495,0.017374545,0.28312692,0.12622605,0.42396194,-0.34641275,-1.2419674,-0.92496574,0.39999932,-0.11689084,0.48702613,-0.3852754
0.4896186,-0.19883987,0.12694691,-0.20936723,0.018814571,-0.8575548,-1.3801919,-0.2933349,0.3999562,-0.17288463,0.6515784,-0.15764043
0.57203025,-0.36581022,0.40000018,-0.027511809,-0.3254709,-0.5837158,-0.5921225,0.2050636,-0.0009661876,-0.20405708,0.62860644,-0.035064418
0.9493078,0.38309914,0.40000013,0.036945872,0.03482095,-0.54685146,-0.33546558,-0.20560473,-0.04556563,0.20021911,-0.09589641,-0.8211415
0.668973,0.92824787,0.2762703,0.051527664,0.24542059,-0.4692887,-0.33374938,-0.35272864,-0.11564676,-0.014561519,-0.62192655,-0.52372324
0.3499027,0.74173343,0.009618615,0.08901961,0.33221823,-0.38358432,-0.31416363,-0.6516604,0.12872477,-0.23992287,-0.3103226,0.055425633
0.5031287,0.3655217,0.32315913,0.067383625,0.36018378,-0.44933447,-0.76843905,-1.0352143,0.40000454,-0.13092822,0.09225823,-0.34152177
0.48317906,0.13207293,0.34098193,0.10663009,0.39456666,-0.29063562,-1.0711839,-1.0415182,0.3999971,-0.12218556,0.33589852,-0.3728022
0.46305194,-0.08207163,0.29476476,-0.0023870592,0.21480268,-0.49930707,-1.2872584,-0.778776,0.37353864,-0.13119526,0.5247995,-0.29509807
0.4590869,-0.22375605,0.15396614,-0.27911603,0.013641152,-0.93771577,-1.3662983,-0.19014686,0.40000075,-0.18396887,0.6362596,-0.10975435
0.50296104,-0.29833767,0.40000024,-0.092281766,-0.37424323,-0.630135,-0.6681077,0.2302438,0.06308913,-0.22282134,0.6797436,-0.10371369
0.93427503,0.22383158,0.40000018,0.04870082,-0.10170895,-0.5300488,-0.36670244,-0.11257174,-0.03998133,0.31043518,0.031809907,-0.79466
0.70940536,0.82287556,0.38339898,0.038481064,0.15678738,-0.523889,-0.37720898,-0.28970474,-0.065470316,0.12158573,-0.55542654,-0.6301586
0.52354413,0.8984976,0.10451786,0.05023529,0.34095263,-0.4075248,-0.41026515,-0.47231734,-0.09702108,-0.14988515,-0.6000155,-0.26562867
0.46938366,0.5559771,0.19716139,0.09092167,0.40198207,-0.3947233,-0.5338521,-0.87793005,0.39999706,-0.19631211,-0.103929706,-0.3011518
0.49407458,0.28402776,0.31256446,0.1465006,0.44211724,-0.15259956,-0.8696133,-1.1818603,0.40000287,-0.18420419,0.17675765,-0.39032358
0.4721428,0.029589817,0.32529768,0.15518214,0.46814644,-0.2195813,-1.1835289,-0.9874712,0.39998317,-0.16536944,0.43489417,-0.39109054
0.4849469,-0.13850883,0.22892886,-0.081385724,0.24578436,-0.6997213,-1.3881644,-0.5072438,0.3999585,-0.22026025,0.5907418,-0.27728575
0.46568868,-0.24420774,0.03449393,-0.3037531,-0.08927794,-1.0595614,-1.2262901,0.07530978,0.37522414,-0.32677385,0.6459367,-0.018904207
0.7613698,-0.18471493,0.40000018,0.062184785,-0.24811897,-0.42024717,-0.20610356,-0.012216606,-0.037222452,0.01120787,0.5220385,-0.56100804
0.81664556,0.56490237,0.40000004,0.09000114,0.08344175,-0.5203615,-0.30109188,-0.25291803,0.077944025,0.27723217,-0.31889084,-0.6680337
0.5038092,0.8986874,0.13778359,0.13238657,0.35040706,-0.3311922,-0.30298355,-0.5307477,-0.011441191,-0.10411283,-0.54662997,-0.20126814
0.43463746,0.503447,0.2351731,-0.008822585,0.20538826,-0.563633,-0.4761375,-0.8573483,0.39998814,-0.13809703,-0.032531705,-0.25783804
0.47265214,0.16804563,0.3705609,0.030461151,0.2581741,-0.35644677,-0.98607093,-1.0369793,0.40001717,-0.12712128,0.27043214,-0.30387795
0.45512566,-0.051082782,0.35500595,0.020540604,0.2613174,-0.50448006,-1.2554584,-0.7729752,0.3999778,-0.121001616,0.45665288,-0.24536236
0.45452625,-0.24210443,0.19128564,-0.29340982,0.053689312,-1.0906636,-1.3818684,-0.10011753,0.3999868,-0.19221447,0.59591794,-0.012345733
0.6399536,-0.32961676,0.40000027,0.107446864,-0.3196812,-0.34736755,-0.38106215,0.100072004,-0.07192059,-0.1061929,0.64088553,-0.27076945
0.8476201,0.57348734,0.4000001,0.07219949,0.07282324,-0.52117753,-0.24169333,-0.30468926,0.07967887,0.31341967,-0.39840457,-0.7284764
0.5612728,0.8482858,0.19128056,0.09177462,0.31273285,-0.40685484,-0.26857227,-0.51242083,0.015625015,-0.06366307,-0.6468274,-0.42648655
0.47970852,0.5448952,0.1603693,0.07103773,0.42507914,-0.37489423,-0.43560377,-0.89207435,0.3999922,-0.26999113,-0.12157728,-0.18625952
0.53806156,0.26056564,0.30458292,0.11508773,0.47588092,-0.17928725,-0.83477896,-1.2529235,0.4000082,-0.24072528,0.17208031,-0.3391783
0.5123917,0.017082045,0.29583383,0.19296765,0.44546956,-0.0155552365,-1.0988153,-1.0020176,0.40000278,-0.22035965,0.4348273,-0.3589036
0.46231014,-0.16821836,0.15414873,-0.15722138,0.2724432,-0.86843204,-1.422507,-0.3658761,0.39998603,-0.23404786,0.6254976,-0.23429236
0.4106364,-0.30263308,0.32095566,-0.25896442,-0.32559395,-1.0934377,-0.98336965,0.29225484,0.22882423,-0.33157206,0.65882397,0.044623185
0.9325107,0.19464968,0.40000015,0.10498345,-0.11439559,-0.52128786,-0.3068091,-0.21530707,0.14013079,0.33482134,0.13189171,-0.8210452
0.71497184,0.8386969,0.38542888,0.07084057,0.19736363,-0.5057874,-0.25522968,-0.40814435,0.058106128,0.09143434,-0.664496,-0.6664248
0.47425017,0.51653135,0.20678805,0.11735486,0.41180718,-0.3289845,-0.44042495,-1.0205908,0.39999473,-0.17500356,-0.108494766,-0.24953465
0.46958068,0.06539443,0.32979318,0.16673058,0.4707256,-0.042923685,-1.0959442,-1.0187179,0.38740197,-0.0987078,0.38114414,-0.38839126
0.46727845,-0.16934155,0.21335466,-0.17142497,0.20909517,-0.8131483,-1.4194218,-0.41346055,0.39997387,-0.15182932,0.59478205,-0.25391966
0.45057765,-0.342957,0.2538829,-0.2928236,-0.21173888,-1.060383,-1.0397133,0.21921198,0.2475025,-0.2680514,0.6381881,0.045876026
0.9348572,0.060166597,0.4000002,0.0049302336,-0.10756346,-0.53466165,-0.268643,-0.1661524,0.034235936,0.32180405,0.21636915,-0.7764037
0.72836024,0.8421101,0.35979146,0.021405475,0.19208883,-0.49502206,-0.2756301,-0.37031245,-0.008896321,0.09926405,-0.5899567,-0.60492873
0.4897676,0.81578064,0.032625128,0.067445904,0.3642528,-0.33498034,-0.3150608,-0.6376202,0.06967257,-0.19189744,-0.44806835,-0.17143804
0.49887958,0.425309,0.2959694,-0.002592793,0.22208148,-0.54227227,-0.71485627,-0.8602456,0.39997447,-0.09742019,0.081657216,-0.34385055
0.49302235,0.1596284,0.36157432,0.0028144792,0.34804896,-0.38880208,-1.0526946,-1.035433,0.38759705,-0.105728574,0.30815372,-0.34043056
0.46546113,-0.08329645,0.2995527,-0.06107874,0.1798982,-0.64100844,-1.3487931,-0.6351715,0.3999863,-0.11899192,0.524178,-0.25457162
0.45416823,-0.23141402,0.13922362,-0.30091956,-0.05192817,-1.0339379,-1.3119879,-0.06149132,0.39996773,-0.1958325,0.61753,-0.032666724
0.76221055,-0.2807128,0.40000024,0.030044662,-0.24555238,-0.47707286,-0.13281788,-0.07634918,-0.13020223,0.12118881,0.5254542,-0.53281736
0.7161776,0.7288725,0.40000004,0.056158442,0.07737661,-0.52421314,-0.23201269,-0.35575542,0.024182703,0.21576756,-0.5996855,-0.5770219
0.5443793,0.858694,0.2144048,0.08705504,0.28726205,-0.44393024,-0.26390654,-0.5090285,-0.04385593,-0.057767365,-0.7326072,-0.4650326
0.45535666,0.5617795,0.16897182,0.085323274,0.31044817,-0.4327711,-0.33976725,-0.88644856,0.32823968,-0.18019211,-0.091784105,-0.20910974
0.5123739,0.2561774,0.3331146,0.1021853,0.40134338,-0.3188227,-0.81856287,-1.1172457,0.40000826,-0.14372116,0.21411131,-0.3545113
0.4769373,-0.07547624,0.29196274,-0.007792342,0.2281288,-0.6904688,-1.3323437,-0.69449365,0.39996418,-0.14919955,0.51576865,-0.2837223
0.43888766,-0.21189357,0.11772809,-0.3081037,-0.1821858,-1.1334431,-1.2479745,0.08373314,0.38146424,-0.21973948,0.6132958,-0.051000394
0.896776,0.04016904,0.40000018,0.020900367,-0.18999474,-0.47842795,-0.2349925,-0.16187704,0.14095624,0.30030426,0.2349499,-0.7454961
0.6577253,0.7368412,0.35371238,-0.02091127,0.17007312,-0.49717942,-0.2164628,-0.41979802,0.1395862,0.12973624,-0.66171175,-0.5687472
0.4454693,0.76239383,0.034873582,-0.031218959,0.40279117,-0.34187305,-0.23409265,-0.6477186,0.060287077,-0.16078033,-0.59206337,-0.43441927
0.47122273,0.47489157,0.27728954,-0.013396844,0.42904618,-0.3136763,-0.5195613,-0.9692061,0.40007704,-0.20148857,0.0061092936,-0.325594
0.47403,0.15546373,0.37726453,0.051342554,0.443246,-0.0373494,-1.0103371,-1.129903,0.400005,-0.17180428,0.33458295,-0.43014345
0.46657926,-0.08993954,0.30571026,0.0014314196,0.39312482,-0.45029235,-1.3373872,-0.7382732,0.39998814,-0.19350603,0.5888608,-0.36002287
0.4911618,-0.2400732,0.1665851,-0.26546836,0.06525575,-0.93560386,-1.4170048,-0.23249277,0.39994064,-0.29266605,0.667847,-0.14204162
0.67975223,-0.3985754,0.40000018,0.024439208,-0.34062907,-0.6013315,-0.58783346,0.23025316,0.0009174494,-0.35311577,0.6698654,-0.13869834
0.9556632,0.38237244,0.4000001,0.07978568,0.024375273,-0.5779937,-0.35519782,-0.19657409,-0.040340524,0.1690057,-0.03014538,-0.90630084
0.5796312,0.923018,0.26192886,0.11671474,0.28886175,-0.46463683,-0.36283326,-0.40900925,-0.12877728,-0.035847973,-0.63013756,-0.35899934
0.42403874,0.54092747,0.22421291,0.11505594,0.32391623,-0.43249476,-0.5159703,-0.80288607,0.40000352,-0.12198297,-0.09970749,-0.29981312
0.45065925,0.18863651,0.34012982,0.17222083,0.43372032,-0.16118094,-0.97375286,-1.0841626,0.36425796,-0.10738992,0.27698973,-0.40409487
0.44874337,-0.0878697,0.28634843,0.028465383,0.30982003,-0.5801345,-1.3103807,-0.6756534,0.39997178,-0.13439871,0.55123836,-0.35088006
0.44384867,-0.24831517,0.120180786,-0.30870238,-0.03702822,-1.0424294,-1.3250664,-0.013984994,0.3999786,-0.22532797,0.6465917,-0.120746836
0.8610689,-0.116766185,0.40000018,0.022518087,-0.20601948,-0.43728414,-0.29254532,-0.009692751,-0.026099918,0.2157872,0.47421727,-0.7025371
0.75788724,0.7594206,0.40000004,0.006340123,0.1643617,-0.47366634,-0.32022375,-0.2749367,-0.004278523,0.205126,-0.5479097,-0.643794
0.5306401,0.8827304,0.099632345,0.028246578,0.38627848,-0.29777563,-0.344844,-0.5422404,-0.0058542704,-0.11208625,-0.59994936,-0.26880845
0.5005371,0.49116603,0.25502348,0.05044202,0.4059801,-0.3791496,-0.5914106,-0.99178433,0.39999884,-0.11835657,-0.032684833,-0.2849383
0.4921163,0.1944207,0.34158072,0.09516682,0.44293454,-0.14071411,-1.0482694,-1.1387455,0.40000233,-0.08840421,0.2668583,-0.3606222
0.4700574,-0.0734163,0.26616934,0.015013597,0.40976274,-0.570273,-1.3332651,-0.6563912,0.39999872,-0.10513432,0.5424968,-0.30661798
0.40432292,-0.25824013,0.25897262,-0.28832737,-0.28805012,-1.1800444,-1.0858897,0.26756975,0.2668317,-0.2542218,0.63441604,0.032015968
0.95714605,0.12836346,0.40000015,0.06273157,-0.102710865,-0.511672,-0.35063887,-0.1081727,-0.029160218,0.30374512,0.1415625,-0.80435234
0.6383672,0.8595336,0.35017478,0.07099477,0.19635215,-0.44387937,-0.35787272,-0.3370732,-0.07236663,0.036437556,-0.6922677,-0.5616185
0.39001244,0.651453,0.10900067,0.10731628,0.341961,-0.42469904,-0.35221052,-0.7221481,0.21539499,-0.1645743,-0.21530052,-0.1528427
0.45688254,0.2554259,0.3479263,0.1153779,0.43295023,-0.25260156,-0.97096926,-1.08527,0.4000056,-0.08651759,0.19344771,-0.37210563
0.443879,-0.041440174,0.34516594,0.0047889184,0.33596686,-0.49965104,-1.3452073,-0.80240154,0.39998165,-0.07628994,0.48525035,-0.35668418
0.4741825,-0.23374626,0.24162085,-0.25531143,0.034230117,-0.887568,-1.393329,-0.2331576,0.40000072,-0.14212573,0.62719494,-0.19296797
0.5881059,-0.36771953,0.40000015,0.02083677,-0.34132776,-0.569761,-0.5234947,0.13569054,0.01719847,-0.120633185,0.6535105,-0.1992677
0.9123255,0.23873925,0.40000013,0.0352397,-0.031064149,-0.59021723,-0.28090373,-0.2527186,0.104921214,0.28336418,-0.014501399,-0.74096274
0.6361428,0.8630217,0.3217779,0.061509643,0.24323884,-0.52690107,-0.29249454,-0.44157827,0.044103254,-0.02294095,-0.6375022,-0.5281774
0.3961261,0.7791582,-0.026661064,0.1101433,0.357099,-0.40236095,-0.30458018,-0.6709934,0.13079037,-0.27188024,-0.2747525,-0.011757542
0.484855,0.48208568,0.22629112,0.09404894,0.40225604,-0.36998037,-0.61404115,-1.0349439,0.4000021,-0.18602881,0.046686377,-0.3241794
0.45821652,0.16257201,0.3115131,0.11616675,0.44905406,-0.14330927,-1.0914376,-1.1241957,0.400008,-0.14609554,0.3588515,-0.36434618
0.4512537,-0.125446,0.26295772,-0.090296306,0.28760353,-0.66056174,-1.4155504,-0.60456485,0.39996025,-0.17607743,0.58193856,-0.24653621
0.5499834,-0.30993187,0.40000027,0.028131256,-0.2783633,-0.47820336,-0.5293864,0.2080875,-0.004331371,-0.19922294,0.67665184,-0.2535553
0.8873653,0.45939404,0.4000001,0.10308102,0.11686331,-0.55167884,-0.2935411,-0.23431769,0.07639124,0.30105144,-0.24837795,-0.73999745
0.56952405,0.9293787,0.1922978,0.13472241,0.34472755,-0.404021,-0.31903273,-0.457976,0.028218685,-0.041861694,-0.6317402,-0.34516105
0.45735157,0.5166213,0.23544411,0.035576425,0.18707348,-0.55378604,-0.59190714,-0.9115209,0.39998195,-0.10564505,-0.06745642,-0.21180692
0.4644545,0.21404645,0.35795274,0.0246193,0.29518965,-0.40978822,-1.0099559,-1.0166265,0.4000129,-0.07038709,0.21158631,-0.282893
0.44291124,-0.008711108,0.35124785,-0.027175337,0.22763798,-0.5597045,-1.3116895,-0.7933889,0.3999901,-0.061237622,0.40957302,-0.26343277
0.44315973,-0.19021578,0.2626799,-0.22120622,0.07205587,-0.8544054,-1.3861537,-0.33864412,0.39999735,-0.096711226,0.5524908,-0.13882054
0.39223272,-0.30362886,0.18917185,-0.28289133,-0.24669403,-1.1538409,-1.0500532,0.26459622,0.30589834,-0.21583588,0.5970932,0.14242478
0.939822,0.23287624,0.40000013,0.012428854,-0.10587879,-0.5089964,-0.2161619,-0.22466886,-0.013902879,0.2922018,-0.024913443,-0.8242291
0.6187359,0.8951018,0.2802989,0.060640197,0.17907351,-0.46387252,-0.2492954,-0.40552583,-0.10081241,0.013354689,-0.662107,-0.4994614
0.35108316,0.70445764,0.011759586,0.11869927,0.28287917,-0.3964404,-0.28141633,-0.6554943,0.04030897,-0.24271041,-0.27324983,0.028043272
0.48638362,0.30237147,0.34132904,0.07995273,0.36746693,-0.3687804,-0.83904886,-1.0439727,0.4000041,-0.12806575,0.12419907,-0.30535012
0.46622273,-0.022099705,0.3612905,0.095662884,0.43584737,-0.15349963,-1.1727947,-0.9926679,0.3768751,-0.10908348,0.4263369,-0.30603993
0.4374643,-0.23254783,0.20161682,-0.27262616,0.10718595,-0.8712537,-1.4208354,-0.28040984,0.39996725,-0.16100486,0.5978874,-0.12701589
0.6533383,-0.27464706,0.40000024,0.11394627,-0.33528662,-0.33931404,-0.29132158,0.037847806,-0.050220333,-0.04341498,0.65720695,-0.37439114
0.81916845,0.6162359,0.40000004,0.06216481,0.037870143,-0.5170582,-0.2636116,-0.3038533,0.049151573,0.24673556,-0.33854172,-0.7029086
0.59092855,0.8690831,0.28109685,0.08465032,0.25274867,-0.43205383,-0.26220587,-0.45341676,-0.03531148,0.034727894,-0.6687902,-0.52668166
0.38356614,0.5794657,0.12602012,0.0847958,0.28670698,-0.42253846,-0.3137973,-0.7740801,0.28559455,-0.15036273,-0.23418921,-0.15412128
0.48810357,0.16275997,0.34448016,0.07918755,0.3932557,-0.34104943,-0.97014904,-1.0293585,0.399996,-0.11580131,0.1910041,-0.3671586
0.48190486,-0.06784753,0.32278663,0.093533404,0.4331141,-0.17984357,-1.192999,-0.8952723,0.39999542,-0.12843446,0.4157779,-0.35434827
0.4846126,-0.24436267,0.17139767,-0.13022156,0.22453962,-0.79124105,-1.3956034,-0.4157897,0.3999483,-0.19462717,0.58075774,-0.20013589
0.41592035,-0.36120975,0.18171075,-0.2998481,-0.27431485,-1.1998048,-1.0621446,0.27437687,0.35229656,-0.3024119,0.6149072,0.078048915
0.85930026,0.324532,0.40000013,0.035528697,-0.068416186,-0.517729,-0.20831837,-0.18709084,0.041891698,0.29970658,-0.10396433,-0.7287035
0.5856059,0.9086399,0.28067046,0.061767533,0.2227037,-0.46432528,-0.24364106,-0.40679526,-0.001778505,0.03421061,-0.715206,-0.5083627
0.372049,0.6961361,0.028536092,0.09128714,0.36529163,-0.32190734,-0.2590272,-0.73119956,0.17049876,-0.23027061,-0.25771907,0.013765433
0.4617141,0.35704702,0.27104434,0.12571883,0.41373402,-0.25355026,-0.79746085,-1.1493917,0.40000346,-0.1268435,0.11215828,-0.2693305
0.4406895,0.10364463,0.30121684,0.16694838,0.4012211,-0.23588228,-1.1052134,-1.0068052,0.39998397,-0.09847787,0.37034938,-0.30492815
0.4561722,-0.15964936,0.23053643,-0.21361125,0.116650775,-0.91505826,-1.3798006,-0.3408754,0.39999595,-0.14113776,0.5741591,-0.16215585
0.53188664,-0.35176504,0.4000002,-0.02180308,-0.34720466,-0.5726546,-0.555296,0.18351789,-0.042514447,-0.1737015,0.6639611,-0.258478
0.8680292,0.4981015,0.40000007,0.04796532,0.029478267,-0.5012617,-0.36073953,-0.17343754,-0.028782576,0.23963325,-0.23776576,-0.7395014
0.6076574,0.9389755,0.2370292,0.042470105,0.2295053,-0.4128953,-0.36680233,-0.35342315,-0.06623458,0.0021887163,-0.67879015,-0.47068924
0.4069833,0.67202705,0.09367003,0.04880986,0.36187896,-0.3412784,-0.36705232,-0.65745515,0.12481041,-0.22338563,-0.2686535,-0.1280635
0.5017921,0.37733656,0.31925255,0.07986198,0.44375238,-0.22576937,-0.69535357,-1.0493867,0.40000284,-0.16090128,0.041133,-0.36366957
0.47329745,0.07010491,0.3623491,0.12809007,0.44677088,-0.22014032,-1.1026778,-1.0178703,0.39999932,-0.11515709,0.38921356,-0.44826484
0.46442574,-0.16872118,0.23322685,-0.1588878,0.19830419,-0.88361716,-1.4239534,-0.42581028,0.3999643,-0.17423974,0.6058222,-0.28671718
0.42490402,-0.32409668,0.18790385,-0.2389968,-0.24077658,-1.0793362,-1.0631198,0.21562566,0.28588444,-0.28784218,0.6677506,0.0031548117
0.90938187,0.33403614,0.40000013,0.017328877,0.0030086974,-0.6083626,-0.28353104,-0.25825512,0.048076395,0.239187,-0.038627397,-0.8204815
0.5634165,0.9381856,0.17906712,0.07204032,0.27915075,-0.5066256,-0.3189943,-0.46661508,-0.027333118,-0.10589006,-0.5106335,-0.29906058
0.44659597,0.42311046,0.24138579,0.039428703,0.35629252,-0.431461,-0.6989206,-0.9847106,0.40000555,-0.14213392,0.026160875,-0.37421456
0.45865792,0.1499792,0.3013974,0.09923731,0.3978529,-0.18655314,-1.0412936,-1.1106086,0.39999613,-0.16361223,0.2879703,-0.39052108
0.47908282,-0.16003588,0.24830243,-0.13218135,0.23651159,-0.75827664,-1.3923719,-0.5134106,0.39995113,-0.18687485,0.5809277,-0.2994402
0.4451575,-0.29326499,0.3666176,-0.14754164,-0.28803697,-0.9063047,-0.8047545,0.2633017,0.22438048,-0.3315727,0.6574743,0.07770369
0.8778339,0.40462154,0.40000013,-0.012558293,0.10496606,-0.5280438,-0.2976782,-0.29703864,0.05624804,0.35578558,-0.20951855,-0.7408697
0.59635335,0.896957,0.21804799,0.0010198648,0.33527827,-0.33937696,-0.28073716,-0.50349385,-0.06665045,-0.0038089696,-0.7672018,-0.46262023
0.39619565,0.6057187,0.13098513,0.05515261,0.38556466,-0.3950469,-0.2949819,-0.8522799,0.34969103,-0.24877721,-0.097211786,-0.027847813
0.4811069,0.21679145,0.34133038,0.13921717,0.44041592,-0.2612431,-0.99510956,-1.1442921,0.39999864,-0.15822536,0.3220407,-0.31621778
0.47560954,-0.084864795,0.33467117,-0.03499493,0.26174977,-0.51571274,-1.3459938,-0.69019186,0.38604686,-0.1676807,0.5535785,-0.23856264
0.45340833,-0.25837505,0.1368518,-0.33140483,-0.11526672,-1.0740887,-1.2182539,0.10484015,0.3426192,-0.26036057,0.6507078,0.037303925
0.82939065,-0.17696683,0.40000018,0.064224996,-0.16805501,-0.45302013,-0.22263438,-0.07919826,0.022938497,0.15982795,0.42510387,-0.56210047
0.7996381,0.6394259,0.40000007,0.09785551,0.14204554,-0.49144703,-0.29440206,-0.3076486,0.07183215,0.23546007,-0.39653265,-0.6825703
0.50886005,0.8307099,0.14616254,0.120591,0.35627845,-0.30764577,-0.29700744,-0.5554296,-0.0003688264,-0.11470388,-0.51611364,-0.30761397
0.4383447,0.4027848,0.25280052,0.07149537,0.35474905,-0.38616893,-0.65604806,-0.93718106,0.39999998,-0.08263344,-0.0008958094,-0.34083217
0.4567196,0.06305519,0.30475646,0.105903566,0.44500974,-0.18947254,-1.1007735,-1.016856,0.39999458,-0.09776793,0.34621713,-0.38452765
0.47020975,-0.14973582,0.16870931,-0.14852358,0.24495508,-0.7623578,-1.419688,-0.4739616,0.39996305,-0.16872613,0.57148767,-0.2655314
0.46894822,-0.31752023,0.31692535,-0.17418179,-0.2683698,-0.92907906,-0.8778073,0.23309304,0.1961651,-0.34165293,0.6345306,0.078375995
0.8988466,0.294738,0.40000018,0.03712357,0.02866881,-0.5368257,-0.26442954,-0.2291927,0.051403243,0.3574182,0.027412932,-0.79339176
0.6854842,0.88339573,0.30982217,0.049432453,0.27065763,-0.43822733,-0.2578611,-0.4238637,-0.00794207,0.048101354,-0.7111873,-0.517609
0.3879154,0.646661,0.087657325,0.08814444,0.32411283,-0.33939612,-0.25406808,-0.7513135,0.14192009,-0.26731315,-0.1837611,-0.03931913
0.49618703,0.25848168,0.36381364,0.095674016,0.39602485,-0.31670237,-0.8742364,-1.169911,0.4000036,-0.17492995,0.20777366,-0.31704134
0.45428088,-0.09025021,0.37286198,-0.054340493,0.28402212,-0.62476826,-1.3340473,-0.7530456,0.39995733,-0.14860533,0.49936578,-0.28382728
0.4074168,-0.31146723,0.21106006,-0.3013078,-0.23192593,-1.1807696,-1.1569384,0.17199358,0.32212216,-0.25721946,0.61270356,0.038386546
0.84842664,0.12378733,0.40000018,-0.00064165314,-0.043371793,-0.5399658,-0.26685384,-0.19093515,0.028506124,0.31991884,0.04523314,-0.7026313
0.73223567,0.7828165,0.40000004,0.0075291535,0.19445172,-0.4943514,-0.2694064,-0.35463625,-0.03629616,0.17022078,-0.5292925,-0.6053139
0.38408735,0.8121541,-0.032233942,0.06907616,0.351828,-0.36542204,-0.25960985,-0.66884834,0.06712091,-0.20697674,-0.3769042,-0.0006524631
0.46895415,0.40351307,0.26463306,0.05055169,0.4142586,-0.2987372,-0.7412883,-1.11858,0.40000254,-0.13181145,0.06442466,-0.31029832
0.44678536,0.068458594,0.31196544,0.06966153,0.416672,-0.34822306,-1.1866307,-0.9509413,0.39998716,-0.11580187,0.38304317,-0.33674678
0.47002432,-0.18328431,0.21999492,-0.16107115,0.1140353,-0.8063741,-1.3938279,-0.4093095,0.4000001,-0.16809244,0.58906734,-0.18257125
0.43923327,-0.32785618,0.40000027,-0.107444465,-0.40841338,-0.7403004,-0.6858082,0.24191995,0.09665816,-0.24485068,0.64832157,-0.057131607
0.87449646,0.21214753,0.40000018,0.07983059,-0.098463684,-0.53257126,-0.30216393,-0.20603672,0.09236403,0.34221652,-0.051181372,-0.73650455
0.63411856,0.8585138,0.34278637,0.070325956,0.19995117,-0.4875749,-0.28328377,-0.4080589,0.0072108167,0.069765665,-0.6762444,-0.5222569
0.38107175,0.80336094,-0.036115002,0.124589555,0.3657664,-0.33436996,-0.3281308,-0.65268207,0.09702009,-0.23992929,-0.38195693,-0.034311347
0.4692256,0.39265913,0.30477574,0.07686698,0.4172969,-0.3450785,-0.74328494,-1.097512,0.40000308,-0.1547651,0.16690116,-0.36294183
0.4642942,0.07413436,0.35479355,0.06721354,0.37420213,-0.43822795,-1.1804872,-0.9321091,0.39998364,-0.14711049,0.47092384,-0.38485828
0.46234939,-0.104103334,0.28753608,-0.12884852,0.14391156,-0.78048533,-1.352496,-0.49084896,0.39800242,-0.17717884,0.61766815,-0.27634558
0.43038964,-0.27150863,0.20492847,-0.29571196,-0.2799484,-1.1534472,-1.1835549,0.1142504,0.33878002,-0.2533985,0.68670505,-0.03408599
0.8668986,-0.19146459,0.40000018,0.01361975,-0.29606026,-0.5100355,-0.22107472,-0.09362987,0.013536401,0.06646524,0.5704551,-0.6878182
0.8759263,0.50358397,0.4000001,0.020533811,0.016071655,-0.5791566,-0.2391089,-0.28408828,0.035699807,0.18123281,-0.113598324,-0.82186645
0.6290074,0.8765753,0.2622596,0.07488755,0.20374157,-0.49341285,-0.2869934,-0.43681777,-0.013346024,-0.03175824,-0.5864665,-0.5152067
0.38791594,0.7577463,0.0010929367,0.107724234,0.3283788,-0.4039568,-0.31244308,-0.68788534,0.16914243,-0.23628569,-0.31605837,0.015456617
0.4889131,0.40247953,0.31411856,0.036245916,0.39030546,-0.3950171,-0.71750396,-1.0390924,0.40000647,-0.13635097,0.03208023,-0.3044156
0.49139318,0.1567598,0.3698019,0.09694453,0.41249415,-0.19768302,-1.0148903,-1.1086012,0.40002027,-0.12215721,0.281845,-0.36452714
0.46472788,-0.07425696,0.34919548,-0.010759316,0.2788241,-0.53073007,-1.312171,-0.78597337,0.39996022,-0.1076889,0.49668387,-0.3349501
0.47248036,-0.24194644,0.22887383,-0.24616489,0.0316555,-1.0154626,-1.3651066,-0.15398578,0.39444602,-0.16249539,0.62162405,-0.16249242
0.58199996,-0.36142007,0.4000002,0.004442578,-0.42183316,-0.46567807,-0.49962875,0.19249754,-0.026923407,-0.1209896,0.68618697,-0.3334918
0.8913954,0.18573229,0.40000015,0.045495775,-0.111281514,-0.544226,-0.3197054,-0.14997268,0.03383175,0.36468768,0.012295737,-0.71351314
0.68710345,0.81308436,0.38469258,0.044443112,0.1592132,-0.5242545,-0.3286613,-0.3420852,0.013101993,0.15289529,-0.6334818,-0.585235
0.48779324,0.8606112,0.07962133,0.05557581,0.37588343,-0.3553748,-0.3493711,-0.5566064,-0.04810539,-0.16764915,-0.5168803,-0.26508436
0.47787887,0.5009697,0.2681117,0.060172938,0.36296764,-0.4654326,-0.5900386,-0.9046372,0.39999852,-0.20054953,-0.013960745,-0.30001163
0.48141524,0.16095394,0.37195343,0.1053302,0.4418114,-0.18002282,-1.0154628,-1.0999136,0.38533643,-0.17000008,0.33118862,-0.38107675
0.43289915,-0.18422939,0.25260466,-0.16114278,0.12042111,-0.7666965,-1.3777257,-0.46128067,0.39997768,-0.1990258,0.6164521,-0.21337003
0.5992104,-0.3360583,0.40000018,0.065665,-0.37350607,-0.42451498,-0.438314,0.14889902,-0.042120986,-0.11843797,0.6647167,-0.2721642
0.80911094,0.4871956,0.4000001,0.056808338,0.028520066,-0.5236351,-0.27479908,-0.29668468,0.111664124,0.30532548,-0.29834086,-0.6757586
0.64715993,0.91431296,0.2540033,0.047650073,0.2538203,-0.4390955,-0.27140075,-0.47671053,0.02572061,-0.02401866,-0.733467,-0.5303445
0.3996456,0.71923316,-0.001296295,0.08970584,0.39138398,-0.3217323,-0.27653182,-0.685182,0.020049095,-0.29463056,-0.33710808,-0.11554124
0.4993032,0.36181808,0.2888568,0.10216815,0.45198223,-0.13885826,-0.69431305,-1.1904943,0.40000242,-0.20535354,0.08564256,-0.36394292
0.49691224,0.059001148,0.35070673,0.1805232,0.46150425,-0.03727748,-1.079422,-1.063637,0.39542904,-0.16484104,0.4157649,-0.4359802
0.49153432,-0.18666881,0.28072643,-0.06487812,0.30057463,-0.65198183,-1.3335104,-0.597781,0.39998034,-0.1784863,0.6456418,-0.35144433
0.44521528,-0.36584622,0.36666745,-0.2270792,-0.34188676,-1.023067,-0.9664593,0.25530824,0.23298207,-0.28906068,0.70290697,0.007604788
0.8811042,-0.09282676,0.40000015,0.0064743855,-0.3565072,-0.50650644,-0.33786765,-0.05542653,0.05268528,0.3134534,0.23289683,-0.79067296
0.48598626,0.35975012,0.23641805,-0.054438688,-0.093315184,-0.67354846,-0.14670798,-0.38602662,0.19522022,0.2508178,-0.5005526,-0.5609016
0.4718992,0.37311408,0.19690166,0.006918169,-0.018779358,-0.6187997,-0.15159069,-0.997549,0.16657789,-0.31573418,-0.1157989,-0.12282452
0.52148485,0.14790902,0.30989546,0.028197408,0.09836994,-0.56168944,-0.6038284,-1.1568565,0.4000029,-0.3287901,0.21987206,-0.29736736
0.48048896,-0.07337892,0.27157873,0.022422573,0.24701986,-0.4092007,-0.9837253,-0.97344947,0.39866143,-0.31782413,0.4365244,-0.21377416
0.41866785,-0.24631369,0.10929879,-0.1475115,0.1771184,-0.9357491,-1.3170455,-0.31263933,0.39993986,-0.33135337,0.582344,-0.032782882
0.80370873,-0.31577682,0.40000024,0.054931212,-0.24173778,-0.39318395,-0.19807504,0.0254318,-0.13718307,-0.053799003,0.6133911,-0.53305614
0.86152947,0.618239,0.40000007,0.06268311,0.09265734,-0.52985346,-0.17983611,-0.26529452,-0.046063323,0.22014792,-0.3378257,-0.7607707
0.4679896,0.8850325,0.11660126,0.14478746,0.29962677,-0.39447334,-0.22658508,-0.49742302,-0.060963016,-0.08960646,-0.5644291,-0.21049988
0.41571078,0.47248736,0.22846541,0.065955974,0.24398524,-0.468819,-0.56275284,-0.994961,0.40000486,-0.107641734,0.089527875,-0.25482708
0.4336394,0.14369343,0.30990982,0.07486331,0.38789195,-0.3481628,-1.1301299,-1.0415705,0.40000665,-0.08943188,0.40368086,-0.27641645
0.45156062,-0.08036832,0.2696469,-0.11013933,0.1547931,-0.6522323,-1.3574075,-0.59653366,0.39995575,-0.125837,0.5736267,-0.17455648
0.4401638,-0.23345533,0.101624504,-0.34150547,-0.2080054,-1.087988,-1.1035947,0.1974778,0.29622963,-0.2660419,0.6480556,0.14659883
0.9892067,0.10737619,0.4000002,0.021784967,-0.13303691,-0.505402,-0.23172496,-0.26028997,0.10040159,0.26776394,0.26528674,-0.88825375
0.70090204,0.8473518,0.32517612,0.05359848,0.15465336,-0.45733634,-0.22072117,-0.44097072,-0.0012188187,0.053547308,-0.5919873,-0.63697773
0.40070197,0.7644332,0.019715903,0.109154396,0.3225189,-0.31983316,-0.22828218,-0.6649404,0.012895402,-0.2074422,-0.36950752,-0.069773495
0.49077412,0.4230256,0.23462118,0.070972934,0.353317,-0.3845019,-0.67585707,-1.0837578,0.40000552,-0.13968238,0.022730427,-0.27217823
0.47145393,0.07897427,0.28964087,0.08434,0.3583617,-0.29913315,-1.1321961,-1.0040799,0.40000325,-0.109923966,0.36643904,-0.3263689
0.48445916,-0.1466863,0.22719742,-0.076153554,0.16105473,-0.7001718,-1.3338014,-0.5438626,0.39952788,-0.14079306,0.5602386,-0.22752507
0.4518271,-0.31858528,0.16947149,-0.27471223,-0.24522248,-1.1531888,-1.0394086,0.21435116,0.32138965,-0.2608217,0.63072,0.09100174
0.91799945,0.08910104,0.40000018,0.06710116,-0.08339602,-0.5289693,-0.31672564,-0.15234444,0.0054500527,0.23790333,0.11502668,-0.74449253
0.75074595,0.806234,0.39434278,0.08191295,0.17900258,-0.50192374,-0.32741222,-0.33028448,-0.019405467,0.16478637,-0.58452654,-0.6289646
0.4873611,0.8606267,0.095822535,0.1252598,0.3383582,-0.34145975,-0.35364845,-0.535349,-0.027930286,-0.15711832,-0.45092797,-0.15464124
0.48100516,0.41619992,0.28015283,0.10068589,0.33371794,-0.47743294,-0.679398,-0.9203851,0.40000397,-0.12987313,-0.005202221,-0.3322533
0.49234733,0.16751193,0.32477257,0.11210209,0.35324943,-0.3458213,-1.0039701,-1.071908,0.40000856,-0.13772322,0.25924864,-0.38542238
0.49662784,-0.12139935,0.26137567,-0.05805157,0.22110176,-0.6027536,-1.3516552,-0.66642547,0.39252266,-0.16146255,0.53836006,-0.28756633
0.48853552,-0.28037158,0.026748346,-0.3090445,-0.19453883,-1.1175859,-1.185614,0.11146109,0.39999333,-0.26811108,0.65942705,0.0032562576
1.0069429,-0.042269688,0.40000018,0.05854829,-0.098854825,-0.5026907,-0.238082,-0.16675623,0.054027077,0.18145017,0.33700573,-0.8401079
0.72400725,0.8496175,0.34951267,0.094320916,0.22631264,-0.5026731,-0.23835492,-0.38752007,0.0018224156,0.05406702,-0.5348318,-0.6066921
0.4509867,0.8034937,0.055807125,0.16330379,0.37276945,-0.33649158,-0.26845706,-0.61465716,0.03008696,-0.19405873,-0.373969,-0.16639717
