ancorasir/BennettWheelLegRL/experiment_data/2023-12-27_22-47-53/joint_vel_env22.csv
Joint_1,Joint_2,Joint_3,Joint_4,Joint_5,Joint_6,Joint_7,Joint_8,Joint_9,Joint_10,Joint_11,Joint_12
0.0,0.0,0.0,0.0,0.0,0.0,0.0,0.0,0.0,0.0,0.0,0.0
-2.5363128,9.927999,6.2778997,7.0515804,-3.7678132,19.49489,9.610724,0.7823803,-14.506031,-6.05738,-17.52851,-7.660139
-0.5734058,-2.4180872,-4.765373,2.2140577,1.802053,-1.8965063,-3.0981653,-3.383277,3.941575,-0.42585906,12.542262,4.732381
3.165507,-1.8645018,1.2238603,2.4966047,1.6209508,0.36077303,-7.310072,-8.191691,-0.011091923,-2.5867,1.9857836,-0.2154626
-0.67227423,-6.764931,0.52324665,2.984474,0.11695367,4.634413,-3.839838,-0.14979358,-0.01746342,-0.83294576,3.47376,0.7284018
0.18665624,-2.3851717,-1.873698,-5.608577,3.4571524,-20.713432,-5.222662,4.653637,-0.022402633,-0.43106693,3.3926356,0.8352961
-0.8834168,0.06712427,-5.092544,-10.682231,-6.8160105,-16.456081,-3.473119,9.599584,0.009001768,-2.2043734,0.57256335,4.18296
1.4093835,9.146532,-1.4610773,9.801965,-5.068375,5.295236,18.541704,0.76264864,-4.059971,-1.3221496,0.5411499,4.28193
-1.5566907,10.660054,-0.0003304521,0.27934507,4.3382187,0.41195267,0.867811,-1.9241941,-2.330579,-1.0388296,-10.002535,-1.7541975
-4.5124063,2.2713892,-5.2308846,0.9996931,2.8538973,2.3548625,-0.67824256,-2.2840054,-1.885462,-4.273629,-0.48486263,7.0742245
2.6390586,-6.6573234,6.553183,-2.9244113,-4.449273,-3.945439,-2.3475006,1.7247694,0.45512187,2.4662073,6.574043,-6.9448304
-0.08312906,-4.0172806,0.3499121,1.0706648,0.6368481,4.132903,-5.3914056,-2.6038628,-0.781039,-0.5845517,3.648432,0.4215368
-0.09811376,-4.211099,-0.45742923,-3.9882996,-3.6263547,-2.545243,-4.8322215,6.3206778,-0.00056315365,-0.3093187,3.3561666,1.2657287
-0.9385307,-1.8815881,-3.5737472,-1.0553321,-9.089695,-2.6997745,7.114121,10.866391,-1.3076613,-1.9692107,0.27608752,5.194719
2.1792676,13.735871,-0.0003579238,-0.3676072,5.9219866,-2.1535003,0.4792033,-3.4047546,0.24297988,5.317142,-11.703265,-9.578352
-5.6481676,8.791553,-2.7224902e-05,0.11694953,3.865367,0.7502632,0.1767053,-2.5240536,-1.2710799,-4.310037,-10.855699,2.8766878
-4.831232,-5.843138,-0.75037485,0.48338467,2.068364,2.576503,-0.9937774,-3.0037677,-0.439197,-3.4425523,8.481935,5.213494
0.6227901,-5.4134994,3.690191,0.028473737,-1.8030741,-2.1629899,-11.045622,-5.1535997,0.0016088495,1.8402096,5.268218,-4.0198555
-0.53033936,-3.5846,-0.21846507,-0.04677671,1.680159,-7.1618023,-6.01812,4.016867,0.000507612,0.26159668,3.5211768,0.18851401
0.306019,-3.2479343,-1.4676945,-3.1763544,-3.0807123,-0.88460857,1.0706095,7.981841,0.48216692,-0.56300616,2.2898436,2.5695248
-0.06073927,-1.2686667,-3.5309935,-1.7685273,-3.5646527,-5.6169925,3.3593354,7.358995,0.88118804,-2.1087146,0.53279734,4.352943
6.5420756,10.657598,-0.00041068753,1.3811649,3.8913145,-0.8427776,-3.279088,-4.3385134,3.7859852,11.870936,-12.22747,-10.989504
-2.4365225,8.682449,-0.00017146816,0.40379205,3.3642838,1.326213,0.3500257,-1.945257,-2.0741322,-4.3102517,-8.394147,0.21380736
-4.812095,-0.15205882,-8.431392,0.6742912,2.5973933,2.4917617,-0.6359746,-3.0156815,-0.3789066,-3.0919993,6.612007,11.117803
2.111718,-4.9452243,5.5124855,-0.28367066,0.6805955,-2.4139223,-6.1991954,-3.7276661,-3.654055,6.2042255,8.667062,-14.950478
-0.053419575,-4.3691907,1.2565039,0.63106894,0.23954451,4.1280165,-3.9991114,-1.9414006,-0.005872244,0.41196424,4.173702,-0.8811806
0.23403081,-3.8469198,-0.34246033,-2.7554612,-4.023978,-1.7177223,-5.223774,6.3310947,9.9006924e-05,-0.507726,2.7109685,1.7357674
0.16352682,-2.7913651,-2.01829,-3.7872026,-5.4316573,-5.6835794,0.69381976,10.410445,1.294058,-1.1286795,1.3108547,3.7461216
-0.64036334,0.78807735,0.21785437,8.064186,-4.2769575,8.146815,17.492384,5.060702,-4.8478575,-3.105768,-0.7811093,5.478029
3.738285,10.6550865,-0.0003564147,2.506651,2.554444,1.7069278,-2.6564214,-3.2450323,1.9182363,7.654158,-15.3226,-5.410128
-3.1854713,11.754064,-3.277298e-05,0.18997155,3.0834126,1.8401629,0.29824695,-2.3411012,-1.3264822,-6.592615,-9.798242,1.7905866
-2.7922754,-1.7142642,-1.8009748,0.7276438,2.195392,3.1031165,-0.43129653,-2.4832993,-1.5700209,-6.0258336,1.0770069,3.197882
0.3320011,-4.660741,5.3226805,-1.8059193,2.1321912,2.3595686,4.843209,-3.7464697,-6.2193403,-3.5099092,16.276815,5.6353226
0.38957742,-4.7787533,2.959675,-0.76238215,1.6366944,2.4231772,-9.579454,-4.8250685,-0.006842182,1.0614344,4.2623,-2.1723604
-0.37455174,-3.8264017,0.30885732,0.9189227,9.3411654e-05,2.7104366,-2.9989932,2.4238753,-1.1917669e-05,-0.026666516,2.962427,0.6312021
-0.1423197,-3.0176744,-0.8934624,-1.4792701,-4.557796,-5.8431563,-4.3577766,6.376882,0.00047527603,-0.66899884,1.9354951,1.8389053
0.23294222,-2.0727534,-2.4753017,-5.2065706,-7.1131315,-7.3433867,-0.7999184,10.65713,0.0023691794,-1.8677461,0.82914054,3.9226513
1.718725,2.3861337,0.05745116,9.835023,-3.254701,6.073142,17.163656,4.5171514,-4.7036166,-4.561033,0.35466802,7.3959575
0.35372105,11.990603,-0.00033136964,0.022784498,4.402561,-0.73011947,0.12151061,-2.4452589,-0.37218672,7.6529603,-11.757672,-6.7012734
-5.3738704,8.616078,-1.8880939e-05,-0.025374578,3.5611115,1.0981141,0.24245992,-2.2631798,-1.3852193,-4.328461,-11.007538,2.6176636
-6.2588487,-4.062922,-9.88197,2.3752677,0.40861446,-1.1505598,0.3044343,-5.6190233,4.6817174,-5.558191,9.300114,9.81899
0.1655688,-3.8415525,1.3219877,0.15733333,1.7192496,2.5845554,-5.203875,-3.9475439,-0.010170575,0.639012,4.0920305,-1.120664
-0.35464644,-3.46514,-0.22677833,0.900079,0.081220746,4.0581465,-1.9705607,3.6390338,-0.005939969,-0.06436769,3.0949106,0.508676
0.33066463,-2.8686082,-1.4606216,-5.453144,-5.298056,-6.185515,-1.9179277,7.060855,-0.00063570327,-0.8906517,2.1452324,2.1322238
-0.4874207,-0.92777455,-4.1083164,-1.5523647,-8.084223,-5.7456284,4.9777465,10.060858,-0.0033220644,-2.3880327,0.23066823,4.93039
9.849647,14.083823,-0.000417193,3.4833293,3.3125973,0.39919674,-8.593106,-8.239207,12.609827,9.173239,-12.823534,-14.156268
-3.7002697,9.087136,-0.00012908762,0.9501297,3.4354136,1.5706729,0.19026291,-1.7817175,-2.6109235,-4.6859894,-8.524532,1.0175953
-4.5456057,-6.1671057,-1.4278429,1.3718141,1.7462076,2.9661353,-0.1939702,-4.174179,-0.0119551085,-2.837098,8.675723,6.0318155
1.113543,-5.0102563,2.9864695,0.101345815,2.2175393,2.243773,-8.750969,-4.9691105,-0.014894488,0.46879917,4.85693,-2.8816087
0.59781855,-3.7403722,0.05881385,1.700978,0.45492777,4.196014,-4.95606,1.8819,-0.0029034643,-0.60113055,3.7103896,0.38449404
0.19648033,-3.226655,-1.2635576,-5.965959,-5.814678,-9.241827,-4.244658,7.8266625,0.00040937564,-0.77674204,2.790698,1.6385486
-0.8947997,-0.8241117,-3.8485332,-1.7838829,-2.461716,-5.8219557,3.0604982,9.490118,0.0005355817,-1.3551604,0.69566226,4.2691307
10.795206,0.6044829,-0.00042697974,-5.784162,7.8440094,-8.809609,24.410654,-14.638021,-13.8297,13.688532,3.9652102,-35.68153
-3.339811,13.477441,-0.00024919404,0.4383817,4.4548182,-0.117897555,0.41350532,-1.7568561,-1.6053008,-1.236324,-12.226364,1.095983
-5.0501804,3.0839612,-12.10637,0.44626188,3.4951754,1.3060704,0.7724602,-4.4689345,1.7801095,-4.1027837,-0.27599934,22.439924
2.1816475,-5.8809333,5.099549,-0.80359375,2.6620529,-0.4358392,-5.6387935,-3.6176145,0.008970296,0.9892703,5.4288635,-4.2356915
0.18762511,-4.2607813,-0.17750351,-2.3269062,-3.132744,-2.9174922,-5.512376,4.7851243,-8.531823e-05,-0.10035506,3.9470747,0.68208456
-0.46882558,-1.2662663,-3.6621096,-2.633645,-4.685398,-5.6117296,2.836323,9.458391,0.0030010908,-1.3162177,1.1027815,3.9337795
9.425687,9.446415,-0.00039346394,-2.1015134,8.710775,-10.406225,-3.2067149,-4.5054154,3.9304922,11.044255,-12.466748,-10.231578
-3.8770125,10.134946,-6.4572305e-05,1.2053688,3.4508376,1.1007473,-0.5860583,-1.8626125,-1.3701906,-2.4446597,-12.317606,9.148288
-3.0048826,-1.2956648,-2.0066643,0.62037593,2.5401628,2.5164497,-0.38050658,-2.260901,-1.2664677,-4.3720613,3.5610082,5.686422
0.7449986,-4.9689317,3.110308,-0.8375462,5.009443,-0.006165266,-7.9173317,-4.5213327,-0.030970342,1.2808182,5.54621,-3.7485373
0.41947383,-3.9205506,0.18928298,1.8670005,0.0051751137,4.8412676,-6.3999276,0.56105524,-0.22881456,-0.8718233,3.516861,0.848654
0.3578718,-3.8159933,-0.86028737,-3.17764,-4.7617884,-4.8468285,-2.9633238,7.5406427,0.0022086492,-0.25849012,3.3116882,1.5445518
-1.1807653,-0.8556957,-4.2822323,-3.4652567,-5.0025945,-5.675826,4.2118254,10.143726,0.56756574,-1.1017426,1.1969254,3.7981825
10.465735,7.9731526,-0.00041260186,-6.4856563,7.817919,-10.287613,26.123264,-14.290243,-12.315202,15.392995,-4.5834093,-29.067629
-4.8688927,11.258061,-0.0001476504,0.2984107,4.779242,-0.33156544,0.30809143,-2.3409424,-1.7590231,-4.6217647,-8.742796,0.17893675
-2.2944558,-2.036462,-1.966971,0.19271383,2.9161747,2.159522,-0.09392057,-2.3279185,-1.7855687,-2.4190571,3.2752903,4.4832273
3.1018245,-6.119337,5.84536,-1.9348477,-0.40626726,-1.3235809,-8.946157,-2.3106778,0.0031515355,2.8378928,7.4630146,-10.421095
-0.22509128,-4.1850305,0.8603571,0.49163613,1.0353477,3.5251594,-4.4606724,-2.044321,-0.0099722,-0.2926144,3.6078432,0.61919147
-0.09892663,-3.1698525,-1.1507933,0.63893133,0.086019255,3.0342512,-1.8119553,4.1586323,-0.4278868,-0.7707536,2.5587513,1.781868
0.09903933,-1.7896475,-2.9390266,-4.192197,-3.481482,-7.3701544,-1.6225067,9.499297,0.015668094,-1.6274041,1.1771917,3.5993986
12.206763,0.40590408,-0.0003978376,16.199892,1.1169708,35.56821,24.484293,-15.3692,-8.35309,13.2429285,-5.6160145,-7.438199
-2.4627953,12.352906,-0.00027030532,0.37934515,4.212562,0.4869731,0.39854825,-2.3330195,-1.4691353,-1.9293464,-9.196575,-0.48213506
-4.95934,-3.7128973,-2.0609598,0.9142588,2.6443539,2.4219904,-1.1055553,-2.8804522,-0.764819,-3.7175465,4.635979,5.3362556
0.8754923,-4.6828175,2.6188996,0.14479375,2.3286123,2.4409397,-7.1060877,-5.7954187,-0.0106963385,1.3466606,5.4076896,-3.5817363
-0.23808852,-4.0022225,-0.30134064,-0.4523345,-0.0010129809,0.17265427,-5.367897,3.450776,-0.018342912,-0.24515653,4.053848,0.24737908
0.78074414,-2.3017683,-2.3954566,-5.2331605,-4.7331223,-9.5419035,-3.8580887,9.91753,1.5869795e-05,-1.8758835,2.0299268,2.786158
-1.7968369,-2.2788758,17.209635,6.1238456,-5.569745,3.5212095,16.602287,6.1977916,-10.009365,-2.104501,0.2423055,4.9103413
-1.6173265,11.749646,-0.0002967065,0.52805746,4.157837,-0.2450446,0.053272575,-2.067458,-0.7010716,2.376924,-10.259723,-1.8095112
-4.244574,7.069298,-3.607579e-05,0.43326604,2.9242864,1.8986877,-0.36953378,-2.3855805,-1.0688955,-3.1957533,-9.076038,3.9532642
-6.100859,-5.822187,-1.606279,0.5325628,1.9552504,3.076219,0.96568954,-5.1389503,0.7610769,-5.1967697,10.479287,7.514859
0.5642996,-4.8148584,1.9452783,0.30814865,2.3886576,2.7285094,-7.1899533,-5.243199,-0.012270838,0.29801542,5.106806,-1.5528295
-0.11828077,-3.5611556,-0.50980806,-1.2968647,-1.7319309,-3.9945705,-3.75185,5.075072,-1.9288284,-0.06712898,3.5839305,0.40464538
-0.43195,-1.7368399,-3.0223284,-3.8944721,-6.03301,-8.399226,0.77451384,10.115626,0.00015647477,-1.3943739,0.9516816,3.9437811
11.6188345,-0.17968073,-0.00041508162,16.158722,1.3011918,30.755424,25.325466,-10.386445,-15.496474,13.232592,5.716394,-38.871605
-4.328859,12.354622,-0.0001875069,0.02738645,3.8353233,0.7774682,0.557725,-2.2380486,-1.4590703,-2.9001238,-9.800785,2.3883724
-2.070474,-0.14671786,-1.6922944,0.8271748,2.3316529,2.8018463,-1.0496079,-2.537686,-0.93505085,-2.9032795,3.239841,4.2174454
1.3128899,-5.6031857,4.078368,0.008126847,2.746797,2.47039,-4.7104177,-5.413438,-0.012313081,1.0089438,5.7278714,-3.0965102
-0.1113399,-4.2827287,0.28315952,1.7697864,-0.010876663,5.5278034,-4.918317,1.9792914,0.0075670183,0.13209702,4.4156084,-0.00866919
0.6289022,-3.343433,-1.5236803,-4.5748997,-2.8206,-6.0925074,-2.724374,8.3415,-0.00058519014,-1.0204958,2.502712,2.8588965
-0.67547727,-1.6151135,-3.7509353,3.0374737,-5.513819,-2.0204682,10.71274,7.418961,-2.4356992,-2.3641448,-0.12171456,5.4005666
6.5454326,7.415957,-0.00046264287,-0.26336652,6.489002,-3.0937223,-0.30145442,-3.4941654,0.03374064,7.114938,-9.653891,-9.116458
-4.503227,8.712595,-5.3239636,0.3985501,3.060278,1.6670252,-0.1601107,-2.2640924,-1.5258343,-4.7937756,-10.860479,9.461242
10.108292,-7.6992154,14.262121,1.586417,-3.2018957,-1.6564486,1.045057,-3.1924324,-3.6894765,4.2510843,8.024852,-14.208839
-0.26933533,-3.8933082,0.87260985,0.48638457,1.0477992,3.561138,-6.203046,-2.8224702,-0.011606693,0.5963819,4.568332,-1.1608409
-0.24605268,-3.656003,-0.64309895,-2.3313065,0.8941213,-9.452254,-3.9777553,4.5688376,-0.28255954,-0.246178,3.2232728,1.0433867
-0.3440647,-1.6715467,-3.1741405,-4.045586,-5.3896704,-6.722262,1.0565873,11.004555,0.0003933329,-1.3598849,1.0387715,4.076207
10.610936,1.6764987,-0.00037512346,15.941147,2.830687,33.513718,27.115776,-13.56029,-12.250399,12.481163,2.3071926,-31.852016
-2.1229558,9.703537,-0.00016341233,0.18153176,4.083679,0.9374462,0.3789834,-2.0789533,-2.1379359,-2.8053086,-9.477512,-0.07498616
-3.933698,0.91720986,-1.5776646,1.1176167,1.7482413,3.244389,-0.9239801,-2.0372903,-1.3223106,-1.7497255,3.7761986,7.5017037
0.7830614,-4.7601843,3.0778542,0.102775335,2.4745476,2.5721853,-7.6439385,-5.9744015,-0.019388212,1.4082879,5.6126657,-3.552091
-0.30501577,-4.4515076,0.74667275,0.47713155,0.84453833,2.5251765,-4.671054,0.3355842,0.00095478026,0.26668203,4.707826,-0.5496459
0.06708869,-3.0883248,-1.3099426,0.35064393,-0.6619578,2.355946,-3.9522789,5.0871615,-0.024143688,-0.67402416,3.0362074,1.3012472
0.57922626,-2.0992367,-2.7363977,-5.6823964,-7.1758227,-7.8186326,-0.3542983,10.441971,0.0014848921,-2.0252872,1.0230441,4.1081367
-1.3471699,-1.141814,-4.0539665,5.427586,-1.4389858,2.1467142,11.613507,4.506984,-1.7990229,-2.0121803,-0.0900132,5.316516
1.3225924,16.357935,-0.0002626722,0.30617094,4.6138406,-0.8671978,-0.035820656,-2.2591512,-0.42672828,3.2741952,-15.301917,-5.22498
-5.159611,0.57695156,-2.08011,1.1386274,2.9277806,2.1066625,-0.8409799,-3.2309604,-0.11426092,-3.9569297,1.8829062,8.882694
0.9058695,-4.7503433,2.4814186,-0.30091304,5.1011286,-0.19617489,-8.743082,-5.1670365,-0.021325981,0.36097834,5.0165334,-1.432205
-0.39037177,-3.8004074,-0.3151607,-1.2222192,-0.24882118,-1.0852028,-4.963763,3.2265103,3.5599805e-05,-0.2703404,3.1670766,1.4370341
0.35161752,-2.8671327,-1.7243855,-3.3594012,-5.479867,-4.266951,-0.8831116,6.906179,-0.055986326,-0.82619655,2.2328925,2.3869789
-5.669097,2.1425195,-2.8766537,2.7169733,-4.912613,-3.5441704,12.459394,6.88084,-1.7154003,-3.1231797,-0.5541713,5.9099746
2.7591493,12.850871,-0.0003934531,0.36971438,5.244269,-2.1689951,-1.1879033,-3.2930295,1.9026213,5.8154516,-14.180852,-6.1325426
-5.042517,9.572778,-3.731023e-05,-0.1374023,3.9641702,0.45055264,0.271092,-2.4088712,-1.2106415,-5.01872,-9.86473,3.359324
-2.1457055,0.22363396,-5.23874,0.5327633,2.8889782,2.0648305,-0.71676373,-2.7145042,-0.89275944,-3.2489445,2.3799684,3.5695374
1.3318276,-4.9594855,4.7210526,-0.9784336,-4.6722007,-4.3175683,0.77883744,-0.85208106,-3.1802711,6.0870943,7.7724557,-14.648135
0.40268832,-3.8417573,0.4215148,1.0581433,1.2889057,3.3670204,-2.1331728,-3.034937,-0.012114737,-1.0550119,2.9463627,1.2094201
-0.41177392,-4.2464767,-0.43711194,-2.9363377,-4.2899265,-4.4518123,-4.8359056,6.499135,0.12225585,0.37233734,3.7185347,0.59319746
-0.113558546,-1.5433534,-3.3769104,-4.203116,-2.6967654,-5.25724,-0.55603343,9.087209,0.0036604516,-1.396673,1.4298235,3.6006477
13.847515,4.97792,-0.0004287333,-1.4731998,8.391411,-8.02647,20.48654,-15.234641,2.2848096,10.83203,-11.279875,-3.8552723
-3.9058218,8.776299,-7.312912e-05,0.990718,3.3236647,1.3290216,-0.89510894,-2.6812804,-0.7740449,-3.981446,-8.36076,1.6651828
-4.4242334,-6.4465413,-1.6177206,0.009563461,3.1197011,1.7584641,-1.7261181,-3.6476967,0.14334069,-3.6087532,7.1864243,4.2875247
1.1324749,-4.4027104,1.9378449,1.7319218,0.6546435,4.1058426,-4.154809,-6.745981,-0.009157514,-0.6464216,4.3606257,-0.59051716
-0.92668134,-4.0280447,-0.22499889,-2.4448404,0.40703043,-12.198466,-6.632456,5.7860355,-4.775799e-05,0.64719105,4.217984,-0.10097351
-0.040892486,-3.2451525,-1.7077242,-4.730452,-4.826043,-8.854038,-2.0536585,9.73631,0.04468133,-0.81710404,2.4574382,2.499775
2.0280998,-8.53648,27.694485,2.7904909,-10.884375,20.414846,14.412427,10.25798,-21.477833,-0.8396355,-1.6813183,0.3433375
-0.55163455,11.836362,-0.0002414026,-0.060051583,5.1285167,-0.72904634,0.19360964,-2.794216,-0.5958352,-0.123965465,-13.171338,-0.289191
-2.9623246,5.191503,-0.9442584,-0.051071055,3.5687501,1.6296406,0.29992792,-2.452569,-1.5615424,-5.9357924,-6.418588,2.5951862
-5.9418654,-7.768888,-2.4750192,0.8844734,0.6229694,3.9322104,0.49586612,-4.6897883,0.9284147,-3.2914689,11.316933,6.331029
1.0467106,-5.47853,3.4933848,-0.7450711,4.0835395,0.9437573,-8.703842,-5.048166,-0.012965983,1.0440129,5.54092,-3.450694
-0.22912858,-4.125675,0.066431984,0.6367365,0.40831012,-0.53813004,-5.2498736,3.1099193,1.3385538,-0.36480457,3.4608295,0.8322191
0.5850711,-3.2897956,-1.230506,-3.523246,-3.9900718,-3.3142023,-2.5205479,5.9903607,0.0026381852,-1.1686318,2.0422444,2.6296923
-0.6973978,-0.8971709,-3.9481032,-2.3095717,-6.5781026,-8.507291,4.698038,10.590947,-0.0012804121,-1.9538399,0.42960536,4.917197
5.9729624,13.36536,-0.0003403821,-3.4150884,9.724094,-10.227164,-0.29259416,-3.4534454,1.2997246,8.677789,-13.32232,-10.794674
-4.0523314,9.401437,-0.00011374973,1.1095953,2.4984527,2.4617856,-0.51164746,-2.0597394,-1.3455429,-3.6140807,-6.138672,1.9523
-4.8691006,-6.285571,-1.438686,0.6418861,2.1921325,2.8053489,1.5797677,-5.502537,-0.6771648,-3.1734068,12.147682,5.8323064
0.91316843,-5.0289497,2.2107427,-0.11590108,4.52287,0.6778387,-7.0891943,-3.0421858,-0.019546015,-0.26991057,4.710979,-0.738069
-0.22099656,-4.1361756,-0.11397158,-3.0153108,-2.3169358,-5.6980886,-5.91733,4.918923,0.00072516047,-0.6035442,2.6543124,1.8215139
0.10615418,-2.4469464,-1.9532851,-2.552119,-1.7837437,-3.637512,-0.5322144,6.8317323,0.00017465849,-0.8160162,1.9916667,2.802161
-0.40681836,-1.0290395,-3.6216037,-3.565526,-6.747171,-6.702864,3.457189,10.221922,0.0011457559,-1.9437255,0.49947083,4.5020747
13.6210375,0.9534707,-0.00039332133,-5.755464,7.7851276,-8.9892645,27.379665,-18.943808,-6.716549,15.981971,-4.275049,-10.359458
-4.673613,9.882,-0.0001158191,0.55472916,3.4861586,1.2744284,0.30512545,-1.8982028,-1.7979041,-2.7874315,-9.717361,1.029535
-2.7623742,-1.9991766,-5.6317043,1.3000561,1.6984941,3.140637,-0.74592793,-3.3478823,-0.5472286,-2.5896878,2.9753144,4.675669
3.6866724,-5.7768946,6.162099,-0.13136148,3.7209597,1.3310215,-8.062408,-3.0753324,-0.06218122,2.0695987,6.217676,-7.8916764
-0.5457325,-3.6124184,-0.07957065,0.9876426,-0.041331954,4.33032,-2.945383,0.4738109,0.33840176,0.006775271,3.5180166,0.10081845
0.43616062,-3.0924773,-1.2516576,-3.1307473,-5.100531,-3.5445404,-3.367571,8.195763,0.003467571,-1.0876596,2.25024,2.0854933
-2.2202497,-4.038775,12.400514,4.873082,-5.610009,0.22575805,13.379363,7.872828,-7.8113856,-1.8919656,0.18596457,4.72662
1.8210896,15.076408,-0.00030003005,-1.811508,5.890631,-2.8113005,-2.3313699,-6.330969,7.1902013,8.137993,-15.081276,-11.315644
-2.9252996,2.827895,-2.0779345,0.54764974,3.4596496,1.3152903,-0.54015607,-2.2499094,-1.6315119,-4.7274814,-1.0121844,3.0716045
2.078516,-5.4561944,5.2493014,-1.3671426,4.8272686,-0.66302943,-3.5007846,-2.904772,-1.1279958,2.2138934,5.7876377,-6.055255
-0.7453404,-3.9188647,0.29545748,-0.8235178,-3.2365744,0.72015095,-9.440394,2.7873743,0.006247538,0.4708115,3.8621864,-0.28838977
0.5152428,-3.317443,-1.2754248,-2.9919,-3.1455026,-4.379329,-1.6938447,8.912093,0.00076717744,-0.8455464,2.2621622,2.7991514
-1.3197243,-3.047331,2.6202464,-2.894079,-7.651606,-0.5029015,8.406437,12.398207,-5.2746015,-2.3624604,0.18429193,5.258456
-0.85305685,12.975417,-0.00031308178,0.17522952,4.721321,-1.1833776,-0.3035546,-2.8698888,0.57982695,4.2025805,-11.613602,-3.8230138
-3.484872,4.2947755,-1.862068,0.25641027,3.1877384,1.6286535,0.08973703,-2.3102624,-1.3894708,-3.3317723,-7.9188156,3.8966775
-9.189475,-9.169438,-6.688514,1.9179602,0.6136492,3.653155,2.3845513,-7.6662903,5.615949,-4.124453,13.124903,12.934269
-0.021378607,-5.8108816,3.154493,0.4231266,0.84937525,-0.042706277,-9.420833,-2.9308054,0.0015355147,1.8115112,5.5472345,-2.8428807
0.2686895,-3.531607,-0.4315799,-0.2684875,2.8820722,2.2460291,-4.7404613,3.650088,-0.009001198,-0.5714948,2.780869,1.2295535
-0.07056213,-1.8122181,-2.6641765,-4.687641,-5.6948647,-7.3099885,-2.061466,8.545486,0.004661001,-1.1433815,1.5450702,2.965943
6.640408,-1.7857655,-0.0003343796,13.673212,-5.5417066,23.888216,25.708275,-1.2199941,-20.314363,6.577812,4.401318,-29.581
-2.9392564,12.388259,-0.00017580573,0.6325555,3.6914206,0.39076385,-0.18751638,-2.0530052,-1.0637907,-2.6834426,-11.596014,3.6036382
-2.721544,-1.6523721,-1.1231399,0.96224135,2.0852413,2.709992,-0.93589675,-2.3438394,-0.6970345,-1.6085016,3.73771,2.9069276
1.1336036,-5.4097657,4.444878,-0.90839213,-6.206888,2.2137494,-6.940769,-1.5799942,0.00078174216,1.759991,5.1565776,-4.7699385
-0.59071434,-3.3859365,-0.32222116,0.3439013,1.0665234,3.2898655,-4.883484,0.23584622,0.103999615,-0.0176415,3.620464,-0.07658057
0.19668162,-3.5820837,-1.2001151,-2.4421227,-2.6189225,-2.8306398,-3.6380181,7.7820334,-0.00039424316,-0.76161075,2.7966084,1.8299234
-0.3398172,-0.9808956,-3.8538468,-2.7251437,-4.9375863,-5.134202,2.6998374,8.817534,0.0068174326,-1.5313561,1.0302274,3.9598968
13.837342,10.542608,-0.000433794,3.3793259,5.080897,-2.3737504,-7.4772425,-6.3431263,10.911091,9.201523,-11.065038,-12.89185
-5.2424617,9.691317,-4.9640074,0.3257384,3.3592849,1.1146626,0.20563751,-2.0499933,-1.5070856,-3.7930388,-10.40889,8.607821
-8.214304,-6.710021,-9.190378,0.15307926,2.0719652,2.379351,1.2617294,-5.0830345,5.0506043,-5.95154,11.126042,11.209637
0.2477599,-4.128384,1.3936725,-0.06496954,2.8225212,1.9066308,-6.9623876,-4.3778214,-0.016587012,0.38831088,4.298887,-0.87812096
0.20390524,-3.8265004,0.112400845,-1.4559367,-1.6661241,-3.3307214,-4.375603,3.3206594,0.11996954,-0.43931878,3.086138,0.8720267
-0.3835838,-1.8110955,-2.734932,-4.042211,-3.7602975,-5.8499117,-0.89480364,10.043435,-4.8230984e-05,-1.3147316,1.1484312,3.4714415
6.963709,0.39780068,-0.00024922594,14.749258,-4.743277,12.730668,19.21029,-6.2024384,-4.1043124,1.3172556,-6.47849,15.926543
-2.6611986,13.195594,-0.00018676015,-0.46497822,4.7557306,-0.14065261,0.63658404,-2.514598,-1.3236431,-2.4372644,-13.5047655,0.72849584
-1.9733999,-0.77914166,-1.856009,0.9077878,2.0949073,2.912469,-0.9207111,-2.6028016,-1.1315055,-2.5406306,0.15936647,2.502241
2.3870182,-5.125511,5.403015,-1.7543529,-5.672733,-4.8201046,-11.024814,-1.8251642,1.0137211,2.4939473,5.5018644,-6.3568654
0.5400031,-4.0084724,0.73626626,1.0815482,1.6956837,3.0358431,-3.4972782,-2.3078268,-0.011657663,-0.6973464,3.265683,0.8135704
0.41984937,-3.8861966,-0.26380673,-2.4949293,-3.2740753,-7.621684,-4.452059,5.3712916,9.141583e-05,-0.46434852,2.8854852,1.4295146
-0.4230225,-1.6200407,-3.1844401,-4.251242,-9.206019,-8.863409,3.4970906,12.657796,-0.80962723,-1.3318249,1.1384062,3.6965086
15.580939,1.9392773,-0.00040508748,-2.3463297,6.0615444,-6.368497,-3.571402,-5.0881195,5.202447,10.972447,-6.57059,-8.568651
-4.006641,10.070245,-0.00020522391,-0.193778,4.544675,0.12326801,0.64420676,-2.3332,-1.2525363,-2.5599692,-11.280109,1.1632401
-3.9508765,3.806416,-1.5571846,0.46339664,3.0808384,2.165606,-0.45684376,-2.6114078,-1.2073148,-3.9122138,-2.9714077,5.280429
-10.289975,-7.188918,-10.02701,0.5880216,2.0552497,4.358252,1.3922083,-9.235657,15.570231,-7.075333,8.459414,21.654606
0.7867925,-5.1280494,2.9821212,-0.4229627,3.564533,1.2695827,-9.267479,-4.4021583,-0.0123980455,0.4993322,4.982822,-2.2100425
-0.45411256,-4.0956564,0.05117273,0.31044278,0.76560676,3.1634843,-6.277023,0.8804722,-0.011492228,-0.37394238,3.5633585,0.919601
-0.30340204,-3.1862586,-1.1301484,-3.4896975,-4.820949,-3.1868606,-4.971077,7.646365,0.0007523182,-0.19380619,2.8601325,1.4566078
-0.22566962,-2.159477,-2.8045115,-5.0338945,-6.6674204,-9.097414,1.5771118,10.642734,0.0038511457,-1.4013655,1.3261027,3.5614142
7.378743,-1.2556921,-0.0003068752,13.549869,-3.1283932,22.167732,23.172346,-2.7092712,-21.549536,8.9669485,5.4831095,-29.720346
0.8585097,13.168078,-0.00030226068,0.06830467,5.2588625,-1.4697154,-0.79585725,-3.2450418,1.082367,3.5040064,-11.612241,-2.8249798
-4.5060353,8.258173,0.08876796,0.29256162,3.3211942,1.5859561,0.1273112,-2.275796,-1.5271378,-6.0283875,-10.510997,2.6909626
-1.6463646,-3.4853501,-2.2319372,0.28662434,2.8585303,2.5646338,-0.31507882,-2.3980234,-1.558853,-3.9537077,3.8772686,4.755948
2.7047849,-5.410024,5.33961,-2.3673828,-3.1507444,-5.0268693,-10.891491,-5.008049,6.925412,2.4464045,5.8871164,-7.387944
0.08920252,-4.536048,1.5455132,0.33558393,-1.1830662,1.0386765,-7.1192584,-1.2632136,0.035017706,0.27180478,4.281022,-1.3573444
0.0857078,-3.716495,-0.23816976,-1.0158366,-0.917133,-3.9987302,-3.8816895,4.1127143,-0.011094823,-0.23866497,3.4827855,0.6963836
0.43046704,-2.2655373,-2.4851477,-3.6864665,-5.6690044,-5.4982347,-1.0021479,10.357036,0.00011240598,-1.1487902,2.1756096,2.8478982
-0.33332026,-0.65838605,-4.21861,1.5788313,-3.9530575,-3.1520166,9.015018,7.176084,-0.1792919,-2.3006718,0.15644902,5.1200967
0.8645161,10.534811,-0.00036309118,0.41393912,4.675803,-0.80798787,-0.091898136,-2.3590834,-0.73437047,3.0376678,-11.910932,-6.198135
-3.4468827,0.84312004,-1.5783732,0.54461455,2.2978804,2.5954173,-0.4623868,-2.413227,-1.1631663,-3.6260347,-0.8518398,3.7712297
3.1844049,-6.2349815,5.856489,-0.7538502,-2.8509765,-2.198573,-6.2961845,-2.7752395,-1.3036734,0.33929914,5.67978,-5.3362184
-0.23997483,-3.6784122,-0.13218397,1.1220242,0.07117249,4.2852883,-2.5161965,0.19524279,-0.012795739,-0.6209056,3.260088,0.7999192
-0.39806852,-3.0988293,-1.1860642,-0.6117699,3.4952204,-6.0107365,-2.814317,6.264073,-1.5425363,-0.1966391,2.868322,1.4034854
0.20457073,-1.8136427,-2.9109986,-4.3018656,-6.8485603,-7.0435634,0.11041931,10.30346,0.002552515,-1.595643,1.0257088,3.9618402
12.210961,-0.9828021,-0.00042017008,15.534745,1.6250575,36.155685,25.894041,-15.556915,-12.338131,14.856416,4.1940603,-34.26636
-2.1204884,12.634385,-0.00013904614,0.31855947,3.943196,0.5284065,0.6115454,-1.7778263,-2.2281888,-1.748785,-13.759229,3.2862856
-4.406327,2.721919,-7.436689,0.7161637,2.9217646,2.0441124,-0.37808937,-2.0134368,-1.7325778,-3.561097,-0.583909,6.014064
1.1909333,-5.8647323,4.5193934,-1.5150815,-3.0428448,-1.3860132,-7.2333355,-2.5718272,0.0010977634,1.5996087,5.5770774,-4.3359623
1.0087245,-1.5076896,-0.12640136,1.8584582,-0.43613303,2.3394067,4.893025,0.61691284,-0.0010938793,-0.80343544,11.604813,7.4780483
-1.0741246,-1.8963006,-0.5944218,-0.5457177,1.7303809,1.225674,-8.205,-0.43363374,-0.011543753,0.15169798,1.3873587,1.5292846
-0.29655612,-2.4340014,-0.93039745,-0.092900835,4.1775374,-8.823402,-2.7616036,5.1103544,0.00046060048,-0.9130759,0.824656,2.3463125
-0.18199039,-2.0930233,-2.4599977,-4.0295005,-6.5331798,-14.09715,3.0417528,12.14025,-0.0026617777,-2.8352973,-0.4283237,5.2684236
12.072147,8.271455,-0.00034862297,2.4222815,5.0453176,-5.7802505,-2.639019,-9.6198,19.5171,12.987463,-13.401804,-12.226439
-6.9380536,5.886172,-3.1805737,-0.090033524,2.9016876,1.0508723,0.2319951,-2.4531577,-0.27438188,-4.7028437,-10.919978,5.8421297
0.4836818,-4.4728136,4.170946,-0.85143435,2.3274865,2.2031422,1.2439474,-2.3446312,-0.8241571,-2.8943462,5.9775925,0.18905249
0.27083272,-3.6999056,3.0114977,-2.2407932,-4.8564677,-4.266122,-11.707351,-4.9860115,0.3999423,3.19458,5.166611,-7.2798204
0.07465097,-3.6438227,-0.019432992,0.47765896,1.3853595,2.8660085,-3.070675,1.9024563,-0.022781953,-0.15008463,3.05173,0.49930257
0.078149915,-2.8880582,-1.4933703,-4.060886,-4.3415027,-8.419365,-2.8357701,9.9801,-9.398721e-05,-0.6839893,1.9934369,2.0880268
-0.60327375,-1.7301295,16.468628,7.3633795,-6.0918593,5.1989803,17.042515,6.143409,-10.988079,-2.81044,-0.23700926,5.616055
1.6724067,12.502397,-0.0003655997,0.18715554,5.9970436,-4.179358,-2.722825,-3.8775337,2.4587379,2.978025,-12.002728,-4.1181207
-3.4964163,2.720829,-0.5514448,-0.7441551,4.577295,0.8445563,0.9222256,-2.3708947,-2.3312905,-4.5335183,-6.052908,1.4787191
5.4479637,-5.992635,8.554777,-1.6225401,-2.9713588,-5.73139,-3.2987437,-7.436962,15.899296,3.8161175,6.9364557,-11.847487
-0.03370638,-3.6159785,0.38225824,1.0394899,0.8948018,3.534378,-4.7137103,-4.1920743,-0.01682737,-0.18060972,4.0046854,-0.93540835
0.3024885,-4.2855525,-0.10358927,-1.4747437,-2.1935105,-3.605767,-5.48814,6.727582,5.18444e-06,-0.08972857,4.3741817,0.13780333
0.24078354,-2.2719655,-2.3753312,-1.5109986,-2.6080961,-1.9224333,0.9962668,7.4470105,0.18563609,-0.6902608,2.372436,2.3750272
0.92976964,3.706425,-0.00019847322,9.032641,-1.9552572,6.564874,16.712915,-3.640568,-4.7162685,-0.61087734,0.4789002,1.7491621
-0.6980064,12.369685,-0.00022997474,-0.08964056,4.888852,-0.9975914,0.70891434,-1.5274938,-2.1183763,2.04176,-14.572968,7.678988
-3.4348288,3.4749498,-1.123386,0.48201752,2.621368,2.1279147,-0.035341777,-1.8360877,-2.0208166,-5.119695,-3.8864682,2.7930434
6.662848,-6.460607,10.461961,-1.6238295,-1.4117807,-2.30416,-1.5074626,-0.48033464,-4.8679876,1.9327257,5.3081117,-6.70507
0.80526924,-4.2945642,1.5619454,1.1174222,1.3818924,3.2781026,-6.2881093,-4.98084,-0.0055807596,-0.6277468,3.847033,-0.033540785
0.22032113,-4.004344,0.06746127,1.5335974,2.0667272,5.658074,-3.7379842,3.0882072,-0.0011217669,-0.2603947,3.4809732,0.7152313
-0.06527085,-2.3529053,-2.3441553,-4.8549542,-4.284925,-5.015801,-1.2813495,9.185385,-0.00045847893,-0.7221793,2.2545714,2.4545534
-1.2408049,-1.1425123,-2.9616945,-0.6789,-6.257147,-4.3887553,6.161213,9.024437,0.51738626,-2.543923,-0.195922,5.497403
2.8597617,11.243397,-0.00036191865,1.4418092,4.9078245,-1.2072197,-1.9978538,-3.4416075,1.5044314,3.6778464,-13.70124,-5.631355
-2.370917,5.2745957,-1.1894568e-05,0.13675578,3.3582242,1.8038718,0.005572349,-2.3043633,-1.8151594,-4.1605787,-4.82637,1.7706316
-8.95445,-5.7039332,-8.598517,1.0064609,1.4794209,2.6019602,1.3716278,-10.925377,19.293396,-5.975823,10.2679825,21.695402
1.1234268,-4.318518,1.4963665,0.7582986,2.8666983,1.9302363,-7.160129,-5.2088637,-0.015430624,-0.7247436,3.9833488,-0.22972752
