ancorasir/BennettWheelLegRL/experiment_data/2023-12-27_22-47-53/joint_vel_env43.csv
Joint_1,Joint_2,Joint_3,Joint_4,Joint_5,Joint_6,Joint_7,Joint_8,Joint_9,Joint_10,Joint_11,Joint_12
0.0,0.0,0.0,0.0,0.0,0.0,0.0,0.0,0.0,0.0,0.0,0.0
-8.198955,21.455265,-34.63929,-8.717803,3.4014304,-7.6975007,3.640585,0.8161522,3.7592068,-5.116261,-25.081188,0.68445355
0.729054,0.5239099,1.3322499,0.22004107,0.08035231,0.14737013,1.2281991,1.1090204,0.14100033,2.1920445,2.7688193,0.8054724
0.11310513,-1.0472699,0.5430941,0.56171733,0.7983129,1.2207371,0.83364284,-1.3009279,0.118359566,-2.905059,6.409108,0.80648124
0.8732063,-0.7060579,0.4560007,1.5252224,-0.28432676,1.6364093,-6.865467,-10.65964,-3.8553894,-0.29352212,2.9548876,-3.6840384
0.86536723,-3.3673968,0.21149604,1.9462694,0.45743263,3.8975463,-1.9258491,0.14548911,-0.015939044,-0.76102847,5.170365,0.8622941
-0.6671979,-3.3179498,-0.70088595,-4.561822,8.145563,-35.208553,-5.2134466,5.5218387,-0.00022001928,0.6511235,3.3709974,0.98000836
0.32148638,-2.5556016,-2.3342886,-3.8288178,-6.32176,-6.572525,-1.5746491,9.261649,0.0010727644,-1.3635051,1.7586427,3.1108825
13.38594,-0.18922907,-0.00033131224,15.614124,-0.9129128,20.909567,22.666056,-10.1678705,-5.6195335,12.8625765,-3.8498354,6.069721
-2.6502924,13.151865,-0.00017515663,0.3370407,4.6655354,-0.10040136,0.22584257,-2.3008325,-1.5808079,-3.9093642,-10.393459,2.4211054
-1.6050513,0.039123252,-1.6004097,0.5902592,3.25774,1.9468752,-0.72489095,-2.5810378,-1.4666914,-4.4236383,0.28063187,1.8710824
2.6758635,-5.608274,5.9121976,-0.31029558,-4.597716,-5.9934006,-8.074261,-3.385661,7.4757166,4.752339,7.6612725,-13.150208
0.42869774,-3.6065543,0.5155135,1.0110483,0.9394256,3.3560798,-3.558706,-4.4537163,-0.01847429,-1.1482391,2.7283814,1.0711237
0.26792112,-3.569005,-0.444678,-1.6195095,-0.84886074,-9.816813,-5.0688796,8.236033,0.0012087603,0.14906059,3.2260594,1.1021558
-0.58981764,-0.96304834,-3.820323,-1.7268987,-2.3629303,-4.237227,4.848022,9.212613,9.087322e-05,-1.6167765,0.7504262,4.2318063
15.180272,-1.9374416,-0.0004191826,18.119553,0.46047935,27.38137,22.049618,-15.831368,-3.6986208,11.055447,-7.108116,-0.122573726
-3.0925775,9.579628,-0.00012359946,-0.6208399,4.2001505,0.64325637,1.2839094,-2.156686,-2.5312982,-4.807053,-9.025518,0.1216606
-1.7931131,-1.2981236,-7.5617986,0.7651171,2.4761207,2.6524744,-1.0340518,-2.8285267,-0.9180168,-4.5535,2.6924622,7.693478
2.8857627,-6.1554065,5.4957137,0.41969857,-2.6641026,-3.2179132,-7.8722515,-3.0207806,3.3743887,0.71092737,5.1886554,-4.4044666
-0.6197213,-3.555624,-0.41905996,0.75892484,1.7931094,3.6347203,-5.7567053,2.4753666,0.32006064,0.1444168,3.6645858,0.2852314
-0.07367724,-2.7848878,-1.7250534,-1.1641386,-3.735135,-3.5081131,-2.6729193,5.339689,1.1734973,-0.66303754,2.4521506,1.9656669
-0.81411403,-1.1516217,-4.063696,-2.2983143,-6.915481,-4.2342644,4.250932,10.132747,0.002115205,-1.6685417,0.6318736,4.4619746
12.446941,1.844313,-0.00039809477,-5.6447043,7.980279,-9.206478,24.561104,-17.317568,-5.013675,14.666285,-6.280418,-8.366609
-4.3309903,10.149662,-0.00014588365,0.15344794,4.33029,0.2862033,0.24855246,-2.2368038,-1.3423964,-2.8598807,-12.173096,4.205845
-2.637582,1.0422065,-1.6530514,0.65295875,2.634683,2.4613492,-0.613389,-2.2748718,-1.3401457,-4.861072,-1.0311892,2.0713506
8.597023,-7.963229,13.801176,-0.4114972,-5.4135795,-3.5679224,-1.140521,-5.3673677,-2.548267,3.1989584,7.00012,-10.632301
-0.18411171,-4.4958177,1.3646165,0.049188137,1.2210815,3.50585,-7.192507,-1.3972044,-0.010101916,0.46050352,4.486508,-1.0410733
-0.24544856,-3.423631,-0.43924958,0.23591428,-0.068214476,-0.14548492,-3.6486566,4.463612,-0.01773961,0.23144794,3.876563,-0.17640314
0.12786461,-2.6386619,-1.8741285,-5.496381,-6.0225863,-5.5214405,-3.2157044,6.712751,-0.00077679544,-1.3366082,1.900267,2.6457691
-0.5353522,-1.2504435,-3.629983,-2.6660552,-6.4418244,-5.8148155,3.87798,11.240617,0.00987421,-1.5984421,0.7829534,4.1622977
8.333749,2.7550428,-0.00042897952,14.98988,1.1190574,28.760023,25.151709,-11.792812,-6.834693,11.492994,-11.034646,8.253759
-0.4646629,14.258998,-0.00019107241,0.6158826,3.6236086,0.7760742,-0.016542315,-2.252674,-0.531977,0.27159703,-11.624337,0.2696508
-3.3725252,3.9969254,-1.5322604,1.1867307,1.8636159,3.0110745,-0.6853416,-2.3696117,-1.3849361,-6.6004815,-3.0003147,2.9152489
-9.389026,-8.985487,-0.33014408,-3.0519764,-2.7290554,-1.2206409,1.6172009,-5.193488,-2.142377,-3.9249063,11.629365,2.7357447
0.9906717,-4.442552,2.5101523,0.48866943,1.9823575,2.6455712,-7.7965846,-6.495367,-0.0109140705,0.5756767,4.5720987,-1.8203675
-0.25146157,-3.645324,0.01665566,0.91441965,1.0829889,3.6053698,-8.159074,3.7446604,-0.030774534,0.24917147,3.9837832,-0.42345607
0.05481983,-2.9512103,-1.3075637,-3.3088012,-1.3760619,-2.1330066,-3.1667912,6.8968053,-0.00048402557,-0.6302048,2.6393766,1.7602397
-0.6814818,-1.2886934,-3.4948435,-5.192169,-6.791346,-6.0564866,0.42965168,9.745613,0.009823089,-1.2784029,1.2028859,3.556269
2.4072757,-0.9326534,5.612072,11.294945,-6.0277863,12.046032,20.83894,2.572158,-16.805313,1.32843,0.086052954,-14.445888
0.59204173,13.493645,-0.000334588,1.0137641,4.1066513,-0.41141206,-0.6909557,-2.1808288,-0.1884856,4.398556,-10.579806,-2.9886367
-4.3645296,8.876459,-11.441202,0.8931109,3.1958916,1.731722,-0.32574755,-2.4574938,-1.1958505,-4.644698,-7.452032,11.267284
2.1440437,-5.6655445,4.9924717,-0.59182745,4.6670837,-0.14882874,-4.744517,-1.9136063,-0.05457133,1.4911546,5.689959,-4.6893086
-0.6908008,-4.054889,0.67349356,0.2260718,1.147193,3.6322327,-4.4949975,-1.0069698,-0.015265102,0.7568954,4.176721,-0.43297002
0.2016882,-3.248166,-0.97985905,-2.7241535,-5.2349377,-1.7013047,-5.286984,6.028975,0.0045918184,-0.60974485,2.788037,1.5238951
-0.5057668,-1.9766576,-2.9657285,-6.9350424,-7.4797673,-9.502672,0.18568955,11.410556,0.0071244715,-0.8288578,1.7519375,3.190747
9.98848,0.28994188,-0.00036590354,14.5177965,1.133863,31.745775,24.945366,-12.533639,-12.01637,13.575903,2.8739293,-33.618183
-1.3795632,10.506089,-0.00028626004,0.20917529,4.3303256,0.21919084,-0.05921487,-2.7479312,-0.9420362,-1.513869,-10.46421,-1.6468773
-3.7000983,-2.2070825,-1.9800221,0.46217847,2.6534607,2.6709998,-0.45572254,-2.539614,-1.32706,-2.8294694,5.194366,5.8699403
1.0068253,-5.36981,3.0430703,-3.409038,10.716618,-6.430867,-6.3079796,-5.4100475,-0.019279264,0.50423187,5.682138,-2.842524
-0.029734962,-3.658259,-0.28026286,1.2477413,0.79272413,4.1887784,-4.7056866,0.8053838,0.61286825,-0.32491577,3.8821018,0.5846093
-0.06801881,-3.1066682,-1.6487837,-2.9644518,-2.7909508,-8.236897,-3.5790262,7.481585,0.00021314621,-0.43119678,3.2348,1.569612
-0.65144134,-1.5113075,-3.8256583,-3.444076,-6.649046,-4.632115,2.8593884,11.193519,0.00017555954,-1.5707966,1.0715894,4.145373
12.54856,7.365817,-0.0004666273,-1.3473026,7.9331093,-8.246938,22.172117,-11.162673,-14.772842,12.657529,-7.756323,-26.799911
-3.9645605,12.18637,-0.00018155144,0.40302,3.665826,1.066027,0.26808226,-2.3341024,-1.1636299,-3.6404376,-12.301037,4.2676625
-4.0807443,-1.6643342,-6.35325,1.1589475,1.9532143,3.032187,-0.9597062,-2.583328,-0.77545977,-3.814582,2.9095585,12.634608
3.0571597,-5.6516075,5.0805855,0.6645051,1.9487394,3.4620395,-6.6167383,-6.92345,0.002541013,0.7762799,5.527679,-5.148869
-0.44566163,-2.946652,-1.2241693,2.7925706,-1.1746161,6.0579214,-3.6841168,3.6521938,0.009072777,-0.19288573,3.1670282,1.2780252
-0.7949768,-0.8704059,-4.047213,-4.837377,-4.12411,-7.4383254,1.367145,10.963607,-0.0006194953,-1.8787358,0.26702148,4.8389955
12.707558,0.5364412,-0.00043714698,-5.7807612,8.471949,-9.338564,23.64122,-14.557015,-5.0432496,14.653023,-6.3400474,-3.704626
-2.194889,12.63603,-0.00017706607,0.3352835,4.154266,0.5882115,0.35868987,-2.3437116,-1.0631359,-1.0277691,-12.999498,5.507759
-4.0161853,-0.21056129,-1.8228948,0.6856097,2.3704555,2.7968843,-0.34292293,-2.421194,-1.3811269,-4.6002746,-0.94153327,4.1038556
2.6894848,-6.376796,5.764284,-1.4100496,-4.9515977,-4.7936916,-5.011485,-6.399163,15.072679,1.4690224,6.017821,-5.761095
-0.095778435,-4.5365973,0.6569874,1.2149472,2.2859955,-4.102202,-7.1609163,-1.4232689,0.0073809125,-0.23986137,4.107681,-0.07606581
0.28646386,-4.108409,-0.7435017,-1.0655284,-4.70906,-2.187454,-2.1600199,5.6216145,1.181694,-0.6731531,2.9972095,1.5308058
0.41059235,-1.9049222,-2.8891835,-3.08714,-1.2184166,-4.4763007,-0.98168445,8.667481,0.00056495913,-1.467938,1.4659933,3.5234253
5.3411946,2.2016044,-0.0002644678,11.590609,-6.276972,18.260073,22.686037,-3.9506032,-17.389574,4.5980115,0.30361393,-15.250177
-1.2036492,12.5486965,-0.00031096494,0.15793979,5.520892,-1.9242097,-0.074346446,-2.4538202,-0.51759523,1.8571539,-9.656828,-3.5671234
-3.7030075,2.0349061,-1.7318501,0.05191772,3.1340203,1.6001921,0.17062615,-1.9700289,-1.9250107,-3.8896265,-4.3033895,3.1258626
2.4819865,-4.7438025,4.7125463,-0.67349553,-0.8001659,-7.1236243,-1.9165219,-5.660283,16.97662,2.1932273,5.129996,-6.513315
0.49656266,-4.3161874,1.725442,0.44720173,1.9837111,2.5761745,-7.9643955,-4.672185,-0.01668061,-0.12335357,3.796007,-0.5340655
-0.22484311,-4.010955,-0.20686373,-2.0190861,-1.0483773,-7.7498813,-5.2515893,5.842975,0.0042978437,0.11344853,3.4286685,0.98731315
0.04703308,-2.9485793,-1.8514938,-4.4063807,-4.236301,-4.574953,-0.20059237,10.25334,0.00077290926,-0.6639036,1.9814004,2.9302378
12.48331,8.779465,-0.0003551615,-6.3501024,7.1125493,-7.779753,27.811607,-15.171402,-2.2277515,17.770176,-13.271117,0.4624265
-5.2102494,10.030839,-0.000134529,-0.62525654,4.683003,-0.9032626,0.42558813,-2.6546223,-0.23375936,-2.780787,-11.714171,1.386737
-2.1283674,-1.9270425,-2.052072,-0.15067564,2.928637,2.0712738,0.2043152,-2.265671,-1.8454413,-3.175951,1.3925885,1.9102385
-2.1211436,-3.6342201,3.1097598,-1.5040244,-0.5720509,4.546558,5.8449025,-2.8458693,-4.2898297,5.4260426,11.447595,-21.238544
0.2861853,-4.1116304,1.2487217,0.19962922,1.520536,2.775888,-5.23947,-2.2276983,-0.017351018,-0.09765975,3.2220974,0.44311172
-0.52915066,-3.4657435,-0.83879495,-3.1133394,-3.069716,-5.626169,-5.0347247,6.5058126,-0.00032877026,0.12024695,2.5841854,2.0111015
-0.60287833,-1.9534712,-3.0028336,-3.6417148,-9.632808,-4.241957,5.7053103,12.022204,-0.15315968,-2.1205957,0.22865362,5.0044727
0.6942744,17.463438,-0.0001468593,-0.70254457,5.0406327,-2.2816935,-3.8401196,-7.00491,10.26927,10.541894,-18.529629,-10.473476
-4.2564445,7.218881,-4.374502,1.1076356,3.6181962,1.0683924,-0.6248224,-2.500649,-0.9914581,-4.8544235,-5.929378,3.619105
-1.687244,-3.2987843,-0.36316517,0.18930627,2.8854825,1.839211,-0.44504166,-2.6634023,-0.77118635,-1.2976768,-0.17503922,-0.9226473
1.1446345,-3.493034,3.4946914,-2.4657567,-3.2476938,-6.0980325,-8.908225,-10.304505,20.778425,3.769198,5.556197,-9.015431
0.0332046,-2.8573937,-0.15267828,0.8814283,0.75905275,2.9431012,-3.900301,1.3521783,0.06735225,-0.35076565,2.610644,0.22264597
-0.3190754,-3.1159835,-1.1738977,-2.0545282,-1.5705177,-5.2778406,-2.4461405,5.53773,0.0035754247,-0.27794936,2.4259782,1.5953475
-0.27752846,-1.3526728,-3.4724023,-3.6912606,-6.1756434,-9.114865,4.1606665,12.703066,0.0018310405,-2.3163455,0.18232247,4.9125085
3.792461,16.651815,-0.00021841069,-0.99547476,6.240846,-3.2728763,0.05350113,-3.6054215,1.369649,10.548316,-15.405172,-12.8980055
-5.281685,5.85673,0.1489372,0.77350944,3.1161118,1.1755215,-0.7085829,-2.5188031,-0.3478775,-3.2061274,-7.7481594,2.5265832
-1.3749818,-4.285959,-0.28760344,0.85695046,2.119997,2.3961427,-1.6240735,-3.198155,0.41430548,-2.2926023,5.5820937,2.251217
1.4183875,-5.040351,3.7214673,-4.026884,-2.6394453,-4.627422,-11.343465,-1.301364,0.0010671036,1.2649379,5.227543,-4.531867
0.26368302,-3.8683257,0.21692494,-1.6639496,5.739485,-1.4630976,-2.2562268,3.4143424,-0.060988635,-0.15710597,2.8576584,1.1067259
0.12409365,-2.4039328,-1.8696125,-4.659637,-2.3628964,-5.8334374,-2.7840729,6.7771983,0.002583425,-1.2281771,1.4227515,2.8795657
-1.5495313,-1.3952762,-3.2712111,-0.32273376,-7.106965,-3.624252,6.9299574,10.174009,0.8363653,-2.334094,-0.2517909,5.7979183
-0.6103211,15.909333,-0.00020195497,0.088334575,4.7091813,-1.0419164,0.35253564,-2.6622202,0.097354636,3.1589298,-18.671467,4.862482
-2.6776686,-0.4648872,-1.5414221,0.41011798,3.6817167,1.4304389,-0.8279185,-3.0092156,-1.2299453,-4.7390046,1.5046992,2.3259325
0.013011828,-2.8368495,2.7160916,-1.9577398,2.043089,0.6708789,-6.449257,-8.160221,13.66598,8.062185,8.597297,-16.933107
0.73078793,-4.495351,0.8844759,0.51565033,2.0076144,2.7581851,-3.8607283,1.1859654,-0.010947311,-0.7784146,3.1454778,1.3185033
-0.015960874,-3.6505876,-1.0870237,-4.937021,-5.187644,-5.0046277,-3.6352236,8.828439,0.0032162583,-0.6124691,2.174165,2.6477582
-3.1713893,-4.1950035,8.866291,1.7099051,-9.198748,-4.7803893,10.841704,11.583474,-3.9992177,-2.8205464,-0.41028002,5.8041997
-0.93096405,12.115431,-0.00030208036,0.9544151,4.775048,-0.68200916,-0.8209033,-2.5788803,-0.41607723,0.4422041,-9.397707,-1.9531122
-3.2383184,6.242848,0.35616034,0.5167368,3.7342772,1.5209602,-0.20745774,-2.4865282,-1.3394561,-4.126607,-7.5917563,0.9862916
0.49115604,-4.967693,5.8238287,-3.0637236,-2.6962192,-2.5093524,5.211403,-2.4537487,-4.055893,6.8840723,9.654897,-20.570368
0.7164902,-4.4790783,2.0956357,0.3005449,2.1883426,2.3789444,-8.311289,-6.3758335,-0.0037616743,0.11500796,4.2771196,-1.1387731
-0.07776339,-3.6328673,-0.47284836,0.9806485,0.69249976,3.9832711,-4.846022,3.5924406,-0.014498152,-0.55187666,3.0228057,1.2957015
0.3165769,-2.8355782,-1.579651,-3.4629304,-5.1929884,-7.786118,-3.0119452,6.181546,-0.00046944956,-1.0061724,2.2547953,2.132248
-0.18034798,-1.3080176,-3.9863274,-4.371659,-6.5398574,-4.3427715,2.9726882,10.69334,0.0068893796,-2.4467266,0.6048511,4.5881166
15.086056,7.0535846,-0.00039914547,-1.0534546,8.351787,-8.523904,22.543833,-17.804482,-2.662346,14.966472,-11.082183,-9.100766
-6.6009755,10.026903,-3.2277632e-05,0.34294358,3.370873,1.1719465,0.20710474,-2.5081456,-0.9764012,-5.268648,-11.233385,4.928766
3.3997264,-6.051862,6.317407,-2.8831587,-5.0893426,-4.38294,-3.3153918,-2.245447,0.18878251,1.7651092,5.923355,-6.693416
0.0026399978,-4.124921,0.5920386,0.4048488,2.2069442,2.5795975,-5.658773,-0.861547,0.033871695,-0.22093272,3.5242596,0.55292726
-0.05868721,-3.5817106,-1.0867243,-2.588079,-2.762053,-3.5796282,-3.5794184,8.48229,0.42964527,-0.23645714,3.1618347,1.5492342
-0.73158485,-1.3721662,-4.0452175,-4.5270886,-9.818335,-6.157364,5.6629157,11.454076,0.33672744,-1.8097255,0.727656,4.232202
13.711055,9.245576,-0.00039967964,3.1960135,4.464074,-2.1145365,-8.16745,-5.9302855,9.014247,10.138028,-10.889006,-23.627138
-2.7148259,12.530298,-0.00018959848,-0.008735705,4.9886694,-0.6837568,0.31709802,-2.6557589,-0.930649,-3.7409515,-8.925544,2.2057495
-2.3073418,2.035745,-2.89753,-0.19418676,3.4291477,1.4797106,0.25578532,-2.3119543,-1.9644386,-3.3008955,-4.827859,3.3688903
-4.7156773,-6.6068788,-0.5528355,1.1616099,1.1692483,3.3545794,-1.5319996,-2.6673052,-0.7138522,-4.4850965,10.907747,4.922525
0.32603675,-4.8193893,2.119623,-0.4166348,2.5626805,2.2680757,-7.739932,-4.169447,-0.012991294,0.72690743,4.788562,-1.5889115
-0.22148196,-3.560401,-0.69351363,-1.5984951,-1.2979298,-6.3961024,-5.233523,4.788135,-9.3621085e-05,-0.28144073,3.2899473,1.1041276
0.7818245,-2.5766761,-2.1139483,-2.6456666,-4.404617,-3.5007634,-0.62314725,8.372838,0.00010634819,-1.5869186,1.7905232,3.2603097
0.61120504,-1.186621,-3.502385,2.1867533,-3.6351862,-2.0650718,9.194034,7.074033,-0.15831542,-3.1575038,-0.08000518,5.273881
-1.0021667,11.574196,-0.00035857793,0.16220343,4.0453444,-0.6235814,0.026963443,-1.9759336,-0.17507721,4.3609014,-11.163362,-3.6708992
-3.117005,2.5035324,-0.8000096,0.90570873,2.4733386,2.3093245,-0.70631576,-2.293755,-1.0377069,-4.320106,-4.1584997,1.9260311
0.8613026,-4.7492905,4.0741935,-3.3223324,-4.7572803,-4.518946,-1.0441436,1.1767066,-0.49631685,3.5693257,5.7505875,-7.3919168
0.82482684,-4.0369406,0.5108182,1.3575788,1.8555357,2.957758,-4.3924823,-2.1672866,-0.012794207,-1.4204968,3.036914,1.3930649
-0.34950626,-3.798794,-0.658437,-1.2560116,-1.4053757,-3.8402631,-4.077422,5.2526917,0.007461653,-0.029695697,3.1366525,1.241405
-0.0807368,-2.0177367,-2.6862876,-5.03308,-4.423086,-7.7396674,1.0505229,10.651325,0.0011244151,-1.0054612,1.6854991,2.9350362
11.584793,5.6302495,-0.0003805756,14.368273,6.3626733,30.693352,26.658175,-16.025965,-5.6697206,14.714287,-10.79843,1.1673849
-2.441601,12.377207,-0.00018167007,0.021844342,4.9308834,-0.7692451,0.40681762,-2.2147691,-1.2898855,-1.0512763,-12.806118,-0.6451741
-3.4851727,3.7779913,-1.622231,0.22966716,2.5783772,2.2184882,0.056576274,-2.1491768,-1.6378065,-4.7298174,-2.5296369,3.459423
7.20321,-5.989981,11.960204,-0.5505812,1.9200395,2.0589821,2.742056,-7.0121636,-5.5021553,4.369482,11.038884,-19.057056
0.004520163,-4.4042616,1.1086885,0.14477192,1.3294055,3.5852602,-7.107487,0.7732793,0.001044238,0.35006326,4.1557207,-0.50397
0.61654586,-4.186984,-0.7163402,-2.6047082,-3.906593,-3.0018783,-3.3666136,6.2023535,0.0035709105,-0.92327124,2.706496,2.5374699
0.32476017,-1.2723615,-4.1488433,-2.5355,-5.9260774,-5.975078,5.9839244,12.685039,0.0039587407,-2.7770824,-0.10861601,5.8152747
4.0911274,12.294757,-0.00041958294,0.8231918,5.2192774,-1.9164989,-1.6391127,-3.3007212,1.1202166,5.544045,-13.117475,-7.5194287
-4.7205257,8.161528,-9.405878e-05,-0.27134112,4.225918,0.62364435,0.28596228,-2.5795765,-1.5334275,-3.352493,-10.627425,1.9139688
-4.990693,-5.5300117,-1.3769727,0.5241651,2.0090418,3.0283206,-0.7985789,-2.593683,-1.0577754,-4.3314724,9.133025,6.2804956
0.74970454,-5.1380863,2.624259,-0.21461034,3.3069234,1.7927054,-9.164713,-4.791575,-0.015586767,0.5581597,5.0635457,-1.8356323
-0.3546885,-3.4974918,-0.6706,-0.8384325,-0.70226645,-1.7875303,-3.5517988,4.288008,0.00038231217,-0.12385137,3.3114269,1.0127405
0.027567916,-2.8844166,-1.8564527,-4.4441705,-5.960472,-5.9269934,-2.0495567,7.8145885,0.00092117884,-0.727418,2.2906065,2.5208945
0.12952083,-1.9864537,-3.4784455,0.877124,-5.520454,-2.0294862,7.499489,10.293437,0.755352,-2.7958522,0.008938216,5.39784
13.7582,7.5004277,-0.0004370513,0.49485174,8.013561,-8.502088,-6.673172,-4.348627,6.923136,8.9962015,-12.718067,-6.6869392
-4.2654166,9.655234,-4.0988183e-05,-0.08234639,3.9699996,0.83293915,-0.04337458,-2.7267342,-1.1890877,-6.3999887,-9.108124,1.676684
-2.0407908,-0.28725547,-5.8165097,0.99607867,1.5891341,3.5629573,-0.5942391,-2.250535,-1.677306,-2.0546682,6.334158,8.200944
1.0449821,-4.7616825,4.6571693,-1.2464964,3.8413992,5.548935,-4.1490927,-1.0700172,-0.8720796,7.2252645,7.8074493,-15.781523
0.13872555,-3.279816,-0.10237883,1.9591987,-0.6309923,4.7091556,-1.4288597,-1.1444294,0.17100409,-0.99200785,3.0225234,0.5720903
-0.26447725,-3.3493428,-0.9663222,-0.06256995,2.8660765,2.7530868,-2.4813693,4.0343003,-0.0037813438,-0.1139038,3.2347293,0.85197455
0.02121957,-1.5269122,-3.3434942,-2.5147064,-6.685692,-7.836804,3.5883384,10.606344,0.0035661468,-1.6581248,0.95640904,4.020692
11.493668,-0.180884,-0.00040493958,-5.2384543,8.35618,-8.91742,24.958792,-15.719895,-6.3799853,13.953915,-6.0695624,-1.2006586
-4.546245,10.745896,-4.726772e-05,0.74618536,2.6665826,2.1133304,0.17018169,-1.7240137,-1.9803933,-5.028566,-10.888709,2.5803912
-5.585349,-7.40785,-1.7444849,-0.07516023,1.8763466,2.8298316,0.8532118,-4.1119437,0.23438385,-4.39068,9.631378,6.086228
0.041646235,-4.531005,1.1817994,0.8262998,0.54738545,4.2050138,-5.2826033,-4.6068807,-0.008868089,-0.28500342,4.0381317,-0.1785456
-0.070678554,-3.1365147,-1.0399785,-1.0903612,-0.47507384,-7.4335384,-3.5557687,6.4359574,0.004248666,-0.4565303,2.8145123,1.4625117
0.013675928,-1.6529108,-3.1530614,-4.7054725,-4.5506964,-9.902414,0.62094873,11.024621,0.0022051632,-1.3264735,1.638333,3.2951252
9.991301,5.580344,-0.00042133336,-6.7815275,8.028776,-9.413229,27.440079,-16.27135,-13.567786,15.764655,-0.07531611,-33.459393
-5.480157,9.245903,-6.190792e-05,1.0208735,3.1509244,1.8038471,0.014877128,-1.9617325,-1.610965,-3.1065142,-9.725161,3.9605038
-5.437154,-4.8429966,-6.9205275,1.5160702,1.691495,3.2340202,-0.25850004,-4.7660193,1.6170878,-4.6132116,9.964529,9.773299
1.1256363,-4.893002,2.7888272,0.43252414,1.972587,2.759342,-7.758444,-6.7543573,-0.012415854,0.5747419,5.243983,-2.893234
-0.3109104,-4.1133556,0.00773011,1.3573415,-0.21972471,5.4275026,-3.7940936,3.5965004,0.0010118098,-0.049590766,3.9369137,0.4370823
-0.5848893,-1.9547482,-2.6597867,-5.1803894,-3.9599524,-10.748399,-3.211029,7.739818,-0.00023679485,-0.8573247,1.8466606,2.6976929
-2.2548592,-4.2857094,16.579548,2.3021622,-8.859697,0.00035140233,11.8246565,9.926761,-3.9897733,-2.2730036,-0.27029866,5.6903095
0.12776433,14.462375,-0.00029147358,-0.7172138,6.4443984,-2.4502554,0.82028866,-2.7996743,-0.9694306,1.0986062,-13.410216,-2.6372907
-3.301068,1.5281414,-1.515904,1.4287101,2.696085,2.4775145,-1.4353567,-2.770684,-0.6457235,-3.5289998,2.3167677,5.3246675
3.196734,-5.7605925,5.875537,0.1490052,1.075991,-1.7019902,-7.464487,-7.692751,14.325606,1.9855341,6.0165944,-6.356062
-0.3182962,-3.9141335,0.23253505,1.0201867,-0.17949459,4.45849,-3.8217828,0.33406195,-0.29449975,-0.052959178,3.9385533,-0.57540506
0.7670708,-3.4554796,-0.8386834,-4.64766,-4.674438,-5.2391686,-5.4157424,8.868264,0.0014207251,-1.0632001,2.679707,2.0932148
-0.7085513,-1.3472935,-3.480718,-2.9269636,-7.530708,-3.8611808,3.7789729,9.766268,0.4026293,-1.1848342,1.0417655,3.8895197
7.2606206,7.674666,-0.00040886056,1.702045,4.031263,-0.8734602,-8.413717,-7.974209,12.95115,12.142712,-12.810416,-6.0117087
-2.6877806,9.463688,-4.196257,-0.06288196,3.502463,1.6080147,0.64434963,-2.1258845,-2.3702397,-6.785355,-10.674016,7.165898
-8.8037815,-7.647042,-8.171131,-0.57050765,2.6624045,4.77765,-0.3304946,-10.656415,18.076727,-4.4661794,11.97676,14.018382
0.979089,-4.0802617,1.0708743,1.27445,1.8386573,2.8805275,-4.7634397,-4.7375956,-0.012796929,-1.0058032,3.692635,0.21801527
-0.80602586,-3.6130161,-0.31088352,-0.24972995,-0.3969933,-1.5878732,-4.176946,2.9519947,0.35822505,0.092865035,2.986005,0.80664146
0.12248868,-2.073478,-2.6517408,-4.150569,-2.2736666,-4.328711,-2.4386313,9.483778,0.0005471017,-0.9383285,2.163668,2.7791326
-1.3051894,7.854114,2.8013484,8.785859,-3.4932294,3.635591,18.54929,1.0894643,-3.454439,-1.6184831,0.41478533,4.7768636
-1.0105611,10.977452,-0.00027999812,0.37795526,4.195552,0.2433732,0.017462868,-2.591729,-0.51518655,0.5805053,-11.585935,-1.3040993
-3.8138678,0.4840888,-1.9232694,0.67952865,2.5588703,2.561378,-0.18296379,-2.3154263,-1.6254523,-4.2702594,-1.3701177,5.6226254
2.6400628,-5.6809616,5.6042876,-0.5336695,-2.4648755,-2.5931072,-6.546513,-5.1437893,-0.8057518,1.986636,5.596654,-6.4010696
-0.6831345,-4.108673,0.43015575,0.77400464,0.26456493,4.531698,-3.8835468,1.436399,-0.0056557995,0.85966265,4.694561,-1.397601
0.45654276,-3.6747465,-0.77264464,-4.610453,-5.144054,-5.851118,-4.237321,7.437527,-0.0004115079,-0.66769195,3.0295684,1.614052
-0.34389552,-1.7933397,-2.9791884,-1.0470359,-3.6414762,-13.839791,4.9195127,10.428277,0.25416082,-0.8907592,1.562979,3.1948206
13.634236,6.781536,-0.00036460173,2.7378619,5.472474,-3.5449214,-8.618175,-4.438407,7.0013456,7.7371287,-10.920388,-7.736284
-3.8342588,9.692482,-0.00012107543,-0.5724727,4.6402073,-0.21817921,0.75988775,-2.3190813,-1.3049144,-3.2997477,-8.117808,1.0552413
-2.332434,1.2109474,-1.2716256,0.3081425,2.8857458,2.015582,-0.26042077,-2.1984777,-1.4979346,-3.5595868,-3.2937925,2.5927649
-3.4809093,-4.227093,-6.721594,0.5283002,1.3090789,3.2157426,-0.69905907,-2.3929,-0.83925396,-4.578596,7.5722227,6.710003
2.2031999,-5.562668,5.0865245,0.7896422,-3.3270195,-2.632092,-10.422218,-2.9137435,0.0016330625,4.62684,7.7627497,-12.819058
-0.42689922,-3.5813992,0.3157819,0.31545505,0.9428165,3.221136,-5.5836387,-1.8547443,-0.015626311,-0.17407322,3.1823022,0.37932035
-0.726699,-3.0855012,-0.9859595,-1.2215681,-2.8579164,0.15129057,-5.997985,4.7170744,-0.0015030237,0.01448897,2.9818344,1.1614825
-0.13853905,-2.5053167,-2.0652077,-4.950894,-4.236158,-8.350266,-1.5361912,11.758375,-0.0020174584,-0.5062448,2.4661126,2.2067385
-1.3739226,-4.170033,10.500112,3.3102465,-5.9251556,-2.0691786,12.39397,8.498218,-6.3162627,-1.7179121,0.4109258,4.5067353
6.083834,11.6093645,-0.00036210002,-3.346145,9.027339,-10.466767,-0.9013535,-3.3875082,1.3581808,9.505189,-15.315472,-6.141697
-3.2932794,11.888606,-9.454538e-05,0.36668462,4.374438,0.6886781,0.28044873,-2.158322,-1.906926,-3.8910358,-9.329214,0.28275916
-2.462679,0.4402074,-1.4693248,0.7460479,2.756913,2.570197,-0.39663893,-2.1694467,-1.912009,-3.2423947,-2.0026538,1.4552555
0.04565072,-3.5767431,0.90369654,-2.3742707,-3.5100007,-4.6193204,1.5062802,-10.223396,20.746477,9.039363,7.551147,-16.612257
0.6393816,-5.1644406,2.2309704,-0.3403449,3.0328076,2.1487966,-8.579054,-5.030623,-0.01594577,0.23290406,5.2294216,-1.8367778
-0.5619377,-3.5881913,-0.7091317,0.60217434,-0.12300697,3.9093292,-3.3566859,2.7860205,-0.0019662194,-0.41949,3.2579567,1.4403139
-0.14912531,-2.8096833,-1.9094275,-5.292963,-5.530515,-7.4202485,-2.67033,10.726951,0.0037403174,-0.65739316,2.1901426,2.5501149
-0.7478031,-0.88533443,-4.286104,1.0563735,-4.1344733,-2.461117,9.389948,8.7379875,-0.18942538,-2.0767682,0.06641617,5.5473623
1.2213045,9.831145,-0.00039624487,0.001984106,4.645924,-0.16924128,0.16127066,-2.8551207,-0.05588006,4.5586147,-9.215843,-6.5122786
-2.8407776,1.2384624,-1.4984694,0.9629485,1.8943614,3.1951964,-0.63726515,-2.5339258,-1.2507434,-3.1271338,-0.71527475,3.3599043
1.7062552,-5.3247857,4.400881,-0.9799368,-0.7607616,-1.856836,-8.612186,-4.0224576,0.0023298038,1.6320612,5.5382795,-4.5672784
-0.3038885,-4.109271,0.12435733,0.4806893,0.6957978,3.27954,-4.9597034,1.4063823,-0.013462007,-0.15294182,3.6744132,0.55016327
0.16933382,-2.918333,-1.3369533,-3.3050003,-4.4712143,-9.027179,-3.1015904,6.3635,-7.444603e-05,-0.6412411,2.6887343,1.6161091
-0.6342635,-1.6193327,-3.2008815,-3.245036,-5.996513,-5.247958,3.4796133,9.421036,1.0036143,-0.9890921,1.1753876,3.465948
11.980535,1.140187,-0.00044437067,15.004235,0.51501626,31.89048,24.000149,-12.6558895,-15.882889,14.002267,3.5907829,-37.139355
-4.217178,12.815805,-0.00011702345,0.76710844,3.8196607,0.7406718,0.091062635,-2.0410724,-1.1962538,-1.3765883,-14.1127405,7.14641
-2.9653485,2.0534956,-5.3121142,0.31634596,2.8842247,2.1840668,-0.07795957,-2.3029525,-1.6227353,-3.0833206,-2.816125,3.811486
1.8898673,-5.4209733,4.63841,-2.2352993,-3.2489257,-3.025458,-5.9836345,-2.1989772,1.3180346,2.035144,5.788179,-5.819477
0.055716053,-3.753095,1.4527107,0.4586168,0.8930165,3.2445416,-4.1820736,-2.1752672,-0.7730384,-0.06131494,3.2678578,0.44190273
-0.13597497,-3.8548481,0.10493324,-2.7399936,-1.4767485,-12.12366,-6.1253715,5.9774637,0.0017579619,0.29309648,3.68401,0.06618454
-0.36273038,-1.967154,-2.6243634,-3.375102,-5.373175,-7.3573055,1.3294519,8.7563505,-3.110281,-0.6338584,2.1272113,2.1687732
3.729066,-2.74569,-0.0046167616,6.571404,-8.924461,39.72368,20.064838,2.1537416,-24.997044,7.1733484,10.027234,-43.725136
-0.62934434,11.530864,-0.00025777373,0.19788153,3.818582,0.5089766,0.43151635,-2.2144825,-1.2925427,0.40990728,-10.844202,-3.4014642
-2.8171198,4.165236,-6.000041,0.4720824,2.5162768,2.5510077,-0.28234297,-2.3932533,-1.7557334,-4.4583807,-3.268932,0.9494376
3.3437757,-5.368099,7.526992,-0.8271657,3.050823,2.7784708,1.118568,-7.800624,14.902855,-7.0225096,10.406704,20.711813
-0.21782374,-4.1090236,1.7287357,0.2191742,0.7540241,3.369226,-6.860781,-5.0748124,-0.007117275,0.8227022,4.019484,-1.3662319
-0.41866845,-3.6937149,-0.11126685,1.0443523,-0.3141862,3.8703768,-2.9483783,4.708632,-0.19165966,0.16420685,3.4097023,0.32422668
0.13074754,-2.6205695,-1.9276919,-6.1085324,-5.9383225,-8.354811,-2.145343,8.77976,0.0034120446,-1.2016191,1.5977695,3.1314695
-3.4911597,-4.8201995,23.038479,4.916621,-9.407031,1.9381752,14.893104,7.565618,-7.7184315,-2.3579998,-0.09181712,5.2944455
1.7603847,11.127503,-0.00038416556,-1.6578072,8.523842,-8.018756,-2.0280747,-3.7812905,2.4778109,3.7017028,-11.938641,-4.128522
-3.550118,4.7629375,-0.012867222,-0.03816671,3.6363492,1.6148111,0.46934408,-2.2120314,-1.6351113,-5.197838,-5.5076714,1.8933254
-5.3158827,-3.7201061,-8.578745,0.06750639,1.4907076,2.6223755,0.11654022,-5.345052,7.7195587,-5.419017,9.21299,13.426106
0.75529176,-4.3707514,1.6295396,0.9179399,1.3018916,3.5048833,-5.642248,-5.5503516,-0.23002651,0.01747156,4.8236475,-1.6227305
-1.1696441,-3.835914,-0.6136301,1.0668627,-3.8170018,4.161533,-3.265854,3.4787028,0.00042982056,0.2440553,3.522814,0.8474993
0.12931162,-2.6584117,-2.5338764,-6.1071033,-2.2308164,-6.221103,-2.582915,9.608669,0.0020711403,-1.2964334,1.9539998,3.445495
3.035454,1.3376302,-0.00023582618,9.52058,-5.9839425,5.6325116,18.503216,0.043015912,-3.6181533,-1.5405346,0.70922905,4.5400524
-0.47106925,12.371075,-0.00028108287,0.3857027,5.679418,-1.1565442,-0.07989623,-2.8846252,-0.14659764,2.1310441,-12.678505,3.698601
-4.0203657,3.4855165,-0.9747902,0.14742097,2.8842714,2.1253693,0.019903205,-2.4442956,-1.7663733,-5.090833,-5.9810467,2.2161245
-10.642595,-9.544947,2.942182,-4.407144,-1.2386636,-3.4320378,0.041017413,-2.3434885,-2.393752,8.196057,6.7748566,-15.049325
0.26305038,-4.7630568,1.9150223,0.07548289,2.5941727,2.33318,-5.790647,-5.8337064,-0.009194395,0.14205483,4.5447493,-1.1388665
-0.96043396,-3.6534522,-0.6812024,-0.88122123,-4.425855,-1.4833848,-5.0723457,3.017655,0.004124391,0.33727938,3.894216,0.29048836
0.88192457,-3.5707054,-1.3691189,-3.7901447,-2.9785018,-2.3788388,0.32854947,7.3338428,0.73878986,-1.0111945,2.4142826,2.8061054
-1.1154094,-1.8569143,-3.0254374,-0.28716582,-4.786715,-3.0196311,6.7309785,6.729464,0.68013424,-1.8157053,0.3399338,4.4514055
3.2556734,12.28641,-0.00034298463,0.017465483,5.130105,-2.2447436,-0.5096282,-2.861004,0.6148764,6.5799303,-10.96849,-8.308867
-5.211146,4.6591578,-0.66832554,0.86702955,2.8961825,1.7302397,-0.32782114,-2.136212,-1.3107091,-4.5486007,-4.933493,2.8852167
-3.4344985,-4.6245584,-3.367745,0.284416,2.357341,2.3161542,1.0048275,-4.481769,3.0018396,-4.293846,7.0183024,13.124871
0.72872216,-4.5832453,2.0573745,0.42089218,2.0889108,2.7012234,-6.7037416,-5.705902,-0.012365671,0.1532072,4.617761,-1.4812201
