ancorasir/BennettWheelLegRL/experiment_data/2023-12-27_22-47-53/joint_vel_env23.csv
Joint_1,Joint_2,Joint_3,Joint_4,Joint_5,Joint_6,Joint_7,Joint_8,Joint_9,Joint_10,Joint_11,Joint_12
0.0,0.0,0.0,0.0,0.0,0.0,0.0,0.0,0.0,0.0,0.0,0.0
1.5543567,-4.4132614,4.9522886,11.137598,-12.386478,19.035057,-2.0655806,-3.3919854,2.5004163,7.2813683,8.057531,-14.270242
1.677777,-0.68850046,-0.7819557,2.062103,0.6864033,1.0740428,0.46645162,-4.7517076,2.955063,-1.2206256,1.6305883,-0.6096509
-0.5528709,-0.6519183,-2.6311197,-6.0762525,-1.2553096,-1.5190377,-11.063867,3.7927308,-0.013156601,-1.3690611,0.73081714,2.8321455
-1.3890808,-0.30932653,-3.9754722,0.5600605,-4.4590263,-4.727658,1.0334654,8.956076,-0.0033382522,-1.4779371,0.4642457,4.254894
11.533611,10.461015,-0.00041784183,-3.7562253,7.604656,-6.1396875,-3.2177052,-7.704375,10.161686,11.284844,-12.371143,-10.99228
-4.5877795,9.247685,-2.7717273e-05,-0.06229823,3.70755,0.73257875,0.43408734,-2.125388,-1.7672542,-3.8045936,-9.001486,4.3088565
-3.4586492,-3.2472498,-1.6447299,0.52596843,1.9339414,2.8924177,-0.29097432,-2.5298183,-1.4367955,-2.8605888,6.0535445,4.7248716
0.15896955,-5.403053,2.9455779,-0.7790642,-1.5753171,-1.1278129,-8.226583,-5.0652485,0.0042643314,1.3792733,5.709079,-2.0156665
0.2879799,-4.1535273,-0.13154545,0.84038556,1.3526945,3.627779,-4.283962,3.0151196,-0.018544745,-0.7443603,3.5514467,1.0740979
0.572528,-2.9088373,-1.795401,-3.6742616,-4.8286815,-5.082775,-1.8410171,8.366283,-0.0005028066,-1.1212162,2.414678,2.4717004
-1.7411578,-3.4639425,7.024455,2.323297,-3.2812762,-1.1905061,9.502531,9.014931,-3.0151272,-1.9509093,0.40288922,4.7225275
5.7653923,11.628992,-0.00044602982,0.69541246,3.9742792,-0.9438324,-6.8265295,-7.3081985,11.264197,10.760232,-15.010452,-9.614375
-5.836938,6.433739,-3.851933,0.41370833,2.5481606,2.408678,0.1274881,-2.1464043,-1.5280747,-3.7718246,-4.078139,6.543755
1.6394137,-5.6322327,4.8461876,-1.6438246,-3.9357865,-2.6618433,-1.0917547,-1.0062065,0.5018983,2.1006331,5.827727,-5.8169327
-0.2627488,-4.7922807,1.3831596,0.3788382,1.0653645,3.9680502,-5.3935666,-4.8781533,-0.0040954594,0.30830163,4.946327,-0.8133942
0.4795019,-3.0964499,-0.9928231,2.569285,1.177252,6.040391,-4.795671,7.245496,-0.011739731,-0.5591058,3.4287143,0.7721236
-0.90908927,-1.4045608,-3.7023692,-3.0074708,-8.848172,-8.764945,2.8545456,11.873844,-0.0003927648,-1.289725,0.7583946,4.42438
8.801629,3.5287824,-0.00037316058,11.799064,-3.8991897,43.660767,23.96394,-10.873767,-12.189648,14.389521,2.898763,-47.07157
-3.6678748,11.722761,-0.00011125894,-0.30579367,4.453107,0.5656901,0.06521488,-3.3830786,-0.21552576,-2.6609223,-11.176297,1.263597
-1.8213211,-0.5500339,-1.3100277,0.9922931,1.7433919,3.5243638,-0.96430707,-2.5468402,-0.8156141,-2.8027327,8.880876,5.9630256
0.39542082,-5.187101,3.1766858,-0.8152251,3.554673,1.3433006,-5.380321,-4.6916065,-0.02816377,1.1148083,5.2324443,-2.329161
-0.3314333,-4.2882543,0.6816694,0.77742654,0.37175325,3.979738,-4.5732074,0.10402488,-0.0018878393,0.015085451,4.0835466,0.054141432
0.20363727,-3.1954618,-1.0064042,-3.2554512,-1.3661307,-14.53197,-3.753214,6.845535,-0.0002331431,-0.99447995,2.3479486,2.0023565
0.27848285,-2.823746,-2.1153312,-5.9138746,-6.9610662,-6.991761,0.48237544,10.499334,0.00091165025,-1.5544443,1.2057459,3.8636503
-2.8350194,3.0818665,1.4188977,6.951729,-5.562174,3.4767427,16.385387,2.724933,-3.163791,-2.488607,-0.09737288,5.2597117
0.4286939,12.717476,-0.00028870336,-0.054020222,5.2446346,-1.5077847,-0.3489886,-2.943224,0.39391896,1.4561747,-12.638472,-1.9030697
-3.9578242,6.692555,-0.58638054,-0.118963204,3.9064379,1.1043909,0.23712195,-2.4503396,-1.4722203,-6.063225,-6.7001543,0.8934718
-2.242434,-2.2830915,-0.9924606,0.49447674,2.2756784,2.7428377,-0.26495007,-2.3167524,-1.0938238,-2.901937,4.1106415,3.0700746
2.7681582,-5.636119,5.4943023,-0.14193717,-3.4280496,-4.056266,-2.2944133,-4.3142314,-3.3017352,1.7369984,5.3883777,-6.513723
0.117486715,-4.372729,1.6060894,0.4077004,1.2034833,3.5068617,-8.734012,-2.83028,-0.004200099,0.534261,4.67229,-1.4899707
0.19056976,-3.9118247,0.027942777,1.1941009,-0.6100668,0.96845293,-3.685454,4.574017,-0.0016717203,0.04336647,4.0388846,0.053627994
-0.0051286593,-3.1555161,-1.4435071,-4.0009427,-5.2293277,0.47281265,-5.645313,5.9073505,-1.4476012e-05,-1.0661469,2.3923101,1.7084001
-1.1052123,-1.2656462,-3.9997954,-6.218582,-9.001157,-8.513847,3.934588,13.246892,0.3376311,-1.4037806,0.7777958,4.294521
12.340607,-2.3169522,-0.00040255336,17.097666,-3.6319125,24.295834,19.72491,-9.442184,-5.7141714,5.9150553,-6.721658,9.195937
-0.3431223,14.043745,-0.00025562022,-0.28198943,6.270644,-2.2846603,0.26186705,-3.2462912,-0.16370493,-1.2084203,-14.079372,-1.4283257
-4.770633,6.0016828,-6.2063336e-06,-0.07109512,4.084597,0.8996696,0.26928815,-2.4119232,-1.6783115,-4.482758,-6.9095483,3.0908723
-1.2890877,-2.7649577,-2.1252365,0.30303073,2.7402818,2.5501935,-0.27277425,-2.3517616,-1.9973146,-5.15019,5.9284596,4.703888
1.9906789,-5.781634,5.0447135,-1.2478223,-3.386045,-3.6934788,-6.451707,-3.6733615,0.0014116005,1.5324391,5.429376,-5.430947
-0.5228968,-3.6606429,0.26789746,1.2139318,0.03817655,4.4367995,-4.3765235,-2.0747974,-0.007390272,-0.21616438,3.4182687,0.5336108
-0.14311741,-3.5665388,-0.664417,-2.1254292,3.7511032,-18.446161,-4.5004826,6.069932,-0.00028749218,0.11453884,3.606658,0.9987293
-0.50566787,-1.6626014,-3.1993823,-2.2224288,-6.8967123,-6.7962074,2.687885,9.24299,0.7585046,-1.1597214,1.2778574,3.3909664
9.972187,0.5324443,-0.00031061773,16.0168,-2.9292989,18.095207,21.735273,-10.343283,-2.7262752,5.443718,-8.75002,8.30112
-3.945552,11.483668,-0.00016033358,-0.0179148,4.7559586,-0.58646023,0.38209748,-2.091551,-1.4262908,-2.746232,-9.309227,0.4701714
-1.6544319,3.5268543,-3.557695,1.0436225,3.1477416,2.0242858,-0.7980455,-2.197045,-1.6216486,-5.04596,-3.1586785,2.0750709
6.5950956,-7.351599,10.079999,-0.10652965,-0.23964679,-1.810014,-3.6816874,-8.55548,20.03181,3.660581,8.009767,-12.810594
0.12019579,-4.2483177,1.135705,1.5366573,-0.005620882,4.9144254,-4.5912204,-4.5652137,-0.00881106,-0.0680668,4.5206356,-0.42531
0.32938913,-4.1634026,-0.19803804,-0.5271032,1.0871402,1.1507279,-3.5864928,4.319231,-0.012416146,-0.8133386,3.0130587,1.6171069
0.39178485,-2.2025526,-2.7159715,-4.4508343,-5.8693523,-6.599266,0.08725258,8.448891,0.0039481213,-1.525732,1.5576279,3.6297996
8.662746,-1.080582,-0.000507173,16.568779,-2.261517,30.541153,20.64227,-4.9590836,-6.0382605,2.6513276,-6.5825152,8.969097
-1.3003398,14.303751,-0.00027011725,0.06479204,4.9944487,-1.1195829,0.6240846,-2.0574589,-1.3834934,1.3320365,-11.926342,-0.48704004
-2.5698211,4.836527,-0.18464734,0.46624202,3.4224632,1.6229631,-0.43127254,-2.219174,-1.4395324,-4.3050947,-5.247319,1.6022062
-7.871049,-5.5089498,-10.824977,0.6991455,1.6996225,3.6680574,3.2395523,-9.526434,13.342179,-7.0258904,11.30985,18.135046
-0.4291389,-4.6296997,2.1464725,-2.0081563,3.5429962,2.5565095,-9.569928,-6.29635,0.0019685393,1.5556151,5.06822,-2.60851
-0.6400346,-3.8484273,-0.2555107,-0.25380686,-0.3244809,-0.5459876,-5.2705617,3.3947096,0.69087446,0.4129243,4.322232,-0.44089103
0.4996172,-3.596484,-1.131283,-3.8459468,-3.188603,-11.338386,-3.6531177,8.328106,0.0004284347,-1.0223932,2.498849,2.2684994
14.907336,-1.2650697,-0.00044796022,16.569244,3.1679056,28.548063,22.66901,-16.050453,-4.5853186,13.652003,-7.469168,-0.9692414
-3.6457427,8.049528,-5.52313e-05,0.36411697,3.88618,1.2822,0.014353581,-2.2939012,-1.9591787,-4.8529835,-7.4008546,0.83955735
-7.073852,-9.5738735,-0.0940718,0.460243,1.7892315,2.9897926,-0.07497731,-4.2476707,0.2338566,-4.3223715,13.288877,7.335605
0.7540729,-4.2506323,1.8089925,0.2763396,2.8958418,1.9231662,-7.769858,-6.0990744,-0.016213953,-0.32958794,4.4287567,-0.89307857
-0.7020717,-3.8998957,-0.12810358,0.24935147,-0.27631232,3.2630317,-3.4001796,2.7801251,-0.008417512,0.08049278,3.576809,0.2636832
-0.39862308,-2.4439163,-1.9453429,-4.3692,-3.6525486,-8.919668,-2.9022262,9.971309,0.00015217671,-0.33257952,2.3035798,2.2651978
-1.5381761,-6.0056367,19.122004,-0.4150047,-8.7361145,-0.40054888,9.481831,11.913255,-9.49287,-2.5345273,-0.23928374,5.876583
2.9026983,11.286771,-0.0003568618,-0.54729694,6.420392,-3.0186374,-0.45643485,-3.954151,1.4361017,5.422347,-11.222272,-6.6865635
-5.279044,8.821025,-5.121625e-05,0.054134887,3.7964923,0.918627,0.13690597,-2.7146003,-0.9829081,-3.1220229,-8.079521,2.564459
-3.431551,-0.62255114,-10.426075,-0.09206221,3.1096725,2.1366777,0.045904815,-2.387431,-1.9980265,-4.1308937,5.401294,-0.49265838
-0.457707,-3.5817516,3.08685,-0.77456623,-0.41016564,-3.080349,-2.6730752,-3.4099135,-5.9024363,7.7297153,8.262247,-16.507221
-0.75749385,-3.57711,0.0742164,0.20167352,1.2844236,3.2106047,-3.8102832,-1.1216704,-0.035413142,0.6001278,3.5489054,0.31947517
-0.26543385,-2.9406426,-1.2521966,-2.8106444,-0.570985,-12.523083,-4.6694355,6.125864,0.0030491538,-0.48443776,2.2850277,1.6922176
-0.691192,-1.3536285,-3.552798,-5.289406,-7.1965365,-7.29619,1.292981,11.195838,0.0018281867,-1.5697707,0.8466482,3.8607812
12.808812,5.994801,-0.00040139572,-4.5407915,10.202234,-11.5310755,24.145794,-17.65049,0.05573924,16.155085,-4.161901,-29.832077
-3.7151315,9.124191,-0.00012417138,0.8428668,2.967716,1.6046875,0.090042025,-2.0152283,-1.4976566,-4.117668,-9.518612,3.0443664
-7.0672936,-7.453881,-1.7014966,0.16963345,2.549415,2.4012594,3.659797,-5.1711445,-3.0581064,-3.2099051,11.957957,9.016777
0.6714153,-4.9415746,3.0468943,-1.8510818,4.2035556,0.6585791,-8.511956,-5.0976543,0.013383748,1.5202513,5.114316,-2.7242825
-0.55033034,-3.0940156,-0.716954,0.78462577,1.4392774,3.6952212,-4.021884,4.503903,-0.015123665,0.22361307,3.0553155,0.58118266
0.4771315,-3.196308,-1.5644333,-4.0692267,-4.844435,-4.9862223,-1.9170594,6.9972916,0.0026714671,-1.3306761,1.717072,2.7945552
-4.2367144,-0.87193346,18.044537,4.411998,-7.4717717,0.0011255182,15.653813,8.757737,-8.177902,-2.5605295,-0.35019204,5.71085
-2.7591746,14.834806,-0.00025541917,0.14326292,5.532483,-1.3860996,0.7558989,-2.3302476,-1.2048101,-0.35787278,-12.589127,-0.2368554
-5.102236,3.492002,-6.8759513,0.55827284,3.1375682,2.078081,-0.14727214,-2.689279,-1.239331,-3.5252383,-3.4066901,3.3440757
3.0475826,-5.6541967,6.304951,-0.14163622,2.9261305,0.018224686,-6.1684384,-7.436345,16.556852,2.79344,5.9938025,-7.4253016
-0.2070319,-3.9952943,1.2586933,-0.7726332,2.2113338,3.6826534,-7.030797,-1.6163853,0.0016348744,1.0364215,4.2099056,-1.3619909
-0.5433973,-3.431166,-0.5761902,-1.4456421,-3.9496458,-0.9395554,-4.430548,5.388981,0.0050506433,0.12800166,3.1811013,0.7207681
-0.17154875,-2.4138436,-2.179888,-4.475624,-3.6017516,-6.285447,-1.108806,8.4442005,-0.00030791562,-0.87447214,1.7243996,2.8185236
2.0743327,1.958138,4.8134193,10.098791,-5.174858,8.982914,19.607805,2.2756426,-15.022821,-0.36309177,1.6419399,-5.521765
-1.5255688,12.694919,-0.000274715,0.5420249,4.1940966,-0.19066274,0.028311878,-1.851714,-1.404023,-2.4244685,-11.520673,-0.097325556
-5.3281417,1.7751956,-9.052323,0.6461186,2.8968978,2.0345,-0.42838785,-2.1293755,-1.6564273,-4.5199685,-1.6263291,7.1867895
1.8716859,-5.4209294,4.728409,-1.2248449,5.285487,-0.6785965,-8.807408,-3.8903375,-0.022088319,1.6322697,5.585651,-4.475238
-0.11051219,-4.1883383,1.0263284,0.68351406,0.40904263,4.067542,-4.7334332,-0.51930594,0.40634096,0.11007718,3.931716,-0.4502094
0.046722315,-4.1208324,-0.49441093,-2.5195282,-2.9179103,-3.0603483,-4.6794662,6.163116,1.4271976,-0.17167693,3.300107,1.4568778
-0.6403575,-1.0684438,-4.171203,-2.9636445,-4.381803,-5.8990316,4.3781447,9.995736,0.004296793,-1.9950933,0.31032908,5.1764283
12.635447,9.690777,-0.0004008973,-2.6928353,9.1424675,-11.351936,-3.6129909,-4.8736954,6.6289144,13.134479,-9.80586,-21.17073
-3.5841048,9.035128,-3.2089607e-05,0.11459474,3.7400546,0.6962092,0.049142104,-2.6541495,-0.8384208,-6.4286747,-9.407173,1.2411864
-2.6853683,-0.5894998,-1.3295776,0.18742375,3.1149523,2.0014725,-0.18373367,-2.4565747,-1.5999848,-3.1944366,1.105219,2.3851345
3.3045166,-5.297138,5.0720744,0.14807208,-3.7252393,-5.0915656,-10.224145,-4.872044,11.531621,0.5778059,4.922773,-4.8404317
-0.82249165,-3.8200336,-0.07507884,-0.61522627,-0.043813907,0.32604218,-5.1412034,2.582131,-0.0023741135,0.28603628,3.267636,0.52623945
-0.15355465,-2.481442,-2.2278268,-4.23054,-1.9388818,-7.405905,-3.5932653,9.134738,0.006816214,-0.8460586,2.0567508,2.7406387
-3.8087425,-1.6450703,13.935109,4.627536,-7.3659773,3.9875982,12.906107,6.886496,-6.188235,-2.6293263,-0.10864221,5.2781286
-0.34279662,13.62828,-0.00026992743,0.91777146,3.9441636,-0.015590068,-0.67396593,-2.446358,0.11527505,4.238221,-11.998306,-4.2444673
-4.6684303,3.3751438,-6.152345,0.28531396,2.9722006,2.1830883,0.17245686,-2.167176,-1.7683786,-4.0467052,-2.7071707,7.467953
2.4628558,-6.4570017,5.785175,-2.138184,-4.925617,-4.0913434,-3.6555338,-0.6671531,1.398957,1.7456307,6.2316008,-5.9834065
0.34321612,-3.7216682,0.36937892,1.219148,1.3962429,3.1930842,-3.4941356,-3.396885,-0.014296186,-0.54603696,3.7687438,-0.19869608
0.54854375,-4.205046,-0.44528383,-3.1900122,-2.4460657,-3.2758212,-4.37817,6.064689,-0.0004889639,-0.7734319,3.1001139,1.5723839
0.44320953,-2.171857,-2.7697632,-2.8116908,-2.8640447,-7.6310787,0.5909528,11.255138,0.0011466905,-1.8684609,1.2221155,3.923774
11.513082,1.0569111,-0.00044855278,17.26995,-3.1492777,28.770287,20.70699,-10.598593,-5.7690353,5.744664,-4.088428,0.79591703
-2.033827,11.976164,-0.00030032807,0.08127812,4.2446494,-0.01411679,0.7726327,-1.9850972,-1.666815,0.01119687,-10.947682,1.496842
-4.0709724,3.7850554,-0.64427185,0.5186232,2.8753123,2.009129,-0.036299948,-2.1648328,-1.5780087,-4.1034765,-5.944657,3.106825
-7.888243,-7.778214,-0.37959263,-1.7166371,-1.5195758,-0.80851036,3.7470767,-3.3422568,-6.2004623,-4.0645976,12.720363,6.5287957
0.92144513,-4.7397118,2.3252933,0.20443371,2.5913224,2.0123115,-7.627695,-4.7703323,-0.013058552,-0.17807505,3.9750617,-0.5212707
0.59116876,-3.985174,-0.6486137,-3.7084556,-2.0474887,-3.767648,-3.256738,6.0721025,-0.0023081566,-0.83723617,2.8077881,1.8873588
-0.03915076,-1.5131915,-3.2883728,-0.83722126,-5.1278186,-8.0325365,5.192439,10.494807,-0.10415605,-2.2944138,0.32174954,4.5729613
6.9442534,14.452997,-0.00025184045,-2.2120976,8.174044,-9.713798,-7.1383443,-7.66604,12.009581,10.991337,-17.262535,-7.7404532
-4.1944747,6.308602,-0.05521816,0.050898425,3.64828,1.0993407,0.27996486,-2.0691695,-1.8977704,-4.844199,-6.2731657,1.6346132
-3.2539485,-2.8368723,-7.09102,0.86488605,2.3009465,2.336587,-1.3545146,-2.676186,-0.43102035,-4.132891,5.7379107,2.5219665
1.5289737,-4.5933375,4.349076,0.23080881,2.1262863,-2.409746,-8.539302,-4.751914,6.5881624,3.2536948,5.810102,-7.3339186
0.23219892,-3.5176246,0.43975192,1.8634502,-0.47255033,4.779075,-4.311037,-1.8887172,-0.013546815,-0.29650941,3.6745758,-0.3176428
-0.17699707,-3.9123225,-0.06917383,-0.71777564,-0.05527419,-5.788455,-3.9235528,4.0437245,-0.012055336,-0.10901236,3.1722093,0.8107177
-0.054878026,-1.616025,-3.008951,-5.589425,-2.9976096,-6.4013395,-1.8281809,9.643856,0.0024279489,-1.6298581,1.1733972,3.7308147
8.776615,-0.27727342,-0.00036237744,13.088104,-6.749971,22.045326,25.71335,-1.9648342,-23.300215,8.98378,4.107822,-33.25052
-1.68413,10.6002,-0.00029882084,0.361141,4.630418,-0.04962503,-0.30100185,-3.128564,0.3134973,0.22687434,-9.852514,-0.8948861
-1.9571844,2.959303,-1.2816799,0.3105579,2.8678777,2.4563103,-0.3957138,-3.0267665,-0.7080863,-2.9404614,-3.1433573,1.1546512
1.4517554,-4.8970017,4.7286067,-0.97699195,5.4329777,6.643838,-2.6388845,-2.389683,-0.25656772,6.955884,8.295068,-15.722405
0.24722251,-4.5099416,0.6084915,0.56344634,1.34597,3.6062865,-4.2776847,0.5889386,-0.0069586877,-0.45264092,4.4660025,-0.25410268
-0.094357505,-2.8018365,-1.665263,-2.579161,-3.3413253,0.17431396,-3.4591799,5.0472474,0.024275295,-0.9207758,2.5655937,1.7550555
-0.027509008,-1.2763593,-3.7132812,-2.9524434,-6.4215736,-5.7742505,2.8231034,10.614165,0.00096523506,-2.1298113,0.52050084,4.7716208
8.073762,-1.3676374,-0.00044072338,14.030953,-0.16954517,33.20365,24.367962,-13.289204,-13.005391,16.181158,4.7181726,-33.91245
-1.549515,11.793527,-0.00019508039,0.50792044,3.8124208,0.76094174,0.42355484,-1.8775246,-1.48153,-1.384605,-13.97027,5.207983
-4.694416,-3.309801,-2.6271167,1.238395,2.324353,2.9461348,0.56867486,-4.507719,-0.54233056,-6.2849584,6.8256855,5.9487348
2.9321816,-5.83543,5.2136745,-1.8447262,7.8613825,-3.4041266,-6.63803,-4.033987,-0.08188671,0.8971307,5.4925323,-4.569625
0.37203243,-3.6630497,0.04197965,1.8912166,-0.100748144,4.588063,-1.7436322,-1.0487837,-0.022310406,-1.0902888,3.4371743,0.48979184
-0.19221812,-3.8099155,-0.8419792,-1.7865598,-3.871987,-3.1218512,-5.375891,5.7159257,0.00085854146,-0.29488772,3.6582983,0.98098135
-1.0859277,-0.98591435,-3.9341269,-2.842663,-5.828877,-11.121141,2.5468264,13.3575735,-1.1906465,-0.84368646,1.2929088,3.7761166
15.515156,1.426042,-0.0004192955,-1.0494994,8.460926,-7.6129475,19.411663,-16.314354,-0.26409832,9.601258,-8.189351,-4.476995
-4.787092,11.407927,-0.00013848566,0.19481146,3.410304,1.1293675,0.57296854,-1.6345226,-2.2197018,-3.34485,-12.017003,4.507752
-8.220704,-6.466659,-7.9911017,0.60865116,2.279293,2.485751,1.1079428,-7.2753882,10.73286,-5.2830377,7.680937,17.659464
0.621982,-5.1345477,2.5560663,0.06573438,2.2434516,2.7367759,-6.67449,-6.794644,-0.010021495,0.21611398,5.1397204,-1.9387426
0.0777468,-3.939566,-0.18644698,1.2936099,0.17319947,4.621754,-4.2532654,3.4499643,0.41021383,-0.31575054,3.7713218,0.60168284
-0.10298517,-2.5343502,-2.1565914,-5.8682394,-5.430408,-10.378894,-2.3272982,8.002073,0.000337678,-0.96744084,2.0389218,2.6024792
-2.7460086,-3.5785003,15.726236,3.6015697,-5.0817943,4.154279,13.874976,8.002499,-6.052933,-2.0308414,0.04302357,5.212205
5.476479,16.263872,-0.00033114245,-2.8423886,9.145864,-9.597409,-4.703934,-7.0465693,9.920416,9.417441,-15.712625,-12.510152
-4.47379,7.606406,-4.0105537e-05,0.52402663,3.7548895,1.2321471,0.14235626,-2.2457569,-1.6291243,-3.4482129,-7.27425,0.63556737
-1.9333758,-3.5098264,-2.1385126,0.6096858,2.0913196,2.7967932,-1.0739324,-2.918212,-0.75333226,-2.906627,3.6585836,3.0323782
0.6476789,-5.1502504,3.7834377,-0.8587284,0.6336646,-1.0149198,-7.801316,-5.785548,0.011344334,2.0514987,5.3971434,-4.644348
-0.33330607,-3.966853,0.34829512,-0.2453216,0.42713836,-4.8782167,-4.478175,2.1558616,0.0022373642,0.057908095,3.7028093,-0.13079096
0.45786804,-3.3380854,-0.92844325,-3.2438092,-5.708487,-4.2378044,-3.3686283,6.9246206,0.0006042136,-0.7743541,2.9589925,1.2424555
-0.56699175,-1.3235968,-3.8889666,-3.121555,-4.761632,-2.545234,3.006602,8.632669,0.0021151798,-1.7402947,0.68487924,4.5275536
13.541084,-0.46180898,-0.00040014822,-6.3116393,7.558899,-7.718191,25.459017,-16.52056,-8.608508,15.239499,-3.1969776,-6.2229276
-4.58381,10.056613,-9.577781e-05,0.45447713,3.0032368,1.7586826,0.13100101,-2.2351835,-1.5357183,-4.061853,-12.51365,3.6624403
-4.885474,-4.1410966,-1.9725305,0.94572926,1.7875513,3.123293,-0.7981281,-3.7820542,-0.005529627,-3.18275,7.0957646,6.077926
0.6673014,-5.102067,2.4297817,-0.26341003,2.7422438,2.2033536,-9.657341,-4.9192905,-0.018177656,0.7047064,5.2082663,-2.2341104
0.41747624,-3.4680138,-0.4810661,-0.87669635,-3.6763244,-2.174221,-2.7710006,5.947809,0.02341452,-0.6211495,2.7523992,1.1502249
0.03389668,-1.7929618,-3.2412155,-3.409532,-9.10107,-6.3906,3.9662406,11.386862,0.00013179891,-2.25232,0.3511126,4.7264304
4.459633,14.814407,-0.00030106236,0.13079834,4.878171,-1.4684532,-5.019581,-7.1453424,9.689104,8.558281,-15.326448,-13.230448
-4.2187357,10.197142,-5.5733128,0.5077909,3.869141,0.8668078,-0.56294847,-2.550988,-0.91683245,-5.0230017,-9.0400505,6.7721095
5.100048,-5.0161676,7.3464227,1.0625747,1.7845212,2.8190222,2.5624316,-8.917494,11.969633,-6.252207,13.298512,13.701606
0.41521686,-4.6016645,1.5489554,1.1998602,0.6418099,4.296483,-5.43224,-3.1175406,-0.0036968011,-0.059338644,4.1826315,0.016604155
-0.1894863,-3.6736438,-0.5465853,-2.9958298,-3.1354027,-9.369524,-3.934059,6.450423,7.249345e-05,-0.6276292,2.4559789,1.6025227
-0.046558008,-1.9568354,-2.7804508,-3.3944252,-4.009486,-5.3831425,1.1149993,10.328894,0.00028559822,-1.51088,1.1327554,3.8034241
10.616617,-1.8498188,-0.00037463702,12.007042,-5.7637095,20.630955,24.038698,-0.93755096,-18.729082,6.4788666,2.4520667,-29.720327
-2.8869162,9.574855,-0.00018746644,0.7303111,4.520119,-0.030509315,-0.12366797,-2.3504934,-1.413759,-2.9260898,-9.280025,0.68947345
-3.3748999,-0.11735121,-5.0603385,0.5595373,2.7353704,2.366539,-0.45708734,-2.6038196,-1.1558771,-3.0677357,-1.1272476,6.245609
2.0003629,-5.6086097,4.79845,-0.5484057,2.3663125,1.1521447,-6.8463874,-2.439705,-0.026129724,1.3687755,5.3840013,-5.0244074
-0.29048607,-3.9150374,0.060895145,0.4975023,0.9212783,3.339815,-4.0056877,1.8722866,-0.00418764,0.15868162,3.9374495,0.061557032
0.43874162,-2.905477,-1.5199387,-3.9337447,-3.797058,-8.296658,-3.9921196,7.804608,-0.00061172736,-1.1766545,2.3128428,2.2432086
-1.0730879,-1.2284123,-4.786628,-0.782052,-7.6002755,-6.476455,6.5281725,10.029195,-1.3836551,-1.740534,0.18807104,5.1085534
5.024589,12.8948145,-0.00031569018,1.569722,3.5508404,-0.3060918,-7.011859,-7.4563665,10.851539,10.713144,-16.72818,-9.121539
-4.531398,8.058394,-4.1636413e-05,0.012648871,3.5136282,1.0758691,0.3582501,-2.0978615,-1.8071682,-5.3549833,-8.549374,2.601733
-5.282426,-7.7984376,-2.2255378,0.5952171,2.1984098,2.5031555,-0.55784845,-4.79706,2.4489756,-4.327398,12.555065,6.4701896
0.2614465,-4.2267566,1.3277165,0.31814486,1.2310386,3.3191793,-8.427416,-2.623319,-0.7054572,0.22090024,4.3780265,-0.950892
-0.1876241,-3.1132612,-1.1818196,-2.6048641,-0.47860336,-13.559898,-4.645975,6.229681,-0.032997146,0.2199983,3.7161622,0.31863555
-1.1117908,-0.8712388,-4.457595,-4.587872,-6.0822515,-7.199643,1.6813444,11.405095,0.0030167256,-1.4365295,0.6368204,4.7647266
4.4260097,3.693692,0.0010261536,11.391862,-5.0794277,13.843218,20.963015,-1.9131352,-16.842403,6.5022635,2.5736215,-16.105396
-2.6366801,12.090212,-0.00025701895,0.4989113,4.11538,1.0218399,0.29387897,-2.5878463,-1.1103953,-2.994041,-8.919633,-0.6954283
-3.637445,-1.925473,-1.9413075,1.5666186,1.8682727,3.4581766,-0.2083466,-4.7102804,-0.6951719,-2.213894,5.5163016,4.7552032
1.3791233,-5.3110905,4.026236,0.36589977,1.6119852,3.4299996,-6.3964124,-7.211137,-0.0061519276,1.4694405,5.8415375,-3.9395523
-0.36626676,-4.4880996,0.4745155,-1.512447,0.77687263,-11.842234,-4.8975816,4.0876765,0.39504814,0.7168539,4.89729,-0.7432077
-0.34408408,-2.2944713,-2.3833766,-5.9414563,-6.4788823,-6.33144,-3.2932904,8.365648,0.0019222712,-1.3006468,1.5626539,3.1273537
-0.12774968,-2.2496688,-3.0328336,-0.06338465,-7.3329225,-5.1395674,5.5131626,9.003438,0.7226392,-2.3756807,0.067742676,5.3772407
5.947912,9.442116,-0.00037310476,0.050814137,5.990958,-3.1649852,-1.6748235,-3.482492,1.5590214,6.9996786,-11.163733,-10.786736
-6.3594184,10.795941,-3.2953875,0.49734998,3.3645961,1.5209672,0.057384744,-2.1669176,-1.3752186,-3.067233,-12.254442,12.932526
-2.9236355,-3.911874,-0.51794696,0.5914154,2.805568,2.5490983,-0.56861454,-2.6206021,-1.2128955,-3.4811797,10.066581,6.3186226
0.3016585,-4.919249,2.1930065,0.6968712,0.92160696,4.031676,-6.607591,-6.6479373,-0.005659312,0.23294953,5.1284537,-1.6704162
-0.08435589,-4.4173656,0.4227196,1.4158705,-0.5082767,3.3747098,-3.648703,2.767763,-0.016464332,-0.42186686,4.082728,0.58803403
0.0731874,-3.1503553,-1.4572297,-0.9101619,-1.2183896,-4.701727,-3.1007338,5.919718,-0.015298586,-0.7361724,3.0622804,1.3715953
-0.2516658,-1.9462026,-3.303217,-7.156589,-8.346129,-8.264943,-0.5358228,11.434484,0.0074305073,-1.7010922,1.2015612,3.935826
0.21883048,4.2471504,-2.5664256,6.353054,-6.614353,3.7187269,18.007647,5.8280277,-3.9404104,-2.6134696,-0.34706122,5.984165
2.359775,13.503323,-0.00035457907,1.0283849,4.310488,-0.43714452,-5.1755657,-7.3534064,9.593602,6.431971,-15.734399,-5.6399493
-3.0936804,8.618503,-4.421269e-05,-0.0023552366,3.7161841,1.1385795,0.6874564,-2.6294742,-1.6305326,-4.1450324,-13.416621,8.148681
-3.5450375,0.37980005,-7.991335,0.46015096,3.0044115,2.4366398,-0.4908948,-2.985274,-1.378736,-4.553319,3.0983884,2.0363097
0.3941731,-4.92218,5.7247224,-4.816532,-2.0282323,-1.7823092,0.19668505,-1.4683645,-0.73801476,8.034432,8.158259,-19.034204
0.63759214,-4.6889787,2.1654923,-0.24779326,3.179501,1.5658817,-7.7430925,-5.270229,-0.012183851,0.2558719,4.7118683,-1.5912485
-0.090821154,-3.8499234,-0.18029842,0.84310925,-0.87557423,3.8449945,-3.217971,2.430868,0.12955925,-0.5977614,3.3916602,0.7299867
0.10566082,-3.3386557,-1.2773072,-2.8224275,-2.8913374,-8.824819,-3.8308876,8.712365,0.0004086648,-0.5430341,2.8156276,1.838277
-0.121158816,-1.7690487,-3.13968,-4.0865493,-4.391127,-6.9443145,2.6635425,11.491993,0.0010531787,-1.3473786,1.1076399,4.167849
12.89986,-2.8499453,-0.00036603952,14.613829,-4.9945207,28.207159,25.925465,-4.6441703,-23.870985,9.048835,5.8332343,-36.99306
-4.439282,14.432421,-0.00017549348,-0.120932065,4.880741,-0.62005436,0.55066395,-2.5037503,-1.1305963,-2.1985724,-13.057918,2.661769
-1.6161554,0.054587148,-1.9274936,-0.3358273,3.8501337,1.1807939,-0.21477404,-2.8425379,-1.2306552,-3.3229551,-2.067812,2.8476362
2.5859303,-6.3095007,5.7649775,-0.9676707,-3.6573763,-2.8022332,-3.0705733,-4.4824204,3.1441133,1.3386617,5.661056,-5.742281
-0.64011383,-4.125364,0.07887051,0.04566222,0.78656137,-4.355884,-3.841746,2.2275996,0.0005516377,0.5955772,4.2855897,-0.2385497
0.8546245,-3.1166854,-1.5331138,-4.683512,-5.128753,-4.864266,-2.958102,8.316305,0.0016683153,-1.0546772,2.5398946,2.4239202
-0.7316474,-0.8182689,-4.2220187,2.1590297,-7.2069407,-2.9870636,9.9106,6.4191976,-1.0930452,-2.0786664,0.035543032,5.0514565
3.7013903,10.134612,-0.0003218666,-2.4957647,8.672252,-7.811678,-0.17843917,-3.1405692,0.4950434,7.9689097,-14.134695,-1.9657812
-2.9094865,8.706227,-0.00012416416,0.4307821,3.9685323,1.5089109,0.2657709,-2.4769902,-1.7584785,-3.6631546,-8.598899,0.33483064
-4.029086,-0.6106267,-7.818534,1.0842872,1.4863207,3.6030352,-0.77358246,-2.773264,-0.6876327,-3.379545,8.901711,9.617446
1.5347741,-4.813796,3.6694596,1.052937,4.0291934,-1.1320093,-9.604229,-6.788802,0.00078925304,1.0991518,4.98053,-3.6176047
-0.6477888,-3.893506,0.1513368,0.5203672,0.22147831,2.9168239,-4.989268,1.7217575,-0.0052790637,0.47590286,4.029488,-0.3347325
0.14742266,-3.3567252,-1.1332461,-5.200953,-5.3582854,-6.298047,-3.9252155,7.903184,0.00049972255,-0.34617287,3.0487607,1.3755395
0.58716357,-3.235499,6.417033,-3.270662,9.242132,-10.405415,11.782733,9.413208,-2.1757672,-3.867216,-1.3158766,2.9182649
4.949762,8.910359,-0.00030274846,0.7109707,0.25699145,0.3639732,1.3010993,-0.6146075,-0.88754547,10.573712,-19.979034,0.8665817
-2.8358376,6.678037,-8.649775,1.5927775,-1.0065832,3.0079842,3.6563835,-4.8886175,-8.2483425,-6.729557,-2.8489118,5.208294
4.854425,-3.291366,5.350299,-0.20390385,-0.7147001,-1.316011,-7.006707,-12.365401,34.8737,0.7786584,3.2950988,-5.332736
-0.10199127,-3.1761174,0.16283083,1.009079,0.8103803,3.8477979,-4.2075205,-1.3958132,-0.012150358,-0.075086355,4.0662374,0.37429246
-0.39734235,-3.3466554,-0.62421525,2.656771,-1.1870334,6.7122197,-3.0527573,4.742451,-0.0035345014,0.123669885,3.392757,1.2144442
-0.73901963,-1.3103614,-3.2858686,-8.11286,-7.294693,-11.8314905,-2.756075,10.482193,-0.0012618252,-1.0481772,1.4123285,3.109784
-3.0514987,-0.27166322,-4.9055567,3.7585917,-6.3519626,-0.008684045,13.251391,5.99058,-2.2825267,-0.77834636,0.1161273,4.604935
-1.3650666,12.417485,-0.00030653185,-0.1895222,6.1732044,-2.2423882,0.03754144,-3.234053,0.17647897,-0.14410341,-12.535127,-1.558105
-4.377752,6.0055795,-6.1856527,0.4953539,3.9062426,1.7864794,-0.3822615,-2.8521602,-1.3169827,-3.8398898,0.55671453,10.462032
2.3917518,-6.5687885,5.213389,0.48545352,2.590891,2.968582,-1.5453948,-9.071744,-0.010758724,-0.871776,5.677201,-1.8683517
-0.6154593,-4.4514937,0.757149,1.345877,-0.33526918,4.2978745,-4.927874,0.55061275,0.0034403559,0.11087412,4.61604,-0.042753458
0.0547427,-3.179784,-1.0907078,-2.0466871,0.1136443,-10.538289,-2.2913773,3.540076,-0.004421998,-0.79892313,2.6230083,2.0592313
0.5511473,-2.3326695,-2.8350406,-5.887226,-6.312791,-8.570699,0.13885807,11.443362,-0.00020325882,-1.89127,1.1122966,4.403018
12.566676,-0.86687213,-0.00044450117,17.76762,-0.52917767,35.1561,25.778187,-12.673522,-14.333959,14.822136,4.759225,-37.16781
-3.3629856,10.580395,-0.00028702215,0.3294818,5.1841063,-0.4212208,0.17040321,-2.970831,-0.49293858,-2.0694945,-11.348062,-0.47015035
-3.0460734,2.2762885,-1.5752327,-0.22843571,3.01852,2.173,0.083926395,-2.789609,-1.4331188,-3.380748,-1.4984187,3.2662108
2.3754907,-5.6692247,5.237812,-0.10496826,0.61889815,-0.20413288,-6.231858,-3.5338829,0.002003648,1.5285083,5.868732,-6.1073594
-0.38385734,-3.9269636,0.47811142,0.8410578,0.038795292,-2.9447873,-6.360986,-0.93690234,-0.5921577,0.17219435,3.8898678,-0.15043959
0.19549337,-3.3587215,-0.64004976,0.19916716,-2.7097285,2.85013,-2.6068187,4.2629385,0.022232432,-0.4533363,2.8029354,1.2594091
-0.34321237,-1.6608181,-3.124078,-7.4237523,-8.954005,-6.5323973,0.5818057,12.503292,-0.0026138974,-1.428872,1.0536382,3.7548153
10.528803,-3.8185632,-0.00043034286,15.754198,-1.1120298,31.086954,25.441095,-11.057889,-14.65673,14.498826,5.8786826,-37.21172
-0.9145724,11.292831,-0.00032398454,0.09556901,4.578839,-0.13042456,0.20181048,-2.6068683,-0.8866866,-0.46521625,-12.703142,-2.5210373
-4.238422,1.3033841,-1.4428988,0.2929954,2.5297272,2.7385938,0.3426185,-2.1481338,-1.923959,-4.478052,2.1171932,3.264639
8.423787,-7.1724954,12.806716,0.462622,6.447002,5.44557,2.083488,-4.3737736,-3.4098678,2.2044141,6.0904803,-8.117359
-0.67235726,-3.8781621,0.44802395,0.67089164,0.7657484,3.9477234,-4.5633483,-0.8613957,-0.0074123004,0.5630701,4.253037,-0.5746172
0.43995646,-3.1080801,-0.84606934,0.39005002,0.7678626,-8.186439,-1.9476024,3.661085,-0.010472344,-0.8037386,2.725482,1.4647198
-0.17362025,-1.8782914,-2.741497,-3.890533,-3.603947,-9.556329,-0.90203875,10.247097,0.0010855866,-0.9242699,1.5261424,3.2565238
7.555011,1.9729457,-0.0003994145,12.514188,-7.0757294,19.711721,24.899643,0.47681248,-21.207705,5.147312,-0.64121157,-17.437302
