ancorasir/BennettWheelLegRL/experiment_data/2023-12-27_22-47-53/joint_vel_env7.csv
Joint_1,Joint_2,Joint_3,Joint_4,Joint_5,Joint_6,Joint_7,Joint_8,Joint_9,Joint_10,Joint_11,Joint_12
0.0,0.0,0.0,0.0,0.0,0.0,0.0,0.0,0.0,0.0,0.0,0.0
4.013447,15.220533,-1.7559137,9.855383,-7.660708,22.962236,-6.4017286,-1.8541282,4.1608067,-5.4928246,-12.70972,-8.531162
-5.154099,-6.600231,-3.1324158,3.344295,1.9082443,0.45031673,3.3996413,-10.730893,1.1822487,0.11365623,4.456651,-8.22574
1.5843248,-3.2761717,0.6934539,1.4678799,1.8581302,2.0455782,-8.157162,-6.8649397,-0.010401543,-1.4298619,4.0061274,-0.72855175
0.42419875,-3.3259275,-0.6972687,1.3742588,1.318341,4.0530972,-3.519624,3.2888398,0.20046477,-0.573649,4.185889,0.9670539
-0.18535066,-1.6799332,-2.8953335,4.071578,-1.755202,6.981487,-6.362154,5.4370217,-0.025194854,-1.1391588,2.7687829,1.2954023
-1.767545,0.10924134,-5.8369794,-6.561675,-9.208001,-15.841108,2.0614612,12.805125,-0.003133133,-1.8138376,0.25870126,4.7261124
15.028813,-0.43112272,-0.00045783573,17.050144,1.4316813,31.949568,22.37811,-17.321466,-7.7793846,16.26973,-4.17198,-5.8580117
-4.078437,9.473691,-0.00015065269,0.31907207,4.049458,1.2142676,0.5395518,-2.6127367,-1.4905982,-4.1496444,-8.99543,1.6541234
-3.9699385,-0.14307153,-6.3596005,0.7118522,2.0204198,3.2601743,-0.5776064,-2.8596091,-0.967721,-2.6303556,4.123346,7.8865166
2.6430008,-6.0418825,5.621424,0.13377228,2.6753445,2.3660312,-2.7356727,-4.764922,-0.011949401,1.2753555,5.8800106,-4.7719173
0.31935656,-4.152756,0.80464596,2.1091857,-0.27685174,5.0576997,-3.2972612,-0.022048887,-0.005416088,-0.3475202,4.2852764,-0.13935536
-0.8049909,-3.0318131,-1.0897841,2.3006058,-1.5280621,5.868582,-4.2988515,2.5729873,0.0006136687,-0.106067896,2.9778955,0.94602627
-1.3418235,-0.8015308,-4.1107044,-4.595378,-7.5962424,-8.490633,2.6413136,10.82009,-0.018185198,-1.1323545,0.7317766,4.2045503
11.827608,3.0703926,-0.00042959733,-5.7113824,8.577758,-9.657112,23.159967,-15.168402,-5.3113174,14.062726,-9.910807,-7.7720523
-3.1855223,10.1796055,-0.00021762779,0.3974872,4.08125,0.76202166,0.06312212,-2.4158733,-1.3825822,-2.415817,-9.407075,0.21807617
-4.261942,-4.174527,-1.2498186,0.3095858,3.0902674,2.2042258,-0.7195371,-2.7436771,-1.2263231,-3.9479458,6.3425674,5.6412754
1.0902085,-4.454812,2.4744005,0.5826993,2.2745106,2.440205,-7.9830465,-7.570585,-0.014014276,0.112693295,4.86719,-2.1772013
-0.55320185,-3.6678045,-0.122488536,0.5209782,0.9764029,3.7810264,-6.322736,3.7907481,-0.013422426,0.2875573,4.2425237,-0.14011797
0.43058354,-2.9798255,-1.2877514,-3.708847,-6.181333,-4.097428,-2.980383,6.1363873,0.004470288,-0.99841666,2.2923822,2.2357156
-0.6147889,-0.8289281,-4.016592,-2.934774,-3.1071477,-3.0805478,1.3911844,9.050287,0.0028942989,-1.5545487,0.81039995,4.164842
13.2492075,3.6596463,-0.00042968907,-2.5815017,8.900792,-9.956381,19.604027,-16.8888,1.1765625,10.577494,-10.583733,-4.5924687
-3.6158304,11.866503,-0.00023046957,0.5274166,3.273004,0.96119076,0.63850546,-1.2643399,-2.4817858,-1.2658461,-8.934914,1.3184639
-6.40936,-3.5223153,-7.796426,1.5373284,2.3932257,2.4275663,0.6968314,-4.5373025,2.206021,-4.1039796,8.567255,13.159348
2.5216248,-5.4185357,4.7216573,-2.1221745,-2.3853214,-2.485747,-8.601521,-3.5514429,0.0006827578,1.011233,5.428429,-4.2770796
0.6866583,-3.665439,0.3156688,1.4864783,0.89520043,3.5672593,-3.2674148,-0.6130097,-0.01248946,-0.9526736,3.1104734,0.7352281
-0.35348564,-3.0305905,-1.5432199,-4.035619,-3.480713,-4.0573454,-4.303714,7.6948085,-0.003473663,-0.41626865,2.8082006,1.7969211
0.19738233,-2.0927827,-2.7557907,-3.4927917,-7.529292,-6.2634583,1.3800544,12.1351185,0.0008885596,-1.6604487,1.1763128,3.8606665
10.980032,-2.8594847,-0.00039414607,15.37297,-4.0130825,20.560703,20.027882,-4.3840957,-5.5170236,-0.30450267,-8.06807,14.921218
-1.4127537,15.087825,-0.00025155675,-0.8076264,5.936936,-2.6177893,0.6722764,-2.791912,-0.2758217,2.739536,-13.1457815,-2.334017
-3.6670291,6.4376874,-0.2878168,0.26151523,3.4774187,1.3993981,0.11785126,-2.44707,-1.7552154,-4.973057,-6.856957,2.538915
-2.2120233,-3.0091026,-1.5448041,0.66479844,2.885225,2.2440557,-1.1517264,-2.8328393,-1.1241993,-3.0572321,3.732598,2.223994
1.3603154,-4.508146,4.272122,-1.0393811,-0.573307,-1.6182257,-5.3158984,-0.6496217,-2.7445753,6.392125,7.8856273,-14.866644
0.34475574,-3.572165,0.60044235,0.7279411,1.5262477,2.8408623,-6.3754373,-4.3287387,-0.021215796,-0.4346128,3.620306,-0.23206022
-0.56461537,-3.533901,-0.74437416,0.100785956,1.2256145,3.4265046,-4.1085014,3.7894328,0.47711986,-0.17161362,3.4195342,0.7706406
0.12291153,-3.0123615,-1.564403,-4.6910644,-5.9298096,-5.118561,-3.8708858,8.09592,-0.00015288661,-0.7244284,2.536308,1.8677154
-0.17010784,-1.6596019,-3.5312362,-3.1658633,-7.4902406,-6.458667,3.492249,10.294037,-7.067458e-05,-1.792955,0.8321139,4.336107
10.856389,1.3577498,-0.0004729029,18.020807,-2.407614,37.059475,22.621878,-10.323337,-6.0170593,7.225713,-4.901739,3.3623426
-1.6891117,11.420416,-0.00026418746,0.5297604,4.4509916,-0.21590722,-0.5046842,-2.5053382,-0.30861235,-0.8119732,-11.42115,-0.5686472
-3.4897575,5.362023,-1.6844933e-05,0.54873854,2.7407804,1.9422556,-0.7545133,-2.5492394,-0.8429426,-4.63777,-9.3534155,4.090036
-6.7080636,-3.7998285,-9.616356,-0.38932437,-0.19910263,-4.1418433,1.0342314,-10.638331,21.51502,-6.406273,5.3526473,30.570278
0.14203444,-3.7221599,0.3791081,1.0069457,1.1911731,3.470455,-5.004694,-4.595695,-0.018222691,-0.27191663,4.000033,-0.4884681
-0.4391878,-3.6704068,-0.5776556,-0.8444143,-3.128999,1.1229331,-3.5238035,4.372708,0.60325575,0.03677153,3.7181556,0.2997839
0.6838786,-1.9694263,-2.833383,-2.7257414,-4.049117,-3.0835247,-1.1572702,7.583627,0.0007273946,-1.6002986,1.898765,3.233576
-1.5136951,-2.9976974,4.5820503,0.38729638,-4.125744,-5.078744,10.178489,9.545683,-4.183752,-1.6354024,0.6247243,4.6295657
1.7237666,10.168802,-0.00034528045,-0.42477262,6.4944153,-2.7719812,0.051311895,-2.9682596,-0.38968167,5.1643753,-13.709109,-4.64763
-3.0858774,6.8356786,-9.792474e-05,0.69200015,2.8775375,1.9061245,-0.26086977,-2.1820436,-1.6509264,-3.2838018,-7.8367314,1.2174054
-3.3863118,-4.0237384,-1.0810202,0.4522547,2.335005,2.8442318,-0.5751324,-2.831187,-0.68943375,-3.1801965,8.953292,5.912295
1.0380106,-4.716135,3.0447474,0.21059024,2.2243268,2.5798397,-8.695165,-7.7763476,-0.018196356,0.41063794,4.7507215,-2.098608
-0.14304256,-4.1620994,0.3311932,0.7157764,0.8075387,3.9750211,-4.3820043,3.376371,0.4031619,-0.45104542,3.376414,1.0615643
0.21503294,-3.6111326,-0.9196749,-5.00563,-3.8775604,-12.108156,-4.930277,7.8054605,-0.00089257245,-0.7051769,2.7525125,1.8520757
-0.34875154,-1.9440849,-3.3524783,-2.2458432,-5.011299,-5.2800746,3.3295379,9.170643,0.0017578215,-1.846942,0.77877265,4.548806
13.365059,7.406213,-0.00045933016,-4.300331,9.60001,-11.949842,22.179197,-15.817009,-1.6891208,12.693539,-6.224269,-25.187597
-3.3129654,13.585455,-0.00018561314,-0.12155443,4.3850274,0.011828918,0.5016836,-2.2906294,-0.98972595,-2.7378647,-11.727428,2.194958
-4.5574546,1.017899,-9.618497,0.98514766,2.6473596,2.3157969,-1.0235132,-2.4816866,-0.834351,-4.3673787,3.0047238,8.543736
3.1333888,-5.3978176,5.442572,-0.1129846,3.1927946,1.1206051,-5.3600807,-9.210786,18.164825,1.4549725,5.8041487,-6.474806
-0.33330292,-3.1986222,-0.969263,1.966857,-0.450506,5.1050043,-4.162214,4.5393724,0.008767795,-0.23752071,3.4180608,0.8517602
-0.5822544,-1.5973889,-3.3191643,-2.5775054,-6.6201696,-4.549133,3.2181582,9.575289,0.002558567,-1.0440338,1.2658683,3.6490324
5.64596,8.82075,-0.0004426341,0.377918,5.148513,-1.7570134,-2.6228576,-4.8265524,3.7454674,12.950237,-13.342023,-7.2731466
-1.3683285,11.5614605,-0.00013188442,0.2631516,3.7532904,1.2892953,0.28605056,-2.2962537,-1.4843599,-3.9188867,-11.996117,2.8833988
-2.8095107,-0.8098131,-2.1391194,0.6689852,1.6074286,3.5017815,-0.28422424,-2.3319302,-1.3498943,-4.1055803,1.1002625,2.8154757
1.6540008,-5.687789,4.9377685,-0.08419106,-2.3866997,-2.9265914,-7.956504,-2.1663563,0.0059077046,1.7895923,5.4655256,-4.611137
-0.47318903,-3.8733234,0.306634,-0.046897143,-0.32063678,-1.2395871,-7.844114,0.4405627,-0.56289405,0.36395243,4.1660333,-0.5630339
-0.06124105,-3.6105394,-0.93790764,-1.7606232,-2.7077413,-3.6513498,-3.2886324,6.2697077,-0.00010110508,-0.39386743,2.950197,1.4161621
-0.32512277,-1.5933332,-3.0344145,-3.1817791,-3.217553,-5.628912,-0.89213747,9.158374,0.0034242978,-0.9409758,1.5963147,3.1938882
10.934567,-3.7354553,-0.00035919,16.388847,-3.3145957,31.534737,27.734447,-8.687865,-24.427446,13.631998,6.3013196,-41.00406
-3.428451,13.282107,-0.00028196292,-0.7733354,4.4205046,-0.9332634,0.7771467,-2.2736685,-0.40624872,0.31561697,-11.181187,-0.028814593
-1.4372914,0.5474913,-1.4571512,0.5456313,3.0213504,2.0809796,-0.1134294,-2.2183685,-1.4680185,-2.921126,-2.3967907,1.7064968
2.7260053,-5.5470076,6.6084747,-4.37876,-3.0030127,-5.4631805,-2.1242464,-8.4518795,23.080284,7.3449316,8.421235,-16.72851
0.69057024,-4.1670218,1.5127409,0.9095115,1.5406259,3.3680422,-8.001169,-5.8914056,-0.0075752623,0.260659,5.0308976,-1.648366
-0.55878264,-3.4670172,-0.6136882,-0.69867194,0.42003,-9.515075,-3.8826761,5.127829,0.0036273915,-0.089450344,3.2168436,1.0501853
0.47096878,-2.545707,-2.0066793,-4.4043217,-3.7808433,-6.040384,-1.9148628,10.511184,0.0015455859,-1.2741245,1.8736154,3.1505427
8.861661,1.0215225,-0.00042158418,17.649601,-0.5799602,39.567635,24.063135,-11.659677,-6.9704576,7.810175,-4.8948355,1.9833666
-1.3838271,9.973338,-0.0002740021,0.5258809,3.4226696,1.3404125,0.09280522,-2.4182096,-1.0293411,-1.0122614,-9.5509,-1.3646423
-2.6272635,1.8974057,-1.4619414,0.44116354,2.1175475,3.1596823,0.29336187,-2.1759973,-1.9247457,-3.8810616,-3.0724654,2.6658022
1.2204984,-4.889642,4.6340356,-2.8465497,-6.282341,-5.7377377,-3.478121,1.9353418,-4.2513146,6.6956124,8.333411,-15.559136
-0.0031467862,-3.716066,0.03193711,0.71265304,1.9129711,2.7517602,-4.5267076,-2.2130334,-0.014700099,-0.84173185,3.0174768,1.2708153
-0.29808444,-3.0289404,-1.3401103,-1.7030902,-1.2738535,-8.561833,-4.625122,8.139254,0.00050395774,-0.3277158,2.4877768,2.0701532
-0.5792819,-1.3370686,-4.001473,-2.7345302,-5.7560325,-6.019715,4.644858,12.308983,0.0056704697,-2.308794,0.30822146,5.101528
8.170173,12.048436,-0.0003681198,-0.7425501,7.620994,-8.459046,-7.771763,-8.33339,12.785945,8.590137,-12.205403,-12.09507
-3.5840452,12.56566,-5.889179e-05,0.47829968,3.9243727,1.0035409,0.14408559,-2.4245114,-1.7130954,-5.3880377,-12.023138,1.570107
-4.962684,-5.2181144,-1.1410296,1.367412,2.312653,2.437647,-1.6417328,-4.3806324,0.60035366,-3.8873713,9.2474785,6.9428854
1.271501,-4.711442,3.4213192,-0.3991667,2.6401832,1.4775609,-9.4557705,-6.148766,-0.009306853,0.8144997,4.6704597,-3.0372818
0.35376215,-3.6672955,-0.053230718,1.8498641,0.08086416,4.5546603,-2.3316588,2.3816943,-1.1777719,-1.0804493,2.6805565,1.7451308
-0.02114024,-2.5059843,-1.8491169,-5.321302,-3.7361553,-12.403497,-4.038337,9.108457,0.00061763823,-0.9242173,1.8859888,2.4978473
-0.45141435,-3.209598,8.07649,2.561362,-8.245953,-1.070044,14.957945,11.815003,-6.8078766,-3.528208,-0.76934266,6.9915433
-2.7013607,11.900838,-0.00028952677,-0.18811992,4.2050357,-0.029186392,0.23322582,-3.0687685,0.6966835,1.5215738,-13.390063,-0.6742318
-3.5037532,6.203514,0.44566262,0.039860867,3.3149712,2.0331485,-0.027083896,-3.1588202,-0.75503826,-3.8772311,-6.44151,2.6448767
-5.4147177,-7.2896914,-0.4271859,1.0900315,-0.108730435,0.9439229,-1.0367922,-3.4500978,-0.051183507,-5.077315,11.26442,4.7864976
0.6460924,-4.4785743,1.713787,0.44084027,1.8771104,2.5997183,-5.4466076,-7.00145,-0.017030114,-0.5408797,3.875566,-0.58788407
-1.0337268,-3.5237947,-0.58746165,-0.6281951,-0.8816258,-2.2918346,-5.9298563,4.3367066,-0.388241,0.5179854,3.381666,0.66955686
-0.7731075,-2.079854,-2.6123042,-6.3210673,-6.447993,-6.188155,0.004104309,10.352831,0.003940969,-0.5169102,2.0361016,2.347653
-0.66234815,5.374396,2.9431257,9.024769,-2.7105985,4.844559,19.566029,0.48234975,-4.7895956,-2.1289642,0.29702026,4.9955873
-1.8697332,12.136332,-0.00015579138,0.08997781,4.423243,0.2467812,0.31775394,-2.1563764,-1.6833192,-2.2097006,-15.10425,8.742024
-4.6464114,-3.5057054,-0.6186431,0.7648717,1.5065765,3.1502206,-0.41054484,-2.0650585,-1.2137468,-2.9668846,8.170155,6.931336
0.8921228,-4.907302,3.1767406,-0.18608974,2.0171175,2.5672855,-7.377469,-6.1170816,-0.00827476,1.0901685,5.1283755,-3.0596874
-0.34321618,-3.733003,0.007519692,0.47722322,-0.6849997,-0.7192693,-4.701218,4.126691,-0.013639465,0.2622934,3.8038726,0.25011447
0.17307203,-3.1227283,-1.412483,-7.3133273,-7.3644166,-7.0559263,-3.6817443,10.463055,-0.0002641359,-1.2261093,1.9171461,2.4017825
-3.0367084,-1.8877625,20.617481,5.65866,-5.951456,2.7723112,14.568529,6.0208316,-7.4877186,-2.3406076,-0.13823633,5.4467826
0.63381547,10.693698,-0.00030847546,0.18934278,3.8872128,0.5734539,0.11339539,-2.66403,-0.7882511,-0.09294606,-11.650844,-3.1113155
-3.6130166,6.709426,0.0136269815,0.83293134,2.679462,2.4533777,-0.5811676,-2.5081,-1.0923595,-5.435691,-2.5709314,2.7472107
1.4256794,-5.017237,5.111898,-2.0437615,3.4529119,0.6465141,2.5991316,-4.1379128,-2.7261136,5.186159,7.0134754,-11.448017
0.38095924,-4.5281677,1.8117274,0.4024263,1.5814816,3.155758,-8.011229,-5.1779246,-0.007553283,0.46170315,4.712394,-1.4283311
-0.109019876,-3.413806,-0.40759218,0.35626376,-0.6790167,-0.7694659,-4.499963,5.5285816,0.6389671,0.15432946,3.6718104,0.22333075
0.022804052,-2.2315986,-2.3584485,-5.461788,-3.450918,-10.460248,-2.9072337,8.408062,0.006657281,-1.2292192,1.7486687,3.0711055
-0.24900217,-1.022702,-4.4214897,-1.0891385,-5.761484,-4.566187,5.995591,11.395841,0.004419413,-2.738294,-0.24654198,6.2543187
6.8461113,12.66021,-0.00036486395,-2.0379071,9.23619,-9.741645,-2.9064476,-5.2520676,4.442819,8.106817,-14.126892,-9.078634
-4.50701,7.556827,-0.13573185,0.32818815,3.795546,1.3542079,-0.18311876,-2.4584131,-1.3856887,-4.8387156,-7.010643,3.8848345
1.1374415,-5.654158,4.401277,-1.1392657,3.8412552,0.81975996,-5.7915907,-5.8257213,-0.010540321,1.6576843,5.5551476,-4.24505
-0.32542902,-4.1930985,0.22240576,0.96193945,0.20172797,4.618091,-3.908168,1.6820308,-0.008796277,-0.28344285,3.864003,0.55926025
-0.14839739,-2.7607417,-1.6696659,-5.188664,-5.991964,-5.6593237,-5.039033,8.838201,-0.00043454044,-0.3896367,2.803611,1.6819901
-0.99966747,-0.9555569,-4.1592035,0.02873208,-7.862814,-3.4099095,6.6888595,9.8282175,-0.55086946,-1.7911931,0.32869965,4.9104114
10.126453,4.4023895,-0.00039614813,-6.0640335,8.843366,-10.68618,25.590431,-14.228499,-13.71522,15.92782,-3.0918767,-32.189545
-4.0373816,13.496238,-0.00013938677,-0.14122444,4.866937,-0.45154685,0.46904242,-2.490976,-1.1508377,-2.82955,-11.475523,3.0066683
-2.7630417,1.5251578,-3.5852869,0.5763284,3.1308925,1.9857442,-0.5370087,-2.5604072,-1.2144983,-3.834297,-1.3151432,4.918306
7.044654,-7.168326,9.91042,1.8570483,-2.4910634,-1.9907051,-0.73749,-5.094034,-1.6415961,0.7331914,6.244352,-7.2235465
-0.111232795,-4.2565517,0.97522545,1.0454016,0.30307025,4.4152575,-3.3386018,-3.3195662,-0.0044619963,0.2617205,4.3542147,-0.7103825
-0.09320026,-3.4677427,-0.727743,-3.8454528,-2.1661427,-13.910411,-4.161285,6.406475,-0.0033182502,-0.12851197,3.4088485,0.7310905
0.43976867,-2.4805012,-2.4173543,-4.3934517,-3.9242315,-5.6588535,-1.4338869,9.375541,0.008173529,-1.2912687,1.7462935,3.3937507
-1.3523508,5.4025016,3.0787916,8.511139,-6.949873,5.007175,18.95932,-0.8031312,-3.6125233,-1.3545176,0.16200316,4.842208
-2.2811556,10.950863,-0.00026626454,0.46420524,4.776914,-0.55205995,-0.21468674,-2.583753,-0.81398445,-1.9867901,-9.316398,-0.010374328
-2.599757,-0.653582,-1.5616826,0.5386236,3.1726792,2.1699865,-0.10912621,-2.3226695,-1.5827843,-2.297932,1.5786327,2.6193175
1.7217225,-6.339119,4.8570576,-0.19619441,2.8766048,2.2438982,-4.331614,-4.8070607,-0.038687423,0.4415577,5.6929045,-3.4216099
-0.20261502,-4.0567436,0.10975563,1.6505831,-0.8739539,4.178787,-2.885089,1.5719621,-0.0138151925,-0.37158936,3.9015343,0.5950926
-0.5302969,-3.0295234,-1.4313601,-5.4404163,-2.390418,-10.928668,-4.925928,6.268769,-0.0020000937,-0.27448866,3.3375967,1.0754565
-0.3257284,-2.0589087,-3.142179,-3.959142,-7.1933403,-9.080305,2.481774,11.214102,0.002517905,-1.3290719,1.1656653,4.0804124
15.402002,8.417719,-0.00041537522,-0.13000986,8.504768,-8.922779,-8.781613,-3.8936255,5.4510336,10.901215,-13.646922,-5.3535757
-1.3328756,11.9581785,-0.00019754563,-0.0006378996,4.1712394,0.91578025,0.83520955,-2.4436595,-1.4519413,-2.7571256,-11.316245,-0.2492803
-2.3454843,1.8069214,-1.2163645,1.7385484,1.2497982,3.810617,-0.9687581,-2.378242,-1.4714712,-2.9331548,1.3300209,3.8234913
12.399553,-8.195873,15.079932,-1.1113261,-4.8632326,-3.8194015,-5.9179397,-2.9930356,-0.633354,1.78097,7.7058067,-13.051892
-0.05740922,-4.0467215,0.37605333,0.8229187,1.0037221,3.7596653,-6.3800755,-0.5898267,-2.4343858,-0.6313834,3.5749247,0.65233076
0.07462531,-3.8683364,-0.7499449,-2.2764668,-3.363166,-2.7466218,-3.1013129,8.303636,0.00063221855,-0.17334843,3.2046173,1.6659336
-0.38357544,-1.6417639,-3.6230662,-2.0753133,-5.4647155,-5.71923,3.4027452,8.528387,0.004006247,-1.8239539,0.6832569,4.7427173
10.235136,9.626236,-0.0004447092,-5.560393,10.053484,-13.357299,-1.0212142,-5.0892415,4.0089874,14.8077345,-10.640565,-18.301575
-3.8249342,8.596762,-0.000121631805,-0.2381039,4.141878,0.039487228,0.21530935,-2.4338324,-1.1289369,-4.0127378,-11.774162,1.3152953
-1.765802,-2.300656,-1.7572994,0.26970842,2.6313,2.3485572,-0.61836314,-2.733323,-0.8013262,-5.0519686,1.4526128,2.9299338
2.5055044,-5.4780045,4.964977,-0.7501011,0.8134431,1.4756502,-8.356932,-3.8292737,0.0065174364,3.5549488,7.520925,-11.2697
-0.53748983,-3.568114,-0.026389483,0.7817652,0.15933686,4.180393,-3.099356,0.135597,-0.013466947,-0.21204242,3.1009645,0.8177836
-0.1350494,-3.4566166,-0.6307392,-2.7723053,-0.446817,-12.096511,-4.6982117,6.559958,-0.00031053042,-0.15895647,2.9535568,1.0303417
-0.34623024,-2.130723,-2.8160849,-3.5350306,-4.1342254,-5.141828,-0.28348562,9.394055,0.0037996087,-1.1765767,1.4792799,3.3385031
-2.4010408,6.3789997,2.1082969,7.59189,-3.467343,3.7752888,17.430542,1.8274409,-3.5337677,-2.152467,0.30046368,4.6634927
-1.080186,11.447451,-0.00029765512,0.15441194,4.598767,-0.26974043,0.19277996,-2.5510616,-0.82000685,-0.7363416,-9.715733,-1.288128
-2.9238079,1.8354033,-6.534318,0.9773977,2.7138236,2.5070364,-0.7640778,-2.6738374,-0.9467988,-5.892546,1.5356491,4.157228
3.5202842,-5.680772,5.91848,-2.5043452,-5.3118587,-4.5504184,-3.7084327,-0.068328194,0.32709226,1.2034496,5.575199,-6.938514
0.22648907,-3.4682958,-0.010435432,1.4016852,0.518739,3.7664108,-2.0252402,-1.0768609,-0.0119094495,-1.073497,3.0288582,0.7062235
-0.022524139,-3.3673425,-1.1120607,-1.7992586,-2.986845,-1.7256192,-2.5930626,5.47837,0.0016187206,-0.44720584,2.7568574,1.949197
-0.47657403,-2.6217759,2.7990897,-0.47943965,-4.659634,-2.6167157,6.264466,10.98037,0.39569637,-2.17164,0.52143943,4.649388
8.556258,9.637672,-0.00042891526,0.94744235,4.5407205,-1.5876231,-2.4894924,-3.359536,2.3676198,13.711714,-13.790387,-9.227192
-3.9033349,7.566165,-0.57040894,0.26757097,3.031721,1.5976956,-0.39319566,-2.13168,-1.3331137,-6.3438716,-8.203905,3.3829718
7.1697626,-6.7081966,12.687801,-2.0013738,-3.1073508,-2.9435177,4.158452,-3.9432287,-8.54339,-4.504287,11.655287,2.7191567
0.12012187,-3.3675213,0.098880544,1.1936938,0.65493065,3.6865377,-4.9931355,-3.0102978,-0.018114805,-0.47391167,3.8830051,-0.17078292
-0.21407282,-3.2362857,-0.9386859,-1.1232197,-1.7122506,-9.27146,-4.609757,5.853397,-0.006360843,-0.19978909,2.9866774,1.360645
-0.652635,-1.3712864,-3.441985,-5.960239,-6.325993,-13.103891,0.3288841,13.070358,-0.0022503585,-0.8357257,1.6326907,3.238611
14.319313,8.242177,-0.0004424064,3.2636476,4.4261556,-1.107909,-8.358269,-5.941678,9.109688,9.314748,-9.472821,-21.461946
-3.476916,11.165783,-8.110805e-05,0.45692834,2.5766196,2.3712895,0.24225539,-2.1502016,-1.6622738,-5.5926003,-9.926252,2.878787
-4.967546,-5.4229093,-5.2280016,0.9766951,2.8378375,-1.4358592,0.70144546,-5.1328006,6.216879,-4.182174,7.1727643,12.151933
0.4754295,-4.7979145,2.704343,-0.2743407,2.442376,2.3351235,-6.9313717,-5.382074,-0.013533348,1.3297561,5.454492,-3.278724
-0.2551348,-4.1788664,0.025737913,0.69478315,-0.9419873,1.9747186,-2.0618238,2.6782417,-0.25374714,-0.06677021,4.2296143,-0.119754665
0.677507,-3.1720896,-1.5338567,-5.151345,-4.7711606,-9.159467,-2.4137993,8.626468,-0.00015546207,-1.2902243,2.1490197,2.847017
-2.4110718,-4.3151593,10.967992,0.39478528,-9.018412,-1.0021251,9.235295,9.451043,-1.9370117,-2.30401,-0.4022746,5.8882627
1.092186,12.831158,-0.00038601813,0.9091978,4.519311,-0.98646504,-0.97837114,-2.9260542,0.7243538,4.110672,-14.198762,-4.18049
-4.2478075,4.1186604,-0.6727157,0.06830537,3.296695,1.3716859,0.046760485,-2.4067812,-1.3251861,-2.8722723,-5.591098,3.8496327
-9.638431,-7.1084538,-10.070811,-0.12082076,2.8354719,1.8244026,0.9687979,-10.116806,16.537079,-7.7732244,8.350271,22.07223
0.08674331,-3.7054653,0.86310315,1.3275771,0.16838303,4.2056036,-6.217168,-4.4724245,-0.012011299,-0.30127576,4.043203,-0.5378667
0.31977972,-3.8776765,-0.22864273,2.7355025,-0.45026243,5.7041874,-4.8979807,3.069078,-0.0017226846,-0.67482835,3.38332,1.1645684
-0.041402925,-2.1874013,-2.2471848,-5.5568433,-5.1626973,-6.508617,-2.478459,9.288189,-0.00025697693,-1.0466553,1.7998103,2.7081282
2.906429,-6.3178334,-5.729445,5.321648,-4.2284336,1.0186632,13.400555,4.4608393,-1.9571285,-2.4854655,-0.13487299,5.38802
-2.6636167,12.624584,-0.00018421127,0.6094158,5.172024,-0.43760747,-0.2863645,-2.787802,-0.12108912,-1.1347212,-11.358577,3.6376748
-4.371746,2.483126,-9.728447,0.8698471,2.650341,2.9113207,-0.2774994,-2.558343,-1.08198,-3.714361,2.5754008,12.036182
1.4329762,-5.6269217,3.7356806,0.6742878,1.8681431,3.2918477,-7.048429,-6.213993,-0.007351406,-0.007846454,5.4856124,-2.3029633
-0.43983275,-4.8494196,1.0632855,-0.021005481,0.13430429,0.33273482,-5.626244,0.91462594,-0.009635428,0.33179325,4.7302947,-0.28584886
0.005588807,-3.2835834,-1.275025,-6.8461328,-6.5625725,-1.8268907,-5.7261567,4.452154,-0.0035535581,-0.8857333,2.5492609,1.9553428
-0.2976658,-1.4758552,-3.7022207,-2.174343,-7.7761755,-5.672819,5.4681163,12.183849,0.8339652,-1.8870134,0.36325395,5.0730605
4.7330704,14.65702,-0.00030797016,-0.79701734,5.77797,-2.0397956,-3.7841702,-7.184167,9.006516,9.797871,-15.045343,-13.183264
-3.9231796,8.482346,-1.1276258,0.4123638,3.6248753,1.4647088,-0.051556207,-2.3271494,-1.9573197,-6.460624,-8.529357,4.4169707
-9.359645,-9.124703,-1.7485839,0.27505237,3.134193,1.7766683,4.0882325,-4.5475864,-2.1789181,-3.479571,12.009745,6.5636225
0.3929545,-4.03215,2.0284328,0.49081525,1.1757041,2.8876843,-6.6768765,-5.605521,-0.009757194,0.64217746,4.0715675,-1.7617517
-0.74169236,-4.1105824,0.107849196,-0.7439447,1.6502726,-9.341978,-5.0837884,3.7733269,0.0023212433,0.6709068,3.915625,0.16345334
0.14816813,-3.1831033,-1.4841604,-4.620459,-0.6168867,-18.248466,-2.9387264,8.597328,0.0020825132,-0.49788812,2.6394892,2.1124792
-0.85745454,-1.7129887,-3.6557932,0.16618916,-6.1923523,-3.6626637,8.719528,9.457657,0.6985706,-2.4555004,-0.039607167,5.792464
0.9347453,12.466753,-0.0003746504,-0.15782794,6.2228765,-3.0246756,-0.45683235,-3.18279,0.6774918,4.887905,-12.082871,-6.282326
-5.2434006,10.82108,-8.619494e-05,0.123675525,4.1676836,0.43425387,0.28138125,-2.3769665,-1.3727508,-3.405561,-9.3667145,2.032244
-2.7244103,1.1907151,-5.892277,0.7603486,2.8145335,2.247799,-0.024847478,-3.8159418,0.30871165,-3.3901215,4.3181934,9.297537
8.7349,-7.4541626,12.31094,-2.8291001,-1.0528625,-1.660732,-1.3884944,-2.1558065,0.17893499,0.1986834,5.41644,-4.663483
0.90114844,-4.4707623,1.6012223,1.1982907,1.588434,3.451638,-7.930761,-4.962471,-0.01623931,-0.57804215,4.3954973,-0.3294171
-0.23429884,-4.0145564,-0.1573833,-0.3086292,-1.882715,0.82981664,-6.430586,5.139362,0.026921548,-0.11906742,3.5665717,0.8598209
0.28996873,-3.1985435,-1.4260042,-3.9599667,-2.3605025,-12.099587,-3.020326,8.805894,1.7500823,-0.7401045,2.6835675,2.076026
-1.5536332,-1.7402736,-3.625194,-2.8280184,-8.568002,-6.009043,5.4735937,10.764046,0.7503103,-1.8245424,0.29969233,4.80844
13.554897,5.628448,-0.00043077779,15.847839,4.8907156,26.168962,22.444872,-14.288481,-3.5209785,10.838302,-9.372847,-5.1632404
-3.6570055,13.319898,-0.00016884223,0.21654989,4.632893,-0.40682673,-0.09360271,-2.6998825,-0.7318074,-2.0270624,-12.236564,1.0915879
-3.4854555,2.2740805,-1.4583358,0.6767046,3.3005614,1.9519279,-0.40933266,-2.55534,-1.5042441,-4.6545687,-3.0732896,3.3162508
5.2541885,-6.2695756,8.410307,0.6455958,4.0658402,3.8974466,-1.1248266,-11.549109,23.720108,6.2088733,8.303661,-15.918791
0.14726457,-5.1578074,2.6179254,0.997352,1.7663875,1.7147704,-11.110401,-4.7475266,0.015661296,0.6156261,4.8990083,-1.7302501
-0.26967472,-3.8605704,-0.22488531,-0.6238672,-0.08853313,0.46775213,-3.4144216,2.1987708,-0.45690238,-0.008133784,4.0292287,-0.033629388
-0.07579768,-2.8578792,-1.8770797,-6.8076725,-4.2905045,-7.200897,-3.27244,10.330083,0.005913254,-0.7823261,2.3680928,2.3162012
-0.2215139,-1.1643455,-4.092224,-0.30305716,-5.8851967,-3.929888,5.295881,9.249783,-0.0020360718,-2.4836736,0.121041685,5.385787
1.8067127,16.071714,-0.0002846663,-3.1753283,7.3548317,-4.476916,1.8704412,-4.1155415,1.1260188,9.552421,-14.400654,-9.314946
-1.590206,-0.24420518,-1.5725039,0.21554703,3.7772193,1.2708538,-0.45701143,-2.525423,-1.464299,-3.749134,-2.3763025,-0.11628068
0.105840564,-4.2585196,4.1331477,-4.3220344,5.966812,4.4388943,5.349113,-2.927746,-4.273414,6.7756343,10.3861,-20.529161
0.4105716,-3.975627,0.9353507,1.5493996,-0.17267479,4.510551,-3.9848475,-2.058181,-0.055041626,-0.03056096,4.459156,-1.2969489
-0.25116336,-3.32268,-0.7843188,-2.0095956,3.636586,-21.757078,-4.1520066,6.4110622,0.0006284041,-0.038678784,3.4413466,0.88034606
0.20646387,-2.3140218,-2.6663814,-3.068463,-5.0190263,-5.8576617,-2.4004211,7.6683483,0.012694811,-1.5840528,1.2259338,3.9495747
-2.2112522,-2.636191,24.60958,5.9592743,-5.9398274,6.9061856,15.508502,7.2673078,-7.9306307,-3.0476804,-0.47524852,6.002598
-0.0834808,13.27619,-0.00026076188,-0.28045216,5.1820965,-1.6788287,0.88294446,-2.273277,-0.81082565,5.5877204,-13.662246,2.2675617
-4.6196547,6.730784,-1.1944195,-0.508124,3.482969,1.0263253,0.5700302,-2.3767207,-1.4812505,-4.7883396,-8.437699,4.6326513
-4.582966,-7.27642,-1.0272166,0.8480884,1.2816975,3.131081,-0.40039414,-4.719114,0.38171577,-4.402765,11.716773,6.1288676
1.3929472,0.95987046,1.8311925,-1.2919109,0.002788812,-1.5086136,-0.9698282,-0.36812863,2.4403603,-0.95333976,6.1131554,-5.1506515
0.077896774,-1.1689932,2.1855338,-0.6316306,-0.7649874,1.1739428,0.27593428,-1.146165,0.45871547,-0.8214013,1.886938,-2.902386
2.7714317,-2.793499,-5.175222,0.51349956,-0.99344116,3.2192123,1.1032059,-0.09295714,-2.058404,1.190162,-8.67518,-0.3855042
1.3920653,-2.8253558,2.9692883,0.7731446,1.517682,-7.198587,-3.9223778,-3.1728663,11.656948,-3.0513093,6.813781,18.975931
-0.35134232,-3.8132937,0.93758976,1.9326053,-0.6130137,5.3698483,-3.9595566,-1.8879387,-0.005088652,0.06046828,4.4280267,-0.25011423
-0.42895523,-3.2722213,-0.8464839,2.9604485,-0.5029153,5.9245586,-6.6653585,4.1763973,-0.065918535,-0.01989089,3.4659529,1.3063408
-0.10347882,-2.3884652,-2.546702,-3.32133,-4.9949393,-13.114061,-2.2845979,8.499537,0.0009482566,-1.1759236,1.1653745,4.1521764
-0.8440261,-0.9812883,-4.2728195,2.5814989,-7.9129066,0.0014356745,10.470379,10.213206,-0.18112235,-2.212227,-0.24102238,5.7072105
-0.16628164,13.588895,-0.00028575474,-0.47686374,6.0361776,-1.8633579,0.9502453,-2.2988899,-1.8261383,1.0571623,-13.1783905,-1.6253492
-3.2601805,2.7508657,-4.4957495,0.56380504,3.143875,2.024485,-0.3140119,-2.3557382,-1.4156909,-2.9262755,-3.8373759,3.4188747
3.9019606,-5.8529916,6.40832,0.57551044,-3.706364,-3.3602383,-3.2510943,-9.67208,24.428247,4.1735287,7.675951,-13.008227
0.31998882,-3.9423106,0.7756419,1.3983669,0.7978187,3.9961495,-4.560816,-4.284711,0.010075276,-0.35229173,4.021228,-0.19587892
0.2455989,-3.884523,-0.5698287,-0.27765453,2.100194,2.0034604,-3.754741,5.5307364,-0.007442504,-0.4941638,3.2853692,1.3137934
0.067438826,-1.9933408,-2.9957888,-2.915534,-6.8931217,-6.908489,1.2772522,11.576579,-0.0006859796,-1.721636,0.9414437,4.275264
10.826822,5.507097,-0.00040830043,-5.74241,8.809687,-9.523288,25.94347,-12.864331,-18.008116,15.202985,-2.065147,-32.22131
-2.3738518,11.750843,-0.0002103246,-0.06867098,4.4918566,0.568185,0.4177041,-2.7511706,-0.7887478,-3.033703,-10.17452,-0.014072498
-2.627879,-1.1820701,-1.3927841,0.3575098,2.742996,2.6734788,-0.6363533,-3.0365527,-0.7295129,-3.3689513,2.623523,3.5458317
1.4694467,-5.400359,3.7337651,0.058223143,2.775909,2.157597,-6.029026,-6.926319,-0.012179401,0.8182416,5.4913635,-3.5496101
-0.32743317,-4.3303294,0.40013656,-1.5321236,-0.94218445,-3.5103607,-7.210526,1.5039988,-0.0018858989,0.07132742,4.286409,-0.13107829
0.27543545,-3.3169997,-1.215947,-1.7434999,-4.6890855,-2.8144991,-1.8364125,5.190073,0.006531333,-0.56981754,2.7700639,1.9431118
-0.50497925,-1.2501446,-3.6072996,-3.983409,-5.734953,-6.162951,3.2340295,11.614614,0.44062635,-1.463895,0.62472695,4.596964
12.016927,1.7898753,-0.00047075038,14.613667,0.5272981,29.334452,24.314632,-10.366536,-17.501139,11.16906,3.178629,-35.466534
-2.8653996,11.441732,-0.00026246335,0.546634,3.8119414,0.639942,0.36248243,-1.7836646,-1.6186415,-1.6249154,-11.11074,-0.2186325
-3.5168753,-1.8808067,-1.5308918,1.0151666,2.533259,2.5085857,-0.915,-2.5439072,-0.79070026,-3.3032413,5.0356383,6.2414193
1.8481143,-5.787646,4.938172,-0.95797306,1.1702071,-1.3153013,-5.82301,-4.380101,-0.0026723435,1.4707842,5.645061,-4.409374
-0.31633052,-4.1464787,0.4022216,1.0679383,0.506966,4.507946,-3.7200646,0.5023617,0.0013536569,-0.02192437,3.7513642,0.80170256
1.0109185,-3.7972631,-0.7927774,-3.2906318,-5.2118144,-5.3145537,-2.6602829,6.294844,-0.0004445077,-1.2528876,2.5783417,2.136816
-1.341887,-0.8859477,-4.246154,-1.542008,-6.2074885,-6.117561,6.853535,11.944338,-0.56688553,-1.5485879,0.31909418,4.813119
4.557764,11.55029,-0.00037068035,0.6554729,5.739287,-2.7631354,-2.3362827,-3.885012,2.057088,5.1247797,-14.159906,-7.3376236
