ancorasir/BennettWheelLegRL/experiment_data/2023-12-27_22-47-53/joint_vel_env45.csv
Joint_1,Joint_2,Joint_3,Joint_4,Joint_5,Joint_6,Joint_7,Joint_8,Joint_9,Joint_10,Joint_11,Joint_12
0.0,0.0,0.0,0.0,0.0,0.0,0.0,0.0,0.0,0.0,0.0,0.0
-6.6764426,6.096503,8.44105,-9.151028,9.241278,-16.330648,-0.31282145,-0.10880336,1.3897126,2.0546913,-0.67235345,-14.200483
8.020971,0.2967816,0.5483645,0.46498793,0.73835623,-0.41990656,0.03626302,0.64582473,-1.2901516,4.1732817,1.632965,1.5797067
1.7884747,1.8652627,-5.3149808e-05,1.0959278,1.2498243,1.5093901,-1.3527799,-0.96603835,-0.15128565,-0.78844494,-0.44750974,-4.0212502
-1.2099274,1.2849671,-0.5122463,1.9888988,0.51733863,3.196414,-1.2282752,-1.8786097,-0.7377635,0.53749204,2.065586,2.6330445
3.367382,-6.113614,5.326731,0.9009697,1.7389133,3.078599,2.2953901,-6.3371854,0.13626207,-0.88046485,5.6086755,-4.040521
0.57757246,-5.0201735,1.5787197,2.81151,-0.404319,6.5186796,-5.9367547,-1.1655197,-0.37480646,-0.6134726,5.2330794,-0.05720046
-0.21373601,-2.6923175,-1.5767092,5.1861906,-3.1782486,7.9234548,-6.679181,3.1829062,0.002825953,-0.8376949,3.3974698,0.87599427
-0.25076452,-1.5473485,-3.6603312,-6.0111585,-6.2301707,-6.79069,-0.7317447,10.227613,0.0146682,-2.1862853,0.37328178,4.8598275
2.3890555,-5.6987166,33.610405,9.9186325,-6.5185137,15.438893,18.289576,0.22669998,-13.661184,1.7856723,-1.3292983,-2.3346555
1.8837776,10.818776,-0.0004099448,0.98938537,4.0538387,0.6082416,-0.41553587,-2.2876725,-1.3478514,2.1047978,-10.699604,-5.6779084
-5.7904935,6.138447,-5.8815336,0.6459371,2.39097,2.9825578,0.2600183,-1.9114022,-2.3048003,-4.866312,-4.1693854,8.729975
5.045265,-7.1954336,8.245366,0.16020444,3.2920747,2.3324819,-4.416469,-3.3895466,-2.060368,0.49301466,6.562662,-6.238382
-0.37556908,-4.3858175,0.49107963,1.964722,-0.6298536,5.812675,-3.8901818,2.0825846,0.0034262259,0.06804167,4.5967574,-0.41384402
0.13069817,-2.4610932,-1.6995981,-3.7793589,0.38877043,-16.967064,-2.8721406,5.040745,0.00015335204,-1.0456498,2.1036763,2.2234285
-0.22583956,-1.2198297,-3.577884,-3.5827568,-6.2243094,-6.3939214,0.7665331,10.078521,0.0032895366,-1.6717422,0.8742991,4.108315
12.639157,-0.6915028,-0.00037566962,-4.7994394,8.300522,-8.330688,23.854925,-17.90475,-6.4315476,15.648494,-6.99552,0.36730105
-2.4145687,13.014193,-0.00019992504,-0.5582179,4.4387145,0.29665312,0.7158282,-2.478128,-1.1037291,-2.5481133,-12.576506,1.5101378
-4.8858786,-0.31369084,-9.8698845,0.62437916,2.365365,2.7874715,-0.3993319,-2.3693886,-1.346522,-5.453588,1.5713995,3.6867871
2.1765485,-5.6264195,4.4990516,1.6324766,3.013898,-1.2414036,-8.921812,-3.9688365,0.010945534,0.5556481,5.0185018,-3.675359
-0.13826981,-3.7322273,-0.15413973,1.63279,-0.047868013,4.7455535,-2.646847,-0.68455446,-0.014518944,-0.44627634,3.5484066,0.58521646
0.2806351,-2.9913235,-1.6303753,-2.8044353,-2.2606869,-4.4843884,-3.0065289,7.660884,0.000647251,-0.74016017,2.6210456,2.2667525
-0.49497163,-1.6054046,-3.464059,-2.042415,-5.164267,-4.31864,3.2042947,9.059229,-0.0016947584,-1.5335307,1.0656098,3.8446712
8.734473,4.522417,-0.00041401212,-6.439658,8.522131,-9.323223,26.291187,-16.867908,-4.4352746,17.342653,1.015396,-35.100044
-1.7136997,12.968676,-0.00020385688,0.869732,3.725752,0.7006777,-0.1671646,-2.224275,-0.9271006,-0.44816998,-12.563882,0.0068150465
-4.813297,1.0876862,-1.761728,1.5938054,1.6603577,3.2193046,-1.4222122,-2.3996027,-0.7645194,-3.743541,1.9268115,6.4966154
2.9673998,-5.5951576,5.7133183,1.1545546,5.773223,5.9397435,-5.704674,-4.783242,0.0627396,1.8687022,5.840682,-6.5868335
0.5660583,-4.6307974,1.5502148,0.86328685,1.1165564,3.6853437,-7.5318794,-2.9535964,-0.0050133523,-0.29783845,4.4228053,-0.6129243
0.81157,-3.9011347,0.09081326,2.660249,-0.42030677,5.226076,-3.3959794,5.348523,0.0077507626,-0.77023786,3.5953035,0.33748072
0.53658944,-3.1964824,-1.4251357,-6.0597687,-6.1799335,-5.1502724,-4.4564795,5.4320526,0.0049989265,-1.3126649,2.3580792,2.0351126
-0.57712847,-1.3375462,-3.7498813,-4.586882,-12.608887,-8.156861,5.3900037,12.864119,0.63344854,-1.7108582,0.7502382,4.139417
10.82065,4.0002923,-0.00039823644,15.012908,2.8742828,29.174894,25.36326,-13.772837,-7.1773477,14.198016,-9.174314,-2.6685927
-2.425929,11.011522,-0.00018224292,0.5580596,4.221508,0.05862167,-0.12693664,-2.4952686,-0.76372993,-1.9345734,-14.032318,1.7651376
-4.1455083,3.3365862,-1.7677749,0.5207412,2.9546356,2.0638127,-0.28758052,-2.7143118,-1.1451328,-5.298008,-3.5905194,3.6584775
-6.731024,-8.47384,-1.5447409,0.28542143,2.1035972,2.8436654,0.57801807,-4.529246,0.7251425,-4.6854076,11.986772,6.976927
1.5160135,-5.242529,3.83462,-0.44983897,2.912498,1.3764008,-11.153803,-5.2416325,-0.012355632,0.58209634,4.7174034,-2.937552
-0.36333966,-3.929723,0.40082452,0.13985437,1.1230794,4.7818336,-4.535597,0.2968315,0.07344821,0.42899674,3.7864268,-0.1379875
0.04940359,-3.3673189,-0.9306522,-2.7594595,-5.9997926,-2.8161342,-4.6420407,6.732001,-0.0004898412,-0.32189184,3.1272426,1.0561783
-0.0952853,-1.6224959,-3.3461607,-5.1119633,-5.56961,-8.547359,1.0439401,10.959696,-0.003399211,-1.6362517,1.1616919,3.9622808
1.5458176,-0.75471973,13.093659,7.633402,-6.5035396,7.466818,18.220175,5.007194,-12.12943,-2.289597,0.23294193,4.7762356
-0.5577919,12.684899,-0.00026633724,0.6437965,4.529177,-0.13640466,0.22449541,-2.3214557,-1.0887387,3.325772,-13.5520935,1.9193867
-2.9019146,1.6875088,-1.4375716,0.80346835,2.5327084,2.6186502,-0.70071274,-2.6295364,-1.0457091,-2.6948478,-1.010931,1.762885
6.912884,-6.371005,12.884497,-3.0311713,6.31924,-1.4731128,3.2227085,-1.5301265,-6.171919,8.677449,8.139855,-16.784653
0.4320872,-4.5764303,1.2605635,0.99331045,0.6712854,4.128679,-5.5803547,-4.667571,-0.0100718215,-0.29138905,4.220663,-0.4613008
-0.8829349,-3.4149165,-0.6608384,-0.8551166,-0.13969141,-7.714754,-4.1279383,3.7188513,-0.0013806536,0.48148686,3.67157,0.15762575
-0.21630272,-2.304295,-2.751248,-5.5669703,-5.525307,-9.745642,-1.7672242,10.039194,0.007108234,-0.953733,2.0550206,2.8997183
-0.5022435,-1.1191245,-4.3523107,1.6790361,-6.333259,-0.009760648,11.610671,8.046984,-1.5194273,-2.348183,0.1049273,5.509478
0.09804231,11.715848,-0.00034448213,0.18441123,6.3701816,-1.7996646,0.22257902,-2.7581475,-1.2830669,-1.6343164,-11.649582,-3.8557744
-3.1648622,5.320062,-3.4513738,0.97818166,2.6082017,2.7670557,-0.33200446,-2.2107067,-1.7556827,-3.3687196,-5.511048,3.5690606
11.351074,-7.1130238,14.15708,-1.334191,-2.9099276,-2.5737724,-4.7484355,-2.9696805,-2.8483288,3.01135,7.942613,-13.763651
0.9349106,-4.372974,1.5534906,0.632301,2.4265795,2.4987776,-4.595298,-6.1213107,-0.020096507,-0.65379333,3.9980893,-0.028636068
-0.7686935,-3.376494,-0.57187814,-1.4366384,4.199114,3.3215182,-4.562931,4.8460517,0.0069023306,0.49180877,3.4296234,0.7922085
0.063658886,-2.6121523,-2.2541568,-5.1216483,-2.5410123,-8.287822,-2.141783,10.598703,0.0023950578,-0.9144262,2.097687,2.8594303
-2.968783,-4.011576,8.603222,1.1481774,-8.90194,-2.9459155,9.983142,10.486493,-2.9731586,-2.5175133,-0.3106373,5.6749277
6.219175,12.961569,-0.00035551813,1.6709377,3.7104712,-0.08461326,-2.558681,-3.682809,2.3444564,7.7151318,-15.803927,-7.0178885
-6.0319476,8.059699,-4.1680796e-05,0.57458794,3.7275436,1.2121007,-0.593554,-2.6867094,-0.9539275,-5.6271167,-8.23396,4.0927277
1.5143625,-5.8392386,4.486865,-0.6764936,3.9387124,0.861325,-7.752592,-4.915128,0.019270312,1.0968323,5.728729,-3.9627702
0.17628798,-3.7574463,-0.20897835,2.4856684,2.912026,8.636879,-5.797643,4.4872212,0.030812468,-0.3819065,3.4656737,0.8373135
-0.23124033,-2.4277658,-2.1454594,-3.710611,-3.6574492,-4.6592455,0.383845,9.041452,0.00041338126,-0.43983728,2.0420022,2.7409112
1.1598095,-8.2672825,28.909168,3.2729325,-5.3460546,15.405673,14.466735,8.052277,-17.688303,-2.5028477,0.040572524,4.8495674
2.0468569,10.005045,-0.0003932335,-0.13760954,4.644305,-0.9842104,-0.051332504,-2.5965915,-0.2582164,3.5606246,-12.253298,-5.092069
-4.8646555,6.079567,-5.0791197,0.1931785,3.3165255,1.7706939,0.3679158,-2.0815969,-1.8104572,-5.5186067,-3.9521408,2.119818
-4.9560585,-3.7114437,-8.604926,0.6411681,1.6715319,2.7919421,0.11412862,-7.2311,13.748796,-4.9396577,7.81105,19.065481
-0.027951583,-4.68532,2.5009837,-1.1306044,2.7982745,1.730258,-9.135477,-7.275066,-0.014885979,1.0738027,4.6830797,-2.1101055
-0.5262453,-3.8552692,-0.058323875,0.6595862,0.5133557,4.2497706,-3.1990738,2.4036944,-0.008513973,-0.15720586,3.667534,0.55156046
0.41769862,-3.0825946,-1.0811828,-5.146822,-2.6445699,-15.245671,-4.2705417,9.08912,-0.00025062077,-0.69850737,2.8094966,1.4829924
-0.70943266,-1.575232,-3.4393506,-1.9576476,-6.4823203,-3.686804,2.3689423,9.000807,0.0005057765,-1.2085891,1.301942,3.4953735
13.095757,2.4703262,-0.00039369956,-0.8972236,7.8252187,-8.377571,16.65858,-17.71113,-5.489132,10.339862,-9.354877,-8.558615
-3.9508839,10.813733,-6.899523e-05,0.7855018,3.0064554,1.6807318,-0.15932062,-1.8786889,-1.7990565,-4.5029902,-11.624622,2.184766
-6.5495768,-3.204862,-7.1934543,1.337821,2.2939303,2.7620099,0.55024934,-5.9911036,4.0925765,-3.4702916,7.749631,9.000417
1.2375755,-5.029994,3.1401439,-2.517891,8.985895,-5.1124268,-10.275969,-3.48694,-0.03312444,0.9854985,5.466652,-3.2163544
-0.86033446,-3.766116,-0.14225513,-0.5896859,1.9737664,-1.599555,-4.159196,0.1491084,0.0008217937,0.24568912,3.5839102,0.0668657
-0.10581146,-2.9215827,-1.7301725,-5.149895,-2.815145,-4.9945893,-3.0228162,8.8689995,0.0023126237,-0.35857463,2.5695195,2.0888314
-1.0224619,-0.4433445,-4.2774806,-1.97697,-7.5857563,-5.7237062,4.9809365,11.145216,0.9680069,-1.6515512,0.42207605,4.6125207
2.8445692,10.706252,-0.00035849452,-0.3949446,5.8692455,-3.041542,-1.0517385,-3.6073298,2.0382361,5.562507,-11.59053,-5.289401
-3.3390253,6.4355226,0.48122567,0.6697087,3.5568473,1.4609956,-0.78504217,-2.821648,-0.73289204,-4.03511,-5.5346684,1.8545867
-3.73109,-3.5642035,-6.9320345,0.7563262,2.0541315,2.8627272,-0.26609182,-4.032803,2.022701,-4.547479,10.48672,8.04284
0.20266142,-4.6455336,2.2101696,-0.012050748,1.5395696,3.0403452,-8.6646595,-5.406322,-0.020262424,0.7438349,4.805796,-1.9273776
-0.86631244,-3.2848155,-0.59107697,-0.95251286,2.068239,-11.434042,-4.568986,5.906776,0.2504148,0.40204704,3.497173,0.62651926
0.4277812,-2.5849643,-2.160034,-5.615674,-5.5500345,-9.399088,-2.3477387,9.631392,0.0003354561,-1.1251792,2.0831177,2.8656545
-0.9444621,-0.87962466,-4.3256116,-0.73323065,-5.6755905,-7.1097307,8.243108,10.923504,-1.5873673,-1.5432729,0.50554705,4.796443
8.671767,8.90145,-0.00044397474,2.1175842,4.7163734,-1.244872,-8.736762,-8.002312,12.726423,11.190166,-13.127533,-10.284795
-3.4141932,10.174579,-9.9941535e-05,0.21791194,3.3030086,1.7080914,0.40197223,-2.1910253,-1.5963297,-4.653464,-8.188068,2.5603118
-6.066989,-3.535769,-10.904015,0.21209937,2.1130095,2.8464856,-0.07262969,-3.5268013,0.3913286,-5.638257,9.535625,12.958067
0.1158168,-4.9353743,2.518811,-0.7684193,2.5872998,2.3547847,-9.346758,-5.095866,-0.011739166,1.307803,5.28784,-2.569393
-0.47590697,-3.6175408,-0.31711814,-1.3562735,0.7675225,-7.971736,-4.5040245,4.001685,-0.23935981,0.30586648,3.8381374,0.023824858
0.21988767,-2.1055126,-2.495822,-3.8523536,-3.9658873,-7.50682,-1.6409429,6.481416,6.9607864e-05,-1.6594164,1.3570167,3.3584683
-0.2908885,-0.33146834,-4.718899,-1.974481,-6.647285,-4.3125668,5.1524973,11.109225,0.006141969,-3.1673083,-0.3703419,5.715941
0.919464,13.999052,-0.00035932218,0.7877001,5.3137937,-1.1063803,-3.0166135,-5.8788033,6.2837653,5.4481277,-9.961773,-7.7113934
-4.010157,3.9250968,-0.4008979,0.41005573,3.027338,1.3886081,-0.921281,-2.8942828,-0.3844615,-2.3955293,-6.07644,3.611141
6.6067705,-6.227539,12.852393,-2.1655397,3.717144,0.47200847,2.633943,-9.752157,14.491578,-7.0221467,9.91106,18.683586
0.35077342,-3.4864302,0.91364807,0.7674136,1.317945,2.8153238,-7.4354267,-3.5954819,-0.015728978,-0.37460837,2.9997506,0.35439518
-0.78884786,-3.222679,-0.5972491,0.3309349,0.39282584,3.663064,-2.8711784,4.386862,-0.040459767,0.13048907,2.659701,0.82235223
-0.13668124,-1.8589483,-2.8874388,-5.687493,-7.2605753,-5.462068,0.3666915,11.825429,-2.114878,-1.5946468,1.0171977,3.8637571
10.769444,8.3096285,-0.00046028558,-2.4904437,9.372387,-10.195987,-3.1017327,-4.730381,3.9804797,13.848904,-14.635524,-8.022224
-4.5161853,8.985934,-2.5827532e-05,-0.11571818,3.2969656,1.4352081,0.5548972,-2.1668272,-1.6826975,-6.5529194,-10.599312,4.602491
-5.7051616,-4.4938817,-6.8545995,0.53967166,2.3392766,2.8646739,-0.051317483,-3.8670843,0.84404486,-3.6531203,8.806271,12.475503
0.08108484,-4.6626635,2.1851559,-0.5024003,2.2103908,2.4505284,-10.654342,-4.3974323,-0.023160644,1.1320132,5.113083,-3.0599482
-0.17485997,-3.3000102,-0.6548206,-0.66819274,-0.33651334,-8.63457,-3.8874507,4.9839606,7.4085314e-05,-0.07590268,3.5013125,0.44662097
0.09318358,-2.2159417,-2.500876,-4.8959265,-3.721491,-5.198587,-0.7880002,9.426072,0.00077787414,-1.0835738,1.7611477,3.096253
-0.16965815,-1.3323901,-3.8716729,0.8407489,-6.5971346,0.014245033,9.035828,7.396192,-0.57650095,-2.5127132,-0.12309708,5.6431475
0.31698504,10.6607065,-0.0003762684,0.0065951888,5.046811,-1.0854349,-0.36317578,-2.9247324,-0.007873595,2.6964417,-10.57313,-4.245745
-2.9816158,8.977316,-8.238928e-05,-0.040872846,3.7961433,1.3001989,0.37450063,-2.2530153,-2.0845025,-5.88782,-9.478775,2.938432
-4.517927,-4.571987,-1.3283478,0.67455757,2.1866164,2.9787076,-0.64130443,-2.4987006,-1.1795716,-3.689754,8.791564,8.51201
1.1861402,-5.143794,4.01567,-1.9818158,4.7911844,-0.27218485,-8.588706,-4.654114,-0.027002435,1.6036555,5.3612027,-3.9211533
-0.45436913,-3.7187235,0.36926466,1.3393742,-0.4470666,4.872856,-1.8458562,-0.5047692,0.163645,0.11960141,3.7799742,-0.07569553
0.091410555,-3.5079837,-0.7409169,-2.2392023,0.6589817,-13.442534,-3.5026815,6.3034797,-0.00036583468,-0.40826118,3.2829735,0.9235833
-0.5867496,-1.8185859,-3.3019283,-5.1562653,-5.9360137,-5.629798,1.3498605,11.982899,0.00094476016,-1.553682,0.7449113,4.43029
4.0238576,12.486261,-0.00042627298,-0.0902224,5.619188,-2.053202,-0.48147252,-3.218004,0.93278396,6.285396,-10.17644,-7.138755
-3.8230095,5.1489096,-4.987418e-06,0.12604873,3.1215177,1.6617768,0.044695407,-2.2075136,-1.6616489,-3.555521,-8.934417,1.9620084
-7.899629,-9.597916,-0.5944366,-0.8908024,-1.1475956,-1.3344667,4.04946,-4.1164207,-5.6242747,-6.0970445,13.928775,6.565335
0.14739205,-4.057871,1.3593414,0.66083074,0.8600437,3.4043212,-7.498072,-5.4716673,-0.01046159,-0.24280939,3.6855445,-0.55456334
-0.47920874,-3.814991,-0.38703534,1.1973629,0.16762519,4.7863007,-3.2002108,3.033053,-0.0036762548,-0.30385914,3.3456264,1.2002091
0.35028657,-3.6602242,-0.7134369,-2.509165,0.8612311,-11.643525,-2.4207978,4.9433384,-0.00015162211,-0.67034006,2.4192352,2.248363
-0.84677845,-1.2276328,-3.4881709,-6.238851,-6.090327,-8.613875,-0.7718234,10.676136,0.0005069395,-1.0920203,1.2063444,3.3264835
0.0017979285,7.8265905,-0.4944382,7.5541086,-5.213878,3.4625232,18.77505,3.3949838,-3.2144594,-1.6952997,0.14804117,5.114008
-2.7091627,12.452918,-0.0002499923,-0.52354544,5.2156577,-0.598189,0.5932725,-3.2099905,-0.34855527,-2.7013664,-10.967416,-0.83710843
-2.527714,0.71245074,-4.157146,0.33480933,2.479708,2.685803,-0.25025204,-2.7737708,-1.3557919,-3.1577125,-2.7522748,2.2577124
-4.836287,-7.613811,0.7151327,1.3195897,1.251165,-3.7638662,-1.3292356,-3.6894581,0.056005076,-4.679964,12.961255,6.229584
0.09871038,-4.499222,1.6080114,0.12344222,1.5260692,3.4363399,-6.330652,-4.3690567,-0.0069569964,0.5559998,4.944118,-1.25244
-0.3418463,-3.2467296,-0.9467318,1.9472029,-0.84542006,5.526945,-4.269133,4.4420705,0.18439108,-0.2797458,3.2218406,0.9702855
-0.50836,-1.767886,-3.404783,-4.1958704,-5.03526,-5.4828725,-0.017450009,9.411519,-0.0008755382,-1.3535627,1.0551616,4.262851
12.534622,0.69950503,-0.0003710247,16.043446,-0.670443,19.178509,21.646076,-8.8686905,-2.619859,4.41233,-6.239554,12.117778
-4.408365,12.619805,-0.00016550897,0.501765,4.037179,0.761076,0.33186555,-2.2359705,-1.842252,-3.902555,-11.6587305,2.7301195
-2.5035672,2.8497481,-5.3512077,0.12072463,3.0347936,2.2217317,-0.36539286,-2.8434858,-1.2577378,-3.07129,-1.0847086,5.0911283
4.329366,-6.531224,7.490306,1.9969093,-6.1194406,2.025729,-4.154358,-9.537524,22.437706,4.7060804,7.8912334,-13.691011
-0.049545113,-3.669718,0.403036,1.334905,-0.21501504,4.529489,-6.1286077,0.6901784,-0.016168064,0.047055114,3.8692951,-0.4810348
-0.306352,-3.302175,-0.6765591,-0.3493756,0.42334455,0.31862563,-2.9751992,4.669921,-0.12727746,0.118875936,3.3194866,0.98708487
0.5801966,-2.8104372,-2.197884,-5.1595526,-3.820284,-5.082228,-1.0177921,9.616857,0.0052534845,-1.3137994,1.7496446,3.588407
-1.6006241,-0.8579102,-4.6394405,2.5440161,-6.2435803,-2.679974,9.821241,6.3089375,-1.6099805,-1.8470399,0.030877877,5.004558
-1.17907,12.051752,-0.00024516863,0.6383079,5.0471096,-0.6146661,0.13552862,-2.204229,-1.0579206,0.68111944,-12.581761,2.594344
-3.4959831,2.9689114,-0.48783642,-0.011416836,3.1592882,1.8903372,0.30704108,-2.351596,-1.5539029,-0.8600636,-8.292614,2.759672
-10.622576,-9.023062,-7.6048646,-2.0434515,-4.862611,-4.056365,1.5445163,-11.148976,15.0343,7.4718957,7.148033,-15.900317
0.048450112,-4.1305966,0.6523603,1.1381397,0.70495546,4.1321397,-5.67139,-1.5559541,-0.005377831,0.031725407,4.389766,-0.5640626
-0.46780136,-3.3338065,-1.2309839,2.5892782,0.4321641,6.433654,-4.1377316,3.5701041,0.59933406,-0.13060428,3.4597185,0.99059355
0.029414732,-1.5955846,-3.420618,-5.915998,-5.709464,-5.191709,-0.38580242,9.28005,0.008821083,-1.7020155,1.4966301,3.3704123
5.065313,1.8428731,0.002784729,9.807785,-3.7731442,12.685803,18.872986,-1.9366838,-11.579525,1.713131,-1.3644041,-1.5803169
-3.1171613,12.467097,-0.00023657811,0.6306184,4.252713,0.205468,-0.31834912,-2.5601819,-0.7478019,-1.367463,-13.0269985,1.3571465
-4.8090043,3.0969534,-7.0310235,0.22667383,3.3681924,1.6962332,-0.31698066,-2.5622518,-1.4530058,-4.090145,-2.2224827,6.7546434
6.9502563,-7.651332,10.318353,-1.3019674,1.3180342,-4.3176684,0.33753264,-4.518582,-1.2880118,0.6119735,6.179121,-6.75711
-0.09582423,-4.0605984,1.3029125,0.6787758,0.6602868,3.8398526,-6.0731025,-5.2896576,-0.010279737,0.51714987,4.59417,-1.6428152
0.0023734868,-3.451245,-0.614291,2.3752084,-1.228615,5.7192984,-4.0946307,5.558817,-0.007268817,-0.21885824,3.6444967,0.36814582
-0.15164977,-2.1074104,-2.9383523,-5.65694,-5.520667,-9.175612,-0.05996285,10.800092,0.0025272183,-1.4535173,1.2380315,4.047124
-1.9824429,4.715229,1.196373,5.783918,-5.6447043,2.1104777,16.060734,3.5966687,-2.422692,-1.8026736,0.37907216,5.2417874
-2.6212986,11.060138,-0.00028889155,-0.42415953,5.324626,-1.2821184,0.25762278,-3.0798883,0.08615215,-0.6626683,-9.926658,-0.5494758
-1.7755065,0.25794125,-1.5098541,-0.17845356,3.475723,1.7896341,0.043652605,-2.6581078,-1.4151601,-3.602146,-0.25177863,1.9069104
2.651892,-5.59944,5.4801474,-0.39072213,3.0861511,1.5937889,-4.7424846,-6.754492,13.724574,1.470879,5.6783295,-5.6337047
0.28701064,-4.6069326,1.2228352,1.5231314,-0.30407506,5.1406183,-2.7052536,-2.714109,-0.008343903,-0.5482271,4.5120316,-0.2898971
-0.06945595,-2.9326694,-1.1447655,-0.75070834,-6.944209,3.557582,-6.6383605,7.872893,0.0003205994,-0.5652811,2.9522827,0.93052226
-1.5817245,-1.1134326,-4.14324,-1.8695085,-5.720477,-5.557687,4.450245,10.578786,-0.0019266715,-1.0965405,0.592747,4.503508
7.6111145,10.515084,-0.00041813526,1.2857517,5.184981,-1.0434586,-2.3902774,-3.9375498,2.2948163,6.7322254,-13.628227,-8.613898
-4.1323953,8.837523,-2.1413023,0.516772,3.1486678,2.4615517,0.019196972,-2.5084906,-1.5731323,-5.133867,-6.300273,3.560323
-9.032841,-7.3119316,-11.722736,1.3812149,2.007061,-8.304836,-4.874661,-12.847777,33.881016,7.2307954,7.7679715,-16.467098
-0.27116275,-4.5067344,0.9366774,0.6002817,0.9238172,4.0771265,-4.3425436,-0.5671609,-0.0050082305,0.27002996,4.6593595,-0.4802675
-0.40953565,-3.1270018,-1.3083574,-3.2500777,-0.00748175,-11.211565,-3.738483,5.130934,0.000154607,-0.32888362,2.995806,1.5619093
-0.39532065,-1.6327635,-3.3998146,-3.972911,-8.087423,-8.054864,3.2702646,11.12083,0.008212891,-1.3729594,1.1902804,3.8241308
7.314736,2.158285,-0.0002744292,13.11008,-2.9338949,12.545174,20.39057,-6.037564,-3.342316,3.3023455,-5.0981545,4.907411
-2.8086097,11.665191,-0.00021015748,1.0514883,4.5084414,0.005908501,-0.76212806,-2.4178612,-0.41460964,-2.30467,-11.609474,0.46782124
-2.2251391,2.7820323,-6.9142485,1.1685619,2.588203,2.7332804,1.2605741,-5.080401,0.7482776,-2.4755838,7.331702,13.646349
0.611557,-4.7122364,2.9556062,-0.5192777,5.822123,-0.8445773,-3.86894,-4.677885,-0.033670474,0.6282073,4.963914,-1.6440586
-0.581808,-4.039972,0.0898021,0.4852678,0.98684084,3.7832835,-5.9222345,0.41407484,-0.0120074395,-0.5025754,3.2150097,1.1762834
0.38058215,-3.1779792,-1.319351,-3.926102,-3.3387654,-5.239494,-2.5266764,7.627438,0.0013170021,-0.7012463,2.5523725,2.1112301
-0.37611055,-6.182732,15.049336,1.0411344,-8.2567835,-1.6108494,9.829541,10.995689,-4.1691036,-2.3715498,0.082219884,5.283554
0.8706757,13.184471,-0.0002865079,-0.5758176,5.361672,-1.1245518,0.74101585,-2.77091,-0.79412943,1.6099721,-12.524323,-1.2411495
-3.2211735,2.746111,-1.7958357,0.42539245,3.1747694,2.216093,0.033300053,-2.713816,-1.2782845,-4.855836,-3.7806704,2.1443207
6.352559,-5.362719,9.189159,0.64861035,2.3367815,2.6883621,-1.8485429,-3.5866141,0.2783003,-5.4094834,13.181393,6.453258
0.74637586,-4.174646,1.7120681,1.0161374,0.9673126,3.5985868,-3.4203231,-4.943288,-0.012871185,-0.24419051,3.8193536,-0.4489588
-0.17841165,-3.6333323,-0.35833636,-2.214558,2.0167422,-18.553616,-4.5838246,5.472049,-9.296404e-06,0.51063085,3.9813795,-0.28784987
-0.7369872,-1.7798299,-2.9659395,-3.144251,-8.9263935,-6.45764,5.275829,11.870846,-0.807994,-1.1289136,0.8633966,3.882983
8.137468,8.879215,-0.00037393585,-2.269115,7.9734592,-8.760068,-8.340761,-7.8650537,13.598069,11.102061,-10.258048,-17.273434
-1.8454565,11.671443,-0.00017643045,-0.12909545,4.1455865,0.98531836,0.8106417,-2.433009,-1.9041662,-2.7175791,-11.9609585,-0.27959102
-2.4160178,-1.756351,-1.5455223,1.3269739,1.6353823,3.4520202,-1.2824364,-2.6540146,-0.67867696,-2.23674,4.685542,5.166158
0.8060606,-4.87259,3.1013813,-0.848,2.8751466,1.8271866,-8.052102,-5.568321,-0.04591527,1.3875685,5.256925,-3.6339622
-0.34395498,-4.141538,0.38136125,0.33895183,-1.4585377,-3.4168797,-3.0831497,3.1459243,-0.0253614,0.23660772,3.90447,-0.17458364
-0.20180608,-2.324804,-1.9574494,-4.117581,-5.1883674,-1.038345,-5.3493648,8.960975,-0.00040791935,-0.5954854,2.760835,1.274733
-0.90060455,-1.6688952,-3.695634,-0.18159555,-8.1436,-4.5210834,8.406344,10.882063,-0.78702724,-1.7628596,0.14878176,5.2364945
5.5674133,10.149012,-0.00038096512,-2.256392,7.3701406,-4.6509514,0.9227147,-3.5928268,0.64167696,8.939748,-11.311654,-9.69478
-3.2406132,8.737744,-7.324437e-05,0.08059126,3.2946506,1.5795822,-0.06045056,-2.5568833,-0.82599145,-1.8090459,-9.9319935,2.4421275
-3.8899941,0.7014417,-12.284018,1.110342,2.3730388,3.0417938,-0.028624415,-4.622708,3.3091924,-5.80029,2.443705,20.856457
0.3487985,-5.1686664,3.3601546,-1.4854817,3.4391701,1.5680819,-8.226362,-5.2648644,-0.066773124,1.6916422,5.4363422,-3.5599544
0.17052281,-4.3832197,0.45913023,1.8415135,-0.40345564,5.4000964,-2.3656116,1.238556,-0.0032811854,-0.7001119,3.639615,0.9004996
-0.008295316,-3.2225337,-1.0492004,-3.0669415,-6.0255966,1.8088592,-5.3551497,5.789787,-0.0019516482,-0.44826055,3.4777668,0.5406541
-0.29368696,-1.6430062,-3.164512,-4.5261264,-5.2068615,-11.226477,-1.5913551,10.758296,0.0012873951,-1.2541564,1.4761157,3.469825
-3.186442,2.7230325,-2.0014002,4.1748953,-5.261464,1.6633853,14.695494,8.999736,-2.681903,-2.195323,0.05143237,5.5238366
4.6792707,13.021603,-0.00036211533,-2.3590307,9.835092,-9.36557,-2.0753531,-4.669901,2.8606782,6.756754,-14.532722,-7.5405755
-4.495137,9.75012,-6.7652116e-05,-0.60921544,3.7723384,0.9906194,0.5193395,-2.8920565,-0.7066046,-3.584033,-12.393117,3.1698506
-2.5575805,1.7256246,-8.697489,0.8184875,2.2135308,2.9329336,-0.34694892,-2.5584154,-1.0223365,-5.6048803,0.6485695,8.968511
1.4624276,-4.9593077,5.2464232,-0.65700084,-1.1953337,-8.635359,0.48038182,-7.883002,12.386039,5.18505,6.5778737,-11.269233
0.76306444,-4.4178333,2.013605,0.5870075,1.0548205,3.4377172,-8.2193365,-5.6586976,-0.013346896,0.26496807,4.6545715,-2.0758967
-0.27580073,-3.419303,-0.27200836,2.0932655,-0.91595274,5.536019,-6.636173,5.046706,0.024515897,0.19257224,4.142846,-0.77041173
0.020970931,-3.064005,-1.2173014,-4.5511317,-5.118258,-6.475433,-4.250644,8.53638,-3.8210652e-05,-0.21129213,3.2001338,1.4363503
0.08854228,-1.601484,-3.4285245,-3.350416,-2.8746004,-3.7775445,2.7379954,10.759238,0.0005793156,-1.6744192,1.1323994,4.335959
4.0881233,2.0264957,0.9572576,11.409122,-5.1737237,14.605245,20.089436,-2.0044167,-5.874739,-3.962459,0.54205847,8.039585
-0.81522423,12.668577,-0.00028416753,-0.25532028,5.445737,-2.0955992,0.8941387,-1.8472599,-1.8124422,2.9557936,-13.1813755,-1.0972632
-1.7306578,2.4085522,-1.3189003,0.66507393,3.0966828,1.4418695,-0.9008274,-2.394603,-1.1206951,-3.0481932,-4.2419777,3.2928827
-4.8483276,-6.105852,1.5510061,0.4697708,1.8331466,2.773215,-0.7663959,-2.9110498,-0.46353108,-4.16462,11.802913,6.207502
0.36589497,-4.589273,1.5289098,0.22248839,2.2573423,2.5161424,-5.886108,-3.75998,-0.012009105,-0.0015476644,4.204964,-0.81939846
-0.2133819,-3.1360698,-1.0773072,-2.3442302,-4.218914,-4.328678,-3.0873454,6.9313684,0.00016670953,-0.1694353,2.7255628,1.3201785
-0.6810115,-1.0243287,-3.98236,-3.4592712,-4.34427,-4.5446825,4.208412,10.717444,0.00040423498,-1.849772,0.4219522,4.956635
7.742451,12.023548,-0.0004084591,-2.3005047,7.6917663,-9.19815,-7.5633016,-8.203248,12.110241,8.867008,-13.869789,-10.767645
-4.8984957,9.735361,-1.9009603,0.32079387,3.2677653,1.1665283,0.0031680018,-1.9335481,-1.9797627,-4.691864,-10.972062,13.979184
-5.573607,-6.7476573,-1.3893542,0.40210015,2.361344,2.0569808,-0.99927086,-2.819033,-0.1687746,-4.416378,9.006638,4.891754
0.1040124,-4.572644,2.3872156,-0.082769394,1.4645758,3.1963534,-9.467405,-4.7776914,-0.014109912,1.2664932,5.1197753,-2.4621003
0.4814723,-4.1255174,0.47232226,1.2251877,-0.5579658,0.7524605,-4.879716,4.948427,-0.90788954,-0.2895412,3.784157,0.51339734
0.3820757,-2.548801,-1.645882,-4.955172,0.5104032,-18.77593,-4.477528,5.320556,-0.0005268727,-1.2445098,2.0322094,2.0667381
-0.5647517,-1.417444,-4.4303775,-0.57887304,-6.4357176,-5.9636006,6.8651857,10.67634,0.51931095,-2.1808338,0.013138264,5.452733
13.495517,12.303044,-0.0002441355,1.6096588,-0.79733783,1.1904228,-6.8554683,-4.1277547,9.945318,8.152289,-22.137781,-13.268601
-11.665356,5.72709,-26.546597,-1.8846126,3.6665926,-1.1124434,1.0306873,-2.4687173,1.9173093,-3.0299056,-4.0897574,3.4821634
-0.9336448,0.4573634,-0.32312226,-0.02399871,-0.62733483,2.207309,-9.546969,-13.995693,15.690087,-14.245224,12.9515915,39.357227
-0.85382485,-3.0183837,0.16191198,0.21683776,1.2519653,2.8424535,-4.6833935,2.3913052,-0.0123580145,-0.074574605,1.348768,2.7970598
-1.4499136,-3.0982175,-0.84266955,0.9345028,-2.5091524,-1.5716857,-4.340191,3.7928164,-0.005156778,0.61980355,2.1895568,1.6167357
-0.024091044,-2.0729659,-2.4748855,-3.5554092,-2.686108,-10.17939,-0.20381832,12.19479,0.0009408903,-1.2481894,1.1357666,3.5014877
10.113214,2.9577556,-0.00038347155,-6.611542,7.855993,-8.782408,29.272715,-18.60805,-6.3947926,21.01862,1.220053,-37.595894
-3.820481,10.636428,-0.00020779285,1.1568687,3.261072,0.845623,-0.46080738,-1.995788,-1.2515626,-2.2380998,-10.891501,1.1145859
-5.7745414,-1.7831706,-9.370393,1.0298138,2.928891,1.6944232,-1.3644868,-2.7224793,-0.6386747,-4.6190815,5.6712523,9.735637
1.5663061,-5.4109497,4.489072,-2.4689739,-0.06700836,-2.2359722,-12.956905,-2.5990887,0.0017034647,1.9181898,5.400727,-5.199151
-0.9156339,-2.7247531,-1.0082443,0.4780891,0.49648094,3.4556599,-3.5567536,1.7208564,-0.7772618,-0.14455572,2.5665956,0.66491693
-0.91581416,-2.863135,-1.6482017,-0.8803427,-3.4206583,-2.7941852,-2.877356,5.3672047,0.004152708,-0.25960103,2.1815424,1.808245
-0.51177126,-1.1706907,-3.6993833,-3.3189452,-7.4552717,-5.862716,3.2795193,11.422197,0.00030382362,-2.1162176,0.4207803,4.4855
7.6144824,14.490303,-0.00034891831,-1.3948604,7.972639,-9.152954,-8.857661,-8.7930975,14.912386,10.228463,-13.175963,-13.130199
-4.5299683,7.144217,-2.9465055,0.6415972,3.1623948,2.0546803,-0.29771793,-2.4094107,-1.683771,-4.4355206,-5.524728,4.8660727
-8.257428,-9.213808,1.1311846,0.70140904,1.9851346,2.9647985,4.7679753,-5.0044966,-5.978591,-3.736823,14.969071,6.3589816
1.4352293,-4.748334,2.245478,0.9409689,3.2501283,1.8515699,-7.706201,-2.959651,-0.0051199347,-0.28137815,4.4196916,-0.9276865
0.30991715,-4.3931665,0.33096677,-1.0425751,-3.728372,-2.912913,-3.501051,5.6501694,0.71734166,-0.37609276,3.044252,1.1628537
-0.039689995,-2.7446914,-1.8570434,-4.1294975,-1.9883285,-8.333686,-0.8792309,7.7702613,-1.9642658,-0.3991451,2.2177358,2.445823
-0.28144574,-0.2831755,-4.149974,-1.7452934,-5.652643,-5.302261,6.289136,10.175379,-0.0015765098,-3.0182114,-0.60140437,5.8611617
2.7217128,12.377843,-0.00036358752,0.99680865,3.9225094,-1.0669127,-2.4266975,-3.7816377,2.9096746,8.891872,-16.554132,-5.6821504
-4.458643,8.941276,-4.8912734e-05,-1.0325928,4.6135955,-0.3045557,0.7474257,-2.633867,-1.1991571,-5.0072203,-10.737679,2.8707266
-1.777144,-2.0501878,-1.1312929,0.35844898,2.8491814,2.1948636,-0.56148565,-2.5600522,-1.2496718,-3.9583964,2.982984,1.836529
1.1882633,-4.5335546,4.4853935,1.3668244,-3.642613,-4.161211,-6.1457286,-4.9403667,-0.7783223,6.038034,8.203306,-14.735505
-0.36431754,-3.7492754,0.8087359,0.69367343,0.56103253,3.7458677,-3.7408152,-1.7723522,-0.01081296,0.33921456,3.4559748,0.04918991
0.45046568,-3.9455578,0.054425195,-0.48060647,-1.5580791,-2.5136187,-2.8515556,5.562125,0.0019760458,-0.8536903,2.2870822,1.6456648
0.075451106,-2.2404518,-2.372325,-3.6219754,-6.8076987,-6.179155,2.1785815,10.219092,0.0010689576,-1.7503339,0.7084077,3.935128
11.413235,8.62065,-0.00040090608,-4.4206653,9.11098,-11.315443,23.023552,-15.855801,-2.3686829,14.305612,-6.609153,-25.33353
-5.035628,9.28288,-8.732497e-05,-0.15282643,3.4319713,1.0594294,0.5074676,-2.1687205,-1.7176656,-3.2521734,-10.657894,3.511857
