ancorasir/BennettWheelLegRL/experiment_data/2023-12-27_22-47-53/joint_vel_env0.csv
Joint_1,Joint_2,Joint_3,Joint_4,Joint_5,Joint_6,Joint_7,Joint_8,Joint_9,Joint_10,Joint_11,Joint_12
0.0,0.0,0.0,0.0,0.0,0.0,0.0,0.0,0.0,0.0,0.0,0.0
4.9346995,20.279394,-7.369798,5.166002,0.06257501,10.440725,13.262231,0.5907079,-19.73318,-0.2096717,-21.504082,-16.728546
-6.341209,-11.79212,-6.255085,1.7259967,2.2932081,0.16055834,1.4192662,-9.262773,-6.330035,-5.3496366,19.284338,10.00287
2.8029804,-2.7502642,1.5848907,1.6857178,2.6644158,0.7911579,-11.308208,-8.104442,-0.010481607,-1.8245561,3.2034175,-0.020815581
0.42720026,-2.7978861,-1.0991614,1.9210458,0.6675679,4.4325657,-3.996536,0.78442836,-0.009746984,-0.81453717,3.5723355,0.9270139
-0.12544861,-1.8905314,-2.286966,-2.032538,-2.257721,-1.1052203,-3.5106997,6.118348,-0.04459346,-0.7626525,2.5247266,1.3294243
-1.4194196,0.3224856,-5.362796,-8.065251,-7.6472406,-8.6088,-0.6164558,9.620237,-0.012564667,-1.5307158,1.1170902,3.4089975
0.17591688,6.9525237,-1.913115,7.2454906,-6.5114636,0.101665586,18.5573,0.67421424,-3.100773,-0.6140963,0.55742306,4.346162
-2.5898926,10.378653,-0.00026622025,-0.054798096,5.0799427,-0.7067996,0.27754152,-2.8551424,-0.4674899,-1.698878,-10.616727,-1.516145
-3.3605812,2.2157738,-4.5852904,0.703455,2.5554125,2.325582,-0.81667376,-2.8150973,-0.6551654,-2.6764102,-3.8384748,5.0100613
11.899094,-8.609644,15.106097,3.0334604,-1.2124624,-0.5298667,-0.55720574,-6.172828,-1.4307624,-0.8172864,6.451566,-7.023009
-0.30770892,-4.7913413,1.3124168,0.03799948,1.2796614,3.7164178,-6.9014196,-2.342023,-0.4608037,0.47582358,4.9525533,-1.2436923
0.12798882,-3.3851516,-0.7027524,2.331047,-0.9385638,5.5395336,-3.0874267,2.9047964,-0.00051843,-0.50452137,3.5247755,0.58842456
0.3016055,-1.8833879,-3.1359725,-5.689094,-6.0813103,-9.517201,0.33782938,12.14309,-0.000596263,-1.7775898,1.1270802,4.0757866
12.785744,0.37800744,-0.00040527998,18.388794,1.465646,30.060001,24.443157,-16.09776,-5.5396385,12.501697,-8.480825,0.21960233
-2.2292628,11.225179,-0.00030230946,0.1164244,4.1132708,0.48349926,0.33126017,-3.0339925,-0.067983985,-0.70663357,-9.0564785,-0.30117694
-2.7964928,-0.62575114,-2.229097,0.12725645,2.874646,2.4904473,0.25763488,-2.4378362,-2.0728326,-4.5802965,-0.7702897,3.5169573
9.632122,-7.6696825,13.736113,-1.7519108,-3.5698278,-9.984437,-0.85296947,-7.3175325,13.410617,2.15095,6.739211,-9.619661
0.40609503,-4.391799,1.2581396,1.5141706,0.3191601,4.555625,-6.540421,-4.382408,-0.010145135,-0.44821003,4.0963187,0.040728822
0.08486772,-4.425945,-0.1702573,-3.4848118,-4.6102557,-3.946697,-5.3373394,9.012522,0.6335588,-0.06086223,3.7755182,0.93586385
-0.17800187,-2.0321596,-3.0537677,-4.0432615,-4.346314,-4.9522905,0.9596123,8.603798,0.001497516,-1.4177634,1.1007072,4.2384086
12.266593,-0.6108013,-0.0004200642,-5.3495903,8.751622,-9.156035,24.39012,-15.635498,-5.7185993,14.366261,-3.5142384,-1.1498885
-1.1320891,9.761462,-0.00027873204,0.4772094,3.7348518,0.6227665,0.055750467,-2.120521,-1.3715358,-0.2998832,-10.457223,-2.2473326
-3.6543267,3.6939995,-6.1675262,1.0155343,2.3030314,2.689918,-0.7463577,-2.2893746,-1.2808096,-4.0546203,0.75409955,4.828297
-8.317651,-10.674058,-0.15641424,-1.1116973,-2.7254534,-1.4375252,4.2186465,-3.416657,-7.2850976,-5.95804,11.97354,6.1716943
0.426918,-4.4920597,2.118708,-0.12639084,2.3337932,1.819393,-6.451883,-6.1285853,-0.0074929027,0.21330233,3.8186095,-1.3838456
-0.40684393,-3.8510225,0.018664718,-0.10359859,-2.649954,0.6548617,-6.308557,3.653048,-0.0022714294,0.13128681,3.4940178,0.3469957
-0.024063878,-3.9943027,-0.7011507,-2.5613499,-5.065239,-3.5383515,-3.441025,7.7140627,0.0009082742,0.07363122,3.2623732,1.2330253
-0.8954645,-0.8903012,-3.9426744,-4.5906954,-5.380643,-7.4453154,1.4145788,11.351603,0.002779862,-1.1376915,1.2150912,3.6339033
11.7537365,-0.20421179,-0.00043825177,16.964304,0.37110746,36.15043,23.567,-11.25212,-6.715675,8.654219,-4.7770953,-0.9767794
-0.6426167,13.596656,-0.00027410674,0.81566703,3.9432366,-0.09159875,-0.4657429,-2.4182465,-0.2288036,2.1735916,-13.040307,-2.243049
-3.6303926,6.149739,-0.5535544,0.6077959,3.5464253,1.5475104,-0.44612357,-2.1890457,-1.8959718,-7.1193457,-7.769208,4.10689
-6.6918025,-6.3822465,-1.0694615,1.0206982,2.4141016,2.5527887,2.934803,-2.8890154,-4.8703847,-5.1072097,9.700921,6.167854
1.6473002,-6.319173,5.2501087,-0.76303875,4.8076863,-1.1461314,-10.411898,-2.8317404,0.017522577,2.1912048,6.699691,-5.3740897
-0.20896436,-3.2132792,-0.1763885,0.5580221,1.3720664,2.9085898,-5.9571624,-1.3277876,0.22541904,-0.2814303,3.2667556,0.19025901
-0.32967496,-3.3687031,-0.95011747,-2.887422,-3.8922355,-0.14124893,-3.739538,4.6899414,-0.00028590602,-0.6664649,2.3579915,1.9708579
-0.15364425,-2.225602,-2.3495064,-6.074626,-6.4846554,-7.8180614,-1.5270737,12.378892,0.00010602572,-1.0772399,1.6194416,2.8335805
-4.052824,3.0761213,-4.030672,6.792872,-5.7166414,2.7835135,14.264794,5.4639506,-2.64901,-2.2505095,-0.07280113,4.9450145
4.8832054,11.535147,-0.00033814932,1.3858757,3.3737667,-0.06948383,-2.5605533,-3.5889544,2.9251914,9.418286,-12.267096,-11.196301
-4.606879,9.468174,-0.00012655652,-0.07459928,3.5372524,1.0978929,0.55567133,-2.1585174,-1.2880138,-4.4148407,-9.989928,3.8469827
-3.6979895,-1.3270521,-7.963544,0.32186407,2.3418903,2.5531278,0.68399274,-4.9185395,0.9327607,-4.0885353,7.565496,5.488465
0.91678345,-5.3144994,3.0880094,-0.93981504,4.787791,0.106480844,-9.246313,-4.366382,-0.0032309396,0.848792,5.0047383,-1.6647274
-0.56884617,-3.5426364,-0.51795846,0.20498605,1.1842306,2.8522325,-3.7688196,1.3778484,0.0011721738,-0.054578193,3.1640449,1.0067143
0.16917107,-2.1780748,-2.1997225,-2.7990415,-3.5577734,-4.2429914,-1.8792442,8.204273,0.0021058538,-0.8394256,2.209457,2.219717
-0.5237273,-0.7826095,-3.776756,-2.5378306,-5.956989,-4.7150965,5.046324,10.786471,-0.004153393,-1.7850428,0.6791111,4.025885
9.613525,11.21103,-0.0003938813,-0.6865123,7.490466,-9.046339,-8.735558,-8.35391,13.621957,10.735895,-10.804183,-17.415089
-4.2813187,7.923634,-0.00016069663,0.71048176,2.5297446,1.6622739,0.37518102,-1.4293157,-2.0356295,-3.6401188,-10.478124,2.4566069
-3.177662,-3.3303668,-1.2974563,1.1856501,2.2056477,2.5188901,-1.4127271,-2.7764573,-0.5568462,-3.4655724,6.4887896,5.1002192
1.1536314,-5.0868864,3.2137733,-0.60252076,3.4332032,1.1585543,-9.49059,-5.4763255,-0.011410899,0.96921057,5.0983353,-3.337267
-0.46566534,-3.9131393,-0.07088216,1.1456374,0.43199396,5.614875,-6.916027,4.492074,0.036569305,0.18041885,3.7649846,-0.07789042
-0.14678787,-3.001075,-1.7305802,-4.508184,-3.5021446,-8.381523,-2.5758083,7.8704767,-0.0008653668,-0.078033134,3.390799,1.201579
-0.91409105,-0.9511206,-3.9490047,-2.65818,-7.073497,-5.13991,3.794861,10.674279,0.0063268314,-1.0762018,1.286878,3.431349
13.053743,7.8685417,-0.0004086994,-0.14823015,7.487755,-8.68654,-7.862205,-6.1690836,8.744555,12.345019,-9.93924,-19.950583
-2.042792,12.125378,-0.00019611389,-0.11185116,4.5522847,0.24630757,0.8920682,-2.2354243,-1.725954,-3.7707949,-11.494256,1.7473794
-3.1550703,3.161042,-6.363741,0.49080536,2.719671,2.6093748,-0.08054718,-2.308537,-1.5271574,-4.222365,1.2045656,0.107994966
1.8491333,-4.6650815,5.795547,0.2951603,0.8473798,-5.669461,2.509962,-7.514277,13.462866,-5.6577435,9.460758,16.337933
-0.75455827,-3.1963575,-0.5162516,1.4488988,-0.07293598,4.767648,-2.2300813,1.3127986,-0.002552759,0.21467604,3.284196,0.8934856
-0.28358367,-1.7866749,-2.7122025,-3.9981744,-3.4353118,-6.6363497,-3.1273477,7.7003284,0.007010598,-1.1062331,1.5761375,3.0514815
0.8525423,-8.888281,-7.2621074,6.0732613,-2.7309408,1.2188656,16.374763,6.0729656,-2.7379844,-2.541882,-0.32680836,6.087216
0.8970055,14.043918,-0.00028173806,0.9413133,5.1410236,-1.0979983,-0.78842354,-2.9342425,0.7014682,4.211971,-14.286123,-2.439389
-5.55649,6.4758472,0.37677926,0.13819951,3.2367609,1.6630158,0.013898551,-2.556859,-1.0959533,-3.6107602,-5.896946,4.178095
9.044209,-6.9031167,13.340948,1.5152687,4.0601487,5.924268,-3.7705781,-12.8953705,22.457056,4.2377543,7.490446,-12.913001
0.67089725,-4.633936,1.8208061,0.80411863,0.98191607,3.625743,-6.5427437,-2.1242747,-0.0062308162,0.0013832971,4.541974,-1.2747663
-0.3260108,-3.5921414,-0.6645591,2.010251,-0.9011773,5.5740952,-4.2192583,4.2902837,0.8802857,0.14217037,3.8862116,-0.081019886
0.246651,-2.079634,-2.5987518,-5.8682594,-3.9144595,-7.1373363,-2.6664913,8.951231,0.00958043,-1.6522009,1.3302197,3.5904095
-2.1137545,-2.5085874,16.99648,5.8740506,-9.521912,3.5781963,14.972508,3.3156438,-8.262888,-1.7407545,0.36229655,4.952901
1.6696202,12.022676,-0.00037007453,-0.22195959,6.517016,-3.646586,-1.1485779,-3.5607872,1.0548891,2.662417,-13.367266,-5.2015047
-2.6282527,5.138658,-0.0765113,0.38198867,3.4910707,1.9072212,0.12136562,-2.3689616,-1.8711461,-3.5935676,-4.180268,1.2310045
-9.968105,-5.931947,-12.163842,-1.1050124,-2.6457052,-3.0790205,1.6349458,-6.021055,12.247914,7.833295,7.192894,-15.784652
-0.015343845,-4.698293,2.1181698,-0.22980009,2.0979393,2.704086,-7.531391,-5.4085293,-0.010427643,0.8741528,5.190845,-2.2002325
-0.5640561,-3.890283,-0.42728716,-1.4466426,0.63003373,-7.8681364,-4.811445,4.839729,0.4636645,0.11904718,3.9173362,0.5793626
-0.05531924,-2.5523617,-2.1391497,-4.934862,-6.5178747,-6.7528677,-3.2317264,9.812733,0.0006827561,-0.98148066,2.030762,2.800334
9.969161,0.30986953,-0.00042716437,15.651932,2.0255582,27.428162,23.100372,-10.897907,-6.1675005,8.947951,-7.019207,1.2153883
-0.80707836,10.815314,-0.00027966604,-0.3257498,4.5715914,0.35397685,1.1211933,-1.999436,-2.4596467,-1.9661933,-9.763855,-1.5219524
-3.3267019,1.2884024,-1.1996084,1.3367257,1.4690154,3.5744646,-0.5574958,-1.9980167,-1.8771625,-2.2384892,1.4249724,4.8059397
1.3893037,-5.6003838,4.0365696,-0.1868421,2.6027908,2.3028555,-5.995741,-4.874781,-0.012322916,0.9977597,5.77929,-4.081453
-0.3491849,-4.01264,-0.06202458,1.4427841,0.056387234,4.9415793,-3.251931,2.424462,-1.3836801,-0.08565222,4.2497153,0.2327946
0.26766592,-3.297024,-1.5197092,-4.9493995,-5.007086,-10.83809,-4.3699613,5.6397405,-0.00065684353,-1.1050249,2.4725604,2.402972
-1.0249934,-0.86407876,-4.785176,0.5533603,-4.546099,-2.9648004,6.959715,10.257837,-0.6469816,-1.5908557,0.3341934,5.0571485
7.5201077,11.176056,-0.00036790728,-1.973807,9.434741,-8.902316,-1.403516,-3.9169333,1.5026679,7.765716,-12.824,-12.889328
-5.6441846,10.232279,-0.00013182467,0.7110139,2.8892956,1.9838421,0.119594805,-2.0510223,-1.5380685,-2.5633838,-12.23631,2.8663552
-3.2976205,-1.5138811,-2.2465088,1.5720737,1.5939691,3.5698326,-1.623191,-3.032504,-0.12343544,-2.229855,5.6757994,7.1116695
1.9168867,-6.1280336,4.633815,-0.941352,1.7534386,-0.92133623,-8.7112255,-3.519101,-0.00075771427,1.0499438,5.9961815,-4.4581013
-0.90728277,-3.6658545,-0.43164155,0.034904398,1.4141015,3.2928414,-4.5190024,1.4979962,-0.013314411,0.14089496,3.5374537,0.6311077
-0.1945778,-2.3742828,-2.3143368,-4.4982147,-3.1179307,-7.4607787,-2.3730164,8.28025,0.00013967673,-0.7890514,2.1954668,2.5552316
-2.7600746,-3.209422,9.830013,1.9407973,-6.0431213,-0.55079716,10.610782,9.203449,-4.260065,-1.8471034,0.19565922,4.9074574
-0.8723343,12.589623,-0.0003165222,-0.663061,5.228662,-1.7916875,1.2614717,-1.6929293,-1.7871938,4.571732,-13.376354,-4.4342265
-4.7239356,8.671102,-3.6684287e-05,0.30451983,3.3490937,1.6549195,0.1336058,-2.1058457,-1.736076,-3.4694748,-6.4171705,1.9257729
-5.8940225,-7.9546013,-1.4375402,-0.052235134,0.74037856,-0.29279158,0.28762507,-4.234856,0.3764176,-4.9774632,11.738363,5.6317916
0.6863452,-4.5008,2.108953,0.6875211,1.0195956,3.576266,-5.283086,-4.8140726,-0.008401591,0.19667816,4.5617976,-1.2367573
-0.5444806,-3.4364147,-0.5533502,-0.4218894,2.0230207,-11.072036,-4.024051,4.268282,0.00012923719,0.48482555,3.8107896,0.32103714
-0.4953753,-1.8290526,-3.1482313,-6.1899123,-8.31318,-5.9966106,-0.12592693,12.546103,-0.008398662,-1.3192044,1.30718,3.7641404
2.8798444,1.9683058,-0.00023250596,9.952859,-2.3802724,8.032683,18.957132,-0.686569,-3.720518,-0.085659906,-0.14833577,0.34279627
-1.8231034,11.481465,-0.00014905192,0.3458024,4.5730968,0.7031247,0.37614244,-2.639252,-1.3202088,-3.192986,-13.981736,4.0449576
-2.196462,-1.9160051,-1.4223878,0.77461535,1.4658493,3.6970248,-0.8021493,-2.7830017,-1.0470686,-1.8709788,4.256667,3.963358
1.8038352,-5.410558,4.4066257,0.5003459,-1.4374312,-6.7674313,-8.066271,-3.423894,0.0013633869,1.2408038,5.190225,-4.3821673
-0.55584556,-3.8623962,-0.081940114,-0.08667927,0.70587933,-0.70225775,-4.509958,2.9083796,-0.6621922,-0.035417587,3.858708,0.043739624
0.40955335,-3.7468512,-0.8689099,-3.0040483,-5.196477,-3.4729118,-2.8840146,6.9540687,0.13973676,-0.5053589,2.9519458,1.8746644
-0.90284264,-0.9989221,-4.077812,-2.7876258,-4.4023566,-7.1691084,4.909861,10.980498,0.35305047,-1.5910442,0.49602658,4.590197
3.407686,14.453808,-0.0003630633,-0.9570439,5.6083765,-1.5705718,1.050371,-3.0347528,-0.37313247,7.2086143,-12.421844,-10.7853155
-4.834956,7.053089,-4.9228453e-05,0.7885142,2.6989384,2.0748794,-0.08798729,-2.0582163,-1.4148685,-3.1249356,-9.4807,2.2291036
-4.166745,-6.0187697,-1.4313343,1.275119,0.99224037,3.3782501,-1.8862948,-2.9366434,0.077403806,-3.777477,7.5547037,3.5151415
2.3575726,-5.758932,4.9532423,-0.36079687,2.5862944,-0.054126382,-9.604407,-3.6911283,0.0016916706,1.477949,5.492299,-5.4259825
-0.24178371,-3.510955,-0.016789667,1.0954157,0.06003102,4.0791025,-4.826407,2.080931,0.8767263,-0.11490111,3.6911442,-0.3969382
-0.18898438,-3.2238774,-1.0096462,-0.6735613,0.32831255,-6.8082304,-2.6568148,4.3130713,0.000776974,-0.49004453,2.6511245,1.6352373
0.6232155,-2.6260462,-2.0235856,-5.2360864,-6.550052,-5.8663225,-2.6719675,6.837847,0.0068070507,-1.4376591,1.5167985,3.139233
-3.902419,3.9568384,-2.1162457,6.2032056,-6.93734,2.0481994,16.540232,5.090424,-3.910007,-2.1551669,-0.22321455,5.015529
-0.06540875,12.474493,-0.00028644397,0.24873944,4.1976337,-0.08917004,-0.24263114,-2.7504325,0.28975472,1.4293191,-10.919526,-0.5145973
-1.9967649,-1.58768,-1.6699566,0.5132353,2.3001049,2.9082532,-0.51084805,-2.7639856,-0.5939467,-3.519407,3.0304496,2.2093198
1.8603065,-5.880092,4.7557793,-0.12745342,-3.914753,-0.4628549,-7.359033,-4.035486,0.0022907679,1.0038269,5.405971,-4.116737
0.09128959,-3.508329,0.017426714,1.3664078,0.017855689,4.331162,-3.655612,0.047506083,0.5660467,-0.6669192,3.115665,0.7759741
-0.2718397,-3.4004426,-0.939585,-2.8217356,-4.388516,-4.621902,-4.290647,7.9617786,0.005796544,-0.094893664,2.9840767,1.214457
-0.61503214,-1.2238318,-3.6099763,-3.8133342,-6.6721177,-7.1814427,2.4917328,10.926204,0.0020931065,-1.2398175,1.1865416,3.7670412
6.3538017,2.5589104,-0.0006171507,10.97363,-2.1754076,17.043438,21.028154,-1.5718901,-12.079975,5.5155654,0.5749942,-15.650758
-0.71420014,14.416016,-0.00028711814,-0.31940576,4.786546,-1.513855,0.1092281,-2.3450737,-0.27933437,2.8286624,-16.082043,-1.3309276
-2.8622098,4.467895,-0.63417464,0.37313524,3.2160428,1.8837308,-0.16717651,-2.530003,-1.329968,-5.25289,-3.5128133,1.7109967
11.026066,-7.636371,14.2388315,1.865855,4.8390474,6.4055643,0.078654766,-5.66898,-1.9488378,3.061966,7.843784,-13.191496
0.16100487,-4.313224,1.1000826,1.2748497,0.9225117,4.1717496,-6.301291,-2.8160563,-0.008673938,0.027492464,4.516522,-0.44411638
-0.22016016,-3.9431524,-0.41843197,-1.3588092,-0.5521351,-8.7120075,-2.347678,4.6004076,-0.01967227,0.19080819,3.9327068,0.09494825
0.07610123,-1.7176589,-3.17108,-4.2180243,-3.9257884,-6.4581337,0.29226875,9.510583,-0.00026826747,-1.8622376,1.0801009,4.2357273
12.903168,-3.0209024,-0.0003439291,17.860922,0.11637574,21.249298,21.880856,-13.266922,-3.800271,10.061646,-6.5568666,5.5903544
-0.7335781,9.416736,-0.0002570988,-0.026079245,3.822189,1.0147599,0.5400048,-2.5507805,-1.1860095,-3.386511,-9.265046,0.15428257
-2.5181565,-0.61241066,-1.442702,0.16956232,2.6737053,2.5725856,-0.42502257,-2.8235373,-1.1118696,-3.0481222,3.2890158,3.8125584
0.69206536,-4.7195983,3.6355937,-0.8950406,3.2659657,1.4104075,-9.159297,-2.7253036,-0.036570624,2.4806826,5.694274,-5.029476
-0.13814996,-3.7689905,0.19524387,1.734161,0.094404966,4.7129164,-4.2963877,-1.0676751,-0.71628183,-0.22925724,4.007023,0.14156708
-0.47981736,-3.2127855,-1.221054,-3.215254,4.0225005,-20.37379,-4.3980346,6.5233407,-0.00021458871,0.17111008,3.787979,0.54333156
-0.9978777,-1.325821,-3.8416762,-4.8542066,-8.4167185,-7.324493,4.129881,11.9435835,0.5046356,-1.5342264,0.5599974,4.681251
12.867635,0.74891156,-0.0004241428,17.58962,1.6938893,34.950134,23.914146,-11.929899,-5.6201367,8.093639,-2.9158993,-2.0571077
-2.109798,12.72813,-0.00032391073,0.24958877,4.425106,0.41329956,0.7826489,-2.07757,-1.9019871,-1.4249902,-9.786433,-1.2894748
-4.0708027,3.4242787,-0.82860285,0.7007013,2.264869,2.6991878,-0.009052999,-2.0396469,-2.0660381,-3.9791996,-6.017833,3.9013145
2.9354436,-6.288889,6.1633306,-1.9068965,7.219754,-2.1905131,-5.539341,-3.2304733,-0.0058197975,2.0968883,6.385146,-6.0488505
-0.2656495,-4.480481,0.6625595,0.73147017,0.91923434,-1.1087974,-4.4837475,-0.40397194,0.40258878,0.2234554,4.6839905,-0.3561532
0.2517888,-3.4714792,-0.9913849,-4.1018,-1.6192595,-14.879293,-5.354417,8.131521,1.5855068e-05,-0.39779028,3.4616625,0.97363394
-0.88494164,-0.7892304,-4.5151415,-2.2427542,-6.127988,-6.4784136,2.288974,10.152699,0.001116694,-1.9175565,0.5364529,4.92939
12.391649,-1.4650438,-0.00037911366,15.881233,0.21120086,19.476841,21.331034,-12.04834,-2.933554,8.82414,-7.8586497,10.236562
-2.4771426,10.164932,-0.00018668617,0.43003562,3.8695745,0.9715898,0.09492713,-2.521025,-1.444624,-4.788259,-9.481768,-0.7610261
-4.2042613,-0.015884858,-7.906059,0.39906913,2.8042798,2.610107,-0.23360687,-2.557259,-1.6327215,-4.455888,7.000068,8.678188
0.7125305,-5.418976,3.2184496,-0.3513366,2.9429674,2.1887152,-8.81781,-6.08859,-0.013986016,0.8605037,5.535847,-2.824285
-0.6556061,-4.0138774,0.029995922,1.0161538,0.16810265,4.70269,-4.2497134,1.6861346,0.047884054,0.117421836,4.1746054,0.010913789
-0.21731955,-3.0814414,-1.1445048,-1.2994055,-0.093336,-7.487121,-0.8616885,4.117797,1.1084794,-0.36362928,2.7962492,1.4827573
0.4210493,-2.6030593,-2.3710036,-6.0292625,-6.5468817,-7.1696033,-1.8648152,9.288375,0.0007108229,-1.4717008,1.5201813,3.5703318
5.1039352,1.4691964,-0.00024171238,9.987161,-3.1792133,8.711031,19.293804,-3.163798,-3.589906,-1.7033539,0.47313976,4.6919975
-4.504221,11.102462,-0.00021370588,0.2806986,4.5176277,0.1579349,0.66679966,-2.0284615,-1.8152009,-2.2774622,-11.477345,2.4822066
-2.8341389,1.943413,-1.6357663,0.21860152,3.3594615,1.601881,-0.72373366,-2.8741095,-0.9836114,-2.20034,-6.388737,3.380845
3.1522012,-5.840241,6.7103305,-0.3539825,-4.222331,-2.7382526,2.3804111,-5.156099,-0.7566618,3.5864964,6.1283154,-9.265267
0.31601837,-4.8106594,1.2770637,0.87650466,0.70400566,4.320768,-3.6810293,-3.512072,-0.37106773,-0.5624144,4.2873473,-0.11390068
0.4229965,-3.3111024,-1.3619761,-4.014073,-2.8288555,-8.337564,-4.5137286,7.931964,0.0021681227,-0.9288409,2.846761,2.048194
-1.1853703,-1.151451,-3.8936956,-2.163179,-6.6085515,-4.377353,4.298285,10.637699,1.0653436,-0.8037928,1.219611,3.883503
4.2958913,10.754133,-0.00039935397,-0.22478023,5.718757,-2.0735855,-0.55666506,-3.2347667,0.36103058,6.3478317,-12.970229,-6.4738955
-3.8660357,4.9597955,-0.9423809,0.4408422,2.869142,2.3071213,-0.18352859,-2.2818143,-1.670401,-4.2147813,-5.3391795,3.5088894
1.9913113,-5.9771204,5.0983295,-0.9249512,2.5986376,5.3011703,-4.768445,-4.6086273,0.007153506,0.91035587,5.7311335,-4.7450047
-0.42005545,-4.5199895,0.67567277,0.8159179,-0.43995702,-6.2169647,-4.486429,3.6122086,-0.009112481,0.2927909,4.379534,-0.24379253
0.13865888,-3.268156,-1.1908013,-4.911664,-0.6734104,-15.875667,-5.2410765,8.118271,0.00027904566,-0.59778243,3.2978985,1.1922175
-1.1955054,-2.9451425,3.6243055,3.150544,-6.0161333,-0.3732766,10.031145,8.417351,-4.913577,-2.3705149,0.029318944,5.519753
2.7187655,11.2247925,-0.000344972,-0.50403833,6.362847,-2.4695175,-0.03854008,-3.2201715,0.27437168,4.60155,-12.028607,-4.685433
-3.6638846,6.2592936,-3.7517169,0.115786016,3.03655,1.9615821,-0.184892,-2.5013175,-1.44032,-5.0538936,-8.471409,4.8138337
-7.9084373,-7.3756056,0.36594656,-2.1365652,2.7604582,1.7534841,1.2213275,-2.8109334,-1.3595239,9.707246,7.36686,-16.302788
-0.59742564,-4.386322,1.599677,0.29058063,0.9151686,3.9184668,-7.7051525,-5.726847,-0.006947132,1.0923637,4.847797,-1.4471443
-0.22169897,-3.673889,-0.22156279,-1.5217067,0.8029077,-13.483139,-4.0999603,5.1192555,-0.006589614,0.13493945,3.5200887,0.66390926
0.33035746,-2.2968407,-2.432014,-4.980135,-6.950712,-7.767673,-0.048018515,10.486406,0.0018997325,-1.3586404,1.6343383,3.447135
6.3853607,2.039614,-0.00027924334,11.461254,-4.8098497,17.000963,22.064672,0.3755239,-18.989862,4.3084445,0.9181558,-13.810905
-3.9085877,12.400427,-0.0001798459,0.47241953,4.4233394,0.27295694,0.023537993,-2.5408814,-0.950083,-3.2117915,-9.312426,2.1496267
-5.6267524,0.16739328,-10.84812,0.95590305,3.1746655,2.1770487,-1.0798551,-2.782947,-0.9338573,-4.8164473,5.311935,6.274575
1.3525568,-5.196582,4.0857925,-0.4312512,2.6401753,1.8019689,-9.480343,-3.6243887,-0.010575359,1.5062071,5.5462427,-4.552252
-0.4803409,-4.0678425,0.43807778,0.20986521,0.1364386,0.38384718,-5.6776824,1.6951302,0.5276413,0.1940001,3.7593207,0.30340582
0.4750854,-3.8366683,-0.4796589,-4.405322,-5.254353,-4.6857386,-4.0544224,7.1067743,-0.00049404625,-0.63694197,2.7719579,1.726589
-0.4619911,-1.2820166,-3.71193,-2.001464,-4.947128,-4.9946895,4.584413,10.22777,-0.001619855,-1.8666714,0.37239444,4.877582
5.4084053,9.827235,-0.00035178213,-0.2193585,6.870577,-5.9864893,-7.722457,-7.7040014,11.532461,9.975313,-11.76667,-8.343609
-4.130199,5.909049,-2.465915,0.39900604,2.6007552,2.4808583,0.20532878,-2.097008,-2.1745243,-6.8100963,-7.8298345,4.167347
5.850883,-6.5164766,8.341705,-1.5561184,-3.8677883,-9.548503,-4.1375093,-8.530548,16.573826,1.2322745,6.0838385,-7.9528723
0.42540473,-4.504672,1.6883793,0.41407454,1.7790248,2.827572,-6.9050555,-3.1214523,-0.010761397,0.25743204,4.5676484,-1.6738522
-0.011850819,-3.865032,-0.523198,-1.0855254,-0.5661357,-3.0510883,-3.2749472,4.1585593,-0.00028862708,-0.31975964,3.2573385,1.282404
-0.1047679,-1.2437919,-3.340552,-3.4142733,-4.752808,-4.2443724,0.68164575,10.169149,-0.0012480523,-1.5210869,1.0710601,3.8324585
9.472748,1.2422183,-0.00044753833,16.655472,0.12550734,30.291967,26.844046,-9.764952,-15.85826,14.066768,3.9375825,-36.628616
-1.4797877,12.188823,-0.00017043704,0.4787338,3.4033587,1.5033052,0.6281491,-2.1530488,-1.8365753,-2.6031923,-12.659791,-0.22023082
-2.728675,-1.3305153,-2.126669,1.1114256,1.4343424,3.4257176,-1.1940422,-2.3830936,-0.5108966,-3.7460635,3.587851,6.5910034
3.0026035,-5.6727934,6.0893145,0.015443802,1.332567,0.3417549,-4.141345,-3.5864925,-1.0893567,2.5227304,5.752931,-7.5223036
-0.5026657,-3.4892914,0.14402223,0.3752924,0.8611199,3.3364024,-4.4790235,-0.052463025,-0.01729656,0.24788219,3.588736,-0.5802424
-0.040348046,-3.607862,-0.61271113,-2.1936264,-1.6217566,-13.417212,-3.7873378,5.9581256,0.0015826306,-0.2560353,3.4116964,0.28238153
-0.37726465,-1.5191485,-3.3372617,-4.3479924,-4.9514422,-3.878914,0.21898143,8.322055,0.0029784427,-1.4686493,1.2034032,3.6082172
10.97494,-0.61040485,-0.000326799,16.317019,-1.7075704,15.182938,21.634878,-6.928674,-3.5601888,3.9426472,-7.633222,15.563054
-1.8327128,16.204603,-0.00022447365,-1.0635691,4.9665337,-2.0553985,1.4917823,-1.6646466,-1.2621287,3.062597,-16.329205,-2.0045495
-4.608225,5.235099,-5.9648347,0.7852543,3.4957108,1.3815165,-0.20939194,-2.161311,-1.7426598,-5.4147224,-4.507759,2.8638754
-4.924023,-6.5720606,-1.7583098,0.5981722,2.8292089,1.9017822,2.5411181,-5.360931,-2.7113736,-5.2428546,11.740856,7.251358
1.5129366,-4.82848,3.6738064,-0.84443724,3.2148674,0.8408967,-10.35591,-5.0491614,0.006058257,1.201615,4.8047633,-3.5948985
0.12392816,-3.8145077,0.35734078,1.1302724,0.39052123,4.1426277,-4.4609637,0.18512906,-0.22630134,-0.47559458,3.5066822,0.34546542
-0.46167523,-3.803169,-0.37748158,0.328283,-0.16643417,0.040705204,-2.204278,4.359596,0.5072122,0.21717228,3.2613685,0.5923073
0.43157747,-2.8904483,-2.064519,-6.872994,-4.905969,-12.275169,-1.0631176,11.585394,0.0049961964,-1.3439714,1.6596212,3.4436114
-4.532305,2.4765952,-1.0114267,6.75684,-3.4035819,2.3210719,14.969171,5.9174366,-4.154604,-1.8380556,0.037174553,5.277525
3.8915076,12.7670355,-0.0003388027,0.15362461,5.019628,-1.57105,-1.0045998,-2.9241493,1.2072563,5.5079904,-14.01945,-5.9158597
-5.1621256,12.697618,-5.5509066e-05,0.19191454,3.97637,1.1553297,0.42949793,-2.330316,-1.6092703,-3.5243049,-10.898738,2.2959404
-5.954066,-1.3432318,-8.310333,0.4352321,2.6557522,2.539945,0.6393285,-5.959502,5.8580728,-3.0567126,7.185207,15.914392
1.5349127,-5.72366,4.1771946,0.092086986,2.8846161,2.4368086,-3.8397176,-7.0553536,-0.010359466,0.72206974,5.890142,-3.8501616
-0.36337343,-4.5385776,0.79751223,-0.43015897,-0.09260009,-6.7606835,-6.224919,0.32555914,0.0011519832,0.49098438,4.8280873,-1.0008522
0.23057348,-3.512244,-0.9071902,-5.313797,-6.103826,-5.4797983,-5.4772763,8.013245,0.0040164497,-0.6783413,3.1324334,1.2527394
-0.24619715,-1.7933118,-3.4721532,-3.3310928,-5.9147673,-4.2906203,2.2997544,10.977109,0.0062683504,-1.5347604,1.2039073,4.0193686
10.637793,5.8278246,-0.00043194846,0.4337967,6.2447248,-3.507829,-2.7189608,-4.197959,2.4564943,8.887954,-13.617424,-9.063873
-3.6181476,6.746452,0.27162012,0.7516103,3.064765,2.2093432,-0.5195356,-2.4515312,-1.3675771,-4.3213954,-4.642247,3.102609
6.9683957,-7.225075,9.228654,2.170471,-2.5232043,-1.733556,1.1863288,-4.7429304,-4.2752,2.743425,7.756085,-12.908522
-0.8038322,-4.2546525,0.52406883,0.8530288,0.7724414,4.4738507,-3.882748,-3.2722538,-0.010323595,0.3519135,4.705563,-0.3975446
-1.2023265,-3.3896286,-1.2284899,-2.32479,3.8373067,-17.039965,-5.2309732,5.9578724,-0.0012435331,0.56569505,4.1013217,0.38692537
0.015809186,-2.3560271,-2.8988662,-4.1605043,-6.174721,-6.381858,0.78587145,8.292372,0.0070491307,-1.6411446,1.4077015,3.9796433
8.920482,-1.6609445,-0.00039653823,15.397882,-1.4563973,30.758293,26.345993,-8.031845,-18.310703,12.838134,5.032456,-38.434376
-1.5932853,11.4064455,-0.00020539138,-0.42859325,4.3481884,0.027512662,0.7681747,-2.3387847,-1.5089724,-1.4744271,-12.90531,5.4622064
-2.0416982,2.6079519,-3.321711,-0.054945383,2.8244615,2.2531824,0.086079486,-2.4713514,-1.6491103,-4.241968,-5.023455,1.6865398
1.8650411,-5.8985353,5.194117,-0.5188844,2.8084595,3.2889688,-2.799464,-3.9332356,-2.3811269,2.2657166,6.334186,-6.78438
0.73597014,-2.4247658,0.73284537,1.2519151,0.358761,2.7273173,-1.0618865,-4.085454,-0.011785023,-0.79561114,2.2591717,-1.3840466
-0.83552295,-3.5168746,0.52857333,-0.2516318,2.397113,-14.450836,-6.548149,3.6107519,0.004984048,0.36672765,2.1916347,1.3538808
-0.043479923,-2.966368,-1.1408554,-5.8648195,-1.3771791,-14.368215,-3.7860496,9.286224,-0.002578157,-1.018524,1.2851918,3.1462305
2.7923832,-12.480567,39.694706,3.5897226,-12.491094,14.720068,15.435623,13.112072,-20.60245,-3.082218,-0.58105737,5.41379
0.90233934,9.712084,-0.00039096217,0.38775742,4.472701,-0.85602146,-1.0106581,-3.0020058,1.0826949,4.9741354,-10.384758,-5.8170953
-4.233654,6.227773,-2.479796,0.11452232,2.8480985,1.9663665,0.32660246,-2.1193438,-1.6962553,-4.664214,-7.6271024,4.738891
5.189457,-5.451019,8.277901,0.21599501,6.484021,8.236009,-0.8373969,-13.454448,23.917587,-9.138155,12.359792,17.993006
0.27447984,-4.647045,2.1862884,-0.90146655,3.8953247,0.8502648,-6.611335,-5.000499,-0.01721089,1.0048677,4.7755146,-1.910561
-0.6421151,-3.7686682,-0.49915138,-0.75451416,0.16878045,-1.9972496,-4.6669254,3.407242,-0.0036767449,0.16699106,3.2296755,1.1485302
-0.09937687,-2.3292253,-2.2130806,-6.0460424,-7.1177382,-10.498111,-2.9823616,9.983767,0.007856534,-0.8782009,1.8682227,2.5035198
4.518023,2.0435252,-0.0016106811,8.921733,-7.1086535,10.728074,22.471823,4.0035133,-16.150377,0.67574835,0.4595815,-4.7220173
0.02520959,11.470586,-0.00037222373,0.636027,5.238582,-1.370743,-0.7378787,-2.8803074,0.22541174,2.2383611,-9.409884,-4.9464793
-3.8791633,3.3595753,-1.064028,0.48924145,2.9983704,1.8536508,-0.116210096,-2.1174653,-1.9231155,-5.8779516,-6.426203,3.431859
7.984606,-6.3135605,12.965022,-0.7412274,-2.22326,-1.5891184,-1.899005,-9.919444,15.23695,6.5863175,7.6358337,-14.960477
0.03692487,-4.4264083,1.3613063,0.80709666,0.37659305,1.4636251,-6.396412,-0.88645154,0.010398564,0.2805153,3.7940276,-0.14870021
-0.0032300204,-4.1568713,-0.01742151,-2.700831,-3.1668794,-3.4396992,-5.7229166,6.9787107,0.00033996836,-0.4467001,2.7415416,1.4461786
-0.1562001,-1.9421377,-2.7854345,-2.6824868,-4.6976485,-5.50124,2.6503694,10.675076,0.00082269404,-1.5846158,0.7182213,4.430566
14.283232,7.284007,-0.00040401594,-1.6448851,8.942772,-10.750283,-5.7041836,-7.708832,11.466178,10.881995,-12.744999,-5.645489
-2.233877,12.16629,-4.897357e-05,0.4786821,4.032608,0.67126274,0.20474745,-1.9798461,-2.0088446,-5.259649,-10.363288,1.6970296
-2.4499707,-1.5561947,-1.6248355,1.1299673,2.711844,2.3986447,-1.1613858,-2.4412098,-1.1626855,-3.6055393,5.837201,5.3113217
1.4282461,-5.383836,4.191581,-0.23822324,1.9165862,2.5576115,-7.0148206,-6.1139274,-0.009084602,1.0670607,5.0428143,-3.748551
-0.41343573,-4.081756,0.73444015,0.79380536,0.10238767,0.36807096,-5.493078,1.6572062,-0.003480344,0.8273969,4.5986686,-1.0940825
-0.27947906,-3.5684772,-0.92186785,-2.1143312,-3.178316,1.7887108,-4.587789,4.5610704,0.008305566,-0.35732824,3.215691,1.2854525
0.18129799,-2.1454434,-3.1567833,-4.5830984,-6.4644156,-5.75978,1.8135753,10.04649,0.005170814,-2.056994,0.7527875,4.6820545
11.070134,-1.0798106,-0.00028364122,15.147894,-3.5075784,13.971394,19.856178,-8.240792,-2.8578765,2.1689472,-5.6132607,7.820823
-3.8359632,12.648734,-0.00023223675,0.66102517,3.6662045,1.0046191,-0.33042672,-2.1894178,-1.1706954,-2.0100248,-9.646606,1.3365747
-5.722745,-4.1143613,-2.0159702,0.69491935,2.5799901,2.4813876,-0.41485006,-3.949621,0.7802818,-3.643143,9.133759,8.874134
0.70837927,-4.909712,2.797223,0.13479543,1.925639,2.739613,-7.106334,-7.481177,-0.011165146,0.42756602,4.793599,-1.8337686
-0.458839,-3.866848,0.008164324,-0.12127671,-0.7848622,-0.63833904,-3.1676219,3.6665573,-0.41243374,0.12100041,3.6524858,0.042993687
