ancorasir/BennettWheelLegRL/experiment_data/2023-12-27_22-47-53/joint_torque_env18.csv
Joint_1,Joint_2,Joint_3,Joint_4,Joint_5,Joint_6,Joint_7,Joint_8,Joint_9,Joint_10,Joint_11,Joint_12
0.0,0.0,0.0,0.0,0.0,0.0,0.0,0.0,0.0,0.0,0.0,0.0
2.3651571,-3.1644118,1.6385185,16.268635,-16.742743,20.0,10.67709,-0.9497471,-8.532776,0.16284442,2.22449,-1.9612031
-0.30418825,0.80757385,-1.7629461,8.321738,-0.020560145,11.254471,9.901667,-4.599477,-10.861153,2.6669621,3.2733097,3.5721905
-0.5069287,-0.24819303,0.7227313,2.9817853,-2.7120614,4.2796373,3.2209752,-3.1098094,-7.931313,0.6615894,-1.1359355,5.567419
-0.6276965,-0.30843043,3.6378374,0.062281072,-6.1268773,-0.063572645,0.07862234,0.30643606,2.876675,3.5270786,4.704707,16.439255
-5.642986,-2.10741,-1.7385647,-2.525458,-13.12709,-8.414909,-0.25546503,-0.25118864,0.26976967,2.88826,3.215888,13.59875
-7.482143,2.8031058,-1.8373742,-1.1559649,-7.9692817,2.6943789,-3.2315152,-0.104608774,3.094303,-3.4567363,-2.5618987,15.158796
-8.245902,2.5639734,4.237316,0.7741387,2.7098336,1.0427356,0.51178384,-0.92017365,5.1804056,-2.6004257,-3.7090752,8.895276
0.620039,-2.3222814,12.566235,1.2779188,2.9841661,-3.709484,-1.6330824,-2.9933329,1.4469991,0.88276863,-0.8866017,6.0389194
0.42935085,-0.77848196,4.859829,4.101659,0.39543784,11.101818,7.771627,-5.712434,-5.766733,-0.16074991,0.75624037,-0.33713543
1.1050342,-1.0689936,1.1320513,3.8837633,-2.2200952,5.0945454,7.1084447,-2.8812053,-1.3091512,0.7491218,0.9030638,-0.29036307
-16.030382,-3.3376772,-11.388542,-0.19461742,-1.8432385,-0.28618813,-2.852023,-0.5478785,5.823331,-10.340604,2.8599818,16.050266
-6.2963367,-3.257442,-5.213352,0.7086317,-4.87851,0.28803504,-0.83121943,0.63897824,1.3724594,-3.140013,7.0869884,10.243416
-7.627868,0.037851334,-3.6728084,-0.71387315,-0.8440738,-3.412003,-0.06976318,-0.5152254,1.5301358,-5.8929076,0.37162566,10.59124
-10.42786,0.8665073,1.3611768,0.13585806,1.8023529,1.0041785,-0.10567653,-1.1941366,0.4883992,-6.09195,-6.639303,7.3306856
2.6895185,-2.2884483,13.145684,1.7606401,1.87399,-3.3007183,0.32471848,-3.9483423,5.6200237,0.7742729,-3.3435993,13.427059
1.3492292,-1.9426153,6.650717,6.9931045,2.688283,11.631039,9.509558,-3.9175463,-5.831827,0.87625813,1.877387,-0.45070046
0.97022605,-0.894333,0.9299165,3.710123,-3.346376,2.2345471,4.956928,-1.6959075,-3.19683,1.1005573,0.22365487,-0.51271546
-14.644024,-4.607401,-9.132191,1.6948688,-4.7310157,-0.99759126,-2.7970567,-2.469524,4.6855793,-3.5509293,6.3020096,16.076487
-7.675293,-2.340528,-4.455719,1.0280944,-6.616369,0.22629285,0.049822927,0.56405604,-0.3882235,-3.698904,4.368698,10.772482
-8.685597,-0.28311825,-2.683035,-2.3353825,-3.8111784,-6.8994026,0.6293788,-0.60447097,1.4923611,-5.648494,-4.796407,11.282024
-9.376677,3.367825,3.1860893,0.067290545,1.3761926,0.7898984,0.34076166,-1.2301426,2.1024153,-4.3019195,-7.0290227,9.133913
1.4478202,-2.1134806,12.8380995,0.5735245,2.6957572,-3.4364662,-1.7561369,-2.9120984,2.6023824,0.6113763,-2.539359,8.155084
0.032344818,-0.63449764,4.665211,6.6266026,-0.78415036,11.538272,9.322167,-3.4445233,-4.4269905,0.18918574,0.4611206,-0.0938586
1.4330854,-1.6049259,1.4035823,6.4292326,-0.6351553,6.624864,7.5764422,-3.8955896,-4.122289,0.751528,1.8422139,-0.4648801
-0.20144081,-1.3385758,4.1123943,0.1916498,-4.6230044,0.58169746,0.48541307,1.8512645,-6.9437885,-0.014232159,0.83324194,-5.189475
-7.8979473,-4.0706673,-4.8879285,0.51037014,-6.0987406,-1.9090507,1.0313993,0.81949675,1.2728863,-3.9488735,3.3234098,8.905301
-8.804845,-0.2838366,-6.380209,-1.712673,-4.3424215,-5.644619,0.26844,-0.3257215,1.2250351,-5.886712,2.3940883,11.530123
-9.473571,1.2429973,-1.3285519,-0.1954515,1.2195379,-1.325669,0.56349945,0.36305046,2.6593373,-6.719287,-7.310116,9.146585
-9.916579,4.024231,3.1478848,0.086398125,1.3935971,0.022915363,0.77063227,-0.2180829,0.242095,-6.4696426,-8.058939,8.145678
1.6109262,-1.182526,16.070112,1.3945713,2.7846255,-0.4977684,3.0113792,-2.8386974,-1.0601232,4.150567,-0.28015423,-10.326408
-0.4438753,-0.8920584,8.562405,6.49045,1.5119903,16.493216,9.703287,-6.6691246,-5.992189,0.4259143,1.2584634,0.18083388
1.3698735,-1.2026029,1.8377439,3.7693026,2.6096663,8.293727,7.485042,-4.362236,-1.2987444,0.58154595,2.2833002,-2.1364708
0.23382902,0.5080838,-2.230096,1.3074903,-1.1808677,-1.8237543,-0.72064507,-0.95644283,6.6183796,-9.933134,0.98268175,13.778406
-12.97337,-5.00565,-9.197357,2.5078378,-5.203577,3.244631,0.33776903,-0.09071255,1.2290001,-7.169328,5.8516607,10.183766
-7.5535326,-2.1460335,-5.0904655,-0.13847247,-4.550594,-1.6023564,0.22829533,0.5795821,-0.11366078,-5.1399016,4.3576508,8.054857
-8.319263,1.7441709,-3.0218377,-0.59525394,-0.7762785,-1.9083031,-0.058893204,0.16390562,1.887898,-4.9973264,-2.0621438,10.729229
-9.626133,0.57026196,0.14226353,-0.045264482,0.98183966,-0.32800484,0.4212416,0.158957,1.0783972,-6.376856,-8.048053,6.650539
0.5235919,-0.35698438,10.0703945,1.3679881,-0.62454486,1.036396,2.2264752,-2.039065,-1.7560284,-0.3793419,-5.152437,-0.6104163
-1.0212516,0.21824932,14.887451,7.755905,5.864024,18.212952,14.988344,-3.5532207,-7.7647543,-2.6115954,2.2181644,-0.36529613
2.049191,-0.06305075,-0.53047013,3.6683295,3.2533917,10.696497,6.3615246,-5.7009983,-5.397736,-0.94431055,-0.93925095,0.7902422
-2.0340643,-0.9773793,4.39732,-1.0042456,-0.86849487,0.3508488,-0.018093824,2.009157,-4.471655,-3.892584,2.8858492,15.685099
-10.275958,-2.9434924,-8.373814,1.3005803,-5.110028,-0.5168458,0.8243015,0.5489938,0.798702,-7.383794,6.720158,8.410414
-8.0179615,0.8875185,-5.006092,-0.17227542,-1.3992618,2.607808,0.38694143,-0.5668082,0.9156048,-7.2620463,-0.49103892,8.857638
-10.297829,4.3345704,-2.1896267,-0.015544891,1.1259362,0.54097104,-0.06504387,-1.2571836,0.16187486,-7.052708,-5.3669376,8.498894
0.92741036,-0.07676935,7.701355,1.4890575,-0.4129763,1.2667875,3.4920626,-3.1373377,-1.9149916,1.4152842,-0.40213656,-4.6749377
-0.033168346,-0.92438745,11.097306,8.330124,1.363071,18.619558,14.527952,-7.84917,-7.9304132,-0.507036,2.4592583,0.20394349
1.5496286,-1.8014913,0.7392415,5.77725,-0.05747521,6.497357,8.639377,-3.5242443,-2.5432696,1.0051973,1.045252,-0.48312855
-16.724104,0.7236512,-11.591424,-0.18537939,-1.8425158,-0.32443327,-2.1241167,-0.34135747,4.1579494,-4.534504,5.613721,16.107435
-7.443931,-3.4713752,-5.0051246,0.474222,-5.262655,-0.82663786,0.14072347,1.5531286,0.9434167,-3.001508,5.1218147,9.602793
-7.39511,0.79030216,-5.57635,-0.27538458,-1.2137392,-0.11271191,0.10508227,-0.372777,1.4717573,-5.65193,2.9553719,10.907638
-10.112142,1.7780857,-3.8909178,-0.2004621,1.3055768,0.77542853,-0.26509792,-1.319951,1.1205848,-8.479328,-3.1999097,7.784609
1.0248213,0.31199765,6.999011,2.0666661,-0.3978976,1.3632421,5.165617,-3.5527704,-3.1281037,2.3648427,-3.7697175,-3.6243825
-1.4305618,-1.2500081,12.336341,9.868472,1.7374442,19.157743,11.185221,-5.9180346,-5.08782,-0.20827073,2.2093267,0.60744476
-0.72885084,-0.5537307,-4.3763895,6.1879635,0.6452769,7.3072114,5.8981624,-3.1052375,-2.6512814,-0.1467936,2.3505745,3.7342098
-11.537675,-0.7651396,-10.327444,0.88963926,-1.0469031,0.98836637,0.5643963,2.5822837,-6.3752975,-8.014398,-0.2176733,16.069443
-8.112734,-3.2516193,-6.4052596,0.14740217,-5.371929,-1.3916466,0.5061159,0.2737993,0.46790624,-5.8685565,4.6217523,8.844496
-9.767862,1.0306917,-1.7970991,-0.092068195,1.4524068,0.7683394,-0.0868665,-1.1166129,1.1243778,-6.7108064,-4.6652713,7.485654
1.4599577,-0.46893907,7.6716957,1.0683136,0.51478195,-1.6534238,-0.6186104,-3.5443149,4.2161226,-0.42261553,-2.893188,8.528248
-0.94562554,-0.1995554,8.039829,4.2375984,3.0842633,14.423635,7.5318694,-6.5979276,-6.009505,-1.2125782,1.2420325,-2.1733277
1.3107312,-1.4069378,1.6118221,5.3857837,-0.40864944,8.314198,7.0083942,-1.931837,-3.6845903,1.1846826,0.97873485,-0.5105374
-15.770671,-6.2972207,-9.624101,-0.9758089,0.9949,-0.022314072,-0.8407805,0.85560465,-4.0598,-10.402494,0.34215736,13.5517645
-8.250969,-3.4817307,-8.065975,0.8981799,-3.2694387,-1.3847021,-2.0362377,1.5141201,1.0426928,-6.1600575,5.7741756,8.518143
-8.142171,2.6168551,-5.9119377,-0.6770408,0.6810976,2.1577075,0.73751163,-0.44756794,1.5667613,-8.355554,-2.4765215,7.7654667
-10.456198,0.29353112,-2.0649855,-0.16082072,1.4213917,0.5306554,0.09400976,-1.4023938,0.5090533,-7.858486,-6.6825805,6.8327546
-0.0050969124,-0.8687787,15.086051,11.904615,-0.47507358,20.0,-4.16951,-2.4708405,5.5504947,-1.814054,-2.9685106,9.037716
0.4629649,-1.9589849,5.6385303,7.6484456,2.532408,15.706729,11.142882,-4.993435,-4.5426273,0.9050505,1.7868838,-0.71033275
0.858021,-1.0247862,1.0898273,2.9966757,-4.408511,2.975122,6.1772265,-1.4378059,-0.3728094,0.5940125,0.84606314,-0.92449474
-12.051684,-4.9806876,-9.105022,2.9917583,-5.276949,2.6685972,0.2828095,0.13915348,2.9404457,-3.276613,9.588985,14.031099
-7.343019,-3.9829364,-4.2136497,0.48404464,-6.376227,-2.9176726,0.5922997,0.14422107,0.41810074,-3.4509969,4.5218515,9.938393
-8.177232,2.1027656,-3.67802,-0.20840335,0.06600118,2.8321452,0.36620212,-0.7062392,2.5173569,-5.881665,-2.1397934,10.682748
-10.628686,1.7299508,-0.4471823,0.11170149,1.6507055,0.9946141,-0.080907464,-1.2626057,1.3680854,-7.0688987,-5.951625,7.199955
-4.6020403,0.86835575,15.097355,6.8707743,4.90664,17.975721,18.034761,-5.2373304,-6.852953,0.29645967,2.5958943,-4.137392
0.83688235,-1.8127551,5.63099,7.1558323,2.3206103,13.398776,9.033476,-3.576171,-5.4994965,1.1535093,1.761209,-0.44305563
0.7332971,-0.740983,1.0888923,4.327579,-4.178822,4.3631253,7.222254,-2.1044104,-0.96377695,0.84470385,1.1822379,-1.1733837
-14.034089,-3.7733788,-10.980236,0.6611196,0.24447083,-1.3990023,-0.66373444,-1.1348567,3.8440113,-7.729574,6.2705817,11.615202
-6.2242556,-3.5278902,-4.320355,0.36176854,-4.997818,-0.5348879,0.41122043,0.072360575,0.594506,-3.529893,6.9083295,8.272438
-9.946853,0.7720274,-3.8514583,-0.2946899,1.5853205,-0.6130154,0.06298268,-0.16479635,1.6785698,-8.710672,-2.900652,7.257223
0.8213398,0.1409291,8.990835,2.1621919,-0.8251102,1.5805197,4.3112106,-2.9383912,-2.7420816,0.8661294,-4.2187953,-2.421587
-0.20588315,-1.5308666,9.036717,7.405151,1.1361768,13.688107,9.740598,-2.721944,-6.3881407,-0.36381325,2.094091,-0.7516415
1.4566691,-1.3901775,-1.4863364,5.735404,0.8218678,9.241361,7.1809897,-3.3679461,-2.7966564,1.8445385,1.1069808,0.21884608
0.13948202,-0.62147737,3.6023848,0.1316495,-1.3623983,-0.19547641,0.6578043,2.0690193,-5.807388,0.2630689,0.62564945,-4.3049994
-8.351221,-3.850587,-7.711343,4.935688,-7.5422525,7.5313587,2.21311,0.87735724,1.4241104,-7.582206,6.362775,6.8186016
-8.231877,-0.85079527,-5.391159,-0.14363146,0.48204404,0.77307034,0.3347566,-0.72601414,1.1589087,-6.959949,-1.2815282,7.7170353
-8.35375,2.798688,-0.9435562,-0.088760495,0.79144347,0.8001685,0.40099242,-0.98424315,1.3125801,-7.324696,-5.0897303,4.4400296
1.772306,-1.7748532,14.83955,1.4206109,2.6242123,-3.0775318,-0.94849205,-3.1752148,4.431832,0.35553503,-3.1613832,12.302812
1.1812135,-1.6492879,3.9741359,5.8902426,0.55560756,13.409342,8.849644,-5.0996323,-7.7699137,0.8608546,1.7091842,-0.6772273
0.9796742,-1.2644111,1.2541888,4.1970797,-0.9454237,5.908597,6.558788,-3.0737784,-1.4788246,1.1066949,0.96074593,-0.27595413
-14.774846,-6.2882624,-9.809781,-1.1169612,-0.3572129,0.79267836,-0.30791807,1.0511191,-3.9317765,-12.603933,-2.518341,15.936571
-7.8638287,-4.4012175,-4.879925,1.548502,-6.2881603,0.5766661,0.5816636,0.6893064,0.7304294,-3.067453,4.0484195,8.644028
-8.626286,1.0049591,-4.191478,-0.4581039,0.67135763,1.912473,0.48314333,-0.8358636,2.967163,-6.688338,-4.1456995,10.179354
-4.0104346,4.8640976,-4.881464,2.6159673,0.2600317,-1.2882221,4.3430696,-1.9031057,3.363769,-1.1107343,-8.481379,2.5743804
-1.5386283,3.3423443,10.224415,5.9361215,2.367796,15.67222,12.515651,-6.085537,-7.496293,-2.5712557,-2.72119,0.43079734
0.6729541,-0.7476479,-2.4366946,6.157117,1.4105052,7.676757,7.142827,-3.4032614,-2.2871487,0.16285253,1.5390644,0.1613257
-12.167791,-2.5664496,-8.151122,-0.3045259,-0.67920303,0.8513906,-0.120815516,2.0393019,-6.1160307,-9.743733,-1.3959371,14.374474
-8.48557,-3.2810712,-6.398271,0.86962205,-5.477167,-2.0661361,0.58343863,0.60811996,0.69183254,-4.33716,5.9307613,10.095134
-9.191989,-0.1493088,-5.5891128,-0.20327568,-0.0534119,1.326833,0.06649709,-0.94352007,0.99606836,-7.8890433,-0.339491,9.360886
-8.633117,0.9063797,2.4414299,-0.4909773,-1.185998,-0.04030657,1.157752,0.9305577,1.1716979,-5.889675,-9.478195,5.9856744
-1.9254487,1.8218794,13.173034,5.6715717,4.726561,17.125298,17.70511,-3.9617333,-7.250224,-1.9693282,2.1819868,-2.3536024
1.5147243,-1.9316356,0.22789276,7.9344068,3.0103364,10.547244,9.285201,-3.791319,-3.4851997,1.595608,1.0474308,-0.37757027
0.9490423,-0.7768234,2.388859,3.7057054,-4.0668516,1.8280792,7.6426077,-1.7057344,-0.29757994,0.22961712,1.8308885,-1.6165576
-12.428429,-4.294444,-10.994471,0.57568514,-1.5765598,-1.544182,-0.22044659,-1.134131,3.4924202,-7.925481,7.024575,11.847637
-7.809098,-2.8267488,-6.2829967,1.5373338,-5.330085,-1.7897539,0.9020889,1.3809183,0.22895688,-4.6165943,5.1579895,9.2258625
-8.536326,1.5409102,-5.000402,-0.51511216,1.1668214,-2.3695953,0.28704762,-0.1640222,2.3373322,-7.814285,-2.292737,8.774611
-8.252105,2.0431342,0.17299688,0.3748424,1.482116,-0.31227493,0.8248507,-0.35707474,1.6039357,-6.21057,-5.1676316,6.7030964
1.0613189,-0.9229287,14.494013,1.2165365,2.4671102,-3.5880585,-1.5573635,-3.3131065,3.926632,0.6104212,-3.2269802,9.794292
0.07958877,0.52480316,6.8215046,7.312173,1.118267,10.232891,8.604313,-4.2957535,-7.1195483,-0.14081168,-0.28981924,-1.6813293
1.00766,-0.21913934,-1.3225447,2.8553853,-2.5115347,0.63035285,6.427896,-1.7222914,0.15536869,0.12550187,1.215575,0.9744115
-10.687272,-5.176322,-9.258765,2.3812826,-4.794422,-1.2782286,0.7577679,0.2710495,2.505352,-5.517095,5.2435875,12.574212
-7.6462,-0.41159892,-5.1191716,-1.3731809,-5.5106096,-7.614786,0.40185285,-0.46258736,0.37392926,-4.1239176,0.9951427,10.683694
-9.40221,1.6851822,-1.2655926,0.13973618,1.7198851,-0.43225765,0.41420758,-0.29060078,1.5187746,-6.054056,-5.5590396,7.916688
5.1119184,0.7768606,13.020203,9.289159,3.334569,-7.319395,8.029202,-9.545209,7.4325476,1.7146151,-6.1924324,11.8526745
-1.0994687,-0.40460157,11.66635,5.5730166,2.9676807,18.76294,13.057345,-8.620207,-4.7981243,-0.08939879,1.4566281,0.5365411
1.3010592,-1.1451128,-0.0679463,6.384575,2.8903744,12.378721,8.387373,-5.852042,-2.7586803,1.5198282,0.88438463,-0.0154492855
0.28548717,0.31971633,-1.1340076,2.5709825,-2.995144,2.3619585,5.9488406,-2.5902805,1.0018473,-0.21273267,2.1331162,1.7173784
-13.780812,-1.9716902,-9.39869,0.48037338,-4.325407,-0.5255294,-0.94822216,-0.80236244,4.9183125,-5.047216,5.1735578,14.70259
-5.4708557,-0.7345662,-5.793586,0.3319667,-5.0894823,-1.6790347,0.62799025,0.016768575,0.20781487,-4.2828345,4.2113805,9.387769
-9.446485,-1.6994513,-3.8259602,-0.40572953,1.4993472,-1.5857558,-0.37464333,-0.21738672,1.1725202,-7.121739,-1.7046825,10.504044
-11.060989,2.525468,0.81296766,-0.49617517,1.4534965,0.8610561,-0.41300845,-1.3457966,0.2529461,-7.400173,-7.637032,8.636387
-3.1483476,-0.10623622,15.953291,6.8360176,-0.92958975,20.0,-1.6559496,1.0268593,4.0120535,-0.013852596,1.203371,3.8746629
1.3018742,-0.4184425,-0.22663952,4.25537,1.6846986,12.027189,6.7444987,-6.636342,-4.5760713,0.40026712,-0.9139447,1.7478721
1.0659811,-0.5287558,1.8981538,3.531128,-2.843763,1.9244694,5.1599493,-0.5845779,-2.3658276,0.7217356,-0.04271543,-0.35013902
-13.784024,-3.8172503,-12.112598,-0.06388104,-0.34937876,0.52942693,-0.8780918,-2.0236437,4.179412,-8.166427,6.2103405,14.961994
-9.392913,-3.0237727,-6.359549,-0.49870294,-4.2477236,-2.169094,-0.21144903,0.7616343,0.20568424,-3.5874698,5.6198025,11.441981
-6.673561,1.3970163,-4.1630883,-0.24304128,0.5934727,1.462815,0.39026475,-1.0379448,0.73392344,-6.0817213,0.20558023,8.312099
-10.8889885,3.2427363,1.5898399,-0.45435894,-0.03297186,0.48840785,0.46893883,0.16887379,0.91857946,-6.076453,-10.096295,9.136174
-2.231926,1.1440725,14.051874,4.369942,4.86096,17.531788,17.375782,-2.4224095,-11.721039,-1.9303226,2.3691263,-1.1770372
-0.16550946,-0.7786946,2.8386996,4.311932,2.811308,13.017214,8.462909,-5.457389,-2.2253413,0.22642195,0.9368539,0.08811951
1.3250544,-0.50294256,1.7752769,2.6733074,-2.19853,2.3268275,5.4932947,-0.7386906,0.58745325,0.73444796,0.68646073,-1.2227204
-10.549001,-5.188219,-9.214565,2.346483,-4.4862146,1.5500097,-1.8740203,-2.432445,3.6379163,-6.9572916,9.145353,11.681958
-6.040419,-3.0584664,-2.9608397,-0.18377376,-7.650898,-3.5688095,-0.39620733,0.6753669,0.5837166,-3.5546699,2.9261053,9.285344
-8.880545,2.9692159,-5.5485826,-0.82254815,-4.006289,0.7453933,-0.13230371,-0.9342115,2.4208724,-8.065217,-0.9027754,10.6510935
-9.53818,1.8228972,3.0126739,0.18819392,1.9797478,0.7762251,-0.03110981,-1.3403642,2.7234354,-4.8528285,-6.3606453,7.114821
-2.6478488,1.5993142,16.317287,9.435608,0.665545,19.380594,-4.421013,0.51084805,0.6179404,-3.496666,1.996449,-7.6783543
0.93783116,-1.6557994,5.313559,5.007488,0.65766287,12.252531,8.04973,-5.4880314,-4.8916807,0.8039924,1.4023609,-0.71021116
1.1390134,-0.19871855,-0.10507417,3.2295659,-3.9792516,4.488166,5.56939,-2.7110076,-4.3879313,0.95732987,-0.12367463,-0.370808
-15.705201,-3.309075,-11.499383,0.58689046,-1.5022907,0.46239233,-1.0972848,-0.8374405,3.8667712,-7.5572486,4.5173635,14.4129925
-8.024006,-1.3785346,-7.46946,-0.36652404,-3.8879051,-4.6495795,0.5590687,0.4853369,-0.0484142,-6.622745,4.918461,9.460134
-9.272621,-1.0211903,-3.8251157,-0.30937517,1.5168781,0.5043993,0.4489416,-0.8456466,0.2178674,-8.267529,-3.5833635,7.418169
-8.992273,2.231937,0.16827369,-0.6735235,0.68647677,0.4566195,-0.12956059,-0.60336685,-0.12702662,-7.3136535,-6.824361,4.6378946
-3.652997,5.512085,-4.878227,-0.07354164,0.765375,-0.38589287,0.09484148,-2.0042057,1.5324037,-2.1619778,-5.9541254,1.222507
-0.57398045,-1.3627005,9.82713,8.35975,3.240599,19.496986,13.2767105,-6.9088726,-6.0636544,-0.7168702,2.1060252,-0.3604374
1.410367,-0.9491346,0.64380217,4.810438,-0.5867034,9.351719,8.353569,-2.9215598,-3.381209,0.89572173,0.9236369,-0.5395969
0.5699117,-1.3264167,3.4167032,2.336596,-4.7060895,-1.3358419,2.8540716,0.49800253,-3.161655,-0.08647156,1.0823531,-3.393211
-10.13594,-3.054343,-8.024387,1.8493813,-4.9586563,-0.5276085,0.8888283,0.7529602,2.7346306,-5.7540064,3.9901407,11.317186
-8.292883,-3.2573946,-6.1470757,-4.154991,-2.3710365,-9.494108,-0.93440914,1.4867873,0.24960585,-8.054359,0.67803645,8.956971
-11.1808195,3.019019,-0.8433504,-0.13414955,1.2055655,0.78765917,0.024694562,-1.2518859,1.0542045,-7.843284,-7.0059075,8.095545
0.8294004,-0.42380238,8.27955,0.6145158,0.9592283,-1.8093805,0.1824522,-3.1943505,4.6382194,-0.09235558,-5.684499,1.6329722
-0.736861,0.79271555,5.2920604,4.892656,2.357296,14.80018,8.467798,-6.348712,-2.289777,0.057501078,-0.031162739,-2.2536085
0.8343549,-1.409275,2.164281,2.9992218,-4.6558657,3.4326622,3.7661464,-0.9181535,-1.6505239,1.0448812,2.259243,-1.7407637
-10.191728,-2.752839,-6.27546,0.53643364,-5.8227997,2.0509605,0.906168,0.020352125,3.0155938,-4.1867423,2.1014462,12.6136
-7.9073453,-0.77130115,-4.386289,0.14233232,-1.5186216,0.3320253,0.467103,-0.439842,1.2928091,-5.868517,-0.553882,9.786833
-9.845545,3.571949,-0.09982395,-0.54312015,-1.2459292,1.5284395,1.0879872,1.2744784,1.5619345,-7.3888583,-7.6462135,7.4258456
-4.0232496,-0.13137674,15.657934,7.753627,-1.0519044,20.0,10.469604,-7.175554,-3.1222706,-0.5578766,0.17109728,4.2165136
0.50881076,-1.6245856,2.824236,6.1126223,0.75458527,13.869565,8.555552,-7.4432015,-4.1630144,0.8831383,0.4728508,-0.30951297
-0.6273496,-0.7330456,-2.1074834,2.780474,-5.116496,-0.032138705,6.0180063,-2.7163105,2.5539613,-0.3294711,1.8959656,1.9427512
-9.680312,-5.378771,-8.627844,2.7646952,-6.401738,2.874975,-1.6470406,-2.0989103,2.5810897,-6.810968,4.7003393,9.086782
-6.725468,-4.3000503,-5.0052285,-1.3316916,-6.4654293,-2.6707087,0.35414577,0.051071525,0.77024674,-4.1043453,3.5660787,9.562892
-9.458377,2.3263173,-5.6223326,-0.45313513,1.150581,1.2800169,0.10713148,-0.5710025,0.95808905,-8.7684145,-2.0459661,9.030514
-4.008759,4.0225177,5.281042,0.9730958,0.44990635,0.7631868,1.7990613,-1.3603487,-0.9822011,-1.0670742,-5.6348405,1.3075411
-1.7943941,-0.9718442,13.149457,7.9386945,3.7476447,18.803059,12.787732,-7.3761044,-5.3740363,-1.2207618,2.0645013,0.74224734
1.4710865,-1.2120912,1.6480305,5.3910227,0.48175466,6.328543,7.549866,-2.0954545,-1.9525564,0.99523604,1.0898376,-0.5924585
-15.795154,-2.631265,-10.131008,-1.0988283,-0.18826854,0.47543526,-1.0652063,2.7433712,-5.6967,-11.893194,-1.8131201,19.021593
-10.171898,-5.0308256,-6.303887,1.1746535,-3.9634137,1.7211927,0.030190945,0.90597796,0.5249766,-3.1698697,7.6665664,9.745251
-6.768936,-0.67563486,-4.953193,-0.49588352,-1.625148,-3.9565268,0.29579282,-0.42555308,0.769265,-6.062978,0.9572264,7.858967
-10.427488,0.022461653,-0.75166726,-0.096235275,1.849863,1.0806255,0.41953433,-1.4967141,1.989926,-8.027389,-6.8418055,6.135874
1.1001091,-1.602967,14.468744,1.1472101,3.122674,-3.3549252,-1.0537424,-3.4466329,3.8790214,0.5703373,-3.0945144,10.594501
0.45283866,-1.6643195,0.37351024,5.411052,0.9925289,10.179762,7.262646,-3.8262558,-4.2895756,0.06668854,0.53046036,-2.778968
-0.02847433,-1.0078592,2.4840631,0.7088328,-6.1158786,-2.9327087,1.1790478,2.3136702,-7.267478,0.53765464,2.1071477,-4.9465456
-10.964288,-6.142506,-8.178231,2.8798468,-5.9307947,4.921857,1.4788973,0.42255473,1.350513,-6.1158366,6.8994493,9.641143
-6.6343536,-1.5649906,-4.5300603,0.411808,-3.0700803,-1.42352,0.5986316,-0.091287374,0.5061471,-4.7351227,2.7493267,10.052425
-9.495581,1.1075325,-1.6921113,-0.15076923,0.9641259,0.49755025,-0.080978245,-1.0158024,0.7350652,-7.6492724,-3.5372481,6.1616488
-0.15296507,3.8239572,-7.135747,0.3977573,0.928246,-1.1102023,0.19924068,-2.517581,2.4638674,0.29160064,-5.194193,-1.9961803
-0.19094817,-0.12333965,10.388658,6.412922,3.581164,20.0,13.913433,-7.738928,-4.4614244,-0.6708545,0.9123001,0.33739567
0.7608217,-0.7607032,-0.8504606,4.246834,-0.53031003,9.033473,6.700565,-5.4056377,-2.8621838,1.2826009,1.2163455,0.38994622
-18.14479,-1.2429628,-13.277034,1.1301761,-2.6563768,-2.459043,-2.665799,-0.9672725,5.7230988,-6.93722,4.6136193,17.221434
-8.20623,-4.5068655,-7.156616,1.9901156,-5.2631245,3.049326,1.1886797,0.79831123,1.4653518,-3.5807514,9.900093,9.877065
-6.902653,-0.20380437,-4.582234,-0.4544094,-3.049405,-0.5666727,0.46468914,-0.3002392,1.1051105,-5.3380084,0.20704484,9.914431
-9.665248,2.2937808,-0.73801184,-2.2967734,-1.9787934,-3.1141384,1.0231699,4.0912604,2.0124834,-5.688403,-7.8005953,8.059128
-0.9993458,3.4689672,-6.099839,-0.38522077,1.0395429,-1.0695543,0.8324604,-1.8486121,2.2727945,-1.641895,-7.2721863,1.6337729
0.39931262,-1.5492907,11.028586,5.4668126,3.8719125,14.097781,12.03869,-4.4879885,-5.609026,-0.6884154,2.1586232,-0.14429927
1.0790033,-1.2621434,-0.5676075,6.163779,1.448713,9.6883,7.142526,-4.556899,-5.681195,1.615719,0.9524751,0.17041558
-0.77298117,-0.48017788,-1.4134307,4.002055,-3.0238495,1.2801354,4.025697,-1.8192303,-0.60070336,0.5460483,2.1550837,0.70762134
-14.774792,-5.2338715,-10.306866,-0.19420615,0.8431653,1.284223,-1.5645647,-2.5314827,5.4506674,-6.168667,5.0376296,13.797799
-11.822095,-3.246656,-8.165915,0.30425194,-1.2971866,-0.82898355,0.29996514,0.9918247,2.2835484,-7.5337625,0.5408187,8.277028
-7.593722,-0.2777555,-4.523095,-0.44489217,-2.8574667,-0.68511254,0.43414474,0.70372486,-0.24040604,-6.8334928,-2.257184,5.8200817
-11.067852,-0.675442,-4.6101184,-3.050864,-0.55753565,-2.3598688,0.7047951,4.1046906,0.94411254,-10.342971,-7.806528,7.240457
-0.35970867,0.25336224,6.468046,0.48644102,0.45897913,0.7988558,3.592198,-1.4260788,-1.1135526,-2.5770893,-9.420879,3.677917
-1.7106051,0.2947259,12.914663,6.2435856,4.909814,17.48804,15.497518,-4.8916836,-2.1873176,-2.6009254,2.0759463,0.17657423
0.8726032,-0.6640434,1.3970757,7.358616,2.787935,12.308531,10.410474,-3.5596814,-6.7684107,0.40948892,0.25751972,-1.4501703
0.924325,0.34488475,-0.70168,5.963406,-0.26554585,6.068779,7.0744133,-2.1569352,-4.742088,0.76360226,0.21425754,-0.037338376
0.65654933,-0.5041061,3.6770687,2.727181,-3.5482242,-1.6594424,4.2466288,-0.32612467,0.29133916,0.23743212,0.76596785,-1.633508
-15.332678,-6.661662,-11.795836,-0.8136283,1.2384666,0.0005210638,0.31456232,-1.4472201,4.0539746,-11.890768,0.09565592,18.027088
-9.588855,-2.450591,-7.249991,1.0094002,-3.5903006,-0.045827746,0.36804807,0.10639411,1.6284835,-6.2046432,3.9624763,8.935442
-7.67913,0.9414253,-2.94735,-0.72281086,0.43782896,0.22402287,0.8245697,-0.15846205,0.8986412,-8.334814,-3.2925057,5.564222
-10.831046,0.5134541,0.6069911,-0.21251988,1.1661215,0.46584702,0.28156948,-1.1921005,0.4606794,-8.4000435,-10.383786,3.6221805
-4.760817,-0.14318275,15.804058,4.8625207,4.925494,19.086819,16.250523,-5.2283115,-4.033445,0.41563606,1.3831902,3.6861892
1.2815119,-1.3635759,1.1483948,4.146637,1.2810822,8.403343,5.206243,-3.1893249,-4.265819,1.8950055,1.1613421,-0.42277253
-13.597406,-1.6593826,-12.626774,1.5095508,-1.4592863,0.6255467,-0.72287846,1.8723063,-5.1088457,-0.5793624,0.17973042,-3.1806397
-8.251541,-5.4516134,-8.382599,3.990066,-4.97629,3.9754443,1.4460425,1.2663937,0.3603404,-5.049023,6.383413,8.559064
-9.484735,-1.4388677,-7.6401014,-0.4449826,0.38786554,0.1945914,-0.10655236,0.5783727,0.75485784,-6.930922,0.7960783,9.256438
-9.626549,0.5266434,-3.6901257,-0.07189083,0.8578116,0.9848983,0.007508397,-0.6871457,1.6117816,-6.752082,-5.229714,6.555848
1.5358438,0.41931403,12.653715,3.0304422,1.2710804,-0.7353554,6.0746746,-5.309128,-5.133876,5.8513136,3.2825692,-14.166508
0.43164754,-0.7986584,7.5799656,5.55984,4.088276,16.88175,9.200784,-9.925498,-5.7371283,-0.085052826,0.9113803,-1.7698711
1.3346428,-0.72171354,-1.5902648,4.0806375,-0.2700044,8.021248,7.163113,-2.9112797,-3.7974308,1.1301799,0.8579767,0.5335314
-11.966778,-1.5005031,-10.282463,0.5953627,-1.0661372,0.28227115,-0.116051435,2.069234,-5.763402,-8.196486,-0.060905933,17.321287
-12.557216,-15.456776,-11.09835,10.205854,0.94096446,7.0840874,0.6706542,0.6417261,0.5232981,-5.0367465,9.960485,6.6476955
-9.704083,-12.187212,-10.529507,5.201239,2.5009882,1.5625116,-2.5356257,0.23050344,0.8973791,-2.9367797,1.6360402,4.362517
-7.0211544,-13.937872,-10.54574,3.1205254,-1.9085102,0.44080114,-2.0711083,1.3220525,0.92583084,-3.7937436,1.8387265,4.803069
-4.5984945,-5.353863,-10.169051,-3.5601356,0.33101973,-6.201676,-0.24821997,4.2756023,4.4107037,-7.8325434,-12.131186,1.1761104
1.5379164,-0.3188219,6.6385245,0.45391798,1.3706093,-1.0175114,3.3286629,-2.5654025,4.808474,-1.6289632,-12.710291,6.2769957
-0.69344103,-1.066227,9.794657,5.5645094,-0.05488932,14.619531,8.507897,-10.267502,-6.045635,0.12959024,1.2085352,-0.61357653
1.0199502,-1.0740824,-1.2633399,5.571937,-2.1193075,8.752703,7.357796,-2.8075073,-2.6120195,1.1146604,1.377958,0.34712505
-9.873234,-0.1407466,-9.582035,-0.5615845,-5.021302,-2.8178039,0.8527037,2.7659898,-5.2081623,0.53607464,0.008720398,-5.1815033
-8.106962,-2.7419324,-6.7671795,0.6969801,-4.989623,2.5834732,1.2901726,0.29194093,1.4955071,-4.2716236,4.486871,11.089726
-8.966118,-0.31331205,-4.661633,-0.16801274,-1.2820452,1.691788,0.34174967,-0.40695214,1.6825254,-7.16347,-2.0697925,9.449271
-10.487156,1.5703497,0.22880304,0.39813304,0.89570093,0.25577497,0.043338537,-1.2393627,0.90798825,-6.4932294,-6.0656238,5.9210796
1.1603012,-0.9751506,10.07907,1.0429139,0.91065526,-2.3580341,0.73039055,-3.329649,5.665141,-0.55423915,-2.7630844,4.855785
-0.810501,0.14152193,1.2808567,6.407465,4.7790995,13.835942,10.902517,-4.646682,-3.3788803,0.23264337,-2.3955665,1.2519505
0.86648095,0.35771266,-0.98089445,5.6558385,-0.6056044,8.276393,8.339959,-3.4550126,-1.6073492,1.1042717,0.594291,-0.024175644
-15.434632,-4.8670034,-9.505951,1.902753,-4.5329905,0.33034325,-0.6343343,-1.0702949,4.258471,-6.1808586,5.484455,15.601482
-7.978152,-4.166605,-5.6960573,2.3641431,-6.2482967,-0.096972466,0.8766918,0.81138563,1.4936152,-2.594583,6.362707,11.130019
-8.86929,1.9803687,-6.3935137,-0.5799806,1.0919158,2.66254,0.28446412,-0.9426565,2.5755622,-8.718244,1.0366776,9.65445
-9.778843,3.7271006,2.6055188,-0.12090659,1.3853505,0.25654292,0.16743922,-1.4611297,1.4157896,-6.7647257,-7.553385,5.9473925
-2.5611634,3.950532,14.665084,11.702517,1.8358526,20.0,1.7788143,-2.2546272,6.3468924,-0.56289864,-2.9471447,3.5261831
0.3143561,-1.5325084,5.526231,5.2199173,1.3406686,14.454427,8.879778,-6.606687,-5.420686,0.835613,1.5794573,-0.8529222
-0.11716044,-0.44430482,-1.5444561,2.5950067,-2.2597346,1.4942288,4.8774486,-1.618829,0.81578094,0.10836971,1.1766391,0.94486356
-17.324022,-3.5456338,-10.431145,0.5095465,0.16075468,0.6335782,-2.4366775,-1.8254721,4.1805625,-7.4539514,4.9509654,14.220833
-9.479938,-2.685135,-5.6868215,0.10324329,-4.935105,-0.1115551,0.20911884,0.41851324,1.1775024,-3.0757742,5.776539,12.008179
-8.333568,0.6455029,-2.6853623,-0.52331614,0.7994802,1.7387972,0.32880235,-0.8549161,1.6169202,-7.7835546,-3.0439177,7.334648
-10.843001,1.4224285,1.3807784,0.4537661,1.2661467,0.5792494,0.21037447,-0.9750352,0.8318102,-6.1072583,-7.1549535,5.4990206
-3.7349412,-0.54373074,14.082603,9.562043,0.101065636,20.0,12.368001,-6.299439,-5.932249,0.64162827,0.4332056,4.43855
1.5980661,-1.6742561,2.1555977,6.591975,1.9660176,12.907934,9.689058,-5.321885,-4.9089737,1.4093074,1.102694,-0.5621084
0.30099416,-1.1777385,-0.9707792,3.758643,-4.67097,4.345505,6.9302645,-2.0388834,0.41099334,0.11517763,1.0704975,0.55784535
-10.742243,-4.690712,-8.344801,1.1667162,-4.6747932,-1.4451771,0.38482714,0.9822004,2.1825583,-5.844944,5.763277,10.788517
-7.6891665,-1.6441977,-6.556767,0.3703474,-5.629452,-1.0184703,0.26378965,-0.1528194,1.4142152,-3.579745,2.8027496,13.22905
