ancorasir/BennettWheelLegRL/experiment_data/2023-12-27_22-47-53/joint_vel_env10.csv
Joint_1,Joint_2,Joint_3,Joint_4,Joint_5,Joint_6,Joint_7,Joint_8,Joint_9,Joint_10,Joint_11,Joint_12
0.0,0.0,0.0,0.0,0.0,0.0,0.0,0.0,0.0,0.0,0.0,0.0
-1.6021371,19.705053,-14.142881,4.527968,-1.2321674,6.784906,15.636337,5.4011483,-26.376133,-1.8956736,-29.830868,-6.9043565
-3.9274738,-13.202932,8.788028,1.1878122,1.2758857,-1.1025746,-2.4129448,-1.7328371,4.4471846,-6.7311006,17.96993,7.889758
2.7906072,-2.576894,1.9498341,1.6575651,1.2186656,0.9607513,-2.2269802,-6.806182,-0.8092979,-1.3878828,2.620287,-1.2837499
1.0309144,-2.6787443,-0.6109689,1.4302315,1.3391778,2.837393,-5.361376,-3.427979,-0.017291427,-1.2313002,3.7353187,0.828591
-0.6210456,-2.0730999,-2.3314948,-4.3202424,1.3402147,-16.233494,-3.4583864,4.772369,-0.05356674,0.16145602,3.529043,0.6548016
-0.012748122,-0.80015737,-4.048996,-8.719125,1.856677,-33.324314,-4.0923557,6.760575,-0.004705772,-1.732768,1.9661627,2.462189
-4.42518,2.3315957,-8.423354,-0.5524511,-6.9860916,-3.3061144,7.960349,8.664916,-0.0019285479,-1.6950768,-0.03210081,4.8307867
2.5955546,15.733185,-0.0003188668,2.652873,2.181154,2.142571,-6.1516614,-7.3666573,11.026029,7.4010234,-13.229843,-7.9727545
-5.390831,1.2865796,-8.206876,1.5861216,2.340945,2.227519,-1.2140174,-2.4511168,-0.8850056,-5.8055625,-0.26011902,6.5270834
0.2065463,-4.2773824,5.0244603,-6.2337856,-3.1578093,-2.9234526,-0.5754077,-2.4154396,-1.9672599,6.8889294,9.51975,-14.075044
0.32165867,-3.6937811,0.9381296,0.36636698,2.2062635,2.2207627,-6.342147,-3.3995674,-0.012575404,-0.10805627,3.4763722,0.05202216
-0.77911437,-3.402589,-0.7158483,0.19541997,0.6375354,3.9033098,-3.5280175,2.7263293,0.32278505,0.19369994,3.0098803,0.78983706
-0.57677346,-1.8967582,-3.002895,-6.306681,-5.081933,-8.734172,1.6361907,14.135902,-0.0012356627,-1.0462749,1.1914594,3.8703215
9.018571,6.710158,-0.0004260192,-7.0805817,8.145092,-9.689474,1.2886249,-5.7420716,3.8496761,16.28354,-11.480513,-12.503439
-3.379493,12.421483,-0.00022375229,-0.2904043,5.365328,-0.8164739,0.30977574,-3.1887622,-0.5132078,-3.3382015,-9.844503,-0.089676514
-2.8844655,-1.391464,-1.7852582,0.3889329,3.4117208,2.1412241,-0.5590539,-2.7794547,-1.2509327,-2.6983762,6.3031554,6.00153
0.9116149,-5.704582,4.049287,-2.083304,7.6694927,-2.577655,-6.5851564,-3.9038155,-0.0563582,1.3427594,5.8270726,-3.287181
-1.1110679,-3.9651794,0.10910382,-0.6842704,1.2082881,-5.9967566,-6.9688983,0.5245781,-0.6697796,0.42246008,3.8649833,0.32034194
0.15598969,-3.3162487,-1.2840674,-4.188814,-3.9069088,-4.475613,-2.3930364,7.820803,0.35281816,-0.7422887,2.4261172,2.3502314
-1.4836695,-1.5196712,-2.5314717,-0.7146026,-8.542013,-4.754975,7.9053946,10.693607,-0.35092196,-1.2352065,0.6899985,3.9148521
2.2239442,10.458274,-0.00039023638,-0.1926802,4.654183,-1.2293345,-0.51736116,-3.164124,0.7381257,5.302149,-12.798321,-6.0088487
-3.735405,7.976511,-8.7116525e-05,-0.522977,3.8212976,0.83590764,0.48323232,-2.4179497,-1.5739123,-4.4451823,-8.570211,0.8881708
-6.526658,-3.7897685,-9.509533,0.9250954,1.7725905,3.1113122,1.1947198,-5.3794565,3.3009608,-4.8627987,11.316908,12.258043
1.4190719,-5.5212893,4.214029,-3.0774481,7.222704,-1.1029153,-10.830007,-5.409728,-0.028700268,1.602889,5.661582,-4.080155
-0.26088706,-4.0672956,0.3311561,0.69437075,0.3344403,4.133951,-3.9482288,2.1881123,-0.008499682,-0.041403383,3.6065323,0.18964879
0.14641646,-3.524537,-0.8537049,-2.7100165,-5.4778876,-2.6734936,-2.4278483,4.7564645,0.004389287,-0.764505,2.3266459,2.161816
-0.17442241,-2.078108,-2.6362035,-5.7315016,-7.7332344,-7.804745,1.1276631,10.885374,0.5669447,-0.8913948,1.5448247,3.2090507
5.682589,2.0306077,-2.5759757e-05,12.315247,-2.7229846,12.193693,19.590971,-0.5345651,-5.7705717,0.2063218,-4.38907,8.771759
0.11752355,15.036697,-0.0002778226,-1.0056783,5.3578725,-1.8559294,0.61567533,-2.8050785,-0.18509308,3.706687,-16.682018,-3.4672382
-4.883678,6.309063,-1.0982956,0.2303033,3.4649096,1.3113072,0.22687997,-2.2193499,-1.4622309,-4.654764,-7.407,3.1165338
-1.2902856,-4.552515,-1.8969562,1.1667186,1.7198145,3.1795735,-1.0133342,-2.542775,-1.1324816,-4.419819,6.0022817,2.7640896
1.3890941,-4.70148,4.3249393,-0.1731608,-0.5992218,-5.284887,-4.077987,-2.77743,-3.0237594,3.0136228,5.928043,-8.135103
0.6500994,-3.8738313,0.91970503,1.5076592,0.43872428,4.2345214,-7.109695,-4.2603774,-0.011310577,-0.27638924,4.290963,-0.75511926
-0.23825297,-3.489636,-0.6136601,0.5214382,1.0460331,3.7521296,-3.3973484,3.4443016,0.14996421,-0.152234,3.5315902,0.9259194
0.14650115,-3.0938327,-1.5085763,-5.3679175,-5.4171767,-4.7567368,-3.7938204,8.672317,-9.299663e-05,-0.6909894,2.6172535,1.8592793
-0.73610723,-0.9806931,-4.058847,-3.2013824,-6.67182,-6.6639795,5.486385,12.929508,0.012822272,-1.7105302,0.4973303,4.5142093
11.250717,3.4399524,-0.00041318545,15.049456,0.69551903,32.473705,24.327333,-14.362345,-6.08919,12.553935,-10.001706,-5.934359
-2.786107,13.495068,-0.00025322894,0.24165465,4.6495056,-0.002404307,0.5030549,-2.1786444,-1.5511492,0.3644815,-10.401563,-0.54111683
-4.169706,5.6103644,-4.5763516,0.767964,2.5473037,2.5401347,-0.62293255,-3.2614937,-0.5356773,-4.501303,-2.8530731,6.639961
5.3644547,-6.959646,7.8739552,-0.28385925,-6.1881657,3.9810238,-2.6773527,-11.967779,26.477331,-0.7132964,5.389674,-4.3907824
-0.6543819,-4.1855984,0.38854328,0.43049973,0.602275,4.0528655,-4.4559803,1.793689,-0.0052432828,0.51793015,4.258955,-0.542222
0.40782088,-3.8253121,-0.38038543,-3.3860576,-5.625633,-3.2122722,-4.6063366,6.742401,0.0026518265,-0.68801737,2.8949924,1.2033757
-0.7246905,-1.3376266,-3.5881317,-0.9450981,-5.1334405,-5.834764,4.5638013,10.8596945,0.0009071813,-1.5689353,0.53214747,4.637783
10.269265,-1.4376088,-0.00039709016,14.102713,-2.6693728,28.54991,24.115147,-10.321498,-12.230065,14.148889,5.44634,-37.451183
-3.7822623,11.554988,-0.0001744554,-0.18582883,4.426796,0.34414306,0.703909,-2.6584926,-1.0010953,-4.432505,-10.232574,1.6502831
-1.5502133,1.8378053,-1.3930064,0.42804223,2.6037173,2.7274303,-0.14688367,-2.6069283,-1.6297569,-3.3672705,-1.0578084,1.7229627
2.5733786,-5.716494,6.2980933,0.32935706,1.1247354,2.5349936,-0.83553433,-3.2589118,0.25401005,3.359485,6.3392925,-8.836547
0.04818633,-3.8498545,0.55199915,1.8754148,-0.2878693,4.929037,-3.2449164,-2.3728504,-0.0054676905,-0.1469638,4.120359,-0.35796547
-0.0011159256,-3.0996978,-0.89508486,-1.8697264,-6.2173686,1.5421826,-6.246854,6.390147,0.0012417284,-0.502325,3.1497226,0.8952235
-0.23863886,-2.6554658,-2.165865,-5.9734144,-6.1756825,-7.3988204,0.083053686,11.364892,-0.00017588411,-0.5731329,1.867683,3.2456076
-0.55669993,-1.5255787,-3.7356224,3.166535,-4.992381,-0.3948342,9.974503,6.067773,-1.3223615,-2.4306152,-0.28018397,5.785746
0.22358404,13.942848,-0.00031010417,-0.11704174,6.024207,-2.2286768,0.28130338,-2.688322,-0.9413765,-0.6203745,-12.837855,-1.3465762
-4.5303764,6.062141,-1.617318e-05,0.85363394,3.4649148,1.4228853,-0.48103434,-2.375018,-1.3276848,-3.9535997,-8.071682,3.8029723
-5.3376966,-1.5501114,-10.730825,1.3406062,2.2813783,2.8786128,0.14391342,-8.224258,14.962615,-4.705575,9.257248,21.488749
0.9064923,-5.3549514,3.4179027,-0.71202856,3.7307048,0.9474932,-8.058331,-5.205173,-0.009812696,0.8878654,4.9273305,-2.5216837
0.10807368,-3.75019,-0.7107096,-1.8287921,-5.3970933,-3.5603194,-3.1433706,6.834024,0.00043380517,-0.32124647,3.1058326,1.3612628
-0.4436291,-2.0303576,-2.948574,-0.9912198,-6.9065733,-2.6216385,7.696999,10.177331,0.3084077,-2.8954887,-0.25587112,5.91536
2.244662,10.790212,-0.00039005897,-0.12121509,5.028771,-1.40729,-0.56830794,-3.549447,0.9318869,3.867179,-12.53493,-6.6395445
-3.9390988,9.661192,-5.3421187,0.33900347,3.6010554,1.5733627,0.17038856,-2.3080907,-1.7459812,-7.139661,-7.751326,7.070695
-4.918539,-5.990486,-1.5358198,0.6692433,1.6532954,3.2071023,-0.14223158,-3.4116912,-0.28095546,-2.2911654,9.936162,5.877392
0.071174696,-4.9242935,2.080456,-0.4064291,2.162066,2.7853322,-8.976468,-5.1881967,-0.010918591,1.0097536,5.466024,-2.6461778
-0.8218681,-4.058546,-0.26721364,-2.9646425,4.945901,-23.14374,-6.1778603,5.6055303,3.928519,0.96097153,4.622806,-0.52412105
0.21286035,-2.5286026,-2.3077176,-4.1297197,-5.066353,-5.7867017,-1.1209942,9.385643,0.00080495083,-0.84430546,2.2445757,2.9218419
0.33639193,-1.6000034,-3.6797488,2.2444637,-4.6960845,0.13986886,8.679197,8.442018,0.044600334,-2.4326305,0.18024144,5.490599
1.7703152,12.694199,-0.00036265125,-0.14738703,5.108221,-1.3852044,-0.019815594,-2.7330835,-0.4437141,6.0999756,-12.910998,-4.1109686
-3.5203354,6.967026,-6.27407e-05,-0.5290642,3.501066,1.1914772,0.6736746,-2.2527688,-1.6085148,-4.0125213,-8.583787,0.99422246
-4.817663,-6.567743,0.14129806,1.2415868,1.9424266,0.9878197,-0.254722,-3.0243945,-0.4962602,-5.396383,11.1173,6.5259347
0.5102217,-4.812402,2.4337602,0.09158533,1.6187111,3.073294,-8.207534,-6.296254,-0.015844926,0.5093845,4.832998,-1.9312919
-0.60599095,-3.8335307,-0.18665886,-0.53662825,1.8593444,-10.362031,-4.818005,3.445464,0.0046255034,0.26046947,3.9766324,0.12079674
-0.49493036,-2.2013292,-2.308517,-4.870036,-4.2972403,-9.260797,-2.5000231,9.583559,0.00020907354,-0.60074264,2.0872586,2.328487
-0.85016763,-0.83978736,-4.2645817,-0.47033235,-2.2561085,-3.6337917,5.9808717,9.543113,0.0057314034,-1.9271047,0.29792544,5.14907
-1.2109405,16.877718,-0.00024249626,-0.14457875,4.0764117,-0.6423946,-4.3380084,-6.4276853,7.7747126,4.2648835,-15.6626,-3.5445402
-3.755407,4.0689025,-1.0872828,1.6589457,2.3030622,2.7253394,-0.28348237,-2.842309,-1.320973,-3.8552864,-0.36400673,4.705408
0.7156609,-5.221946,4.4227276,-3.3699167,-1.6063304,-2.7907503,-6.37592,-0.5152054,0.0031167157,3.7175992,6.135792,-6.8400764
-0.3980582,-3.9378626,0.11129184,0.5642035,0.8360301,3.7638302,-4.362769,-0.031796046,-0.0101211,0.083253816,4.3905697,-0.5949853
0.39988008,-3.3404949,-1.0345414,-4.0582085,-0.5861566,-10.310903,-3.9866996,5.7371836,-0.0044984287,-0.6961965,3.0116544,1.7362357
-0.41132265,-1.271943,-3.6407332,-3.4027252,-6.773477,-9.168886,2.05616,11.586859,0.0023790463,-1.4556149,0.71636915,4.544292
11.808192,7.9731116,-0.00037646288,-3.4294093,8.335467,-10.282691,21.105276,-14.315253,-18.308084,10.630372,-5.703189,-31.19362
-5.087771,10.475907,-3.7158527e-05,0.06838255,3.9184372,0.59615546,0.26180995,-2.1617386,-1.4995239,-3.8430712,-9.722658,2.9826167
-3.6782413,-1.0607301,-7.767083,0.21142258,3.276335,1.7258158,-0.44090217,-2.377353,-1.5800124,-4.3983083,2.8494291,5.350258
1.8998085,-5.225087,4.504122,-0.36100703,2.6506999,1.7552229,-4.3095326,-4.9471726,0.24557182,1.7962623,5.434547,-5.5069838
0.17918654,-4.72845,0.9454186,1.0427152,0.3838415,4.981038,-3.8901036,0.56514746,-1.8487524,-0.030277416,4.8479595,-0.34842345
-0.18854955,-2.734624,-1.7817922,-3.9091935,-1.2350323,-13.636957,-4.3659096,7.698442,-0.0164872,-0.27436298,3.3803656,1.0074551
-1.3442744,-0.6332289,-4.7374115,-2.4490345,-9.675759,-6.0842333,5.2208195,12.404022,0.37102777,-1.4071273,0.48259217,4.9146085
5.439349,10.3293705,-0.00039964798,-2.5942054,9.4057865,-9.320187,-0.7753072,-3.9118044,1.0928065,6.249831,-12.5566635,-7.753547
-4.2440166,7.7155604,-1.4623209e-05,-0.06455292,4.004844,1.3615224,0.20474088,-2.8804462,-1.2298388,-4.901753,-8.866736,4.4465923
-3.4516702,-5.6788435,-2.1110997,1.2891661,1.4454799,3.783916,-0.15168035,-4.5836787,0.099892795,-3.5666623,8.928494,5.3964305
0.13896874,-5.437921,2.304936,-2.4376788,8.534201,-3.2283082,-7.05472,-3.4133773,-0.029667297,1.3133572,6.2591605,-2.3693674
-0.68929654,-3.4317756,-0.9277587,-0.06757431,0.62758285,0.77169997,-2.6796823,2.2311504,-0.31414273,-0.30203858,2.9451709,1.6273803
0.2836883,-2.3688335,-2.7315364,-4.7512984,-6.0752063,-6.4090166,-1.6054862,10.741843,0.0021989741,-1.6781889,1.4905638,3.6021478
6.798348,2.55189,1.5748414,10.738805,-5.4406395,10.401719,18.44824,0.5231614,-5.2407293,0.14173736,-4.2576346,5.646802
-0.92091984,11.3560295,-0.00029258343,0.21133588,5.070051,-0.97908336,0.022185843,-2.599623,-0.9917009,0.2398682,-10.920338,-3.3923178
-4.265557,0.89935493,-7.7249928,0.1848411,3.7716055,1.4497008,-0.4662944,-2.60011,-1.3721652,-4.3473687,-0.4712624,13.559938
0.4599904,-5.4032617,3.4256217,-1.2104857,5.6546507,1.4287026,-8.608086,-4.1081543,0.012057239,1.6743228,5.5332284,-3.1811566
-0.9674096,-3.1411722,-0.72187793,-0.063358836,-0.2644296,-0.62605125,-4.592496,2.7055578,-0.06721668,0.27541766,3.3508906,0.59006673
-0.073774844,-3.0692344,-1.687279,-3.080524,-4.959158,-4.96153,-2.670843,7.642767,0.23016284,-0.49909014,2.8104336,1.7216743
-0.76345944,-1.0835907,-3.8105776,-2.696412,-6.931156,-4.5338855,5.2998295,11.216579,0.33995274,-2.4823043,0.102621004,4.9972067
3.4332638,13.234916,-0.00039037468,-1.3792725,7.9342313,-8.918045,-5.910757,-6.9716477,9.807459,6.8061123,-10.923765,-9.835721
-5.3755503,5.379097,-0.07175789,0.3368183,3.356196,1.3435344,-0.34369582,-2.492566,-1.0372971,-4.066406,-8.274375,2.699157
-5.4272356,-6.6708827,-1.0563825,0.7438052,1.9961389,2.6839194,-0.41638005,-3.8570676,-0.20586385,-4.227688,11.869404,7.4410124
0.37866485,-4.876437,2.3155165,-0.7849463,4.1095624,0.72120047,-7.2183456,-2.916959,-0.00093876943,1.0828886,4.799029,-1.6693147
-0.8228306,-3.8998492,0.17843668,-1.6290044,-2.4605398,-2.254472,-6.526458,2.6346164,-0.00062383304,0.6460948,3.4847956,-0.052432038
0.30534473,-3.3720205,-1.1901593,-5.1622677,-3.9770656,-4.9030466,-3.0715277,9.443298,-0.0003433692,-0.5198818,2.531144,2.0192506
-0.9348579,-1.0186964,-4.0411124,1.3609796,-3.9968314,-5.1910725,8.261481,8.93927,-2.3859754,-2.275736,-0.041365042,5.038569
10.584918,7.58472,-0.00037783576,-2.397342,8.427205,-10.307962,-3.404903,-4.7298656,3.9906187,12.849614,-13.271804,-8.870013
-4.0290966,10.902852,-8.33698e-05,-0.403192,4.2093706,0.74519783,0.9127867,-2.4261649,-1.7145032,-3.7554142,-12.624349,1.6311609
-3.6044593,-3.5629694,-2.1725247,0.807095,2.265519,3.1053123,-0.3829847,-3.6905117,-0.12818463,-3.886921,8.475624,6.9494658
1.3534721,-4.305486,1.6796327,1.2956613,1.8281224,2.6825838,-3.7406764,-5.111297,-0.010511623,-1.1855888,3.5348182,0.346719
0.004075665,-3.456465,-0.45006463,0.003799599,1.3016924,-1.570114,-4.550015,4.2103014,-0.21157843,-0.4172142,2.9535797,1.4564682
-0.40610376,-2.0890303,-2.3620367,-6.134224,-7.29822,-7.7680182,-1.1930141,10.125997,-0.0002679581,-0.7572301,1.7503611,2.5580108
8.361851,0.24792191,-0.00011612312,16.968456,-4.413913,17.73961,21.394482,-2.3023458,-6.8364964,-1.3180491,-7.0388584,12.410036
-1.3262076,12.529598,-0.00029333035,0.5385248,4.676575,-0.72458744,-0.3701094,-2.59592,-0.40871525,2.504378,-12.935417,-0.13280421
-4.109931,6.68828,-0.065471634,-0.100070514,3.91047,1.2004942,0.3441448,-2.4176264,-1.9908133,-3.280737,-9.466937,4.6414104
-5.641628,-1.7712078,-12.055021,1.0661049,1.9675236,2.9795458,-1.0429461,-2.80267,-0.63333076,-4.4752626,8.403667,8.72355
0.84982836,-5.0866075,3.9718518,-2.6512167,5.6336484,-1.5457073,-8.621929,-3.1249864,-0.025853064,2.5032988,5.717305,-5.6851892
0.18403181,-3.9303043,0.20196314,1.0443758,1.0299367,3.8350406,-3.7340584,0.53191465,-0.007213019,-0.41855007,3.5487053,0.7928226
0.15209761,-3.1590748,-1.3204368,-3.6708608,-1.0852346,-9.533038,-3.425684,5.5448403,0.0025926225,-0.8004072,2.4342427,1.9724041
0.05863836,-1.1116588,-3.695257,-4.439883,-4.717427,-5.7795434,1.1871811,9.601628,0.008917545,-2.3778634,0.40462682,4.740206
14.817481,9.13668,-0.00043621997,0.46660712,7.4422297,-8.509612,-6.726828,-7.5705314,13.343134,10.492372,-13.071916,-12.320475
-4.880648,8.469929,-6.28266e-05,0.095803164,3.5589576,1.1318256,0.21590821,-2.3745553,-1.5183666,-4.368089,-8.153651,1.8865833
-4.4547114,-5.2597733,-0.6604602,1.611759,0.9945586,3.6990173,-0.5388083,-3.8017082,0.4504248,-3.1016371,10.989962,6.4689593
0.21200454,-4.8739147,2.4533253,-0.42585632,2.6347332,2.3697894,-8.059541,-5.4200196,-0.012103085,1.2404172,5.083586,-1.932713
-0.22555241,-3.8614671,-0.26954782,-1.3955337,-0.16042636,-5.034601,-4.034686,4.3128943,0.00016457308,-0.18173078,3.1497684,0.9400416
0.5089413,-3.068755,-1.6159586,-4.7227297,-3.240075,-10.581831,-3.5205224,7.600807,-0.0007491214,-1.2773556,1.9328693,2.6910796
0.07022766,-6.935904,23.174885,1.1188016,-11.617634,7.366192,12.135543,13.627293,-14.65567,-2.5113513,0.07374489,4.8624873
0.1884194,13.398416,-0.00030860677,0.33020905,4.6048717,-0.8119017,-0.35968053,-2.6628833,-0.11855045,0.9551927,-13.505595,-2.1934128
-3.4883075,6.9737797,-0.40018985,0.28334707,3.7026706,1.3046132,-0.20153555,-2.4974673,-1.2625126,-6.378759,-5.4252367,2.7545786
-3.08899,-5.2200403,-1.5539812,0.5975168,1.746285,2.9449666,-0.57375324,-3.998768,0.43986177,-3.1833262,9.573011,5.4409995
0.15097742,-5.5180006,3.6900177,-0.46336523,-1.7120576,-1.306601,-8.662734,-5.558424,0.00095939287,1.9734095,5.5390444,-4.1314487
-0.30300203,-4.639701,0.4717065,-1.2082901,0.6729172,-6.981825,-5.7088037,5.1241174,-0.31860408,0.086834505,3.7383983,0.75042653
0.26014286,-2.764187,-2.1370854,-3.6294608,-3.5157979,-4.5964265,-2.4475744,6.9274635,0.003574576,-1.0923901,2.0950963,2.8118396
-3.7280915,-2.0058403,14.40137,2.0103683,-8.494863,-0.002714823,11.607236,10.012809,-6.222013,-2.2017608,-0.00968577,5.5246997
-0.116892375,13.162116,-0.00031188043,0.092220336,6.2045407,-2.0128982,-0.32420522,-3.3757505,0.14090677,0.008944002,-12.1211405,-3.077831
-4.288061,7.820557,0.39523214,0.116634235,3.973675,1.5926327,0.07801403,-2.5067143,-1.7709577,-3.3711963,-5.8720827,2.677123
-5.9369645,-12.521403,-1.8653351,1.2138339,2.130433,2.667842,0.54321533,-6.3067107,-1.2338881,4.9239173,8.188259,-15.461215
0.002977565,-4.633014,1.1139433,0.35008898,1.9155555,3.0496244,-8.173967,-2.7193787,-0.016789567,-0.05124914,4.678923,-0.7864192
0.14375429,-4.0335164,-0.47519276,-4.3688154,-3.2421856,-7.1021867,-4.201667,6.242298,-0.0003218901,-0.61245215,3.168018,1.5361695
-0.33258194,-2.1839368,-2.833593,-4.227794,-6.656144,-4.1987453,0.5862696,7.8891397,0.0012142945,-1.0642203,1.6439161,3.3928022
0.07048107,-1.6189116,-3.3487997,3.8452318,-3.5396729,-0.97633547,11.501498,6.3405175,-0.8934876,-2.5651453,-0.0454375,5.4795504
5.531284,8.887754,-0.00042368774,0.2798127,5.4915085,-2.1624014,-1.3049918,-3.3234653,1.0596678,6.869303,-11.082452,-7.644708
-3.5640209,6.5041685,0.5436381,0.20797472,3.4011495,1.818754,0.2886708,-2.221104,-2.1375403,-3.4013035,-6.404086,1.4523969
-8.43832,-6.0269947,-10.611202,0.92083025,2.2004194,3.0760431,1.815325,-10.204222,22.37841,-7.067799,8.39891,23.52589
0.17529914,-4.666253,2.5001128,0.067121364,1.7662059,2.9162831,-7.6752396,-6.8528743,-0.009101063,1.0206597,4.8999643,-2.2781553
-0.09381886,-4.2131495,0.45047015,0.6529202,-0.09460747,3.1174188,-5.2540336,4.6144114,-0.032585833,0.042704616,3.7320547,0.37128493
-0.01940295,-2.7299693,-2.213927,-4.0029564,-3.8302574,-3.7720387,-0.7796615,7.824779,0.0069610155,-1.1661243,1.8212578,3.327196
8.798128,-1.0400723,-0.00031822483,11.195167,-5.8958416,20.587683,23.894466,-1.6760645,-19.304941,5.4257,1.3713582,-24.613132
-1.8039021,12.703451,-0.00029069348,0.49025315,5.616412,-1.0318573,-0.013089456,-2.8794966,-0.4425824,0.64430135,-9.986175,-3.1695383
-2.8992116,1.1643345,-1.9124954,0.42161146,3.2731934,2.0467494,-0.42697108,-2.4951792,-1.6019946,-3.6789222,0.31860465,3.681747
1.6248622,-5.5961294,4.6056867,-1.2325137,0.88332224,-0.47638482,-6.8245163,-4.2516036,0.0015312226,1.7968608,5.5196805,-5.7450337
-0.114154816,-3.6059153,-0.08198283,1.7170603,1.412733,5.171473,-6.9248457,3.2135592,-0.035166036,-0.28029418,3.3737478,0.5332684
0.3609993,-3.0328963,-1.6261818,-3.4440997,-2.0048304,-7.264551,-2.2455435,5.719274,0.34436116,-1.1336552,2.1116054,2.581372
-0.7535995,-0.7938629,-4.9672356,-2.0650675,-6.4410024,-8.688634,3.9176133,10.595746,-1.046732,-1.7703058,0.5634617,4.3189425
4.741862,17.69129,-0.00028537394,-0.17112115,4.995388,-1.7978065,-4.5131297,-7.085461,9.456518,8.253093,-15.187077,-12.006428
-3.3896844,5.9257197,-4.4943776,0.84183097,3.1342776,1.4914105,-0.7618873,-2.2876842,-1.1895628,-5.33791,-6.1606517,4.8039784
-8.996844,-6.973334,-11.416043,0.805218,1.9307361,2.34374,0.26858166,-11.557427,20.40652,-6.8564916,9.682437,23.886902
0.12355305,-4.3577495,1.9126408,0.41549692,0.82031786,3.595875,-5.863256,-5.4640355,-0.0045096204,0.72703916,4.3843975,-1.6115677
-0.37652886,-3.5512424,-0.20906696,-1.1912081,1.3746932,-11.141285,-4.3450413,4.5115614,-0.001958985,0.32061085,3.5032728,0.48084491
0.12259076,-2.713808,-1.8633441,-4.4282312,-5.8886895,-9.673295,-3.6190944,7.819092,0.006478335,-0.710935,2.2678492,2.1937912
0.51029193,-8.68298,24.833548,4.710566,-8.0363245,3.4680145,15.944851,8.242682,-7.9045076,-3.126342,-0.6145505,5.9885435
-1.6051528,13.204371,-0.0002730895,-0.4543421,5.1731563,-1.3134619,0.81548285,-2.523829,-0.5652435,0.67221665,-13.885641,-0.033654403
-3.6003857,1.7386608,-1.737236,-0.17170048,3.3362665,1.6376324,0.32680973,-2.319944,-1.7962755,-2.271874,-3.6842415,1.4699513
8.363875,-6.940093,13.640682,-4.7797103,-3.863793,-7.088695,-6.3977175,-6.2588086,17.084251,7.091447,8.691908,-16.846033
0.96876717,-4.00764,0.998668,1.0648052,1.8077302,2.5368001,-4.665283,-2.6037216,-0.0091829775,-1.1633813,2.8880906,0.916551
0.25767013,-3.7768888,-0.3713586,-1.9733856,-3.0501132,-2.3627439,-3.1295245,5.427966,0.2543636,-0.69933224,2.3844981,1.7866399
-0.27582252,-1.5896527,-2.9807131,-3.0283768,-4.6345086,-4.2046113,0.41657975,8.137205,0.0076884427,-1.4645771,1.056004,3.5130837
14.248145,-1.9512343,-0.00034676265,17.195324,0.21523145,18.742338,22.293327,-10.112251,-2.6019788,2.095862,-10.350152,21.064844
-5.8366065,11.478557,-3.9050932,1.221836,2.5429726,1.7245207,-0.097447425,-1.653486,-1.7748661,-5.3051577,-13.00513,11.9371395
-7.7425203,-4.7412815,-12.773955,0.80666035,2.3002841,1.9544792,-0.5695368,-4.4214416,1.4823824,-5.365503,10.824655,11.916921
-0.1284695,-4.332662,2.0214553,-1.2153865,2.7890382,1.4415238,-9.100505,-4.191302,-0.014816381,1.1340735,4.282373,-1.55408
-0.25996503,-3.441695,-0.19002713,-0.5993909,-0.36648214,-2.3229005,-4.7141166,4.3718867,-0.0036848746,-0.041224487,3.324923,0.42651346
0.6631197,-3.0190644,-1.290997,-4.841989,-5.3329563,-5.874191,-2.308452,7.8509374,0.0006650194,-1.0836899,2.0825744,2.3272734
-0.041487776,-1.4834533,-3.2027273,3.5717013,-3.886786,-1.8683845,13.262553,7.4115925,-2.0367384,-2.3136559,0.114476584,5.100463
-0.5506664,11.415753,-0.0003226052,0.5556457,4.526588,-0.6227146,-0.004993111,-1.9022155,-0.880858,3.514053,-9.4135685,-2.675268
-3.3673403,4.7476134,-1.067377,0.9378637,2.145448,2.758202,-0.2896847,-1.8960824,-1.8581781,-5.365178,-7.2054706,5.4226604
10.669581,-7.8047867,14.083374,-0.4718382,1.4035059,-0.89548844,-3.671625,-3.7276442,-4.993417,2.4502008,7.8610735,-12.411089
0.28784603,-3.818034,0.9281246,1.1406996,0.7124704,3.7217255,-5.1247287,-4.776958,-0.011192651,-0.1364792,4.1319065,-0.6790565
-0.0002339501,-3.8968103,-0.14437753,-0.43922856,0.0724407,0.30587292,-1.3436201,3.9196405,0.72907054,-0.43256733,2.9854512,1.3050615
-0.6714103,-1.7316833,-2.7457159,-4.994574,-2.4294426,-15.082954,-2.1962354,8.782435,0.00716419,-0.6077255,1.7484379,2.7937465
-0.42049983,-0.9361467,-4.0446477,-0.7031477,-5.87391,-2.751224,6.9267044,10.730731,-0.002437137,-3.0193942,-0.31475335,6.095029
2.4470499,11.443257,-0.00040321785,1.7332456,4.731173,-1.0064585,-2.096939,-3.2919757,1.3207281,3.3659585,-9.248317,-6.547654
-5.046984,11.369897,-6.802757e-05,-0.27182,4.5468774,0.25931877,0.741935,-2.4756203,-1.6937326,-3.194876,-10.627335,2.6051803
-4.232598,-2.57886,-3.1457386,1.1166008,2.2395303,2.581741,-1.3656745,-3.5656953,0.61326873,-3.433893,5.641311,6.903732
3.9088614,-6.558797,6.601798,-0.3053141,-0.41696718,-2.0562341,-4.3374653,-3.7902224,0.26593244,3.320301,7.8374424,-11.056193
-0.4088033,-3.9378011,0.6273291,0.50118554,1.3081708,3.3154697,-6.5786204,-2.510041,-0.009733484,0.21538264,3.873864,-0.13524178
-0.04070151,-3.6897142,-0.16845812,-1.7531109,-3.0480266,0.8958899,-4.8468485,5.942327,2.2421824e-05,-0.13282013,3.4049437,0.2638024
0.3221176,-3.2235234,-1.298838,-4.8542337,-2.5021334,-11.69733,-3.363932,9.088909,-0.00081511564,-0.67092323,2.510188,2.2153993
-2.2777545,-3.2751536,5.176878,4.135066,-6.47338,0.3027053,10.601394,8.355478,-4.022756,-1.9873774,0.37956494,4.420541
11.24723,6.334229,-0.00041249394,-3.653611,9.842123,-11.240501,-1.3679467,-4.5178933,2.3634577,11.757763,-10.841611,-7.8438473
-2.4583395,13.848166,-0.00018228209,0.12566514,4.81673,0.17714655,0.48253196,-2.4219763,-1.5859772,-3.057163,-11.898636,0.39783385
-3.6268697,2.1848345,-1.6523118,0.2952956,3.141897,2.2056236,-0.16099295,-2.3593106,-1.7157612,-4.0490317,-2.0957427,5.2129397
-6.718505,-8.299252,-6.6685095,0.7724891,-0.11680341,1.430377,-1.6793151,-9.439373,20.676394,6.277452,7.806789,-16.233673
0.72282785,-4.5359898,2.1471019,0.5679516,1.9866071,2.7746365,-7.4421964,-7.4802637,-0.01586435,0.108031556,4.7801175,-1.5830972
-0.5435472,-4.004601,0.017074265,0.2013107,1.0834395,5.0311623,-4.3985806,3.7802894,-0.006657364,0.041398704,3.7407548,0.6965203
0.06086223,-3.506877,-1.3744266,-3.5582693,-5.2262487,-5.8954287,-4.021565,7.269511,0.00018411613,-0.58217806,2.7004302,2.2560375
-0.58404225,-0.7224882,-4.2318306,-2.5446339,-4.4355173,-4.3166757,3.8662815,11.623527,0.012832977,-1.7439718,0.6148164,4.5104713
8.213273,8.338974,-0.00042552373,-1.335787,7.162749,-8.834051,-3.3318841,-3.8198526,3.3048062,11.821024,-15.377118,-6.9221973
-2.5383506,3.8578913,-1.2099226e-05,0.11283438,3.676799,1.3070669,-0.07992381,-2.4952555,-1.3913276,-5.091578,-5.4763536,1.2383308
-6.551132,-7.354324,-2.1436539,0.88596,0.6408217,3.7127733,0.89385724,-4.4719505,0.84962755,-3.4221716,13.04249,7.363224
0.7119865,-4.5883646,1.4864663,0.39833713,2.819954,2.107292,-5.3014545,-4.4740987,-0.018002328,0.031038254,5.0069375,-1.8260382
-0.6784842,-3.528147,-0.884072,-1.3567985,2.9678698,-7.363206,-5.1430435,4.534064,0.00015061139,0.46821734,4.4008117,-0.21668334
0.11229928,-2.5387788,-2.566071,-4.011945,-2.5872695,-4.857217,-1.1536539,8.357923,0.006833592,-1.1490246,2.0704324,3.304255
-2.276546,-4.6795588,15.425062,4.756815,-2.6201198,6.33378,12.803671,5.889147,-6.434388,-2.141796,0.3277865,4.7049613
2.8177557,16.499527,-0.00027169363,0.72081494,3.294444,0.36195713,-0.124323025,-1.9320176,-0.27103326,7.8409066,-17.736683,-0.09236702
-3.8008132,4.03016,-3.087367,0.3446968,3.6102498,1.5303206,-0.2446821,-2.2942321,-1.4143076,-6.162605,-5.1819324,1.9229528
3.9162807,-6.492594,6.8671713,-2.489474,-6.4741573,-3.6669993,0.19611184,-2.2773259,-0.02680626,1.4921535,6.151283,-7.6957417
1.7889704,-4.819094,4.1136866,1.8053694,-0.5300069,0.63997126,3.251313,-1.4682171,-0.3434305,0.6963064,10.498371,1.5846128
0.9229705,-1.7430578,0.79550636,0.7892447,0.06596249,1.5746864,-7.286697,-1.6851902,0.0021022586,-1.3432453,0.44720992,1.2973646
-0.9816133,-2.8093894,-0.31262094,0.028091118,0.5729043,2.9305894,-7.1809397,2.095067,-0.011143654,-0.31217873,1.0171667,2.2330503
0.21166249,-3.0771832,-0.8042625,-6.0914164,0.55196285,-13.996858,-4.3667555,9.98554,0.00016451906,-1.0155044,1.14137,3.2587852
-0.13543472,-2.5443575,-2.386955,5.331543,-6.1902623,-0.98223597,15.710419,7.160571,-2.7082484,-3.1193898,-0.7213929,6.100416
-3.0691924,12.465939,-0.00027105754,-0.23920168,4.3728185,-0.430472,1.0277556,-2.0518167,-1.0952425,2.1024077,-12.689522,-0.3988084
-3.74557,4.3352594,-6.3933496,0.17237101,2.728011,2.0429177,-0.12566581,-2.620604,-0.85786366,-4.4694376,-3.808936,6.5718465
6.5041237,-6.0321007,10.371287,1.3511809,2.3216462,3.4272647,2.844074,-6.9451184,-2.491954,4.795462,9.161999,-17.346436
-0.22684199,-4.822635,1.687786,-0.47891462,2.0633247,2.74323,-7.8040133,-1.0356491,-0.003419347,0.93925476,4.6477513,-1.3729573
0.040978394,-3.2385335,-0.7971991,-2.9542952,-2.0714545,-6.9494925,-3.5748115,7.0420995,0.002340895,-0.33006164,2.6993852,1.3306862
-0.09082655,-1.4050235,-3.4667695,-4.3821273,-5.330422,-4.8282123,1.6578541,9.361612,0.0035166724,-1.9196348,0.7237537,4.2845817
13.178259,0.040326633,-0.00033448252,16.418491,-1.1794432,15.921812,22.19728,-6.501965,-3.3675618,4.1029677,-8.001315,16.457937
-5.5195837,10.566503,-0.00011869622,0.77338994,3.5301538,0.8041647,-0.37999856,-2.2577446,-1.0360034,-3.9726455,-10.727016,3.030241
-2.860221,-2.7595985,-4.9617805,1.3358153,2.518711,2.6091778,-1.649082,-2.9261348,-0.3692797,-3.7487612,4.242973,4.5323706
1.3703408,-5.265586,4.14634,-0.504068,0.973999,-2.07846,-11.166531,-5.2737885,-0.008697908,1.8094319,5.4544587,-4.6867423
-0.119702846,-3.8465579,0.25153914,1.1751386,-0.5223545,4.608962,-2.2708242,0.45881975,-0.20883133,-0.43641937,3.4540012,-0.26327682
-0.10870776,-3.4405105,-1.3933027,-4.229772,-3.5611203,-4.17458,-3.6049733,7.68364,-0.0003276528,-0.5091538,2.9267225,1.863656
-1.6110998,-0.61990905,-4.530556,-0.93471086,-2.9176378,-3.8660164,4.696251,8.613803,0.64327836,-1.2115294,0.6006327,4.545536
13.636964,8.410683,-0.00036837911,-4.475563,9.842848,-12.202585,24.874846,-13.707468,-22.198343,12.808792,-9.63635,-16.841427
-4.9970875,9.218486,-6.9224305e-05,0.15384223,4.0333514,0.6796375,0.3607813,-2.0110545,-2.3014894,-4.5095625,-10.488787,3.0670812
-6.3448286,-6.323474,-1.0646267,0.9761079,2.6479638,2.4441023,-1.1590233,-2.4557438,-1.3740293,-4.8439803,10.484021,7.3727303
1.5408025,-5.7216864,4.140818,0.2868113,2.092707,-0.17179877,-10.631957,-4.234736,0.001819035,0.94958115,5.4690914,-4.390002
0.15977792,-3.6256833,0.0849177,1.2893442,0.37610096,3.972238,-3.0802546,0.31814373,-0.0049409866,-0.4139804,3.5714424,0.1518546
0.05323667,-2.6163292,-1.3935188,1.7412612,-0.22247174,4.4590187,-2.4693842,5.533887,0.013982672,-0.8521104,2.1118865,1.8993783
0.20055811,-1.7763449,-2.808518,-5.2860975,-6.983491,-7.0342164,-1.0956086,8.465284,0.0064501697,-1.681081,1.2040387,3.3576562
13.671921,1.8678261,-0.00034716452,16.913288,-0.77900356,18.182486,22.09481,-9.999822,-2.5745065,6.6798024,-4.778765,7.9629493
-2.861186,9.326959,-0.00020488843,0.6822449,3.431636,1.3385936,0.24145822,-2.0916724,-1.798236,-3.5681353,-9.236233,0.91327155
-3.8983195,-1.1193111,-5.4024043,1.1485966,1.5304359,3.3005905,-0.84236896,-2.7951486,-0.9228612,-3.302674,3.8278306,9.264172
0.7497978,-5.339133,3.6359305,-1.994163,9.601521,-5.1767454,-8.119616,-3.245538,-0.04513195,1.7565657,5.568538,-2.8748329
