ancorasir/BennettWheelLegRL/experiment_data/2023-12-27_22-47-53/joint_torque_env22.csv
Joint_1,Joint_2,Joint_3,Joint_4,Joint_5,Joint_6,Joint_7,Joint_8,Joint_9,Joint_10,Joint_11,Joint_12
0.0,0.0,0.0,0.0,0.0,0.0,0.0,0.0,0.0,0.0,0.0,0.0
3.35856,0.45127106,-1.2080151,-0.314713,-0.15742874,-7.4338865,2.7924,-1.4379839,3.8124037,3.2309697,-0.7015505,-0.41508818
-0.46561524,0.76481855,-1.5283625,6.5852137,-6.0045795,10.954003,8.052966,-6.818424,-7.843169,1.8565068,-0.3523817,-1.0690753
-12.596657,-6.7789903,-7.529134,0.8458692,-6.4564776,2.0613978,-1.0598907,0.3123014,4.32031,0.4259082,14.121843,17.577824
-6.494145,-4.6933155,-3.492127,-2.8230634,-10.855292,0.5832579,0.21818995,0.62606275,1.5459912,2.7980292,9.617004,14.302677
-6.0721335,2.946342,-0.98012096,-6.377433,-7.124278,-10.268176,0.97280645,-1.3490529,0.96183616,-2.8995245,0.08944106,14.093466
-8.354841,4.325861,2.7790918,-1.0923109,-1.6667788,-3.4849195,1.728502,4.2486115,4.8838983,-3.4307735,-2.1955695,13.359909
-0.5541136,5.1411934,-12.30735,0.29130363,1.1432114,-1.5891681,0.43289757,-2.4322386,3.03517,3.2300959,-3.9856806,0.9653213
-0.0143454075,-1.4415116,11.90762,3.7860394,1.9197736,16.565338,10.579144,-5.903572,-4.9004416,-0.55860174,1.8690734,-0.2096985
0.9526391,-0.83009046,-1.3383269,4.313713,-1.7600684,4.4207177,5.2491007,-1.3300921,-0.66675925,1.161443,1.4882269,0.77215457
-16.696232,-2.0363681,-10.921057,-0.16269732,0.6775632,0.489084,-1.2399583,1.8717686,-4.8040314,-9.199327,0.5245495,15.98307
-8.6947365,-5.2061825,-6.151106,0.6627734,-5.1387234,0.873492,0.60659003,1.2900181,0.14776002,-4.028546,7.7405205,8.873736
-8.967949,2.0645542,-5.5731053,-2.0936503,0.6605612,-4.008813,-1.0297029,4.015536,2.063804,-7.684384,-2.5614562,9.892133
-10.314009,-0.15542787,2.433504,0.15119094,0.65998363,0.32385933,1.2923293,-0.46885443,-0.07788371,-6.482125,-8.939799,6.476159
-0.16125798,-1.2263308,13.0774765,5.5738845,4.292798,15.799172,13.161753,-4.2646236,-9.102713,-2.4336944,2.8275373,0.95298195
1.5859015,-1.9503086,0.9273732,4.171104,-0.2645464,10.0861025,6.2991753,-3.4077585,-4.6027904,1.4689994,1.533968,-0.9542918
0.8430886,-0.14570594,2.222884,3.8949864,-4.645136,0.50783014,5.0413857,0.6100017,-2.6693347,0.40351486,0.60614944,-1.175659
-10.348583,-2.6831133,-10.4007635,0.38363263,0.22194815,0.20168805,0.87282276,-0.20060492,4.0342174,-6.561368,3.649691,12.203839
-5.895569,-0.37011552,-6.356025,-0.121481925,-3.1327972,1.8057222,-0.4506631,0.11773682,1.2956078,-5.588088,3.4010756,8.2762165
-10.347733,4.2660227,-3.5070481,-0.25223768,0.9315886,0.39649573,-0.097739875,-0.39442444,-0.07975693,-7.0764813,-5.37718,8.154266
-9.382623,0.82043666,2.3948255,-0.326756,1.0301702,0.78054833,0.21993661,-0.8600247,0.24818161,-6.2081566,-8.229647,4.758684
-2.5478053,-0.26482296,15.028036,7.1153374,6.5480924,19.944124,20.0,-4.290023,-12.887047,-0.36975193,2.5689578,3.5886178
1.2437303,-1.8574879,5.8606644,5.52588,3.0335655,13.718577,9.69932,-7.240946,-5.1465707,0.8330815,1.1044044,-0.3861186
-0.19869184,-0.25902456,-2.0353055,5.305001,-2.0684671,3.7899313,6.9955473,-2.679891,-0.7772695,0.45401633,2.5332234,1.5943568
-12.989339,-11.210782,-7.8745737,0.3527233,-4.1690636,-1.478266,-3.3552368,0.89817286,-11.091808,-11.649061,2.736127,17.337955
-7.483105,-3.7440314,-6.994225,2.0905097,-5.7969165,-2.4082334,1.0525887,0.959563,0.9283874,-4.933637,3.0832264,8.2899475
-7.3643107,0.577459,-5.5344524,-0.42268634,0.047715068,-2.1100032,0.15188885,-0.48528028,2.42982,-5.358529,-2.153399,10.005497
-8.969594,2.4407222,-3.656607,-0.5998708,1.8279525,-0.44927597,0.13727057,-0.28572035,0.26565522,-8.049642,-4.931195,7.3279786
0.42111796,0.041059136,6.9686046,2.6229568,-0.40868998,1.8453374,4.146015,-2.6174881,-2.415574,1.6355824,-4.7320933,-3.2199235
-1.0590069,-0.24802685,12.889277,5.08287,5.6487164,15.29829,13.85235,-7.703279,-4.8284426,-1.279309,2.1687016,-0.21605706
0.54636776,-1.3614483,1.440818,7.586149,2.6038234,11.1404,9.05452,-4.9255056,-3.250785,1.0883286,1.1186461,-0.040211022
0.31455064,0.13473451,-2.1901505,5.4431987,-1.9150646,2.0033891,5.8650026,-1.6124644,-4.266643,0.54935646,1.2664754,0.6384505
-10.662017,-5.2565565,-7.81571,1.8137809,-4.6944437,0.063443184,2.1545222,0.8431716,-9.897773,-1.3169544,6.2186456,-5.559375
-9.013709,-4.035117,-10.861256,3.1135418,-3.0508368,-1.1782786,1.0828643,-0.2996106,3.5969183,-5.401071,5.5645275,12.837332
-7.4682684,-2.0814424,-6.3178167,1.5526615,-5.5863905,-3.340444,0.087531686,-0.054317713,0.62536657,-2.6564374,3.4369946,9.426435
-10.051675,0.44153464,-8.24907,-0.41874045,0.2671697,-2.2076252,-0.27035952,-0.19888425,1.5897306,-7.873005,1.9052278,9.601026
-7.968912,0.21790898,-1.7660089,0.34079456,0.8561752,-0.4230671,0.49056304,-0.45987463,1.2800852,-6.1264114,-4.6354356,5.7516704
0.6124598,0.45063615,7.1267214,1.7144351,-0.5123743,1.3207517,4.595397,-2.9471436,-2.643016,1.412187,-3.6538286,-4.7666383
-0.9555198,-0.08106661,12.080517,6.853344,4.9123726,16.228699,14.394471,-4.4407234,-8.029205,-2.799541,2.1394744,0.1626749
1.0574129,-1.1992176,0.68390274,5.701411,0.6744529,7.872947,6.651647,-2.4531455,-4.8223643,0.9374913,0.49115467,-0.30708754
-3.316671,-4.3531647,-3.4575276,1.6745377,-3.6324506,-2.4631898,3.1796236,-2.6806877,1.2534821,-2.661198,4.303034,2.2600403
-9.564707,-3.2219553,-8.856063,2.9603424,-3.815224,-0.72738886,1.0179889,0.75473905,2.6545033,-5.690823,5.8383474,11.079661
-6.7727313,-0.7191491,-5.321439,0.644962,-5.013703,-1.8798542,0.30374515,-0.14951742,0.8870194,-3.6513455,1.8993286,9.651183
-9.116971,0.60186875,-2.5132563,0.35585976,1.2914234,1.2621226,0.4350276,-0.7595451,1.2258034,-6.267355,-4.728648,7.2345304
-10.5928545,-0.7819621,2.3444912,-0.30417925,1.2980087,0.38736248,-0.27176642,-1.1758797,1.5310805,-6.315816,-8.750281,5.595644
-4.471551,1.6134892,15.779495,5.4225073,5.080243,19.604036,16.30912,-1.4186544,-12.370204,0.5094881,2.6777506,-2.4505806
1.0879046,-1.7493885,4.461108,5.1645703,4.1707697,12.056236,7.5234365,-4.4250875,-4.3567276,1.21369,1.2631128,-0.50590354
0.42729402,-1.1591368,2.2286472,2.3997736,-5.0866156,2.209712,3.9439728,-0.81261206,-0.4945235,0.69239706,1.1886566,-1.3485711
-11.305868,-3.6477811,-8.833723,1.4464904,-4.012274,-1.0864146,0.63929725,0.0039470196,2.578672,-6.337835,6.223152,12.481849
-5.880558,-0.6014718,-3.2824504,0.21562016,-6.5154953,-2.6758654,0.22348833,0.41287154,0.9206632,-3.3816342,3.8117023,9.364562
-10.526374,-0.692062,-4.090557,-0.30096507,1.9274436,-1.4616628,0.011957407,-0.34685874,1.149685,-7.8487864,-3.0186374,10.040448
-9.479768,3.7780585,-0.16947937,-0.09468138,0.84353614,0.9900243,-0.41193092,-1.4856315,0.11069976,-5.80353,-3.32109,8.817723
1.0403566,-0.9671125,15.396469,0.95645714,2.997347,0.20863438,1.6459808,-4.5777497,-0.7710817,3.9513988,1.193393,-11.278587
-0.34656596,-0.9572058,9.138315,5.9946084,2.861614,13.796832,9.869405,-5.4782515,-4.8414454,-0.49924654,1.1027231,0.20645916
-2.3595028,-3.1087217,-3.9527771,5.195426,-4.749672,6.5919275,7.5644784,-4.658071,0.6674951,0.4182552,9.27751,8.763899
-16.720114,-3.512771,-10.226397,0.2925566,-3.0999823,-0.319427,-2.596063,-1.6209108,4.8005743,-4.708335,4.765294,16.218924
-6.100707,0.9861243,-5.2567635,-0.2761655,0.5571809,1.324229,0.45546818,-1.1006382,1.0215377,-6.2345414,0.94359004,7.6752872
-10.145825,0.93260777,1.1467326,-0.3236426,1.1613535,0.6929145,-0.5497806,-1.4148924,0.49397558,-6.3961854,-7.6780677,6.173144
-3.1773167,-0.94817734,14.361843,8.704073,-0.07925892,20.0,12.143557,-7.220854,-7.9329014,0.5148487,-0.2593174,5.175226
0.10898459,0.28899527,2.9681087,4.8365564,2.831999,14.707509,10.198852,-7.5225835,-3.739873,-0.41955876,0.58477926,-2.5206125
1.2808026,-1.3542178,1.4968464,1.9331055,-2.8068023,5.197368,7.1894608,-2.1313229,-1.4470229,0.39742184,1.416842,-1.202554
-14.353546,-6.2927914,-8.573189,1.0456092,-6.9615602,3.0602584,-0.71260357,-1.5054984,4.494325,-6.47909,5.7592516,11.571325
-7.264286,-4.066086,-3.1082513,-0.8537053,-5.004001,-1.1873705,-2.6326962,2.79633,0.74653184,-2.3882718,5.9734592,9.807386
-7.7832756,1.7770467,-4.514179,-0.30403984,1.0804789,1.8058116,0.3505404,-0.80606556,0.16221741,-8.156086,0.10308862,7.8509064
-11.833648,2.0071363,-0.93502665,0.31721568,1.1871202,0.6588824,-0.4465134,-1.5280576,0.4211102,-7.638765,-6.710101,7.0397425
-1.2860365,-0.16954207,15.437137,11.481796,2.4311604,20.0,-4.9281263,-1.826169,5.122835,-1.7296124,-0.84041095,7.265563
1.1453412,-1.846241,5.4573965,5.4485826,1.4500949,15.8079405,9.857025,-4.2399287,-5.515587,0.96567106,1.5234954,-0.5037502
0.7363044,-0.8791866,0.9230193,4.581489,-2.669698,8.05627,7.337212,-2.1473432,-3.6741416,0.72828865,1.0686709,-0.6985247
-15.083221,-1.9097366,-8.606395,0.2585035,-2.8793004,-0.4112261,-0.31968546,-0.95048726,4.737416,-7.360276,-1.0401227,19.934284
-9.076918,-3.588146,-7.4584007,1.7577647,-5.344951,-0.08293128,0.49818826,0.7555227,2.5318148,-3.556816,6.8762197,11.431269
-7.9572763,-1.11052,-4.484354,-0.4632805,-4.916771,-4.4011045,-0.0660072,-0.49562788,0.21694271,-4.4284697,2.4876652,10.022751
-9.1387415,3.580163,-2.791336,-0.465837,1.6560137,1.7068229,-0.07873762,-1.3895998,2.36951,-7.132181,-3.6491995,9.585669
1.0509973,-0.47758818,14.3720255,1.1492577,4.234547,-1.1428032,-0.4403677,-5.61145,2.6020484,4.136432,2.4948826,-8.911364
0.11666733,-1.6984663,9.643801,4.9819098,1.8793302,13.769168,10.512541,-4.7964745,-4.1647825,-0.20976156,1.702559,-0.37298083
1.3806336,-1.3747306,1.5725448,3.8245173,-3.1955032,1.4809325,5.976748,-1.2210659,-0.9072407,0.76750684,0.845186,-0.91698766
-12.259244,-3.1739886,-9.843851,2.8872647,-5.3133097,-1.2847916,0.5244062,-0.31176853,3.4659793,-7.24836,6.9812784,11.022282
-7.568696,-3.5620978,-4.5576434,-0.33473688,-5.4840307,-2.5516903,0.39826775,-0.40830183,0.7794167,-4.3760467,1.854819,10.724768
-7.9144,1.2823715,-1.135783,-0.48841357,1.4621335,-1.5054655,0.475626,0.44260406,2.271661,-6.155974,-5.1189275,9.272878
-0.66935325,1.3600738,9.062066,1.2198205,-0.18100739,1.0886414,2.6841245,-1.9552135,-1.7516345,-1.422028,-7.7621017,1.3257902
0.6511973,-1.4294643,10.801331,5.4419675,2.3670473,18.602812,14.281046,-8.860139,-6.4572644,-0.49009615,1.8680396,-0.09365201
1.0060196,-1.4537973,1.0561111,4.0113544,1.924479,9.515022,7.3698025,-5.194735,-2.3460824,0.6875842,0.44310284,-0.11816037
0.9019201,-0.9472165,2.46937,2.253625,-3.1949258,0.5984125,4.6827993,-1.2829654,-1.1183206,0.08213091,0.8906293,-2.5637512
-9.646555,-4.804301,-7.4611626,1.7191441,-5.8408456,2.072253,1.3133621,0.6966698,1.6083858,-5.894597,4.8449736,10.429429
-6.3779445,-1.1340092,-2.9683645,-0.48207843,-3.0237086,-0.039397836,0.42741525,-0.7029073,0.50741285,-5.1626644,-2.1534185,8.283908
-9.049495,2.5594215,-1.0332456,0.16538799,1.2032232,0.8540616,-0.120833695,-1.3080075,2.0437965,-5.6502213,-4.0166683,7.5256147
2.1744494,-2.1370535,14.590097,1.3335752,2.053847,-3.7023125,0.049365997,-2.8340058,4.7746253,0.20666504,-3.9045374,13.194185
1.3776934,-1.6394401,7.0707164,7.8639083,1.9106195,11.495326,10.81643,-4.564948,-3.731382,0.9024064,1.3820949,-0.55431724
1.0325444,-1.3487267,0.69968295,5.2567825,-1.8392189,5.409855,7.7928042,-3.4218707,-1.0477462,1.1887991,1.0283321,-0.48327208
-15.227024,-3.3678834,-9.9918785,1.64881,-5.347665,-0.4876647,-1.7101691,-1.5059621,3.5636804,-5.8631263,7.310628,13.885622
-7.3431263,0.29988658,-6.022231,0.19016737,-4.6946754,2.5571017,0.6357374,0.36952674,1.4458301,-6.434573,1.6037345,8.855328
-10.483918,1.0919473,-3.9293034,-0.23129892,1.1674185,0.7117996,0.27115023,-1.0367403,0.7535445,-9.049664,-3.8319292,8.300071
-5.6057754,4.522392,-2.4187553,2.5347795,1.3304768,0.04121548,4.119517,-2.867866,3.4971528,-2.9180527,-7.4609838,2.0492725
-3.3455138,4.3741407,13.191205,9.295818,5.7276525,18.520473,13.243091,-6.2786455,-4.7447357,-1.706036,-1.9023438,1.8341978
0.42003822,-0.95795107,-1.8611277,4.8329673,0.31545782,9.791446,8.098658,-4.471932,-4.534216,0.048641443,0.23463917,2.529667
0.30220222,-1.7686362,5.059138,0.8470553,-0.9584989,0.765036,0.12338483,2.4622788,-6.33459,-10.369025,1.2924368,15.309273
-10.194339,-4.769905,-6.4205523,0.26349607,-6.1501403,-0.63388824,0.84807396,1.0800693,0.69989526,-5.839652,4.8506594,10.915007
-6.8150744,0.259243,-4.0107555,-0.39781547,-4.2772045,2.3359566,0.18047273,-0.7177787,0.06070085,-5.693547,-0.039010763,9.34335
-10.623278,2.7062268,-1.6019504,-0.46911538,0.4044733,1.7197585,0.18529257,0.1428256,0.76023084,-6.898253,-3.8583305,9.272759
1.1701827,-0.85657007,13.563912,1.5833101,3.7285988,-1.5807552,2.5516605,-3.8904452,-0.04772997,3.6407166,-0.11343372,-10.4964
1.123391,-1.7481077,5.84852,4.940035,1.9872854,12.750416,8.911591,-5.078104,-4.4707346,0.861827,1.4949963,-0.38548112
1.1182182,-1.4464673,1.4412165,4.574953,-2.472007,7.5331597,7.6972623,-3.0492883,-0.7751744,1.2044777,1.7792509,-1.1464152
-14.335139,-5.9025555,-8.1387415,2.0192072,-6.3483515,0.8254343,-0.26069736,-0.9942229,3.6673336,-5.7420297,8.323189,12.720022
-8.240395,-1.7169473,-6.0999365,0.39395717,-6.088923,-3.627646,0.70533013,0.6984043,1.9839718,-5.129816,5.165532,10.354199
-7.9480042,1.0783188,-3.4563043,-2.0717225,-3.1451104,-4.988739,0.6717609,0.12846565,1.0326548,-5.680988,-1.9619396,10.169157
-10.141296,1.7188753,1.0261085,-0.13379431,1.609323,-0.37922287,0.5824606,0.08033705,2.7284548,-6.1176224,-8.703101,8.497452
-4.082958,6.0712733,-4.415018,-0.16304994,0.55787575,-0.7018367,-0.38383245,-1.9607725,1.1217222,-1.417892,-5.3438168,1.9641728
-1.6619105,0.67311954,10.343629,7.8072104,3.3294578,15.442718,10.676642,-5.795337,-7.1210766,-2.0704017,1.4286594,-1.7505834
0.71863747,-1.8051982,-1.868473,1.4581413,-4.5977964,5.4012914,6.4506116,-2.3484046,-0.4195355,0.4770987,1.9979814,1.8792415
-11.237029,-4.859593,-5.886404,1.6745623,-6.5094233,5.4442167,1.4788506,-0.14688349,1.6606393,-7.201559,2.198417,8.649508
-9.27294,-1.1973972,-7.69679,-0.22469771,0.23179373,0.08967644,0.2933445,-0.6793815,1.9323076,-9.017308,2.714855,9.08436
-10.303553,1.0411725,-1.501985,-0.08123374,0.84252787,-0.4053986,0.17879945,-0.2964518,-0.23334937,-8.763003,-5.3145723,3.571292
-4.266274,5.375862,-7.474188,1.2148347,-0.54684806,0.050926328,3.4897957,-1.9342825,3.1882782,-3.5391364,-7.377088,2.067022
-1.4268866,0.38195372,14.455689,5.968763,4.8262663,19.207859,15.051068,-6.048221,-4.696471,-2.1438916,2.191258,-0.067950726
1.1145661,-1.2204552,1.5301666,6.322874,2.561431,13.209573,9.156485,-6.2390604,-5.8795815,1.1901064,1.0852699,-0.07411873
0.7608736,-0.20409435,-1.156767,4.867065,-2.1944535,6.2504354,6.0500817,-1.9307456,-3.8585339,1.1115755,1.1662686,0.49403465
-8.610113,-2.7873464,-7.7238994,0.37612808,-0.83150065,0.40747237,-0.06370482,2.4121306,-7.036474,-10.72824,-2.095117,16.531197
-9.248687,-5.036859,-5.7633166,1.1406701,-4.37913,4.8095226,0.07091355,0.965425,0.6260115,-1.8700402,8.101461,9.729362
-7.2000875,0.78387547,-3.0360827,-0.4678166,0.4350326,-0.75959754,0.17778325,-0.36336327,-0.15453124,-6.300211,-3.0379326,6.422744
-9.944011,1.613192,-1.5818172,-0.12580323,0.69955444,0.6004467,0.25640115,-1.2013919,1.546721,-7.880887,-7.486278,6.6670575
-0.25108004,-0.41876924,15.498526,13.47071,0.91138506,18.978445,-4.3658905,-2.4044924,4.9115343,-1.3159571,-1.5862309,8.619879
-0.32052588,-1.0140417,-2.5357554,4.364666,2.5545716,11.182185,9.295511,-5.39536,-3.5765347,-1.3526441,0.07621384,3.5264764
0.6102599,-0.6245034,1.034318,0.5526929,-5.19506,-0.09897518,2.597742,0.46186042,-1.8829374,0.5984802,1.1557283,-3.1859198
-9.722531,-5.666298,-8.8599825,3.8654573,-5.614091,2.0651786,1.0477886,0.9989681,1.7663336,-3.939669,10.165619,12.4264965
-7.7777615,-1.3644305,-4.6309233,-2.882979,-5.2399836,-6.9335194,0.54488087,-0.43737316,0.9585884,-4.2781816,-0.83988714,10.025131
-8.4477825,2.5168247,-3.8321793,0.16404915,1.171246,0.99915123,0.26759958,-1.0353494,0.2790413,-7.2623386,-1.4718298,8.145038
-0.35021687,6.3221335,-7.548105,5.7768326,2.0876749,-3.727048,6.2145066,-6.659696,5.142686,0.96954244,-3.8579679,-0.16155563
-0.65896356,-0.23101568,9.339531,7.987948,2.0198443,16.464188,11.934208,-6.5074244,-5.048464,-0.20991756,1.1101265,0.23212492
1.5179443,-1.265619,-1.0386816,5.2541366,0.09378016,8.5336275,9.293883,-4.1778164,-4.924877,0.44283247,0.60287356,0.18159866
0.1647923,-0.8600323,0.9813161,3.128103,-6.133026,0.13084722,5.319256,-1.3545051,-0.9617174,0.540738,1.3521252,-2.5607114
-9.61945,-3.7434416,-7.631754,2.940358,-5.744752,3.328196,-0.80534077,-0.87172365,2.154272,-4.611195,6.3825474,12.287149
-6.943064,-0.5463457,-6.7570724,0.82228315,-3.9747672,-2.9038029,-0.86759424,1.872879,0.99098986,-5.3611197,5.9621696,11.847926
-6.5260167,1.6292825,-2.1549463,0.07378054,-1.492708,1.6597757,-0.025948763,-0.86766267,0.23848067,-3.678825,-0.07835686,9.714283
-9.015726,0.47967106,3.0343733,-0.17200816,1.4317718,0.8397417,0.16881704,-1.1086164,1.1466509,-6.0099645,-4.9411917,6.7726846
-2.6487672,1.5095005,13.127278,8.854678,-0.915432,20.0,15.721706,-4.6973314,-8.481724,-2.1296573,1.4022236,-1.4663239
1.0448244,-1.8867123,3.8071935,4.8323255,2.3188853,13.8761835,10.191297,-6.7483463,-3.3777442,0.65276897,1.3561623,-0.43766165
0.07424736,-0.7147975,1.8897986,0.92451835,-3.7323482,0.08348811,1.0558279,1.7550445,-5.3943877,0.9545567,2.0081692,-3.616084
-12.347718,-5.6123743,-8.006509,1.8905008,-6.5141673,5.832207,1.3209207,0.37858272,1.2103912,-8.214087,3.2746117,8.168047
-7.7906113,-0.7417264,-4.868343,-0.52250266,-0.37255478,-1.6368744,0.41140628,0.33016324,1.4141122,-6.7451057,-0.36695194,8.746352
-9.978362,1.5906478,-1.6155336,-0.49935544,0.5975033,0.42185915,-0.16845357,-0.5128553,0.8271006,-8.577337,-3.1000967,5.3899813
-10.458011,0.9042766,2.6417837,-0.08511019,1.5014246,0.7783685,0.03571832,-0.8967428,1.6916553,-7.118929,-8.365006,4.0497093
0.6664667,-1.0573848,13.993026,0.46021414,3.3181028,-2.9369955,-2.2557964,-3.6143103,3.6434808,0.31480503,-3.2055254,8.25339
0.9556465,-1.9135947,4.1271806,7.060304,1.704466,13.940188,9.672474,-4.7073874,-5.115427,0.9843361,1.3439827,-0.65875995
0.76835597,-0.515557,1.236258,3.2900453,-2.319319,4.7156534,5.6571875,-2.9320102,-1.5382186,0.8678602,0.63843095,-0.32627273
-14.250296,-5.015609,-7.6004953,-0.7828204,-1.8431928,-0.17089534,-0.60943747,2.1865828,-7.0148015,-9.448164,-2.0072463,16.323353
-10.152556,-3.211171,-7.5335155,1.4223101,-5.1378684,-1.2392523,0.37484848,0.412601,0.30041444,-5.4423895,5.619568,10.43985
-10.27927,0.2676779,-4.648423,-2.540527,-0.12637925,-3.9645214,-0.64784324,2.2083993,1.575392,-7.7716265,-1.7559524,9.243633
-3.3872044,5.350298,-2.6259391,-0.16648126,0.8597176,-0.23188804,0.26047993,-2.2052312,1.8040183,-2.1659417,-5.44314,3.8717277
-0.111266136,-0.1622119,11.362011,4.0665627,3.860562,17.789473,17.496462,-1.5327182,-14.630409,-3.110578,2.8714523,0.8940778
0.38143468,-2.912169,3.493072,5.3873763,1.8432463,8.300656,7.1534014,-2.828496,-1.7615573,0.30417728,2.165745,-0.42877412
-15.535166,-5.1500835,-9.948895,-0.5508803,-3.2608602,-1.167759,-2.1069524,0.9049051,-5.5317163,-8.009769,4.307415,14.943391
-7.614172,-0.5082536,-7.380528,-0.46768022,-0.78527915,-2.8690162,0.46520758,-0.41012228,3.1481714,-5.6300516,2.877499,12.074353
-8.427671,3.1330702,-3.649249,-0.043046713,0.943328,0.49667096,-0.05530125,-1.2845001,0.522128,-6.8713546,0.28194356,8.174734
-7.532718,4.0464606,1.7866709,0.7507076,0.3674767,-0.9384248,2.8075285,0.08743191,2.460964,-4.7169027,-10.7860985,6.6608624
-0.001542598,-1.4930482,11.520693,6.491079,3.1215324,19.737034,14.804279,-4.5363626,-4.5154004,-1.5688509,2.3781695,-0.08953428
0.71503294,-1.136148,-0.652228,5.1570954,1.6162324,10.17743,6.896288,-3.7653575,-3.3458905,1.2476622,0.8285086,0.14215899
-1.523304,-1.0817018,-0.93017834,1.7245772,-6.0704346,-0.6264256,0.705358,-1.0154288,1.9269168,-0.26945305,1.854065,1.0435677
-9.589231,-3.2264695,-9.476233,2.1768463,-1.7249349,2.6697803,-0.7593303,0.34010994,1.3691068,-8.011335,3.523861,8.138783
-7.444413,-0.4899317,-6.104974,0.34713277,-4.2074,-1.8548928,0.38605404,-0.43348777,1.5660678,-5.391504,3.6731489,9.471949
-8.745752,-0.23025018,-1.0982094,-9.536743e-07,1.3078724,0.63738513,0.24545372,-0.9522524,1.1092961,-6.1271586,-5.2301188,6.527798
2.6627796,-0.69805586,11.928989,1.6573477,-0.060186148,1.107131,6.545438,-3.270175,-3.2531247,3.9567914,1.544893,-11.296888
0.16571224,-1.1091614,6.545104,5.623587,2.6237707,14.172792,8.443179,-6.0615387,-4.7556577,0.025363922,1.0061245,0.12522697
1.2626119,-0.4351213,0.69688857,4.688986,-1.3791777,6.2561917,7.901562,-3.33456,-1.7382166,0.8806367,0.106307864,-0.38943553
-15.568585,-4.261585,-9.5941725,0.45150775,1.2888548,-0.7808534,-1.8200479,-2.026599,3.6289945,-6.7607994,4.4212236,14.3479
-9.225778,-5.610341,-5.4170647,-0.12742549,-4.4075747,-0.05635047,0.0007529259,0.8361526,0.14468667,-3.2308662,4.5375047,9.328361
-7.2858653,1.9183576,-4.5235314,-0.8296958,-0.26476657,-1.6445453,0.07925439,-0.16841698,1.1882066,-6.803448,-1.0348953,8.86797
-10.073292,4.3441663,1.1313134,-0.28463483,1.1433303,0.604404,-0.24271822,-0.9862325,0.6208982,-5.915889,-7.6871414,8.264527
-3.068638,-0.32124805,15.908008,10.670083,1.0588503,20.0,-3.4802933,-1.6120377,1.6215649,0.1066885,-0.29962397,4.655139
1.5117655,-2.2990487,1.2278069,3.9278219,1.8652475,10.863724,7.9016576,-4.8839273,-4.149207,0.60812783,0.7449436,-2.0905125
0.43239188,-1.1970654,2.804284,1.3232108,-5.991413,-1.4450921,2.2173867,0.36154056,-1.4204438,-0.023804665,0.51703405,-2.4652822
-9.884866,-5.0107064,-7.0407143,1.4576753,-5.4142294,2.168466,1.2123528,0.60889506,2.3107114,-6.65196,3.0813131,8.623042
-7.1932306,-2.215973,-4.2398634,-0.7591467,-3.3213396,-2.9064727,0.26561356,0.43601298,-0.0068129003,-4.1376605,1.9297427,8.868892
-8.954905,1.7951508,-2.7622936,-0.22070742,1.2525858,0.9110508,0.46551585,-1.2873316,0.76468134,-8.431072,-5.28593,6.8784757
1.6828542,-0.58868384,8.466074,1.6655483,0.82543945,-2.451686,0.0965786,-3.9890106,5.1344438,-0.77598095,-3.5338986,12.982535
0.058479667,-0.947083,7.011829,5.898299,0.012139559,13.071082,9.560611,-4.632008,-7.5864134,-0.12624031,1.0983377,0.012794286
0.26006806,-0.29620087,-1.4934666,4.1729527,-2.1930442,4.469131,6.1427865,-2.2853045,-1.4821599,0.7479639,1.1691402,0.41132283
-17.345959,-7.177369,-10.814929,-0.32343227,1.2202165,-0.07397127,-1.4719567,-1.4908619,3.4597726,-10.568259,2.6267505,12.409836
-9.598923,-3.4556665,-8.845234,2.679369,-3.665861,1.1887164,0.794924,0.8403214,0.64706755,-6.317139,7.406521,8.374028
-7.7759643,-0.5686133,-3.997804,-0.21914923,0.5714669,1.1851215,0.4353795,-0.5052519,0.8737983,-6.7752852,-0.5935719,6.901593
-11.899879,-0.027639389,-0.2459662,-1.3278918,-3.3918629,-2.265779,2.034935,2.663765,0.61376035,-7.1640477,-8.545584,7.8074656
0.8871455,-1.2990015,14.51236,0.5467825,2.7681117,-3.529337,-1.4764805,-3.3388195,4.861707,0.45933342,-3.6354206,8.822745
1.1408358,-1.6659918,7.3632874,6.045003,0.6707945,14.12404,9.961236,-5.5240474,-4.246174,0.65731776,1.6700339,-0.6958487
0.9877821,-0.31942558,-1.4106636,5.8964353,0.72055066,8.630056,9.395768,-4.093089,-2.2138991,1.0092292,1.5799316,0.72445107
-1.6039128,-1.0883703,-2.3002217,1.4389924,-5.924247,-2.3893523,-0.23187494,-1.3828173,5.561642,-1.7256565,0.068059444,3.6217499
-10.74916,-4.4754868,-8.297566,2.483541,-5.8972945,4.5912633,0.9044843,-0.90479255,1.7264725,-5.8180857,7.2090197,10.916438
-8.38559,-4.1686997,-6.027336,-0.038429514,-4.090095,-1.71664,0.323601,0.43841505,0.98831797,-3.9430685,3.1220007,11.184701
-6.999147,0.5688436,-4.139579,-0.4094572,0.4220705,-2.5474474,0.09101009,-0.34113884,1.8094808,-5.704603,-0.4860592,8.474941
-9.968311,1.8296947,-0.57665193,-1.0133371,-1.9552476,-1.7767661,1.6487436,2.4790735,1.6072433,-7.0984216,-7.644625,6.44918
2.7022314,-1.3731031,10.763144,2.3335218,0.13414365,1.0965967,5.5609655,-4.0437617,-4.0254946,5.0208826,2.6973937,-11.429235
-0.6326009,-0.5185294,11.465736,6.596416,3.2113733,16.767473,13.37678,-6.6916585,-4.6757603,-1.2505994,1.1234136,0.3229432
1.2047288,-0.8560076,0.9385102,6.2723646,1.5927857,9.002324,7.7936287,-4.184783,-4.1195993,0.65545726,0.5133791,-2.3124971
0.17090243,-0.57811046,-1.4640018,2.073659,-3.7805839,1.743742,5.69713,-2.01611,-0.5677455,-0.20884657,1.4022359,1.244309
-15.493407,-4.8558683,-10.041977,-0.014615536,-0.28647542,0.14172292,-0.8132086,0.106681585,0.27569056,-9.30674,2.5534134,14.98687
-10.590381,-2.9186745,-8.508666,0.28973186,-2.358367,-1.8368047,0.22250938,0.91357493,1.6980916,-6.3728647,6.205931,10.033202
-9.455093,-1.2488377,-6.0726295,-0.04870516,-2.5535364,-0.3138137,0.090747595,-0.2686422,0.4109919,-6.4777627,2.2461033,10.506181
-10.383572,2.134513,-1.1573972,-0.4701332,1.1550096,-0.5758598,0.063850045,0.17381334,1.2132202,-7.1569114,-6.0949283,7.848671
-6.6890483,4.016985,0.9879992,-0.4632933,0.90664446,0.24404573,-0.6684222,-1.82164,0.7464359,-3.7192528,-6.3660755,5.0233393
-0.42061633,-1.4332275,12.870674,7.7331166,2.6828444,19.588064,14.317413,-6.1656265,-6.567707,-1.6729585,2.6598835,0.1807158
1.0844421,-1.5637499,0.92237866,5.2432866,-1.8400085,7.482064,7.3929396,-3.132857,-3.5603611,1.2038158,0.7274762,-0.6103897
-14.514081,-5.872073,-8.050984,-0.053073198,-2.3727746,-1.1240922,-1.056092,2.1322546,-6.5234156,-8.435567,0.026153326,18.649837
-8.193711,-3.50938,-5.7098103,1.1111537,-6.0470214,0.30199862,0.6455691,0.6537888,1.5371109,-2.4326386,3.8745832,12.583474
-7.776834,-1.0089331,-4.6264696,-0.5848545,-5.2848053,1.2083442,0.4379846,0.89063096,0.970775,-5.668804,-0.36907363,10.882718
-7.4146633,3.0172253,0.4120192,0.07417035,1.4001596,0.94002986,0.31894395,-1.3062935,1.9213715,-4.9042273,-6.7339067,6.220258
1.6260471,-1.2354646,14.965447,1.8115778,4.524543,-2.9595318,2.0176296,-5.0964627,0.09004402,4.718174,0.9283302,-9.593394
0.062137008,0.6393628,6.0518703,5.261528,3.110034,10.997903,7.1772065,-3.6717806,-6.0338187,-0.12920666,-0.51966286,-1.7184247
0.68802,-1.5014417,-2.163434,4.869688,-1.5182306,7.3745246,7.467539,-2.1069384,-0.9484713,0.9244602,1.6554023,0.68098307
-16.711308,-3.2613344,-9.185321,1.0661945,0.640512,-0.30291167,-1.7960184,-2.7204547,4.602815,-5.645731,3.7247615,16.521315
-10.638375,-9.000247,-4.9038825,5.2433953,-0.4417652,10.973344,-0.62341225,1.4748294,0.8593879,0.8973704,5.740976,3.2654061
-11.496471,-7.5098977,-8.234553,0.68415534,-1.9912945,1.3314408,-1.9462361,-0.9436296,1.8622614,-7.008813,2.7949042,7.880589
-6.984511,0.7882447,-3.8492055,-0.78034407,-2.218733,-4.8463035,-0.00530684,1.5242944,2.6912177,-5.0930314,-3.4861424,8.991288
-9.845875,-2.3354805,1.8156059,0.21989179,-2.514301,-4.1298327,2.7793174,3.3764906,1.1588525,-5.893225,-7.7195725,4.11654
-3.8748353,0.71843934,12.881454,7.0295863,-3.3209758,20.0,-4.1187277,-1.4404836,3.6711915,0.098483086,1.493727,5.5153303
1.3466353,-1.6661339,0.5822954,4.8281507,0.43719745,10.1420355,6.726506,-5.509038,-4.586903,1.5001143,1.6077182,-0.773947
-3.6140575,-0.25107002,-5.7069197,5.303867,-3.495718,1.7218386,3.978294,-0.90115595,-7.020552,-0.045944333,-0.29696107,-0.24989125
-10.437706,-10.084251,-8.048916,-0.45605206,-1.3753486,-0.79186153,1.7588181,3.0977488,-4.1187525,-9.609585,-2.0738776,13.273315
-6.4681034,-3.4295402,-8.70088,2.192548,-3.0721955,-1.4737554,0.5558996,0.22432566,0.651341,-5.776356,4.176868,8.537209
-7.847269,2.6003308,-4.5844946,-0.37098193,1.169739,1.0777528,0.070142984,-0.91096497,1.2643282,-5.399565,-5.5922155,7.976126
-0.11677164,2.882638,-4.111279,0.4902382,0.8371818,-0.776351,1.1419287,-2.5622587,2.7163982,1.2373728,-7.577976,-0.36394763
-1.3205537,-1.061091,13.65306,8.7663,0.84426546,20.0,14.850632,-3.632304,-5.134579,-1.4945664,3.0128827,-0.37996006
0.03405845,-0.67095923,-3.9476404,5.87556,-2.280425,8.977131,6.0266957,-2.847334,-4.800016,-1.1130152,2.2274513,4.831576
-1.1478553,-0.01885128,-3.1176393,1.1739823,-1.1992701,-1.7955338,-1.525949,-0.58128166,5.553684,-7.6030235,1.2023609,14.119479
-9.037934,-5.5311832,-6.8490615,2.475453,-5.6242847,2.1323833,0.97128797,0.9412496,0.44424045,-4.6633644,8.217791,9.913284
-7.75396,1.3735305,-6.155832,-0.56237,0.55564934,1.8274815,0.55170035,-0.7231436,2.0515738,-7.2698503,0.4130497,9.973808
-9.14231,2.958828,0.14796525,-0.40219778,0.90017664,0.051418543,-0.27713832,-1.4044518,0.308402,-6.4885964,-5.542043,6.8543034
0.43262428,0.13327622,5.9383383,0.70259285,0.5464723,-1.3405609,0.5526619,-2.4875412,2.932176,0.823473,-5.128765,-1.4171333
-1.9248401,0.96940374,9.208144,6.7874484,2.9274068,18.195154,9.79785,-5.554151,-3.3574975,-1.6383674,0.8212166,-2.7841651
1.7295306,-1.5828037,0.99770474,3.156764,1.0868084,8.762491,7.398851,-3.22088,-2.9808013,0.98112977,0.9020009,-0.48253608
-16.842293,-2.7553241,-12.577508,-0.09025687,-1.4229541,-1.9506683,-3.5917459,-0.926658,7.683818,-6.089244,4.171994,14.957779
-8.59605,-3.693182,-7.951826,3.4724684,-4.18808,2.8556736,1.3033926,0.39635587,1.4075571,-4.0174503,8.971042,11.629929
-6.0596986,1.4348122,-4.10026,0.06621522,-4.1602664,0.41143322,0.46592617,-0.2325275,0.7050312,-3.3529577,0.5922214,9.877374
-10.515362,1.531146,-1.7324339,-0.3778937,1.335746,0.83657146,-0.11432189,-1.1245084,0.11149633,-8.239214,-7.760479,7.027569
-9.0245905,4.1311197,4.848684,-0.19149274,1.2467587,0.4130087,-0.1318152,-1.4308577,0.394141,-3.8049164,-10.262829,5.6311865
-1.2162759,-0.9990778,12.944908,8.650415,1.0729313,20.0,16.343868,-5.6400456,-5.8455853,-1.874384,3.0159626,-0.2086289
1.2313359,-1.0243495,0.21130791,3.8635716,0.4854753,9.050216,6.948559,-5.409621,-2.848804,1.3558717,1.1488874,-0.3890053
-1.0458817,0.6192899,-1.4867393,2.7135644,-6.40254,-2.5220473,-0.3545196,-2.3273644,7.0193644,-0.7419281,1.3599186,3.8292916
-9.397583,-4.4451036,-7.106775,2.4219565,-5.9537277,4.6759653,1.3356843,0.78727627,2.4950492,-4.8793187,5.981148,8.420477
-7.4006667,-1.1418892,-5.281839,0.19590032,-0.9662396,0.42297435,0.30805016,-0.44038796,0.08821511,-4.941476,3.691746,9.125859
