ancorasir/BennettWheelLegRL/experiment_data/2023-12-27_22-47-53/joint_vel_env8.csv
Joint_1,Joint_2,Joint_3,Joint_4,Joint_5,Joint_6,Joint_7,Joint_8,Joint_9,Joint_10,Joint_11,Joint_12
0.0,0.0,0.0,0.0,0.0,0.0,0.0,0.0,0.0,0.0,0.0,0.0
0.89236337,12.756206,1.1860526,4.5460186,-1.4130104,9.389655,9.042392,-2.2196836,-9.352884,-4.68597,-21.67828,-6.3013854
-8.081055,-11.888325,1.291467,0.5319638,3.1509118,-2.6425238,-2.6698895,-2.7741125,3.8322082,-4.4253335,17.975359,9.993048
2.7544434,-2.5419722,2.4780862,1.5739192,1.4960985,0.77292514,-6.3831367,-8.347488,-0.004079489,-1.1021776,2.3621824,-0.662618
0.5018468,-2.8634605,-0.1999257,1.6087933,1.0562273,3.2965326,-4.527369,-0.3409188,-0.018976934,-0.5032726,3.2261913,0.75267535
-0.18425062,-2.692523,-1.2346288,-2.715416,0.9079037,-16.051598,-1.7236096,4.75484,-0.005848406,-0.054659814,2.7932968,1.0465105
-0.121067494,-0.8863032,-3.3751178,-10.895458,-4.418093,-22.480946,-4.529795,11.160041,-0.0023151534,-2.4446044,-0.08875513,4.242758
-0.1668481,7.5837865,-1.206123,10.112801,-1.7575381,3.9583993,17.882385,1.144948,-4.6414404,1.8865119,-1.4420098,4.302039
-1.2035844,10.454945,-0.00029797218,0.3734106,4.0932984,0.43505704,-0.04250688,-2.846553,-0.0344434,-0.7709278,-10.918942,-1.3309087
-4.3420053,3.8066587,-7.715166,1.2285002,2.3141885,2.8389826,-1.1699758,-3.1583166,-0.13602501,-4.1503057,3.7943943,10.1256695
7.9314475,-8.065558,12.666594,-2.9934857,-4.425328,-3.8881314,-1.3679042,-1.2034256,3.1397195,1.141764,5.910497,-5.4417043
-0.13619779,-4.2332816,0.37937567,0.8255873,0.85982496,4.173855,-5.850496,-1.0583326,0.05614086,0.013286389,4.7075386,-0.61508465
0.22099073,-3.5196579,-0.9752191,0.76247704,0.4128183,2.260123,-5.092104,4.1594462,-0.0451141,-0.88840723,3.0917933,1.4335712
-0.56608486,-0.8556614,-4.0345664,-3.488986,-6.4603577,-5.124111,3.5996845,10.825269,-0.0029589962,-1.5754071,0.7364177,4.52717
6.5879455,10.259531,-0.0004097561,-1.2425699,6.6296406,-6.0315866,-1.6123185,-3.40831,2.0961173,11.969299,-15.551506,-8.396503
-3.1435494,9.365065,-0.00015833834,-0.11794473,4.3831663,0.018851727,0.21905154,-2.3827431,-1.2220949,-4.236563,-7.997952,1.1837441
-2.4425836,-1.4867417,-1.7743655,0.64709306,2.3749435,2.6399105,-0.6437387,-2.4078221,-1.1072212,-3.2066288,2.6131902,3.857623
0.89087284,-5.2263536,3.5019145,-0.14465113,1.8964537,2.6988103,-7.3443274,-6.5844307,-0.012783954,1.0601712,5.010742,-3.1608572
-0.1661823,-4.4658227,0.47804198,1.4735328,-0.06771514,5.1325355,-3.898065,2.0964978,-0.9221163,-0.18340737,4.171847,0.28182662
-0.3357669,-2.0414586,-2.4014635,-5.572327,-5.2740836,-2.256856,-4.950939,8.710768,-0.0001920957,-0.5668363,2.794696,1.5118511
-0.4820062,-1.3183771,-4.3036385,-2.591497,-5.379273,-5.6488895,3.8572497,10.291245,0.0004545683,-2.1427028,0.4575381,5.227361
7.2610116,9.796219,-0.00041518174,-4.536849,10.33838,-11.9241495,-3.087966,-6.9178276,7.3554854,11.386521,-14.338386,-10.319453
-4.347249,9.624972,-0.00014838131,0.9191376,3.4839702,1.5251956,-0.12935975,-2.371796,-1.1017346,-2.8695421,-8.392516,1.4138801
-3.1556268,-2.1340115,-3.7876008,0.9430817,2.0084896,3.2134254,-0.5722594,-4.0281706,0.6868196,-3.860568,6.7360497,8.930346
2.668702,-6.6795955,5.617739,0.34074232,4.255571,2.633118,-5.6324615,-6.6623893,-0.025278209,0.2069792,6.1783075,-3.487963
-0.30311504,-4.546551,0.435791,1.5183014,-0.2488904,5.4285507,-3.7403817,-0.5732868,-0.0017352719,-0.40343517,3.965178,0.9766979
-0.10494805,-3.1953845,-1.4635158,-7.2353673,-7.3910303,-6.0686936,-5.8722124,9.3330965,-0.002800865,-0.4443655,3.2061796,1.496029
-0.5654958,-2.1527967,-2.9999564,-5.86168,-10.258647,-6.3543653,3.7055988,12.998429,0.18123081,-0.9648798,1.2263939,3.985216
10.796511,0.5137891,-0.00044606056,16.367529,-0.63564765,26.138258,21.940596,-10.45935,-4.9748363,5.5889335,-7.273056,7.3553343
-0.7648677,13.30588,-0.0002892032,0.29262358,4.9169044,-0.8303243,-0.3038748,-2.6682825,-0.121749036,0.9602809,-13.028673,-1.8132159
-3.4262965,6.654567,-0.6042937,0.4452712,3.457636,1.8440982,0.23301356,-2.0572267,-2.1595871,-5.58246,-6.767435,3.1400719
-5.4531355,-5.191493,-2.0429175,0.57314605,1.8016642,3.3009944,2.8809361,-4.291687,-0.1676184,-3.713341,10.241658,9.90889
1.8366139,-5.712626,4.0058913,-0.13911149,3.498735,1.5412097,-7.55733,-4.347816,-0.012809162,0.5854678,5.6689754,-3.7316906
0.2457807,-4.264839,0.5647591,1.054191,0.61115557,4.2086124,-4.9564767,-1.1600373,-0.1101597,-0.55998397,4.2849884,-0.070875116
-0.119753174,-3.2363997,-0.9827024,-0.4763105,-3.2350373,2.9371421,-4.7125854,5.8738403,0.052146252,-0.51755786,3.098077,1.3912408
0.067878716,-2.1933708,-2.7795508,-5.1562815,-3.1766431,-5.689841,-1.8375244,9.238998,0.0041708993,-1.1527627,1.9881964,3.332898
-1.4136522,-0.92961216,-4.2417126,-0.45854437,-7.457048,-5.085496,6.5307846,10.059045,0.08754932,-1.5898695,0.5257036,4.608655
14.242282,6.4830256,-0.0004204061,1.2892535,6.15721,-2.6573231,24.921867,-16.905167,-5.2039266,13.984727,-12.606448,-6.532092
-2.6374693,10.653194,-0.00020888189,0.43412384,3.485359,1.1977625,0.25558004,-2.4770143,-0.7496549,-3.1260943,-11.113981,0.28546262
-4.83225,3.7743871,-6.2570667,1.0751871,2.3974504,2.6788483,-0.7310496,-2.7992759,-0.64372045,-4.35872,-0.45486522,7.4740314
2.594768,-4.7119613,5.829186,0.04013945,-0.067395024,-1.2880198,-3.567012,-10.98307,26.269913,5.101187,7.0071254,-11.512919
-0.66515875,-4.3890142,0.5191273,0.07324618,0.62690544,3.9562492,-6.8822026,1.1792632,-0.010172371,0.6274575,4.4174914,-0.8307346
-0.22377703,-2.9439585,-1.2803857,-3.1620715,-4.2514696,-5.2167377,-3.4933403,7.3584356,-2.2493536e-05,-0.4541021,2.6707146,1.473998
-0.20512179,-1.290202,-3.5288136,-1.3526063,-5.0437717,-2.4655926,4.6412964,8.860134,0.23939385,-1.8210721,0.69794124,4.472025
8.019089,-2.1109004,-0.00034700125,14.269563,-2.3614554,28.402222,24.759624,-6.399612,-16.39181,10.716428,7.3130665,-37.447186
-2.1724815,10.69869,-0.00022589357,-0.42276615,4.255764,0.18785195,1.0997393,-1.9967711,-1.6626897,-1.6636776,-10.692583,2.3184514
-3.3262115,2.6644871,-1.2462401,0.72376454,2.2234168,2.9566317,0.026562974,-2.1101193,-1.9934268,-3.8186092,-1.6353881,3.1974223
6.366119,-7.471627,11.915685,-1.6551661,-4.954093,-4.208523,-1.1702812,0.35418144,-3.7213733,6.7599754,8.601536,-15.435239
-0.07876876,-3.739332,0.54102373,0.8045318,0.7820491,3.5415974,-5.966328,-3.2373645,-0.013260508,-0.04825016,3.7006104,-0.2889889
-0.32463166,-3.570889,-0.856202,-1.6381068,-3.8846087,0.6497234,-5.8437724,5.977296,0.0015963372,-0.15557313,3.1923554,1.0661145
0.22572672,-2.3313334,-2.528551,-6.2809353,-7.5610895,-7.2176704,-0.35357636,12.898585,0.005777443,-1.4225593,1.3076255,3.690137
-2.2794485,5.152599,1.7510763,6.201987,-5.684815,1.9143914,15.066068,4.689568,-2.2864513,-1.6936668,0.06880776,4.9713764
-1.8592387,12.406578,-0.0002512802,-0.5876764,5.668848,-1.7118747,0.7115929,-2.880085,-0.8908497,-1.034719,-14.564271,0.09208385
-2.5809,4.816078,-0.015801406,0.35947642,3.458651,1.8336083,-0.16113131,-2.711879,-1.2207428,-3.5097044,-3.531659,1.1917977
-5.8676934,-1.0477381,-14.235201,0.828333,0.20746854,0.50471264,0.3996399,-4.314933,2.6963189,-4.8743453,5.3002486,22.166132
1.079974,-4.790876,2.5637736,0.5803892,2.055111,2.775122,-7.592468,-8.57759,-0.0030910075,-0.2758822,4.475478,-1.0231564
-0.22537675,-3.4349308,-0.97508043,-1.7836443,-4.441533,3.644941,-3.9001205,5.9202547,-0.0007722149,-0.33901328,3.1413903,0.94077015
-0.088762105,-1.8230165,-3.9834201,-1.8049005,-7.876285,0.003658237,7.125955,10.2527485,0.0002857875,-2.7441313,-0.22402081,6.0298767
2.5875468,12.896042,-0.00041346776,0.15106663,6.2041144,-2.3741505,-0.037066564,-3.1067874,-0.07860078,2.15284,-10.381225,-6.8165402
-5.0525494,10.387345,-6.4655843,0.5993585,3.2760735,1.5830548,-0.23663771,-2.4869637,-1.0180203,-4.8441024,-10.130833,12.107671
-6.618904,-6.3898134,-1.4116436,-1.2362084,4.066169,0.42427492,-0.48228303,-3.4577286,-0.01877582,6.8260174,6.497124,-12.98371
-0.34318432,-4.5399857,1.4691658,-0.03106758,1.8180864,3.138623,-7.4529715,-5.104735,-0.009298459,0.82449263,4.999017,-1.5264397
-0.29475555,-3.887127,-0.11080794,-3.1149433,3.748436,-21.426476,-4.1868706,4.574977,3.5616114,0.37942892,4.06663,0.040723257
-0.09809927,-2.3813274,-2.3446007,-5.0863295,-4.4842434,-5.21581,-2.393626,6.848057,0.0077822474,-0.9774259,1.9252319,2.9868848
0.2612818,-1.3317819,-4.5473604,-1.2134502,-7.491658,-6.076833,5.5835896,9.125343,-0.0062831044,-2.0291123,0.61998594,4.915548
5.528573,10.583966,-0.00037683203,-1.7256129,8.861263,-9.049897,-1.9947417,-3.3706431,1.6580433,6.8480444,-12.279521,-8.689817
-3.5470755,10.532796,-0.00013438996,0.11197042,4.2602844,0.5668114,0.29999954,-2.1150756,-2.1394184,-2.411143,-8.785766,0.41358286
-6.04003,-4.0219088,-0.48558804,0.7643864,1.6854231,3.1011267,-0.19608727,-2.1698768,-0.88317007,-3.5165703,8.045988,6.188311
0.54596937,-4.7675543,2.039847,0.6739699,2.137128,2.896054,-7.517622,-7.39402,-0.013025148,-0.78274024,4.4305186,-0.3420671
-0.3237009,-4.4967637,0.29679298,0.966687,0.2692771,4.5321326,-5.5274367,2.9142768,0.13509613,-0.222903,4.057583,0.29159558
0.8626764,-3.9250743,-1.0433174,-3.8014078,-5.397703,-5.1713696,-2.1326623,7.340142,-0.21340361,-0.83483434,3.240123,1.761246
-0.25568494,-1.1532212,-3.936447,-2.0072832,-4.476302,-3.821288,6.0408654,10.380472,0.6130392,-2.0835717,0.44040662,4.792233
1.460897,14.336222,-0.00026801776,0.046226323,5.9042215,-2.2296114,-0.17653218,-2.8890932,0.022460915,2.773599,-13.669941,-3.9839616
-4.888144,6.523843,-0.05756933,0.3779535,3.4495463,1.7681011,-0.20941925,-2.7008295,-1.113184,-3.9375157,-2.9271514,2.9379642
8.29794,-8.277291,13.142971,-0.6930535,-5.1251597,-2.8675156,3.6812997,-3.6737401,-3.2663393,0.8833006,6.112657,-6.617524
-0.33048645,-4.253432,0.59005755,0.7646937,0.8981447,3.9891942,-4.720259,-2.0582747,-0.012578803,0.17966734,4.205971,-0.20207569
-0.12794098,-3.5883603,-1.013639,-2.5748146,-1.841417,-7.322741,-4.432035,7.56965,0.0049472745,-0.48837334,2.812823,1.7836044
0.5998671,-1.9599754,-3.2024593,-1.8573205,-4.2066073,-5.8381777,3.3682702,10.962435,-5.87767e-05,-2.2852135,0.6883141,4.8148465
12.007186,10.167198,-0.00041057263,-0.5713241,7.106102,-8.485911,-7.595265,-6.11205,9.736156,10.696009,-9.801456,-25.65044
-3.3552687,11.105,-6.955284e-05,0.28699243,3.7432246,1.254908,0.11458696,-2.4992454,-1.4950663,-5.70129,-8.644264,2.1213362
-2.5191445,-1.6750295,-5.4840975,0.20579275,2.7133508,2.4886787,-0.13745457,-2.4527402,-1.5605391,-4.9782286,3.242297,4.855101
2.569426,-5.748369,5.4745536,-0.88879263,-2.0657225,-0.94954944,-3.8549576,-2.4458573,1.6129586,1.7543001,5.8601017,-5.6429825
0.28596622,-4.2074738,0.81930715,1.9471093,-0.20918088,5.017302,-4.021007,0.245451,-1.5321088,-0.21049091,4.294479,-0.22087777
0.056786984,-3.5031252,-0.835716,-3.605945,-1.7779858,-8.111092,-4.6070457,4.9591455,-0.0007799624,-0.82618785,2.403972,2.0623245
-0.7868525,-1.1047485,-4.012319,-3.3676295,-7.2081656,-4.6150255,3.735268,10.751526,-0.39494467,-1.707636,0.62206733,4.4864516
13.59319,8.502133,-0.00041423086,-2.5287704,9.390355,-11.099657,-5.8754044,-6.508822,8.4263735,12.316626,-8.234826,-25.31272
-2.5639296,9.452137,-9.250172e-05,0.252432,3.8576868,1.1839018,0.30149913,-2.6151714,-1.3895676,-5.207981,-9.601056,1.9177653
-1.906526,-0.76505053,-1.4454564,0.47214323,2.3835976,2.670044,-0.23506567,-2.4249988,-1.5709332,-1.7722502,0.09918623,2.392313
3.225231,-6.031187,5.5886636,-0.5977994,-3.5513828,-2.0824304,-8.00499,-3.4055183,0.010874198,1.5078733,6.093774,-7.442995
-0.1744087,-3.6184363,-0.275144,1.1445099,0.050030656,4.451816,-2.3566997,1.4250941,0.21705839,-0.40506673,3.9685574,-0.29547983
0.5126819,-3.4626527,-1.0733329,-3.2187932,-3.677905,-7.70593,-4.7483253,6.860234,0.00045389868,-0.8394249,2.9281416,1.8093678
-0.6146737,-1.3174695,-3.7025614,-3.0218139,-6.921829,-7.1043005,2.711765,9.690507,0.48970005,-1.167094,1.149413,4.089518
13.231067,1.7594475,-0.00032346143,16.723505,-0.9585783,18.847244,23.109518,-11.282338,-1.3329208,4.1090746,-9.376505,11.307415
-3.901366,11.874306,-3.6473575e-05,0.6050096,3.3924825,1.3663763,-0.026077578,-2.1142485,-1.6736633,-3.5146265,-11.264243,4.977365
-8.514379,-8.630942,-2.2321548,-2.2473319,2.8638353,1.6297691,1.2064128,-2.8762174,-0.88662404,10.406275,7.486312,-17.409298
-0.6222698,-4.2342334,0.9023291,1.0841919,0.33454955,4.643927,-5.545018,-3.9691198,-0.0038623847,1.0164237,5.1377573,-1.9300289
0.029798606,-4.1626964,-0.3166366,-3.7491574,0.23927188,-14.947239,-4.7847257,5.91781,-0.027871031,0.13266289,4.1269555,0.20722048
0.28961086,-2.059871,-2.7508957,-7.088286,-8.1701145,-7.8225813,-0.9090589,10.388143,0.007884874,-2.0449784,0.9969302,3.9136887
9.114472,-0.50179774,-0.0004236878,13.790131,-3.4237468,31.010187,25.201216,-10.763578,-12.228948,13.18247,2.9949987,-33.418846
-4.8066654,9.717303,-0.00013921419,-0.3035368,3.9063194,0.5513756,0.5458587,-2.3371234,-1.4787381,-5.1399736,-9.769057,1.5481696
-1.1936831,0.59479904,-1.4501487,0.7055773,2.371337,3.0132716,-0.071828716,-2.2572436,-2.0386105,-3.7703648,-0.20098507,1.9842399
1.1609554,-5.7052884,4.6762195,-1.1729932,-4.313834,-3.8650172,-2.0331533,1.2574843,0.0030568612,2.6463807,6.072137,-5.6250544
0.3997702,-4.2791095,1.2025644,1.0382721,0.77535653,3.7425065,-5.2489247,-3.8595147,-0.011866631,-0.5394913,3.9902232,-0.51611245
-0.034088425,-3.7597992,-0.59916854,-1.2931135,1.3437868,-0.1529479,-5.8183947,6.0073543,0.0017548068,-0.4052211,3.5118186,0.95157915
0.37300262,-2.608505,-2.2853212,-2.9349792,-5.4064164,-5.235247,-0.40184137,9.632003,0.000734115,-1.3148159,1.8786547,3.222408
-1.0080501,-1.4248587,-3.523631,3.8005464,-2.1236496,0.44584975,10.482023,5.5249767,-1.2710831,-1.7449297,0.36792582,4.6608915
2.784659,12.847576,-0.00031930208,0.009561388,5.2444487,-1.3852801,0.011541694,-2.5428503,-0.2803611,6.0828857,-11.939218,-4.880789
-4.759868,5.0112615,-1.6517888,0.85073084,3.036813,2.1385844,-0.22786161,-2.1348438,-1.6570711,-6.117331,-7.039804,4.266437
1.4131422,-5.5292892,3.9900715,-1.0283868,3.4863684,0.7534517,-7.377814,-5.4270277,-0.005317345,1.132941,5.632394,-4.2690625
-0.27756435,-3.7337387,-0.111554526,1.3493342,-0.12781702,4.766215,-5.1138635,1.2506354,-0.009777844,-0.53830713,3.3391633,1.0184757
-0.25586158,-3.1515446,-1.0797862,-2.678557,-4.683748,-3.2985983,-4.1077523,7.3041453,0.0062807444,-0.32214087,2.497533,1.8517934
-1.1392806,-1.1296817,-4.294406,-4.7258797,-9.146487,-6.3775396,4.473318,12.148197,0.73869216,-1.6716226,0.28419584,5.295914
10.792959,6.155691,-0.00042367494,-6.8196545,8.115026,-9.820214,25.384743,-18.586946,-4.1679816,16.720741,-1.7124603,-30.227238
-4.7281647,13.723931,-0.00014189209,0.5960249,4.268906,0.37069553,0.40552026,-1.6959906,-2.5122733,-4.505915,-13.528825,4.7938604
-4.329733,1.9242055,-10.394321,0.95040214,3.6117518,1.5901641,-0.82180065,-2.4768252,-1.1919501,-3.502868,1.7352108,10.389682
2.9853451,-5.704665,5.7329073,-2.1413188,-4.0501027,-5.1265163,-4.086819,3.9641263,1.281671,3.4790502,7.263912,-9.964982
0.6383834,-3.51138,-0.028691111,1.7749988,0.73134303,3.9097118,-2.710811,-4.159765,-0.01181872,-1.586989,2.5702367,1.4641105
-0.4313195,-3.6568544,-0.8187304,-3.4506843,-0.659454,-7.5190697,-5.1935477,7.8197055,-0.00020842697,0.23101465,3.4294715,1.042683
0.17682308,-1.9906964,-2.9024892,-4.30104,-4.792241,-5.4031124,-0.10815962,9.483695,0.00020747667,-1.6931224,1.0901775,4.1168737
12.66891,-0.3889538,-0.0004078576,-5.5541487,8.57399,-8.631083,24.109169,-16.841297,-4.936119,13.668345,-6.036193,-3.4005954
-2.352317,9.98241,-0.00018368475,0.5783667,2.8846064,2.1181345,0.33322984,-1.9689599,-1.9507365,-4.0578756,-10.9418955,0.46329153
-6.61816,-7.131209,-2.4063668,0.7846017,1.5673202,3.4412084,0.0862177,-2.809529,-0.87327296,-3.2166796,10.005277,6.847804
0.8638981,-4.950809,2.3049679,0.48454052,2.2617579,2.5820823,-5.328841,-5.9727387,-0.012023647,-0.13859604,4.9120784,-1.7524787
-0.36777216,-3.9741404,-0.24772531,-2.0010433,-0.6176197,-5.2958617,-4.249198,4.1836634,-0.91351426,-0.10794127,3.7545729,0.739153
0.502895,-3.484729,-1.1894319,-3.3898025,-3.4292572,-11.254336,-3.8520617,7.4423056,0.00033545727,-0.68106943,2.9300985,1.7003266
-0.87223464,-1.1542296,-4.060524,-1.6565447,-5.923656,-8.877383,4.9321566,11.253571,-0.915949,-1.7285676,0.48388708,4.6671586
9.168961,11.425416,-0.0003762612,1.0741187,4.9155326,-1.8164622,-2.5000062,-3.669265,2.620167,8.491984,-13.393797,-8.666228
-5.738082,11.29935,-6.595606e-05,0.3944593,3.6541708,0.8873781,0.023688026,-2.3169777,-0.9785423,-4.190522,-10.413556,2.2749076
-3.891489,-2.260269,-1.7587595,0.5990356,3.266386,1.9613023,-0.9973367,-2.9092052,-0.57647514,-2.9567215,4.7546773,6.1445756
1.945298,-6.641376,5.3520384,-1.7830921,-2.5633729,-1.6159681,-4.13528,-3.869764,0.0025207421,1.1008716,5.975735,-3.6224017
-0.58546174,-3.8126976,-0.037250265,-0.9675868,1.7673827,-8.846796,-5.5084047,2.7572665,-2.2217636,0.36672947,4.2177644,-0.36552516
0.9556562,-3.728576,-1.0476434,-1.465307,-2.9604692,-1.2930202,-1.2074761,6.372933,-0.00019859709,-0.968722,2.9087083,2.22369
-0.95017767,-0.8082647,-4.316268,-2.21969,-5.7880383,-6.3652062,4.2492876,9.809483,0.092912905,-1.6713955,0.64138263,4.489393
10.73242,13.766776,-0.00034059666,2.6041574,4.0107822,-1.0412147,-9.591015,-8.485044,14.171213,9.078865,-11.941653,-19.052433
-4.069549,10.828601,-0.00011747287,0.32396272,3.4445148,1.4204978,0.5198661,-1.7644119,-2.4756544,-3.7455373,-9.494347,1.8301785
-4.5143266,-7.6317472,-1.6416868,0.8285662,1.969871,2.6118474,-1.9223663,-2.9756289,-0.17509387,-3.642599,9.965826,5.768472
-0.24019063,-4.642553,1.9997743,0.042661287,1.4168789,1.8236582,-6.804408,-3.3247018,-0.005110234,1.5693375,5.71939,-3.1605313
-0.24380247,-3.6783285,-0.4808445,-0.43427128,-0.35077834,-5.887614,-2.2571414,4.519046,-0.024021812,0.076266736,3.5304606,0.7954442
0.035004005,-2.3811162,-2.1850653,-5.8880453,-3.0940998,-14.81486,-4.3570967,7.2557507,0.00047779712,-1.386918,1.7100078,2.67306
-0.3696553,-0.95752525,-4.272149,-2.4358404,-8.122455,-4.962851,2.9959126,9.627119,0.012549672,-2.4457815,0.26513845,4.7878537
14.226815,-1.2625839,-0.00042874273,17.715317,-1.7531191,22.817732,25.218143,-9.629303,-3.846461,7.691895,-10.892602,11.749799
-4.477689,10.226491,-0.000115101895,-0.5076434,4.856506,-0.5314665,0.6290907,-2.873392,-0.35801524,-3.767348,-10.675738,0.3730843
-1.114323,1.9459867,-5.801557,0.65156484,2.6728148,2.561563,-0.38875374,-2.5441422,-1.4400616,-4.1453614,0.39754266,2.1157696
7.1494675,-6.6975956,12.428395,-2.6405196,0.7591406,-0.5834386,1.0634825,-6.7386827,-3.2181096,3.0887809,8.499658,-12.136679
0.505535,-4.773007,1.2618243,1.0671668,0.3145312,4.5794516,-3.9844732,-1.7371116,-0.013019515,-0.44566977,4.1787157,-0.18673426
0.13354427,-3.673722,-0.96241516,-3.384587,-4.792824,-4.658586,-3.7445467,5.3627577,0.44227543,-0.27436203,3.5910304,0.88035285
0.11698493,-1.4798741,-3.8077855,-0.2722075,-7.134853,-4.4096775,6.170229,10.73359,-0.00013508089,-2.279225,0.3977153,5.056945
12.501121,9.073223,-0.00040747382,0.6654896,7.182495,-8.506252,-8.259225,-5.468356,9.312734,8.36958,-11.573387,-11.055481
-4.56856,9.921617,-2.8759088e-05,0.46839157,3.478044,1.4639976,0.17720678,-1.5847876,-2.2157311,-4.292926,-9.072559,2.053648
11.266745,-8.171793,14.468441,0.037927765,-3.3102634,-2.6451378,-1.3283494,-3.8019223,-2.8195467,-0.04733807,6.51336,-7.914694
0.36240175,-4.554882,0.897076,0.36422977,1.7749482,2.939878,-6.507838,-0.44516677,0.12768011,-0.5664872,3.798481,0.22834697
0.35044485,-3.003137,-1.4535207,-1.9259815,-1.485018,-1.4556627,-0.7197292,6.0403514,0.0010835063,-0.86384773,2.4202838,2.083509
-1.8134668,0.054580495,-4.7498593,-2.8973794,-4.5181384,-11.362628,3.2233932,10.589148,-0.50885665,-1.0981773,0.6634285,3.9388227
9.553018,9.137173,-0.0003975316,-1.7142622,7.4603233,-9.140476,-3.8867836,-4.4070673,4.3515787,11.966924,-13.011477,-16.66194
-5.1538134,8.1300745,0.114932895,-0.15427966,3.856805,1.0644995,0.536151,-2.3089142,-1.8242811,-5.1056495,-9.880066,3.8556466
-6.837926,-6.4345617,-5.7775,0.44893396,1.5927134,3.1075938,3.6897502,-9.439929,14.42026,-5.1071186,6.496063,21.136322
0.76442087,-4.9170947,2.5831854,-0.34200904,3.8938375,0.8564784,-7.1675925,-6.4981403,-0.016093519,0.5045753,4.948804,-2.3828146
-0.0016385168,-4.0381594,0.06620132,0.8145617,1.0035803,3.8277185,-4.257515,1.7013152,-0.007310819,-0.27762705,3.9428835,0.38280392
0.37154996,-2.9926322,-1.8016831,-4.5048685,-4.2241015,-3.705324,-1.6938914,7.2343497,-0.00011846167,-0.81225705,2.7940333,2.174526
-1.6784734,-4.170033,12.693056,4.1379333,-4.1369867,-0.04531912,11.240219,7.2785397,-5.8447766,-2.284076,0.107741214,4.9058847
0.2825064,11.58906,-0.00031984906,0.60917866,4.704515,-0.62209046,-0.50325876,-2.5185907,-0.48500094,2.63392,-11.70603,-2.7578685
-3.754408,1.9504539,-1.3144151,0.49258637,2.2021303,2.8952792,0.49784112,-1.7301334,-2.4088855,-4.298307,-3.0295434,3.3532019
3.6030219,-6.3176084,6.7412596,-0.77847356,-3.726122,-7.7151074,-3.1651354,-5.235498,17.377787,4.370636,7.705102,-12.138145
-0.0943754,-3.4573095,0.37794438,0.61576104,1.28791,2.8978467,-6.1722026,-2.7435088,-0.012099961,-0.11117927,3.3740196,-0.25421405
-0.30787706,-3.769448,-0.4950364,-2.5351,-3.862722,-1.3526123,-4.767395,6.1270704,0.95131576,0.022794586,3.1320462,0.9652766
0.08606765,-1.6881477,-3.0469189,-5.6106977,-4.03681,-6.2828217,0.34748748,9.44967,0.003436055,-1.3913066,1.4623878,3.5844479
14.252351,-3.7973292,-0.0004362401,16.567125,-2.8264818,22.952623,21.386187,-12.254325,-1.4306276,6.2703066,-10.700494,12.961297
-3.6140037,11.906548,-5.663841e-05,-0.1800362,5.0746794,-0.28572085,0.68424135,-2.2258844,-1.7851307,-4.8089237,-10.408975,3.7133062
-2.218211,-1.7676795,-7.8447537,0.4910089,2.0960443,3.0235336,-0.22647002,-2.1896324,-1.7906842,-4.17209,4.3050294,6.7221227
0.7776573,-5.041714,3.320011,-0.45656142,2.2016282,2.3772132,-9.125862,-6.0327163,-0.027892074,1.5931695,5.3751144,-4.111805
-0.12775055,-3.8677375,0.023990285,2.2529857,-0.79036,5.6414294,-1.4687389,0.5402807,0.34087643,-0.43626034,3.7967381,0.43753663
0.52983385,-3.2599607,-1.2753488,-5.398481,-6.975314,-5.8846936,-4.1327944,7.8976903,-0.00062804564,-1.0021639,2.8376744,1.8961627
-0.7608912,-1.1107502,-4.287914,1.4284118,-3.4275136,-2.6175318,8.080924,7.9720616,-0.23214035,-2.0104585,0.30611724,5.186511
3.884209,11.591496,-0.00037869625,-2.3051848,8.777511,-8.476787,-2.0887442,-4.0023165,2.5108075,5.086492,-14.829783,-5.3762426
-3.9133906,6.542083,-0.16019487,-0.051063806,2.8525596,2.3064818,0.52525896,-2.288202,-2.1017017,-4.9957976,-6.0736804,1.8200737
-7.446246,-7.6657114,0.24282263,1.4299223,1.1483858,5.710774,4.0969467,-2.9971585,-3.9385319,-4.7399216,11.45159,5.946314
0.1261907,-4.5233965,2.3753269,-0.6936561,2.7756348,1.8626771,-6.5196333,-5.8462057,0.028377524,1.3056836,4.9069133,-2.5461478
-0.6017843,-3.6497889,-0.052565794,-0.4122243,0.5485768,-7.599424,-4.918,4.505545,0.2919024,0.26484546,3.702072,0.21252078
0.16436586,-3.4591296,-1.1299,-3.522289,-1.1892676,-12.303612,-3.055779,6.7159343,0.004633248,-0.6350126,2.4859087,2.3845184
-1.0024258,-1.0346045,-4.019541,-1.353367,-4.5029316,-4.984283,4.690069,8.217312,0.0063672923,-1.2192801,0.8351735,4.284117
5.936711,9.523946,-0.0004361322,-1.7043872,8.69496,-8.371413,-6.0212703,-7.483675,10.7846365,11.57014,-10.940212,-10.775848
-2.8012407,12.422105,-0.00017593367,1.1851773,2.7178133,1.787496,-0.016703114,-1.6478753,-1.7040154,-2.772122,-13.00646,1.303591
-2.8567312,3.5372558,-6.3955283,0.74918514,2.7850823,2.151916,-0.84648216,-2.6168444,-0.82593834,-3.4022229,-1.3022015,4.5066414
-12.792424,-12.20304,0.23869981,-5.412228,-3.2194002,-1.7078049,4.2503424,-5.1697245,-4.7046137,9.908879,5.5605397,-12.949821
0.8094584,-4.691869,2.2680976,0.6981641,1.3821361,3.5230522,-7.3945494,-4.775761,-0.010868138,0.36832443,5.033019,-2.0468886
-0.59986854,-4.11668,0.106252655,0.9821831,-0.1830227,4.988666,-5.3247986,3.3998942,0.8701698,0.5195984,4.451597,-0.59250283
-0.12858929,-3.359977,-1.2774142,-5.3680544,-1.3562596,-18.823553,-5.3201184,7.468159,0.0006343097,-0.47673255,3.1795554,1.4017062
-1.1392518,-1.3215653,-3.8633978,-2.885913,-6.2193065,-8.405895,4.043338,12.000939,-0.21647711,-1.014545,0.9932267,4.233365
11.211493,-0.49973097,-0.00045530032,18.886436,-2.479447,29.703535,19.940063,-8.8142605,-4.8512664,5.346342,-7.129011,8.025397
-2.608249,13.683666,-0.00018920776,-0.33292747,6.2379303,-2.762201,-0.2717401,-3.0061336,0.6344446,-0.73277825,-13.965701,0.6512047
-2.7624733,5.9497075,-0.98056626,0.46371844,4.1415396,1.1450269,-0.25319237,-2.5492952,-1.441708,-5.9223604,-3.8669739,1.3530073
-3.8649642,-2.3652844,-6.86468,0.3015642,2.1161196,2.8452852,-0.37855706,-2.8962767,-0.41339016,-4.273743,6.380208,13.296431
1.721874,-5.0922217,3.8195977,0.43644005,1.9210339,2.8190365,-6.5815573,-5.538462,-0.010281138,0.47867912,5.32304,-3.4215927
-0.2291115,-4.2331667,0.86835974,0.3162554,1.114614,3.5914721,-4.144767,-0.90816903,-0.009789962,0.22203746,4.336318,-0.19181153
0.39679372,-3.1092894,-0.9734421,4.73665,3.954424,6.830079,-4.9960995,5.844167,0.105142914,-1.1519389,2.6028852,1.9269122
-0.6010713,-1.6983333,-3.3327584,-4.7513003,-6.2227945,-5.7031417,-0.09660266,7.810638,0.009244267,-1.0847312,1.1862348,3.943931
2.0959373,3.5674074,-2.2967215e-05,9.46741,-6.7850156,6.6715593,17.658144,-0.3025279,-3.9159148,-2.1615462,0.29495388,4.6426563
-2.9543006,11.368498,-0.00016852721,0.28880435,4.2425165,0.5616926,0.5045836,-1.769782,-2.6495771,-4.3647356,-11.584519,0.97029626
-3.2242188,-2.7822268,-2.2640097,0.77474284,2.2641418,2.9784966,-0.40265405,-2.1840625,-1.5637158,-4.0273128,3.9618678,5.6375732
0.81878984,-5.835754,4.162346,-0.6280288,-3.4717863,-2.048121,-8.514427,-4.007561,0.00166968,1.5351542,5.53427,-3.0791736
-0.2626961,-3.824078,0.09177639,1.1276467,-0.11882844,-0.033993993,-5.837558,1.0151932,0.0061924374,-0.26529005,3.3138423,0.6514883
0.23042381,-3.4087818,-1.35065,-2.6949747,-2.60875,-3.1117926,-2.0164661,7.902717,-7.473654e-05,-0.78091174,2.6840677,2.0373971
-0.034179658,-1.2520537,-3.861425,0.46769765,-5.3759885,-1.8313336,8.515421,7.526861,-2.1152487,-2.6544147,0.14719975,5.1946387
7.4143276,13.170185,-0.00026765442,4.3943753,1.3385608,1.891121,-9.672552,-8.204975,14.290172,9.931063,-14.2573185,-14.031186
-3.9319038,5.140066,-2.0442007e-05,0.012162574,3.2737737,1.0017906,0.036392335,-2.607745,-0.7643914,-5.9573555,-9.712247,5.151229
-2.601956,-4.2100916,-0.046910696,0.14516953,2.5394044,2.5112584,-0.45639026,-2.6650238,-1.5552553,-2.7070582,4.1779265,2.4337656
-0.5023828,-1.0164909,2.4671743,-1.1016853,-0.0677921,1.5749625,1.2764386,-1.8505688,1.5926585,-3.874574,7.7866945,-0.40240645
0.7251714,-2.5468147,3.0986648,-0.16117847,-0.47263893,2.1520698,-10.419053,-5.237405,-0.00022864342,0.7099863,2.1870203,-1.4962227
-2.0582113,-2.276513,-1.3553798,1.8788118,-1.1247702,5.63298,-5.4073977,3.4746237,-0.6232038,0.6456518,1.8738844,1.7598357
-0.7615401,-3.2067451,-0.82377666,-4.8549323,4.5046415,-39.684505,-5.3124733,8.340093,-0.0027451415,-0.00042337552,2.1850743,1.9237503
-0.74203587,-2.0169892,-3.1493526,-3.1132393,-5.600219,-6.7075486,5.4021654,12.5191555,0.004772808,-2.1259801,-0.40122122,5.857477
4.7041883,13.242999,-0.00028740073,-1.4402198,6.2041235,-3.4409535,0.38850066,-3.8989856,1.2636199,12.344073,-15.085212,-10.363617
-4.7001104,5.218218,-5.204409,0.33460462,4.1982765,0.892154,-0.21002343,-2.9437492,-0.9432218,-5.8717318,-6.557133,2.6071403
-4.2695913,-5.657422,1.9226846,-0.05674591,2.918643,2.1409047,-0.65071094,-3.1591341,-0.4493718,-3.2981143,6.100999,4.9899883
0.5194413,-5.4678183,3.4978988,-1.2134339,-4.230163,0.17289223,-11.970817,-5.1382895,0.0012183329,1.5534122,5.4828897,-4.1066837
-0.7142325,-3.1347418,-0.83357555,0.60298574,-2.0480525,-4.6221547,-4.1750827,4.603033,0.0052602515,0.19516395,3.2973306,0.6477447
1.0138901,-3.54656,-1.224671,-2.4160316,-4.124374,-5.1267753,-1.3453634,7.1312747,0.00036825682,-1.2065885,2.1346412,2.8831344
0.14592212,-0.7293111,-4.896584,-0.80959177,-6.9206667,-3.9416647,7.931338,9.85517,0.075784706,-2.385677,0.21048394,5.1542363
1.6689752,10.102202,-0.00033826078,-1.5082614,7.85003,-8.890423,-2.2054188,-3.357039,2.5690243,7.580043,-10.358833,-5.008531
-2.5828066,6.819698,-2.2712142e-05,0.4733383,3.240519,1.6110064,0.012821808,-2.2482553,-1.3578862,-3.9152691,-7.8331013,1.585171
-6.8106766,-4.113279,-10.974464,0.5798221,2.3486931,2.482534,0.4265607,-4.300583,1.2307312,-5.0704618,10.785238,11.421133
0.35565463,-5.2004504,3.613268,-1.172916,-1.6845342,-1.5607269,-10.464109,-4.8470135,0.0022358513,1.9714639,4.9098597,-3.7311814
-0.6068429,-3.0395074,-0.5924951,-0.1858492,2.461797,-2.3092015,-3.4300718,2.6294298,0.3227494,0.20410265,3.1323285,0.28995177
0.35729456,-2.8205516,-1.73506,-4.391206,-3.1052594,-6.2737145,-2.2150648,8.567799,0.00018061203,-1.2756046,1.652735,3.160205
4.0644975,-11.719537,40.579132,1.5583124,-13.552239,15.016966,14.590888,13.951614,-22.169115,-4.0353537,-0.90905625,6.6425257
1.4726597,11.760367,-0.0004016087,1.3560691,3.5864854,-0.03417784,-1.6053995,-3.118026,1.472293,4.2899637,-9.963266,-8.029371
-5.002557,3.5455568,-1.299188,0.073739074,3.2622674,1.3043278,0.015531771,-2.4473314,-0.9098318,-5.0705166,-8.335733,5.258138
-5.7046857,-4.7006373,-6.1371937,0.6403423,2.3115408,2.4345021,-1.2157527,-3.2616727,0.22592601,-3.7051528,9.129823,9.952162
1.6055106,-5.4042535,4.0859513,-2.3980038,-0.46843562,-4.059171,-10.942384,-4.1717615,0.0017852255,1.1495026,5.25077,-3.8901453
-0.80074066,-3.4996984,-0.5998806,-0.6593281,-0.0626457,-2.7454212,-3.385102,3.754924,-0.0031537232,0.37853268,3.3848321,0.36466822
-0.018674307,-2.830723,-1.8731412,-2.863094,-4.848105,-4.275538,-1.0741812,8.98666,-0.0006681121,-0.9754505,1.8669578,2.7490957
-3.2868233,2.365385,1.8011073,7.456218,-3.2641249,3.6534147,15.082903,4.0818353,-2.8353076,-2.494891,-0.08079661,5.552237
-0.9898621,10.461059,-0.00028997823,-0.3193132,5.0376654,-0.9902016,0.17630835,-2.8740134,-0.5100402,-0.41099712,-10.114324,-1.7292523
-2.368227,1.702101,-5.0949225,0.6400644,2.8098495,2.394777,-0.035832852,-2.0670743,-2.1391,-5.6311207,-2.9293401,0.81939244
1.6914219,-4.521574,5.6515975,-0.45731583,0.092226505,1.0987098,-1.5413679,-6.2943115,15.236338,-4.451818,11.452787,14.55775
