ancorasir/BennettWheelLegRL/experiment_data/2023-12-27_22-47-53/joint_position_env32.csv
Joint_1,Joint_2,Joint_3,Joint_4,Joint_5,Joint_6,Joint_7,Joint_8,Joint_9,Joint_10,Joint_11,Joint_12
0.26535493,-0.0,-0.0,-0.27850854,0.0,0.0,-0.4380779,-0.0,-0.0,0.3992153,-0.0,0.0
0.071170576,0.234317,0.06931139,-0.14291517,0.0789171,-0.20355892,-0.11262892,-0.1100354,0.11439307,-0.11133346,-0.5427943,-0.22225888
0.62671596,0.5447535,0.36599308,-0.21395534,0.19098276,-0.38670698,-0.15335944,-0.11963266,0.33412057,-0.4035536,-0.26338047,-0.53198117
0.8857937,0.61329395,0.40000004,-0.08521751,0.3274717,-0.3081585,-0.23756151,-0.27076653,0.3080915,-0.07061916,-0.18417637,-0.95176
0.60441834,0.85472846,0.24581523,0.043496788,0.4045275,-0.12256917,-0.34080857,-0.46606386,0.26419696,0.025558555,-0.49129727,-0.4216539
0.4948229,0.4241026,0.23214452,0.24714997,0.48134354,0.15743937,-0.4801206,-1.0976986,0.4000069,-0.08865608,-0.0003823987,-0.6301729
0.53891176,0.10829749,0.31769174,0.47086754,0.52240914,0.38198414,-0.7256592,-1.162189,0.4000996,-0.10526574,0.41829926,-0.6849381
0.534505,-0.11026334,0.21205041,0.5316768,0.5528723,0.060035165,-1.1747425,-0.79626334,0.39991608,-0.1341683,0.7136243,-0.58631504
0.49595702,-0.22262295,-0.07481012,-0.21363766,0.045580387,-1.1739459,-1.3153915,0.04394574,0.39999938,-0.29078677,0.74332976,-0.2319941
0.8441279,-0.2076655,0.40000018,0.12829812,-0.2863065,-0.40245247,-0.33712804,0.05232426,0.034002885,0.05093564,0.5931447,-0.64638555
0.8533678,0.5056743,0.4000001,0.07245952,0.13514023,-0.6085536,-0.35151923,-0.18618727,0.08699052,0.21305981,-0.24031512,-0.72979724
0.5836069,0.9532728,0.19577774,0.10505693,0.3623309,-0.4378067,-0.37556794,-0.42383868,0.046545964,-0.055615943,-0.64758193,-0.39397365
0.4751293,0.5666701,0.17223883,0.11528315,0.42114308,-0.39843526,-0.4915642,-0.89954627,0.3999657,-0.11534647,-0.19004808,-0.28314805
0.52355003,0.13929789,0.33487803,0.12524843,0.46055454,-0.1722763,-1.0259429,-1.1162852,0.37573108,-0.09370014,0.27350324,-0.4526651
0.4927989,-0.13667826,0.2386399,-0.009589443,0.34320757,-0.54115176,-1.3463238,-0.6716252,0.39996007,-0.120180205,0.5622702,-0.372739
0.48585466,-0.26241294,0.050444327,-0.2925145,-0.11031501,-1.0533291,-1.3297616,-0.050080318,0.39998782,-0.20704354,0.6566943,-0.15194091
0.78382784,-0.13842896,0.40000024,0.10478187,-0.22902611,-0.47190765,-0.35475537,-0.027175162,-0.05097262,0.048691865,0.41723394,-0.64500695
0.7660874,0.7387092,0.4,0.11007093,0.15450364,-0.579749,-0.41337097,-0.2575576,-0.01430452,0.13601102,-0.4528448,-0.66134703
0.44424966,0.8777289,0.09610625,0.14737333,0.34322998,-0.41603273,-0.4124211,-0.5369857,0.13605708,-0.11595137,-0.3529284,-0.11872674
0.4735966,0.41792053,0.29063928,0.17676555,0.40552017,-0.31762037,-0.76295435,-1.0612811,0.399998,-0.10346138,0.10458323,-0.3983225
0.44788283,0.10909557,0.33967316,0.21235509,0.4308355,-0.18368225,-1.1271183,-0.9807274,0.3999882,-0.08810908,0.4127939,-0.42120686
0.46365815,-0.14139898,0.27155325,-0.11462575,0.19778785,-0.7722499,-1.4346064,-0.4822486,0.39998895,-0.13946998,0.6140517,-0.2886046
0.41866383,-0.2630459,0.052641287,-0.3273847,-0.13107684,-1.1999835,-1.2327977,0.1840915,0.38421574,-0.23145205,0.67160165,-0.00480629
0.89096075,-0.12214422,0.4000002,0.09382654,-0.23591617,-0.49936444,-0.33395448,-0.028523741,-0.010590528,0.2732176,0.35067123,-0.7273252
0.7968606,0.6300561,0.40000007,0.09212265,0.06915726,-0.554505,-0.34591419,-0.22318213,0.017509663,0.2657467,-0.42766103,-0.66215765
0.5102597,0.88815,0.148325,0.117168844,0.32790387,-0.4437179,-0.35398442,-0.4435755,-0.031631358,-0.108950034,-0.55054003,-0.22340697
0.45714906,0.49265912,0.23468617,0.0898127,0.24688272,-0.5041005,-0.5462343,-0.8836325,0.3999946,-0.18405174,-0.028350346,-0.2873075
0.47895655,0.24083923,0.3044343,0.13726082,0.34991243,-0.3326385,-0.91557384,-1.1024543,0.4000267,-0.1839169,0.23902425,-0.35034937
0.44906428,0.015610468,0.28061694,0.09169188,0.31278396,-0.4197662,-1.2051964,-0.8825369,0.39996752,-0.17137599,0.47092694,-0.3349278
0.46319297,-0.18159464,0.1947388,-0.14504603,0.08342199,-0.68435764,-1.3336028,-0.4235752,0.399956,-0.20643757,0.634775,-0.20297492
0.45092338,-0.295295,0.17376183,-0.24314655,-0.2287734,-1.0138999,-1.0220605,0.19372329,0.29494855,-0.31833047,0.68055534,0.06598241
0.8469707,-0.022774067,0.40000018,0.07764911,-0.22490422,-0.5272369,-0.28902996,-0.10052378,0.0666868,0.18910737,0.2782598,-0.67586225
0.77582717,0.6144703,0.40000007,0.082338884,0.0724386,-0.58282155,-0.29504308,-0.2783377,0.06519183,0.24754176,-0.33261982,-0.6951248
0.622426,0.8521324,0.28329924,0.08747752,0.28852352,-0.5132277,-0.3098792,-0.44635993,0.02738574,0.007873717,-0.69087183,-0.48262
0.430959,0.65421295,0.07331697,0.10110558,0.40702063,-0.35452422,-0.3399986,-0.6782854,0.1239419,-0.312768,-0.24156651,-0.018509502
0.4781199,0.39446318,0.27513608,0.079443894,0.4468908,-0.29999045,-0.72409827,-1.10333,0.4000043,-0.17922105,0.062136736,-0.32147142
0.48152813,0.14458434,0.32827023,0.14678134,0.4448366,-0.116755374,-1.0177208,-1.0993955,0.40000206,-0.16649008,0.3195534,-0.37664384
0.4487351,-0.04812738,0.27453986,0.13137396,0.46616125,-0.3264801,-1.2571967,-0.8073295,0.3999879,-0.14874788,0.5408376,-0.36052883
0.43994778,-0.18354625,0.121070534,-0.24089473,0.19373232,-0.9306163,-1.4132862,-0.25972813,0.39999786,-0.21710101,0.6585783,-0.19427454
0.5845182,-0.28118658,0.4000002,0.029361416,-0.31980762,-0.440935,-0.51783574,0.17957373,-0.012104777,-0.15515055,0.7580906,-0.3779932
0.89335567,0.35494453,0.4000001,0.021288548,0.075924724,-0.5464362,-0.3320819,-0.20896444,-0.0051594167,0.32531133,-0.009689137,-0.7775465
0.60172355,0.92886114,0.19181824,0.036842354,0.34184688,-0.3450027,-0.3501831,-0.4737289,-0.08592233,-0.06932603,-0.65685403,-0.3728142
0.48542082,0.5687679,0.161177,0.03419072,0.39478445,-0.42884392,-0.45526648,-0.85600287,0.40000185,-0.17265664,-0.1800587,-0.25312075
0.5364857,0.19224851,0.33585414,0.055084754,0.46560183,-0.31973958,-1.0318816,-1.0823692,0.39999393,-0.13350575,0.2177968,-0.40640065
0.5204866,-0.0038503339,0.29647896,0.0839902,0.43199793,-0.33769217,-1.2359182,-0.88722384,0.39999977,-0.13584343,0.4506269,-0.41293117
0.49648908,-0.16766103,0.10637463,-0.23489965,0.19374014,-0.9006835,-1.4075699,-0.24822097,0.3999659,-0.19953229,0.6322135,-0.23493169
0.47371706,-0.3497227,0.40000013,-0.120536655,-0.33457184,-0.9134467,-0.7985267,0.22964971,0.13301218,-0.32651776,0.6532208,0.07954829
0.9103719,0.29463452,0.40000015,0.030336855,0.02268089,-0.5356787,-0.29621342,-0.2648051,0.07162362,0.319588,-0.022264719,-0.77528256
0.66116047,0.9081912,0.29439026,0.051107407,0.2758475,-0.42243755,-0.29902253,-0.45793527,-0.030518865,0.049602665,-0.6765313,-0.54116875
0.44740528,0.5801441,0.14557847,0.05609572,0.30499044,-0.35117203,-0.3675643,-0.876691,0.3265231,-0.16636,-0.2045839,-0.15876423
0.5010798,0.25844,0.33006412,0.05535845,0.44882166,-0.29364303,-0.86491966,-1.160596,0.4000074,-0.093671925,0.13606231,-0.34701464
0.5100395,0.0010171721,0.33225104,0.1400818,0.4481948,-0.063692205,-1.1049309,-1.0475367,0.38817057,-0.101088695,0.40468612,-0.36860436
0.49779072,-0.20725638,0.20341419,-0.13822365,0.24682918,-0.8396762,-1.3811057,-0.413468,0.39999786,-0.13896118,0.61066085,-0.25836492
0.42537802,-0.32978728,0.1908138,-0.3357778,-0.24377127,-1.2,-1.0985785,0.25457937,0.28421983,-0.24788536,0.6439882,0.023065422
0.96334636,-0.010706648,0.40000015,0.07058234,-0.15226643,-0.5017721,-0.37278953,-0.13743119,0.102327436,0.23261546,0.23890129,-0.7603707
0.752411,0.80878913,0.39999998,0.08693386,0.19079773,-0.48131534,-0.3662222,-0.3614862,0.03267843,0.046872817,-0.46931663,-0.7045776
0.5090892,0.53289425,0.21827285,0.1308774,0.37129983,-0.38426065,-0.47082093,-0.85643476,0.40000874,-0.09527738,-0.08438525,-0.29487434
0.5008243,0.10126484,0.31546172,0.13912852,0.41286597,-0.23820524,-1.0990019,-1.0367713,0.3993098,-0.064152434,0.37680495,-0.40298364
0.5241476,-0.17405738,0.23008299,-0.12426573,0.13371241,-0.73006624,-1.3743106,-0.4980875,0.39997053,-0.11998101,0.6088571,-0.2559244
0.48173025,-0.31083617,0.17632999,-0.28354082,-0.22637519,-1.077629,-1.1557328,0.14129005,0.30978748,-0.20375362,0.6741641,0.00071658817
0.9255061,0.029182125,0.4000002,0.022626806,-0.1156773,-0.5738314,-0.3259067,-0.11867062,0.06867469,0.27158615,0.24603637,-0.7359604
0.7210865,0.7777721,0.4,0.032411236,0.19722907,-0.55033064,-0.3119919,-0.31941807,0.029202346,0.15589853,-0.54215205,-0.6072339
0.53158844,0.84502995,0.118907735,0.083714195,0.36302024,-0.36907598,-0.3546807,-0.56050205,0.07682835,-0.1404231,-0.5027569,-0.20496012
0.52571476,0.45391312,0.29116017,0.016341591,0.3361882,-0.45585,-0.66180193,-0.97035986,0.4000009,-0.1121674,0.008186384,-0.30225495
0.55341613,0.1743272,0.40104607,0.045115188,0.42242384,-0.25426173,-1.0565912,-1.1341201,0.40002355,-0.07985992,0.29024863,-0.38518158
0.5147959,-0.092578046,0.35001814,-0.019538578,0.36855403,-0.549564,-1.342254,-0.71071726,0.3999745,-0.083054364,0.53672624,-0.33472186
0.48593292,-0.24603185,0.18480206,-0.34948945,-0.008463723,-1.0647556,-1.3616927,-0.057061028,0.3999998,-0.15824631,0.629603,-0.11712948
0.7766037,-0.29752144,0.40000024,0.11035486,-0.32809407,-0.31908458,-0.30342978,7.670209e-05,-0.046870664,0.12879744,0.57614464,-0.5687002
0.79404616,0.6732114,0.40000007,0.038924884,0.1303064,-0.51014894,-0.32935753,-0.28610054,0.015827918,0.20346,-0.48363146,-0.65496415
0.5804358,0.94478285,0.20674726,0.047523215,0.31720448,-0.38395798,-0.32955918,-0.45395428,-0.048632536,-0.055806708,-0.69990563,-0.45826504
0.43696958,0.53073794,0.19175526,0.08078233,0.2629847,-0.4548663,-0.40285432,-0.84276104,0.40000433,-0.120402604,-0.076499745,-0.28999597
0.45597833,0.22197407,0.31255457,0.0779039,0.4016282,-0.32457343,-0.94491416,-1.0869505,0.40000322,-0.10061494,0.23292173,-0.37696522
0.44523683,-0.083869405,0.23252109,0.04796361,0.32149732,-0.43803972,-1.2451823,-0.7588885,0.39997658,-0.13877816,0.5452968,-0.31705785
0.4349892,-0.23833317,0.025180118,-0.34568343,-0.07234905,-1.0361147,-1.3003517,-0.0060873087,0.4000004,-0.2365535,0.655593,-0.06445056
0.90358436,-0.038181376,0.40000024,0.04054393,-0.19680518,-0.47827777,-0.25281608,-0.13887322,0.028385844,0.17990826,0.42315534,-0.715638
0.7535762,0.86775696,0.3798833,0.018025732,0.22250824,-0.5213835,-0.2629659,-0.40361032,0.015741117,0.08888154,-0.53553027,-0.66900563
0.31932625,0.7063848,-0.0113750035,0.07293822,0.31509793,-0.36956662,-0.3290472,-0.7379476,0.22874622,-0.1949935,-0.2948201,-0.03795182
0.48992494,0.26161292,0.3465714,0.07787949,0.46222842,-0.15817238,-0.8890629,-1.1938821,0.39999837,-0.09756257,0.16604342,-0.3876908
0.48211437,-0.033797733,0.3288556,0.050183244,0.42689165,-0.43638542,-1.2869873,-0.8387267,0.39999893,-0.09275906,0.4895925,-0.39825433
0.5128367,-0.2661264,0.16278587,-0.28713244,0.01833365,-0.9582711,-1.3847988,-0.22522265,0.39999712,-0.19979791,0.64894503,-0.1479533
0.5464951,-0.4190922,0.40000013,-0.13299593,-0.27561674,-0.7305471,-0.7776567,0.23103738,0.06608626,-0.25366518,0.67030364,-0.05926321
0.9749833,0.26802385,0.40000015,-0.005351041,-0.014627855,-0.55006737,-0.26830015,-0.21829535,-0.02105315,0.28769225,0.005639204,-0.86882514
0.6427153,0.9766615,0.24739558,0.03436158,0.24770336,-0.46427056,-0.2996311,-0.4040787,-0.10206478,-0.01194006,-0.70270824,-0.53858286
0.41032606,0.66431797,0.08398019,0.02137574,0.32232928,-0.4657151,-0.28978541,-0.76250815,0.33914694,-0.19791798,-0.23666191,-0.10976731
0.4972245,0.30051723,0.29827538,0.01731418,0.31744197,-0.3788685,-0.8072335,-1.1522189,0.3984109,-0.15284277,0.13865507,-0.32444346
0.45489648,-0.008048086,0.2829019,0.009990019,0.2425442,-0.50103754,-1.2112706,-0.89482564,0.39995226,-0.14086895,0.43822175,-0.3087014
0.46050322,-0.23161688,0.12513468,-0.2966291,-0.0696855,-1.0370048,-1.3150878,-0.12312193,0.39996824,-0.21172652,0.6020844,-0.060945626
0.7110727,-0.2695609,0.40000024,0.031646732,-0.271567,-0.36958918,-0.22046904,-0.06655496,-0.10414587,0.04044343,0.4657496,-0.41862833
0.798517,0.7266908,0.40000007,-0.012812092,0.1253858,-0.4930802,-0.31287658,-0.35980788,0.0023795022,0.17265722,-0.41295326,-0.66582406
0.44731885,0.84225285,0.015687896,0.037775826,0.375784,-0.35369495,-0.33254138,-0.6029125,0.0061975396,-0.20922211,-0.4168267,-0.123656325
0.49894622,0.4368666,0.25950235,0.08418254,0.4498296,-0.27603602,-0.70540506,-1.1427122,0.39999804,-0.1349736,-0.005479336,-0.3554127
0.49627241,0.10954779,0.33031738,0.14418255,0.46895438,-0.07488711,-1.1009798,-1.1138607,0.38101622,-0.11128114,0.35493064,-0.45758486
0.49281096,-0.11426866,0.25635102,0.010823172,0.39016217,-0.482761,-1.3268585,-0.645818,0.40000135,-0.14647165,0.5867624,-0.39705056
0.44916788,-0.27547866,0.13181208,-0.30602375,-0.16294256,-1.1416955,-1.1637726,0.16415948,0.33453265,-0.27523392,0.66522056,-0.05561897
0.97724956,0.18363477,0.40000018,0.099355936,-0.03862287,-0.54849875,-0.33436456,-0.16091527,0.047258895,0.22123191,0.078328304,-0.8618759
0.6827853,0.88169855,0.30422708,0.12473734,0.2651418,-0.45374128,-0.35329077,-0.3993357,-0.011815578,-0.0020500878,-0.60660154,-0.57325613
0.42131203,0.6382788,0.1409335,0.1332264,0.3801643,-0.3628675,-0.42459795,-0.8434092,0.4000044,-0.12659918,-0.21669336,-0.2454124
0.48055238,0.25356978,0.35792467,0.1393382,0.4701476,-0.21845748,-0.9397419,-1.1367024,0.40000278,-0.09195265,0.17047116,-0.4225072
0.47674632,-0.069826074,0.3523543,0.16385752,0.47593042,-0.24694058,-1.224662,-0.8407647,0.3999879,-0.09847831,0.50138843,-0.42467916
0.4616705,-0.27486548,0.17115267,-0.22178802,0.11667222,-1.0144383,-1.4042219,-0.14495772,0.3999513,-0.17929256,0.652097,-0.19636661
0.5266929,-0.38324964,0.40000013,-0.09188324,-0.41870287,-0.85122126,-0.67115957,0.24443014,0.08172472,-0.20887148,0.6068789,-0.031926997
0.84342825,0.4587807,0.40000013,0.023877947,0.0068772677,-0.5399292,-0.22866862,-0.24765936,0.059121236,0.272502,-0.19135696,-0.67430323
0.63249695,0.9453832,0.32043508,0.057968643,0.21778306,-0.48020503,-0.24250554,-0.3938461,0.0026498716,0.036555447,-0.6030951,-0.50711155
0.3926393,0.63452274,0.08385506,0.101633735,0.29253283,-0.43482235,-0.28378752,-0.7473309,0.21382256,-0.19457424,-0.21198002,-0.1353042
0.47758067,0.31931537,0.30140826,0.100356184,0.36835378,-0.3417727,-0.7246319,-1.0717024,0.40000388,-0.13493955,0.11282963,-0.36082906
0.4507003,0.07873961,0.31692985,0.13097122,0.3970288,-0.19641688,-1.0688493,-1.0198541,0.3934536,-0.12013544,0.35512838,-0.36820653
0.43772328,-0.1412714,0.21955316,-0.063656755,0.2129784,-0.66923857,-1.3626302,-0.57200354,0.39999685,-0.14535245,0.56960076,-0.26249787
0.43926248,-0.35658616,0.3235011,-0.24674752,-0.28440666,-1.0592157,-0.992058,0.2639291,0.21013258,-0.23345612,0.64235455,-0.0064850454
0.78583837,0.5914887,0.40000007,-0.0027951668,0.08910199,-0.5328355,-0.33976972,-0.25818756,-0.011718895,0.2198022,-0.41108927,-0.6249594
0.526732,0.9469574,0.13104652,0.029841863,0.35501462,-0.36702064,-0.36072543,-0.48690525,-0.09409302,-0.13860019,-0.6023992,-0.20769766
0.50409496,0.5029597,0.20675951,0.056730304,0.44027033,-0.32021743,-0.56809074,-0.97374177,0.3999986,-0.15217502,-0.111927696,-0.29883024
0.49733007,0.15341893,0.3110187,0.12922083,0.45911348,0.023500053,-1.0298685,-1.1179775,0.3999827,-0.103034295,0.27788967,-0.4330619
0.50933695,-0.08646885,0.29018158,0.113934144,0.48946613,-0.22836787,-1.2237147,-0.84180033,0.39995378,-0.12218108,0.51721835,-0.40687555
0.48432964,-0.21314438,0.1445724,-0.17760347,0.1877948,-0.8298637,-1.413408,-0.3938729,0.39994934,-0.16146137,0.6512712,-0.27621102
0.40937677,-0.30891985,0.11945441,-0.29214245,-0.20081414,-1.1284872,-1.0688516,0.2806909,0.30658948,-0.25698686,0.67684287,0.008596035
0.97050905,-0.02726439,0.4000002,0.08423247,-0.15798761,-0.52641785,-0.26837084,-0.14364186,0.08732057,0.14551485,0.41407382,-0.88053167
0.69721353,0.87481695,0.36523533,0.11799275,0.1688221,-0.48788288,-0.25429222,-0.35198107,0.012606167,0.020203808,-0.52145326,-0.6237787
0.3770963,0.6563528,0.052185502,0.14715178,0.29346055,-0.4163812,-0.3101766,-0.7647677,0.27255505,-0.19337983,-0.254831,-0.1375523
0.4699077,0.31088108,0.29476017,0.04433639,0.32200176,-0.4143673,-0.7803804,-0.9995083,0.4000029,-0.15389161,0.07372214,-0.3268004
0.44994152,0.023509404,0.2678684,0.064579375,0.32841164,-0.39933047,-1.1576046,-0.9159593,0.39999923,-0.17129712,0.37266493,-0.31873345
0.45967054,-0.21562134,0.12317431,-0.20536673,0.068322524,-0.84437984,-1.3734585,-0.2901162,0.39993334,-0.22079691,0.59432894,-0.14097619
0.66620827,-0.4137102,0.4000002,0.02833318,-0.3262425,-0.5109663,-0.5225667,0.22323719,0.002357746,-0.21763806,0.6680351,-0.1527148
0.8809291,0.48481262,0.4000001,0.09594088,0.07347658,-0.50804317,-0.28206593,-0.24749081,0.004534842,0.2480101,-0.19490251,-0.763868
0.54422754,0.9120822,0.1475152,0.12694386,0.30545962,-0.36731902,-0.2944701,-0.44412786,-0.08537011,-0.095235504,-0.6151099,-0.3493604
0.41281685,0.58879733,0.12773934,0.13392511,0.3705282,-0.37860724,-0.36643267,-0.91013914,0.40000272,-0.17382431,-0.1166127,-0.18387848
0.46218675,0.24596763,0.30820745,0.101768225,0.42132056,-0.3159858,-0.95746315,-1.1249765,0.3954567,-0.105929956,0.24880967,-0.3596774
0.47002056,-0.072313145,0.28973582,-0.07222495,0.22291896,-0.64473385,-1.3416878,-0.6195509,0.39997286,-0.1269386,0.53703785,-0.30260938
0.46524656,-0.2122537,0.14717954,-0.27828532,-0.0019132152,-0.9655575,-1.323467,-0.13260414,0.3999829,-0.18922535,0.6407188,-0.115572914
0.58536935,-0.27074313,0.4000002,-0.014231779,-0.3171471,-0.41671202,-0.36981246,0.13337642,-0.022841902,-0.08797419,0.6836941,-0.28576636
0.9015128,0.26106074,0.40000013,0.02331738,-0.0054279747,-0.5274606,-0.21002254,-0.21417408,0.00834929,0.42966664,0.011119633,-0.7942239
0.60041404,0.8823069,0.21465732,0.02426096,0.30284852,-0.44502243,-0.23285931,-0.4546862,-0.030291619,0.05921095,-0.7595002,-0.51678574
0.41658667,0.5729251,0.16613871,0.0654694,0.41361514,-0.3045767,-0.23043814,-0.8105425,0.14959139,-0.27724984,-0.11717969,-0.01244
0.4469282,0.22546989,0.38467482,0.010919667,0.40929094,-0.39507112,-0.9539282,-1.1360339,0.4000072,-0.15677293,0.215038,-0.24422474
0.43197045,-0.064205766,0.36286324,0.026559964,0.39608282,-0.37266275,-1.2791499,-0.8556085,0.38745978,-0.14821173,0.4725353,-0.20674278
0.41972527,-0.22508393,0.22775304,-0.31014863,0.11942216,-0.8724283,-1.3850111,-0.22534145,0.3999794,-0.21564889,0.57820654,-0.03656129
0.69051033,-0.28771108,0.4000002,0.117851496,-0.3187183,-0.2786478,-0.3037517,0.06466946,-0.0841049,-0.051147778,0.49278092,-0.41945568
0.781704,0.682092,0.4,0.07920521,0.050795104,-0.46255672,-0.27547634,-0.23899667,-0.03359493,0.22483328,-0.45652947,-0.6527523
0.4687109,0.86672735,0.10379389,0.13177806,0.30606785,-0.3149214,-0.3369109,-0.47936618,-0.08346874,-0.12975365,-0.5168392,-0.24645536
0.4645416,0.5530211,0.19504498,0.099850684,0.38245696,-0.39690796,-0.4291384,-0.8683613,0.39999986,-0.16795962,-0.16351499,-0.21692398
0.5167934,0.25239867,0.35135165,0.13732499,0.44030645,-0.17047028,-0.86470145,-1.1996784,0.3999981,-0.13884991,0.13734032,-0.37097022
0.49384537,0.030055715,0.35834658,0.14803644,0.4307465,-0.22838266,-1.189791,-0.9565938,0.39999995,-0.116067834,0.3739083,-0.39122176
0.4789193,-0.17404294,0.2412393,-0.21439151,0.17641298,-0.9154102,-1.4426645,-0.31109956,0.39998093,-0.15373014,0.56942207,-0.2642775
0.46978402,-0.36252344,0.4000009,-0.112523496,-0.26503274,-0.9286508,-0.8497119,0.20874542,0.17014618,-0.25556454,0.636834,0.009897577
0.9714319,0.09841641,0.4000002,0.06398998,-0.0675537,-0.5755288,-0.3522168,-0.2769916,0.082552545,0.27553856,0.089937255,-0.8270275
0.67063123,0.92713296,0.32651028,0.11247025,0.2269639,-0.51812637,-0.36246127,-0.43955284,-0.053617116,0.01141988,-0.59280056,-0.5044616
0.48462,0.5467782,0.22844201,0.15918015,0.35608488,-0.44493565,-0.54752713,-0.8985922,0.3999915,-0.17621164,-0.119709216,-0.31450385
0.47769982,0.1301246,0.35533446,0.1997677,0.43656057,-0.20908484,-1.0305932,-1.0690446,0.4000008,-0.13571645,0.32584813,-0.44425628
0.46575558,-0.09921121,0.29372013,0.026493292,0.28369096,-0.50010246,-1.3141798,-0.7217795,0.36240533,-0.1525609,0.5532225,-0.36330014
0.47967997,-0.30509984,0.06455849,-0.30362916,-0.17177904,-1.0369046,-1.1622434,0.1342411,0.36334765,-0.2857492,0.68872267,-0.017293034
0.95358706,0.11193146,0.40000024,0.019822013,-0.12916517,-0.5522967,-0.28978208,-0.15158732,0.017548792,0.21654072,0.17546386,-0.8450881
0.6443079,0.9381842,0.3042894,0.08430246,0.22629823,-0.4911729,-0.32377213,-0.3843811,-0.054024402,-0.029807827,-0.5972633,-0.5414835
0.42588782,0.56195587,0.22502881,0.056916356,0.22698139,-0.51849294,-0.43230215,-0.80101,0.40000367,-0.116617024,-0.14126155,-0.17732349
0.44167107,0.26049486,0.35809568,0.04535908,0.3488184,-0.37388822,-0.9006423,-1.0528762,0.3926702,-0.05598911,0.17390262,-0.31167755
0.4208032,-0.060488652,0.3193019,0.017993914,0.3231355,-0.4295187,-1.2581775,-0.78488,0.39998293,-0.06972933,0.47376376,-0.2680634
0.4104771,-0.24069032,0.11877612,-0.35888135,-0.05293192,-1.0661029,-1.3106405,-0.03754291,0.387842,-0.16620444,0.6034963,-0.0147936065
0.8677681,-0.10790826,0.4000002,0.036264453,-0.23596446,-0.4462088,-0.27249032,-0.14605704,0.0117867645,0.16774854,0.43974912,-0.7228079
0.8033929,0.7001699,0.40000004,0.03339313,0.07353678,-0.4684091,-0.2708534,-0.33711022,-0.043368213,0.15273276,-0.40113404,-0.73389024
0.46897173,0.9237886,0.05937343,0.058699355,0.33877704,-0.3394537,-0.27716157,-0.5777709,-0.03573987,-0.13683608,-0.5437884,-0.15840499
0.47677323,0.44255748,0.29224798,0.059905007,0.4091724,-0.36459932,-0.67377365,-1.035029,0.39999777,-0.12595353,-0.04386785,-0.29684886
0.4629252,0.10528378,0.3605376,0.112989806,0.44083494,-0.21317701,-1.097407,-1.0765613,0.39060113,-0.101251826,0.2984187,-0.35305637
0.4548257,-0.15737645,0.2898016,-0.17216274,0.1955666,-0.7807055,-1.399736,-0.48909667,0.39995682,-0.12621781,0.5359874,-0.2709782
0.40442103,-0.30388153,0.30053604,-0.2623157,-0.27055132,-1.1349545,-0.9890766,0.23987482,0.22447975,-0.24767716,0.60033053,0.07320809
0.89294845,0.23969896,0.40000015,0.04953358,-0.08061562,-0.48261467,-0.28810382,-0.19752643,0.09004015,0.39329702,0.0017883151,-0.75239855
0.663124,0.89970696,0.28308034,0.006335107,0.28346047,-0.4581723,-0.24953099,-0.43644086,0.03482239,0.020729985,-0.7692447,-0.56610876
0.40440306,0.7327448,-0.03294132,0.053078286,0.41367447,-0.2853539,-0.27400768,-0.6694243,0.04029628,-0.26435152,-0.40827858,-0.086452894
0.49257916,0.4216287,0.24539836,0.028071286,0.4134813,-0.34864,-0.7587254,-1.0351052,0.39998752,-0.2121152,0.096535966,-0.3095691
0.47727215,0.11792076,0.2966155,0.08197083,0.44084883,-0.16594197,-1.1356438,-0.9956157,0.40000707,-0.19891472,0.3811222,-0.3161806
0.43847314,-0.14265645,0.19368987,-0.13632907,0.22112074,-0.8465038,-1.4179652,-0.4138242,0.39997974,-0.22057559,0.6011267,-0.19088614
0.5788496,-0.30508587,0.40000015,-0.043488406,-0.24426956,-0.41877863,-0.43743974,0.11113837,0.045584347,-0.06493336,0.59735096,-0.35185894
0.8003793,0.66219187,0.40000007,0.017824236,0.110170506,-0.48270372,-0.18421933,-0.3531986,0.07880426,0.2940153,-0.38907647,-0.69598645
0.57687664,0.90531456,0.1921652,0.0382669,0.28563464,-0.37332153,-0.18206249,-0.49704218,-0.004388588,-0.063309506,-0.7521222,-0.42538258
0.4256499,0.5475767,0.15072246,-0.024282925,0.26578704,-0.44797862,-0.36949688,-0.8777862,0.40000072,-0.214207,-0.069292456,-0.18042216
0.46818283,0.17270139,0.3290646,-0.03271553,0.34025407,-0.32607526,-0.9676774,-1.096036,0.40000156,-0.17916961,0.26927325,-0.3075298
0.43911746,-0.08852907,0.25460407,-0.062096033,0.25150532,-0.5809029,-1.2962675,-0.6860124,0.39999834,-0.18734188,0.5240765,-0.24644624
0.41279233,-0.24976045,0.12278455,-0.29632193,-0.15189034,-1.0772943,-1.1851212,0.14360932,0.3542482,-0.2893785,0.63816786,0.0076995213
0.9068898,0.16036578,0.40000013,0.0012083295,-0.04298561,-0.49807206,-0.20875394,-0.169623,0.025152186,0.31375614,0.14342138,-0.7977472
0.67627627,0.8764584,0.3512825,0.036615625,0.19143467,-0.4148422,-0.21833524,-0.35788256,-0.03187625,0.105340555,-0.696364,-0.5234452
0.3596885,0.65201896,0.06334813,0.07043665,0.33271885,-0.3720323,-0.22887787,-0.75490654,0.286047,-0.19933999,-0.19522744,-0.025506487
0.4627916,0.30350772,0.31266388,0.046507087,0.3243413,-0.44337174,-0.8487624,-1.0497844,0.40000197,-0.108347684,0.16799909,-0.29499236
0.4417092,0.020955844,0.31581673,0.055316046,0.37619373,-0.36321324,-1.1961701,-0.95860434,0.40000018,-0.1020688,0.42974752,-0.28192905
0.45453396,-0.18458828,0.19211304,-0.2723074,0.075749226,-0.9557914,-1.4024099,-0.2957223,0.3991634,-0.15472445,0.60354173,-0.111293025
0.4295812,-0.29429063,0.25810796,-0.27087134,-0.30147055,-1.0849257,-0.9939701,0.26698947,0.24726133,-0.264454,0.6277206,0.14422096
0.9599523,-0.004460549,0.4000002,0.104934275,-0.25631186,-0.4923043,-0.33676538,-0.10931814,0.039870366,0.23305015,0.31782842,-0.8284444
0.77912134,0.680487,0.4,0.10557504,0.03680874,-0.5487217,-0.3296617,-0.27408007,0.005994169,0.16700904,-0.40459302,-0.6918215
0.5724893,0.89798236,0.24509536,0.13146156,0.23293391,-0.46569708,-0.35988474,-0.43430957,-0.03815578,-0.0442058,-0.63857067,-0.36415702
0.4229199,0.61331534,0.15656385,0.12787811,0.24744292,-0.4745154,-0.38694376,-0.7664947,0.3343972,-0.1367819,-0.18460217,-0.1861499
0.48167518,0.33495134,0.32443917,0.113403894,0.36567777,-0.4063001,-0.8136526,-1.072397,0.40000284,-0.1086864,0.091537334,-0.30047977
0.47463536,0.073365614,0.34596735,0.066453256,0.30899942,-0.4839576,-1.2108891,-0.95316505,0.38941804,-0.10096964,0.35145977,-0.31727424
0.49069375,-0.14124204,0.29897308,-0.08973618,0.10052792,-0.6673794,-1.3409308,-0.5296977,0.3906019,-0.11963991,0.5403757,-0.23511635
0.47185612,-0.24788605,0.12549265,-0.3095631,-0.09180211,-0.9835441,-1.2593653,0.01121238,0.37983873,-0.16856208,0.63918984,-0.034459565
0.5952125,-0.33675984,0.40000024,0.030308917,-0.419514,-0.40847647,-0.43032336,0.12607439,-0.021404738,-0.15486957,0.66593695,-0.18493132
0.87737244,0.4057567,0.4000001,0.038244873,-0.0939329,-0.5436359,-0.24943167,-0.20188405,-0.06516581,0.24624233,-0.15325665,-0.72687644
0.6210585,0.86729586,0.3040068,0.07394028,0.10833852,-0.50905746,-0.2616026,-0.35741234,-0.08835803,0.03684419,-0.63258207,-0.5322328
0.3703882,0.7174891,0.00905556,0.11559097,0.29228383,-0.37904358,-0.28710574,-0.5740043,-0.034919035,-0.22762562,-0.3326761,-0.14114197
0.42836958,0.34102467,0.2988151,0.054905687,0.26215285,-0.49477693,-0.8033262,-0.91533095,0.40003496,-0.16046429,0.1080068,-0.30644098
0.43426692,0.06930498,0.32621878,0.07133395,0.39313552,-0.32963297,-1.086685,-0.9859038,0.38391954,-0.1656474,0.37329844,-0.33245808
0.44463015,-0.16957118,0.20260623,-0.18869556,0.18050307,-0.85255986,-1.3889365,-0.38653514,0.3999645,-0.23683502,0.5808701,-0.18953617
0.7925039,-0.2994219,0.40000027,0.053354606,-0.2567902,-0.38193163,-0.25104642,-0.046835445,-0.037466154,0.06825132,0.4972285,-0.54901415
0.76621586,0.7018299,0.40000004,0.07481105,0.1349926,-0.5060914,-0.33724156,-0.2944952,0.0053361594,0.16186641,-0.47426167,-0.6341217
0.43471777,0.819187,0.045624457,0.1080184,0.37266544,-0.33111733,-0.3367639,-0.60132724,0.054086827,-0.2066823,-0.3325392,-0.082975805
0.4825452,0.42937493,0.3008793,0.12371157,0.4542633,-0.2675011,-0.6838137,-1.0984457,0.39999738,-0.10493407,0.05644867,-0.3308041
0.48626235,0.081866585,0.39299935,0.19485444,0.4769155,-0.0034524442,-1.0595716,-1.1013739,0.39999524,-0.08064387,0.3850614,-0.37264693
0.46027806,-0.15109076,0.30032122,-0.04892126,0.35733396,-0.7208714,-1.4110442,-0.54395574,0.3999852,-0.10856149,0.58716035,-0.2688673
0.4402793,-0.35587516,0.39585572,-0.2823058,-0.21422534,-1.0578494,-1.0561935,0.26497722,0.21629098,-0.19432846,0.6662655,-0.093419224
0.9107912,0.09061385,0.40000018,-0.001950003,0.036966257,-0.56400037,-0.34833863,-0.20335932,0.07827416,0.3395145,0.09677361,-0.7114204
0.71040356,0.90838325,0.32638097,0.02630591,0.32309082,-0.43120176,-0.37048176,-0.4447778,0.0070082145,0.05699826,-0.6561945,-0.5232257
0.4802034,0.7712422,-0.0052063037,0.022615539,0.3612454,-0.2948988,-0.42096654,-0.6155512,0.08685792,-0.24001294,-0.3371511,-0.18168905
0.5518843,0.4773421,0.24258994,0.037587773,0.44286916,-0.30495244,-0.60494846,-1.0821751,0.40001085,-0.1939255,-0.016735457,-0.3753373
0.5252522,0.15634069,0.33095232,0.13485824,0.43385005,-0.063165,-0.9603171,-1.1503584,0.3855562,-0.15397356,0.3176778,-0.40014422
0.4785824,-0.13138889,0.2663832,-0.07504996,0.3731417,-0.71896446,-1.3874497,-0.61401254,0.39993864,-0.14242604,0.58563644,-0.31558308
0.42773053,-0.29642254,0.19436453,-0.2526006,-0.2010918,-1.095654,-1.0494074,0.274383,0.31659818,-0.2601411,0.6561063,0.003095458
0.942963,0.14370738,0.40000015,0.090744175,-0.05894232,-0.5631231,-0.41782996,-0.14704439,0.06861201,0.20474933,0.021386562,-0.758799
0.62412345,0.9393133,0.27771905,0.08757992,0.27288702,-0.5025894,-0.42062896,-0.38885188,0.007003564,-0.0340409,-0.6501968,-0.441477
0.3510541,0.72170204,0.046504054,0.11460611,0.37429458,-0.39414263,-0.43364936,-0.70358086,0.29418057,-0.11116391,-0.29846185,-0.21961342
0.469115,0.3478227,0.3194951,0.17628846,0.4380542,-0.19118126,-0.78014684,-1.1475558,0.4000062,-0.098839305,0.0753369,-0.3845797
0.44679272,0.009590661,0.3361835,0.2350361,0.44472697,-0.1252982,-1.1541334,-0.96119285,0.39998806,-0.09479041,0.41832256,-0.3909386
0.4449361,-0.22011532,0.19579646,-0.21118905,0.04219066,-0.9487469,-1.4062523,-0.27285224,0.39994553,-0.15637864,0.6107163,-0.20721234
0.60497874,-0.3850442,0.40000018,0.0272735,-0.35049683,-0.6073783,-0.5592153,0.19310851,-0.04310827,-0.13285969,0.6601624,-0.21782525
0.8622815,0.39769202,0.40000013,0.03969458,0.06968917,-0.557235,-0.3776394,-0.22467203,0.035514336,0.32094583,-0.2183277,-0.76110786
0.6243154,0.9275072,0.29069865,0.028580884,0.31012148,-0.43617997,-0.3735765,-0.43143147,-0.03745074,0.028804362,-0.7320158,-0.48985723
0.44443607,0.6016348,0.1665166,0.07021956,0.34508616,-0.423502,-0.40971738,-0.80346763,0.36221635,-0.15273851,-0.1916041,-0.144593
0.47801986,0.30487546,0.33252284,0.085598044,0.43153733,-0.21391614,-0.8588573,-1.1369228,0.3999997,-0.08573115,0.11396691,-0.31151286
0.45514336,0.0017779021,0.35390452,0.1231164,0.4527489,-0.19007257,-1.1737938,-0.95699763,0.39999115,-0.06407368,0.40210176,-0.32085684
0.417125,-0.21401158,0.18783198,-0.29355404,0.18073907,-1.0755808,-1.4328772,-0.17423688,0.3999856,-0.13290489,0.5587097,-0.1035563
0.37136528,-0.27987483,0.40000167,-0.18659377,-0.37630093,-0.87630945,-0.7743332,0.30001542,0.091529794,-0.20686398,0.6222409,-0.05188908
0.936291,0.36067888,0.40000018,0.09841133,-0.018706186,-0.52049357,-0.27700856,-0.24594864,0.087120794,0.27650177,-0.04846982,-0.86484456
0.64779246,0.9075881,0.31657326,0.07092989,0.27388296,-0.48534063,-0.26181367,-0.4407052,0.008844517,0.033719458,-0.7092135,-0.52766776
0.42464238,0.7946496,0.00426374,0.13192855,0.40241536,-0.29110852,-0.28500357,-0.6947867,0.10783002,-0.22813188,-0.38260382,-0.03207468
0.5237748,0.41517812,0.26656878,0.034280833,0.37353063,-0.4025409,-0.6822469,-1.0349973,0.39999878,-0.16443837,-0.0016965793,-0.29386196
0.5129113,0.079896696,0.3242163,0.08530346,0.41594288,-0.20944266,-1.0695775,-1.0669366,0.3999997,-0.14573187,0.33806667,-0.37146416
0.52729255,-0.14778304,0.28147912,0.007908018,0.28446767,-0.58546716,-1.3198711,-0.71328914,0.39995885,-0.17742568,0.5286149,-0.2874703
0.48204744,-0.33922732,0.086190544,-0.3013926,-0.2035733,-1.1422133,-1.1856757,0.11471528,0.36252624,-0.24700253,0.6527132,-0.0074084727
0.84243494,0.046779495,0.4000002,0.035441205,-0.14337356,-0.542853,-0.3518995,-0.0768004,-0.0058059907,0.3251267,0.08691163,-0.6420765
0.69121486,0.77126193,0.40000004,0.0064589516,0.17887506,-0.5259562,-0.34844306,-0.31433862,-0.005985274,0.1642552,-0.6245809,-0.56808007
0.56215495,0.8516306,0.1244103,0.017834738,0.36465856,-0.3093633,-0.3851101,-0.55835253,-0.038443398,-0.14052676,-0.57404965,-0.33665365
0.4930227,0.5288112,0.21724822,0.055812225,0.37081712,-0.4495934,-0.5432606,-0.84962595,0.39231825,-0.18420562,-0.104241766,-0.2394408
