ancorasir/BennettWheelLegRL/experiment_data/2023-12-27_22-47-53/joint_position_env31.csv
Joint_1,Joint_2,Joint_3,Joint_4,Joint_5,Joint_6,Joint_7,Joint_8,Joint_9,Joint_10,Joint_11,Joint_12
0.25301412,-0.0,-0.0,-0.26794204,0.0,0.0,-0.24057606,-0.0,-0.0,0.43234435,-0.0,0.0
0.2945048,0.36226144,0.08043362,0.062420957,0.2299939,-0.086256236,-0.14683422,-0.21950208,0.11110936,0.07494174,-0.45521238,-0.5084531
0.14121443,0.51465535,0.00037058993,0.18732716,0.14512184,0.056244705,0.09582672,-0.39747217,0.10856027,-0.0058912705,-0.70223194,-0.21888267
0.27321067,0.20457168,0.16000196,0.2285249,0.30091238,-0.07625002,-0.19692393,-0.81820726,0.40000588,-0.13681924,-0.26093674,-0.3302816
0.3903124,0.026315607,0.18944354,0.36804473,0.38813585,0.0777099,-0.5478361,-1.0335236,0.39093226,-0.20799044,-0.025078345,-0.35246247
0.3722651,-0.21624702,0.099312626,0.41327837,0.45554468,0.28010285,-0.9268152,-0.76783025,0.39993593,-0.18047383,0.33490744,-0.41348955
0.3659279,-0.2923725,-0.10792556,0.09430595,0.46485198,-0.6440565,-1.2458565,-0.48559773,0.39988506,-0.26213467,0.49462628,-0.31464005
0.311862,-0.34218383,-0.29841533,-0.2852091,-0.14551172,-1.1800636,-1.1346257,0.24537914,0.39994088,-0.43487135,0.54309285,0.008881399
0.89403105,0.19829127,0.40000015,0.092513,-0.13282895,-0.46246964,-0.12882514,-0.2531729,0.102229394,0.3210016,0.14718875,-0.78860724
0.6390456,0.83723813,0.30521116,0.11005876,0.1645463,-0.4472392,-0.1281729,-0.43770656,0.022136606,0.07061882,-0.68586385,-0.5137812
0.37240848,0.7468713,0.023756327,0.17666018,0.33662835,-0.31519827,-0.2047839,-0.6654539,0.010972733,-0.14348951,-0.37166312,-0.18663813
0.47918746,0.39018953,0.27456188,0.104022406,0.39902776,-0.40650818,-0.7051481,-1.030165,0.4000011,-0.10089196,0.11363617,-0.3132956
0.4809056,0.14138226,0.31948972,0.14225334,0.46037066,-0.188889,-1.0440407,-1.1443686,0.40000355,-0.09021023,0.36079478,-0.3419311
0.47547337,-0.13137566,0.20781255,-0.039792072,0.3387092,-0.626984,-1.3430083,-0.6124387,0.3999984,-0.14519042,0.6002579,-0.20925483
0.44057348,-0.31886283,0.33937684,-0.2573296,-0.26545244,-1.1079502,-0.99429524,0.29447863,0.21360606,-0.32267335,0.6460876,0.1709602
0.9329733,0.04075446,0.40000024,0.085702196,-0.13287883,-0.5246098,-0.29104003,-0.19508128,0.07505562,0.31457672,0.2049621,-0.77780706
0.71054107,0.8396914,0.3523089,0.09516983,0.18833521,-0.486045,-0.2929449,-0.4150354,0.017122626,0.044272754,-0.5578688,-0.6035189
0.40716967,0.6983973,0.046857297,0.13252465,0.32803324,-0.37055343,-0.30220658,-0.70789546,0.112359814,-0.27583954,-0.24613594,0.047258068
0.49693218,0.32766306,0.33485016,0.060201686,0.32834032,-0.4401004,-0.7902443,-1.0189178,0.40000615,-0.11765209,0.16381954,-0.36577564
0.48000878,-0.020819752,0.3472778,0.0018107169,0.32227123,-0.4757963,-1.2608339,-0.86005986,0.39999995,-0.12477131,0.4748561,-0.3255226
0.50044966,-0.25286052,0.2373127,-0.2561682,0.067523986,-0.92930424,-1.4205871,-0.22028352,0.39999017,-0.19034487,0.62738365,-0.13009259
0.756393,-0.36533687,0.4000002,0.0450845,-0.32546175,-0.37463653,-0.27433854,0.010823771,-0.07858889,-0.018016351,0.605736,-0.50969356
0.8867692,0.52817273,0.4000001,0.013276961,0.045933627,-0.5524113,-0.24651666,-0.3000682,0.052147772,0.21295378,-0.22304815,-0.7951069
0.5929371,0.92298377,0.22776286,0.03613402,0.2863397,-0.45536605,-0.2556611,-0.47054997,-0.045454387,-0.03196141,-0.6945905,-0.51986307
0.38177916,0.7338148,-0.03845865,0.07143014,0.38333702,-0.36165828,-0.29015172,-0.69703096,0.096211635,-0.30003965,-0.2780482,0.024364436
0.4666643,0.41573414,0.22337203,0.042125013,0.46455935,-0.26076168,-0.7600687,-1.1342309,0.3999976,-0.16618651,0.080995716,-0.31091535
0.4893286,0.13070743,0.28741843,0.13058732,0.47367764,-0.0032452575,-1.0917674,-1.0901073,0.3999907,-0.15970781,0.37027705,-0.35333934
0.4923,-0.06917806,0.24673007,0.08540143,0.45343748,-0.3603219,-1.2998269,-0.72340333,0.3999815,-0.17788784,0.5589448,-0.30606928
0.48558962,-0.20030768,0.110332824,-0.25156307,0.06211992,-1.0631495,-1.3877739,-0.13819437,0.39999443,-0.24620733,0.6499082,-0.13521895
0.54145527,-0.289863,0.40000024,-0.028036185,-0.24563004,-0.66742903,-0.6497005,0.24204664,0.059890937,-0.28144458,0.6949904,-0.14603291
0.93648463,0.23311529,0.40000015,0.11069078,0.008778247,-0.57705635,-0.39063078,-0.12058122,0.060779065,0.29959416,0.017624894,-0.8215629
0.70887667,0.79590654,0.38217294,0.10277449,0.22830938,-0.5257513,-0.3741992,-0.2891563,0.034838002,0.10700871,-0.54782766,-0.60003877
0.4916528,0.86960584,0.1352921,0.13920406,0.37838453,-0.36151463,-0.38455784,-0.49346334,0.04237439,-0.12675408,-0.45810238,-0.13127655
0.46610427,0.50402695,0.24834417,0.067303024,0.21684371,-0.50530946,-0.54598004,-0.83640546,0.40002027,-0.12231493,-0.09039215,-0.30976906
0.47680864,0.24711537,0.33296922,0.08864212,0.3349533,-0.35082576,-0.88818854,-1.0888681,0.40000373,-0.1283237,0.16130547,-0.360932
0.43256876,0.019278409,0.3142178,0.025007095,0.23907173,-0.5525837,-1.2542057,-0.81220895,0.3898819,-0.11112107,0.38824147,-0.33060554
0.44636127,-0.18194565,0.23588793,-0.16563821,0.035868976,-0.8006363,-1.370084,-0.34830242,0.39762715,-0.14929536,0.5527636,-0.19868277
0.41843668,-0.281771,0.133592,-0.25962678,-0.22942725,-1.0392525,-1.1040297,0.14479405,0.34033468,-0.24266347,0.61653477,0.03928329
0.8793117,-0.15006341,0.40000015,0.05946649,-0.29741988,-0.4394651,-0.23529072,-0.1568915,-0.018187383,0.10752899,0.39183858,-0.74779385
0.7385729,0.73835087,0.4,0.054896187,-0.007954439,-0.5073884,-0.23768352,-0.32085162,-0.035759255,0.14077958,-0.47948274,-0.63315994
0.48604515,0.8523012,0.116373844,0.10138822,0.24404971,-0.4409604,-0.29283467,-0.5039678,-0.09068726,-0.12229219,-0.58833456,-0.3185054
0.46183032,0.3928426,0.2584678,0.11652193,0.41159368,-0.2976634,-0.5622308,-1.0574224,0.40000114,-0.14437842,0.024126174,-0.30579364
0.44394222,0.13389775,0.29319662,0.1713717,0.41502252,-0.17974997,-0.9660404,-1.143738,0.40000644,-0.115138404,0.3116816,-0.37571675
0.45374897,-0.12722349,0.24274379,-0.078607164,0.19043198,-0.68111175,-1.3256711,-0.58284736,0.3999442,-0.1447345,0.54252976,-0.27964023
0.42554936,-0.22081447,0.070134185,-0.3237618,-0.14028037,-1.0850579,-1.2425721,0.09178006,0.3717235,-0.21767175,0.61759806,-0.06722785
0.8658086,-0.040855035,0.40000018,0.050184585,-0.13750398,-0.50642234,-0.28754362,-0.22139126,0.12098273,0.33718044,0.20685267,-0.71976763
0.7415241,0.73579097,0.40000004,0.04013985,0.13395715,-0.5217937,-0.29299605,-0.40682188,0.11715045,0.16994482,-0.57348746,-0.5902467
0.54354715,0.81746393,0.112330444,0.05881489,0.3565945,-0.35046506,-0.31247285,-0.6111977,-0.0032474126,-0.21292171,-0.52419186,-0.35276634
0.50227123,0.48341233,0.20394601,0.05609283,0.3870042,-0.41681546,-0.55260223,-0.909984,0.3999991,-0.19233309,-0.06552347,-0.25449115
0.49819034,0.18323217,0.28540358,0.09248655,0.44222572,-0.14662589,-1.021278,-1.112112,0.40000004,-0.1706159,0.23692323,-0.33161318
0.4800023,-0.043739453,0.2633872,0.008974753,0.31648025,-0.43864304,-1.294328,-0.80962473,0.38523883,-0.16186525,0.46098995,-0.31123212
0.48409864,-0.1935206,0.12772667,-0.18527423,0.14714164,-0.81281143,-1.3691013,-0.32388514,0.39517745,-0.20895323,0.6087127,-0.16324607
0.50380296,-0.3621208,0.4000006,-0.14867415,-0.33029678,-0.8395141,-0.69534206,0.29181585,0.062145147,-0.316397,0.60935163,0.028325604
0.97924197,0.16870327,0.40000015,0.018799072,-0.1047876,-0.5137887,-0.17615406,-0.19211693,-0.019406669,0.21317738,0.23500848,-0.90554875
0.71562487,0.8385324,0.3523336,0.074775636,0.15019178,-0.46736857,-0.20235632,-0.351488,-0.09277303,0.066339634,-0.5321875,-0.68011564
0.47122288,0.8180995,0.034411624,0.13883944,0.3221553,-0.31367216,-0.27111778,-0.5612635,-0.08372349,-0.12891982,-0.53889537,-0.25314578
0.48467287,0.243817,0.34793803,0.076619886,0.43367955,-0.2793848,-0.893985,-1.2032238,0.40000656,-0.13617307,0.18519026,-0.288284
0.45845783,-0.12693223,0.28216788,-0.03409784,0.33337522,-0.61527973,-1.3847961,-0.6687537,0.4,-0.1394139,0.5447157,-0.25297242
0.417335,-0.31724283,0.20932232,-0.2974042,-0.25423673,-1.1998413,-1.0628449,0.22717969,0.27130848,-0.27284956,0.6281797,0.07307014
0.9668308,-0.0024550771,0.40000013,0.054908834,-0.13576919,-0.5065632,-0.3425805,-0.18696131,0.041240703,0.26509163,0.22209266,-0.7883686
0.6609866,0.8695924,0.34048334,0.06437894,0.18596241,-0.47306165,-0.33456805,-0.39062423,-0.04335062,0.055204373,-0.5844412,-0.5616536
0.36445305,0.68387306,0.07821527,0.1140842,0.2834457,-0.45920384,-0.36227083,-0.7001689,0.24791448,-0.1686148,-0.24193919,-0.14789723
0.476021,0.32704374,0.32328755,0.13570529,0.40902722,-0.31750223,-0.817163,-1.0721707,0.40000495,-0.13799863,0.11674782,-0.35269186
0.45491672,0.038911827,0.3404607,0.16526882,0.43382314,-0.19597675,-1.1518348,-1.0017719,0.39007774,-0.11453678,0.4181355,-0.37613034
0.45314413,-0.16600376,0.24841212,-0.1411726,0.15117086,-0.81086373,-1.3784169,-0.47355756,0.3999832,-0.14485382,0.6117001,-0.27882254
0.38668415,-0.33036637,0.34742633,-0.23345974,-0.38878414,-0.9939937,-0.8517269,0.2843856,0.19027002,-0.26572242,0.65414417,0.06612677
0.94446045,0.11475104,0.4000002,0.054229166,-0.18890254,-0.50180095,-0.31814167,-0.1259796,0.04085605,0.32204583,0.20757851,-0.80102
0.6929513,0.85976464,0.3548995,0.04634816,0.17835863,-0.5129059,-0.3217995,-0.36815533,0.02197338,0.10441879,-0.56335986,-0.5818367
0.3109233,0.7265443,-0.059905663,0.048943333,0.33349612,-0.4537404,-0.3541499,-0.7207634,0.28193575,-0.1569177,-0.33137757,-0.09406215
0.5090913,0.37888518,0.29370567,0.025979055,0.34965676,-0.43857,-0.6791432,-1.0290846,0.4000032,-0.14737478,-0.035604138,-0.25353247
0.47780505,0.059820704,0.3220772,0.059297353,0.41983905,-0.2532018,-1.1653167,-1.0184221,0.36779115,-0.11096433,0.302058,-0.3180234
0.4661201,-0.12874374,0.23677333,-0.05453157,0.33448225,-0.58273566,-1.3550309,-0.59128886,0.39996502,-0.12970896,0.5065686,-0.27652058
0.43701482,-0.3143326,0.25045174,-0.28246573,-0.2948227,-1.0795745,-0.9826425,0.25793242,0.26285306,-0.2734459,0.59830683,0.06642736
0.92601657,0.13565937,0.4000002,0.038170855,-0.14266884,-0.49745545,-0.3088176,-0.13380735,0.08645942,0.3480724,0.10575977,-0.76863825
0.6688439,0.8503305,0.3892107,0.015821192,0.20451322,-0.4843961,-0.2980599,-0.3780427,0.04224096,0.07987797,-0.6602784,-0.537489
0.3737022,0.705026,0.07361766,0.0654324,0.36691114,-0.32494932,-0.28880087,-0.71134186,0.13923286,-0.2539449,-0.22576092,-0.045509085
0.46594185,0.35319307,0.34539828,0.10086327,0.40902817,-0.27391076,-0.83905625,-1.1226667,0.40000317,-0.14963399,0.14430954,-0.33433554
0.44323096,0.008020394,0.39942297,0.07870641,0.4007373,-0.4115276,-1.2451315,-0.8901372,0.39997503,-0.11847009,0.45340386,-0.33854038
0.42430615,-0.2154742,0.26032034,-0.27208334,0.008804681,-0.99677217,-1.3615156,-0.116174296,0.39917314,-0.17317095,0.62161094,-0.15401708
0.74073756,-0.26778626,0.40000024,0.03849869,-0.30429202,-0.4507857,-0.20113494,-0.020280028,-0.030036712,0.14939189,0.5126738,-0.51295
0.85797733,0.42430067,0.40000013,0.05756319,-0.02488998,-0.5163853,-0.29000658,-0.25989595,0.11322568,0.35070574,-0.21595123,-0.73331404
0.6474331,0.8733746,0.38334528,0.05541061,0.2346651,-0.4658387,-0.27760237,-0.43582943,0.03780805,0.064519696,-0.74230355,-0.5364413
0.4369365,0.6949358,0.029398514,0.094734944,0.39428732,-0.27077162,-0.3207067,-0.7271474,0.15174901,-0.26897162,-0.3267417,0.0031076309
0.5322855,0.31637472,0.3265017,0.054623403,0.38478208,-0.41520908,-0.80426717,-1.1066077,0.40000156,-0.16447611,0.10177584,-0.30364954
0.48570412,0.027166488,0.32113916,0.056886483,0.3216959,-0.40957195,-1.1624953,-0.93417555,0.3999997,-0.13807827,0.402467,-0.3465829
0.5098022,-0.22978087,0.201195,-0.17716116,0.11783444,-0.76013625,-1.3507468,-0.3998464,0.39994007,-0.19551751,0.6091214,-0.15202126
0.64719975,-0.43519056,0.4000002,-0.022620872,-0.34653047,-0.54710996,-0.55868787,0.22945984,-0.071041524,-0.24459141,0.69963974,-0.2614737
0.9868723,0.20645502,0.40000015,0.1084848,-0.096558936,-0.51190686,-0.29129934,-0.16838665,0.0029087025,0.26389408,0.041698176,-0.89121574
0.63861686,0.8813624,0.36177337,0.112310365,0.19461942,-0.4664799,-0.30039048,-0.3742446,-0.061851267,0.05753019,-0.7185033,-0.54164785
0.38827395,0.67050755,0.074045636,0.14325556,0.37407577,-0.31360546,-0.34408084,-0.64799595,0.07095896,-0.19024225,-0.21077667,-0.124310225
0.46403474,0.3059948,0.3253265,0.13105471,0.46534228,-0.23649092,-0.8616331,-1.0893165,0.39449802,-0.11050464,0.15755823,-0.36724088
0.44977564,0.015998011,0.34401438,0.16842003,0.45581785,-0.18073352,-1.1791004,-0.93461746,0.40000102,-0.103739485,0.44175017,-0.38672486
0.45457283,-0.18110858,0.23887071,-0.11019857,0.23384024,-0.80324787,-1.4419029,-0.44532123,0.39998767,-0.15110263,0.61808956,-0.2634928
0.4548334,-0.2885829,0.4000006,-0.09615343,-0.3539912,-0.68671274,-0.66566336,0.2528073,0.015094997,-0.23205316,0.68895966,-0.2387146
0.8407394,0.61058676,0.4000001,0.0643764,0.052446026,-0.5254959,-0.31398347,-0.30552626,0.027154427,0.23308557,-0.31230068,-0.7468407
0.4667767,0.8848853,0.042575337,0.08238147,0.3355415,-0.40468004,-0.3273235,-0.53531,-0.028289886,-0.18079202,-0.49144277,-0.17100213
0.48827562,0.42559785,0.2564144,0.08181546,0.45797423,-0.40355214,-0.6653235,-1.0517706,0.4000031,-0.18369424,0.05018112,-0.3257378
0.47254124,0.13795464,0.29711327,0.15998855,0.43489435,-0.10890326,-1.0181582,-1.043767,0.40000024,-0.18625826,0.32954875,-0.3551359
0.45686686,-0.14862978,0.22067653,-0.007829869,0.25470692,-0.58942425,-1.3563366,-0.6362221,0.3999492,-0.21301687,0.5743718,-0.23916775
0.43249,-0.34427008,0.200955,-0.2656613,-0.23492976,-1.0151074,-0.9843865,0.23792571,0.2518822,-0.3526791,0.63921106,0.10982158
0.96937436,-0.00043514313,0.40000018,0.089495145,-0.16828957,-0.47551242,-0.26843792,-0.20862602,0.06732661,0.13570485,0.26535833,-0.8387358
0.7006819,0.82597035,0.4,0.09737665,0.15970322,-0.4562382,-0.25151083,-0.40666634,-0.021207372,0.09495788,-0.6224768,-0.6214019
0.48512325,0.89949894,0.06580101,0.12968454,0.31599414,-0.3386911,-0.2805446,-0.54848146,-0.087486215,-0.12325729,-0.5342554,-0.28206342
0.44445837,0.5204468,0.2101498,0.10373522,0.39560583,-0.34167984,-0.55028903,-0.9422339,0.39999953,-0.16457501,-0.02852764,-0.27995116
0.46324295,0.24583669,0.31616175,0.15537855,0.4533801,-0.099693835,-0.9864301,-1.1600369,0.40000534,-0.13130333,0.2637294,-0.36573812
0.4514191,0.014887108,0.33336124,0.16176373,0.4762383,-0.23303755,-1.1846048,-0.91087806,0.3999868,-0.11253644,0.48741642,-0.3793265
0.44538096,-0.17021318,0.20889947,-0.18158874,0.17791137,-0.8662952,-1.4273937,-0.32911953,0.39999765,-0.16203901,0.6474181,-0.22662039
0.5243525,-0.28836736,0.4000002,-0.008877609,-0.3597563,-0.54865247,-0.5289452,0.15749605,0.032141678,-0.18502872,0.67241836,-0.15996142
0.7774175,0.74695235,0.40000004,0.02292719,0.15663806,-0.5376802,-0.34147456,-0.28700545,0.02715046,0.1841361,-0.45102924,-0.70664704
0.41399184,0.8085764,0.055449918,0.06644066,0.3386066,-0.3777367,-0.33386013,-0.60676205,0.13874464,-0.20690922,-0.37878793,0.01053697
0.47053438,0.38089594,0.29893422,0.089641884,0.45517,-0.19034603,-0.74838626,-1.0673279,0.4000014,-0.085706644,0.06420665,-0.40325022
0.5027026,0.009761683,0.37587953,0.18484043,0.48608348,0.019524582,-1.1243224,-1.0216541,0.37385762,-0.08762271,0.44138247,-0.45428237
0.5073353,-0.15692365,0.2649453,-0.05714044,0.33052024,-0.7027095,-1.4349965,-0.5378846,0.399998,-0.13487326,0.6226009,-0.35665724
0.45154476,-0.23830113,0.035972286,-0.32006973,-0.081517704,-1.15607,-1.2917755,0.0684664,0.38736445,-0.21533354,0.68396837,-0.111893654
0.71215254,-0.29161704,0.4000002,0.04761115,-0.28048438,-0.41631258,-0.17999634,-0.016294563,-0.064235255,0.09737712,0.58361876,-0.524961
0.8575806,0.4665333,0.40000013,0.04755806,0.07181946,-0.526589,-0.28248388,-0.28960818,0.09123209,0.32334706,-0.22274582,-0.692128
0.5622964,0.8697426,0.19044572,0.09191461,0.33568522,-0.36287233,-0.3143573,-0.52744055,0.0052032047,-0.107302375,-0.5929618,-0.35523966
0.50091404,0.4910275,0.22182524,0.12892242,0.41519806,-0.32905012,-0.49620166,-0.9422498,0.40011624,-0.15904054,-0.04747417,-0.32412001
0.50524896,0.20674485,0.32166266,0.16047716,0.4881329,-0.21232791,-0.9880937,-1.1477237,0.40000215,-0.117779344,0.268065,-0.43940383
0.49643606,-0.069473706,0.2750696,0.22382145,0.48581672,-0.0343116,-1.1799237,-0.8385224,0.40003404,-0.1247542,0.5686951,-0.40329042
0.44580188,-0.2078057,0.042392462,-0.2771182,0.06935688,-1.047247,-1.3677912,-0.13833494,0.40000054,-0.20636258,0.6892159,-0.16559716
0.7645667,-0.26848614,0.4000002,0.054989625,-0.36864856,-0.42417255,-0.27389118,-0.005991614,-0.037462655,0.124990806,0.5050464,-0.53194493
0.78929985,0.6958942,0.4000001,0.07561618,0.069956504,-0.5209091,-0.33919975,-0.3099807,0.03524192,0.1781592,-0.36245096,-0.6879057
0.4845222,0.87364405,0.10115773,0.10880959,0.32524177,-0.3732832,-0.3307476,-0.5762409,0.057069268,-0.18173803,-0.46792102,-0.08940892
0.48801383,0.4518677,0.27010396,0.10547106,0.35296738,-0.4958804,-0.62545484,-0.9206554,0.39997488,-0.11582924,-0.054626033,-0.32081604
0.49645317,0.1443126,0.34645286,0.12825578,0.42080173,-0.32161117,-1.0342226,-1.0163718,0.40000165,-0.10586741,0.26635227,-0.38256428
0.4854651,-0.12769327,0.2519919,-0.08651583,0.23532271,-0.7242451,-1.373519,-0.53993803,0.399962,-0.1420281,0.5359533,-0.28653422
0.44950068,-0.22775745,0.07184097,-0.2826041,-0.07952243,-1.1003826,-1.2712361,-0.0025879433,0.39066553,-0.21531919,0.6216598,-0.077526554
0.77750635,-0.20818827,0.40000018,0.10565156,-0.30268195,-0.38209954,-0.21187693,-0.0349954,-0.050966706,0.10299799,0.47643307,-0.5804614
0.8029466,0.5325191,0.4000001,0.03412946,0.07396076,-0.59763825,-0.2617234,-0.27510184,0.07741532,0.23333399,-0.32957006,-0.645834
0.5423995,0.90555334,0.12607512,0.10400298,0.33862603,-0.43326893,-0.30814835,-0.49810916,-0.016082725,-0.09111559,-0.52983695,-0.3341928
0.46874207,0.49382088,0.21480443,0.1284192,0.3897821,-0.35943407,-0.509605,-0.9371222,0.40000057,-0.16299905,-0.03759103,-0.29797485
0.4651953,0.14253247,0.32630637,0.15269135,0.4447511,-0.18417719,-1.0354836,-1.1217642,0.39999956,-0.11358132,0.3352936,-0.42512903
0.4663847,-0.13067302,0.25166717,-0.06896682,0.29494554,-0.705436,-1.3776714,-0.636518,0.39995325,-0.15243153,0.59790784,-0.3422193
0.44908077,-0.27635995,0.07601075,-0.323871,-0.13542199,-1.111085,-1.2743124,0.05786708,0.39999378,-0.25309995,0.67018324,-0.08025019
0.9469175,-0.019647313,0.40000024,0.049295433,-0.069904916,-0.5637799,-0.35143778,-0.07752211,0.03549989,0.24417293,0.2798106,-0.7446859
0.74936956,0.8162437,0.40000004,0.05491497,0.25261992,-0.5271724,-0.35413408,-0.30882853,0.029891675,0.13009308,-0.5737748,-0.6272981
0.44741848,0.77767617,0.066908754,0.13141753,0.40904334,-0.32508978,-0.37146458,-0.674967,0.18585436,-0.19320637,-0.37067488,-0.08187629
0.52009743,0.41550756,0.25697795,0.15185133,0.47234923,-0.25621092,-0.72165304,-1.0640811,0.40000075,-0.12251429,-0.01401793,-0.4026998
0.5266218,0.115681596,0.3364563,0.18745096,0.5211395,-0.0848629,-1.0916106,-1.1231704,0.39976877,-0.09626395,0.32708105,-0.49585408
0.5430238,-0.09880738,0.3029863,0.24996114,0.5375978,-0.0110983215,-1.2473054,-0.8465371,0.39993373,-0.10574911,0.5761505,-0.478615
0.4945218,-0.23564306,0.09332777,-0.22677162,0.13625833,-0.9413806,-1.4204544,-0.20480245,0.399995,-0.18308516,0.699485,-0.2794358
0.6195519,-0.324943,0.40000018,0.06746535,-0.28880864,-0.37034968,-0.43822104,0.09092132,0.014360729,-0.08546927,0.714679,-0.40408963
0.9120585,0.30101863,0.40000013,0.0347531,0.11557616,-0.55868995,-0.35064974,-0.33747345,0.09882577,0.28001332,-0.035589643,-0.7962441
0.6561776,0.951518,0.2507035,0.08666782,0.36039516,-0.37949452,-0.36285192,-0.5312856,-0.040957004,-0.05609123,-0.62522876,-0.358495
0.47853053,0.49320006,0.23615432,0.0760872,0.37461472,-0.35900024,-0.59041756,-1.0054549,0.3999954,-0.091546774,-0.10516349,-0.2982344
0.47637862,0.065416865,0.3189823,0.138919,0.41628668,-0.21910805,-1.1342838,-0.9797394,0.399956,-0.07821568,0.34805813,-0.408811
0.4720361,-0.13588403,0.22233392,-0.117471196,0.20785426,-0.7530108,-1.3958918,-0.5226051,0.39995587,-0.1255952,0.54084766,-0.29937056
0.47657046,-0.2868467,0.40000024,-0.04728389,-0.32303882,-0.6096561,-0.6703213,0.1941522,0.08494854,-0.18435046,0.6385452,-0.1236129
0.8361483,0.56753,0.40000007,0.06478787,0.0990704,-0.54159516,-0.36605817,-0.21775056,0.03201515,0.2639178,-0.30649027,-0.6945611
0.5368545,0.91466844,0.15522563,0.082222044,0.34458345,-0.3399946,-0.38014174,-0.4918389,-0.019185258,-0.10600337,-0.60399896,-0.24827185
0.49855393,0.45594558,0.263352,0.058337174,0.38320905,-0.3639841,-0.6704047,-1.0215887,0.40000185,-0.108204104,-0.046352655,-0.32325092
0.49932268,0.13429968,0.3537458,0.10943336,0.43088302,-0.08796784,-1.0553291,-1.1026226,0.38669834,-0.08547577,0.28130665,-0.40053478
0.47059295,-0.16403228,0.25651887,-0.076545544,0.31235474,-0.6228707,-1.4127275,-0.6290766,0.39996547,-0.09476376,0.584097,-0.31381425
0.40656045,-0.2910548,0.15559617,-0.28755707,-0.2904357,-1.1036618,-1.0544192,0.2551049,0.28072828,-0.21555023,0.6601971,0.012851929
0.95975345,0.21071492,0.40000015,0.056087296,-0.07732922,-0.53992206,-0.36868733,-0.13229653,0.00069743965,0.20163149,0.11460885,-0.8374024
0.68480206,0.88041925,0.39838383,0.061771814,0.19857962,-0.4913059,-0.35301453,-0.31430832,-0.06414971,0.06606748,-0.60052496,-0.62899894
0.3578495,0.75499266,0.009723533,0.08865268,0.34439978,-0.40534303,-0.35100383,-0.64504194,0.14025845,-0.16478553,-0.38178954,-0.045697857
0.4963017,0.32212886,0.31740087,0.15071271,0.43533164,-0.3367482,-0.82931536,-1.0626192,0.40000355,-0.10460916,0.05405212,-0.3819517
0.47207326,0.014274384,0.31016186,0.14896807,0.42832798,-0.37184364,-1.2192628,-0.89365625,0.3999635,-0.106354445,0.38325033,-0.3798708
0.47763526,-0.20143932,0.15985456,-0.21291728,0.031030651,-0.9772733,-1.3869721,-0.2600445,0.39752483,-0.1649177,0.5900438,-0.19786875
0.5476893,-0.29998308,0.40000024,0.06750728,-0.3548355,-0.33248717,-0.43452477,0.07245196,-0.0067152493,-0.110229135,0.698514,-0.32712102
0.8735714,0.506446,0.40000007,0.030758778,0.10306953,-0.5776759,-0.3226579,-0.32274696,0.056422897,0.2925823,-0.21269391,-0.7167054
0.53270787,0.86641324,0.12564884,0.08563795,0.29729164,-0.39729926,-0.34550208,-0.5313111,-0.008503443,-0.13236141,-0.5151934,-0.31303346
0.50142723,0.4111397,0.2580294,0.032585423,0.3441113,-0.36880696,-0.58279127,-1.0346733,0.40000373,-0.14103381,-0.05930046,-0.34759548
0.52556294,0.094478145,0.32653013,0.11992635,0.39295956,-0.101732366,-0.95050186,-1.1511132,0.38732177,-0.1375311,0.29200795,-0.43531525
0.48197383,-0.14205767,0.19626601,-0.07932757,0.23671447,-0.6650273,-1.3558284,-0.5480044,0.3999523,-0.14839745,0.5727758,-0.34800997
0.4995465,-0.4235692,0.40000468,-0.2195239,-0.40270564,-0.90107226,-0.883095,0.2861851,0.15678479,-0.25899357,0.6993132,-0.18005356
0.91183335,0.39094043,0.4000001,0.061205283,-0.041220874,-0.53039014,-0.32767183,-0.26850602,0.08109778,0.21375808,-0.10447155,-0.7926497
0.6321583,0.9443768,0.2804356,0.08478043,0.2205493,-0.40657976,-0.32431075,-0.47208,-0.029855493,-0.06680913,-0.67320234,-0.45879674
0.41272226,0.6830398,0.051546954,0.060379505,0.3455554,-0.42100933,-0.36657912,-0.7524778,0.25949985,-0.18795,-0.30155873,-0.049923252
0.535816,0.26714092,0.32547465,0.072677866,0.3787194,-0.36174336,-0.7963529,-1.1272194,0.4000026,-0.125853,0.11653247,-0.3394916
0.49403137,-0.024382412,0.2957275,0.07582076,0.37118816,-0.3182124,-1.199891,-0.9528567,0.39999896,-0.10919557,0.4252305,-0.33454257
0.50320494,-0.23748145,0.14629787,-0.24241775,0.053653948,-1.0013548,-1.3801899,-0.22919297,0.39995804,-0.15248545,0.62961674,-0.16523692
0.6259821,-0.31124672,0.4000002,0.025880856,-0.3935869,-0.51820606,-0.444353,0.13138218,0.020273982,-0.13307005,0.5760216,-0.28376323
0.8079604,0.5842388,0.40000004,0.016379848,0.047936663,-0.5572291,-0.2843668,-0.317736,0.08649653,0.22338767,-0.33943275,-0.6810771
0.6000437,0.9343885,0.22329447,0.04308553,0.30351385,-0.44945627,-0.2925506,-0.49693778,-0.025382575,-0.050520644,-0.68642056,-0.460331
0.46470588,0.554519,0.18780898,0.08726905,0.3232655,-0.39603665,-0.39488676,-0.88526934,0.40010366,-0.1488284,-0.14331228,-0.19708782
0.5016946,0.24265663,0.34046856,0.09992617,0.45192868,-0.2902308,-0.9445492,-1.162443,0.39949188,-0.089753106,0.1864184,-0.34891462
0.49374512,-0.02447667,0.3276278,0.139999,0.44830844,-0.2480776,-1.2419633,-0.94861406,0.39998114,-0.087754525,0.4533941,-0.33051237
0.496841,-0.22882615,0.1921169,-0.23908682,0.17730832,-0.9399851,-1.4084148,-0.2971563,0.3999682,-0.1445699,0.61561245,-0.14571762
0.46035776,-0.32700595,0.217613,-0.28784174,-0.24581425,-1.1343522,-1.0117414,0.25441173,0.2514507,-0.25966603,0.6237037,0.12354568
0.9449665,-0.063299075,0.40000018,0.060172096,-0.15144292,-0.50067574,-0.3442974,-0.10480679,0.01883328,0.28166878,0.26824832,-0.7143953
0.79761094,0.6738334,0.40000004,0.05814589,0.11629892,-0.5193826,-0.36408645,-0.29041559,0.022950578,0.24493536,-0.44362015,-0.658094
0.5385928,0.89205086,0.22326772,0.08391413,0.31653512,-0.4059692,-0.3784464,-0.44961026,-0.06382897,-0.092186354,-0.64078164,-0.34756166
0.44798896,0.5649349,0.18498757,0.10577999,0.3992877,-0.3411364,-0.39726484,-0.82357836,0.30846658,-0.178904,-0.21530093,-0.23859234
0.49714303,0.30299363,0.3408741,0.09252051,0.4106935,-0.35098693,-0.8244388,-1.1114433,0.38925838,-0.1380554,0.060768258,-0.41187498
0.48685408,0.042454425,0.3443528,0.13861975,0.4331162,-0.12494928,-1.0592248,-1.0243286,0.37722802,-0.13598879,0.36262226,-0.4524193
0.46925265,-0.1290177,0.23733675,0.006134974,0.3212832,-0.5448901,-1.337147,-0.6590492,0.39999807,-0.16043314,0.57407117,-0.38906133
0.47881716,-0.2633253,0.060778372,-0.25983283,-0.04621295,-0.98598534,-1.3534306,-0.10290252,0.39480954,-0.24007557,0.6876955,-0.1857357
0.5406864,-0.31294543,0.40000027,-0.017610483,-0.44615552,-0.4735195,-0.5573135,0.21671937,0.040546324,-0.2177132,0.74407405,-0.23336102
0.90675426,0.25480005,0.40000015,0.006785127,-0.051597234,-0.583378,-0.32183257,-0.236282,0.067974344,0.30809587,0.088742025,-0.7653788
0.75286496,0.77357125,0.3688048,0.04889363,0.15328482,-0.5258282,-0.34654656,-0.38148105,0.013341419,0.08928688,-0.4947966,-0.62338084
0.50728786,0.89302975,0.08375642,0.09646734,0.33909997,-0.36350566,-0.34504303,-0.56338996,-0.010019843,-0.18310156,-0.47241464,-0.19352804
0.49290454,0.3943873,0.28055495,0.08772924,0.40869868,-0.357884,-0.6894634,-0.98488516,0.39999852,-0.16784199,-0.045041587,-0.39264536
0.4983431,0.09282553,0.31979686,0.17121655,0.44826213,-0.069845214,-0.99215925,-1.1158371,0.38713306,-0.1632368,0.3169197,-0.48047712
0.4825805,-0.1425201,0.19127324,0.03625711,0.32011756,-0.57313466,-1.365491,-0.6609488,0.39995736,-0.19882154,0.60189605,-0.39314377
0.41921192,-0.29319096,0.17304958,-0.19446674,-0.29677957,-1.0953357,-0.8734055,0.31495714,0.27373433,-0.39285353,0.6809182,0.08030737
1.0417916,0.19657934,0.40000018,0.1363532,-0.149777,-0.49058822,-0.34031096,-0.11102896,0.013694857,0.21034071,0.14286777,-0.9986287
0.60518867,0.8945998,0.30184674,0.14271112,0.18633871,-0.45415756,-0.334638,-0.3423985,-0.06131241,-0.007836993,-0.6215632,-0.5168279
0.36798584,0.62326825,0.15356025,0.14691328,0.2930547,-0.38565785,-0.38527647,-0.7262053,0.31850556,-0.11754989,-0.19758579,-0.22284774
0.42564914,0.2444472,0.36182922,0.12580055,0.38099155,-0.23941669,-0.8732161,-1.0848085,0.39999986,-0.07457837,0.18624774,-0.41060007
0.42129248,-0.059865367,0.35969648,0.016166298,0.26887384,-0.4888923,-1.3323956,-0.80918324,0.3999734,-0.094338804,0.46367195,-0.37072542
0.44624656,-0.2858556,0.24045686,-0.268899,-0.028374806,-0.9008128,-1.3648775,-0.181824,0.3898347,-0.16663605,0.61413646,-0.16358843
0.50268537,-0.31817585,0.40000024,0.02774312,-0.37303364,-0.4189451,-0.5258359,0.14535284,-0.0052894857,-0.13894631,0.6737836,-0.29249653
0.8328645,0.46636254,0.4000001,0.028077675,0.02001234,-0.5422472,-0.25174594,-0.30803302,0.030089539,0.29408008,-0.2530331,-0.7039805
0.66146207,0.85662216,0.3601162,0.15486838,0.15601727,-0.53438723,-0.18503192,-0.54599226,0.02842842,0.05962261,-0.5995206,-0.5691471
0.38176984,0.6449239,0.08398218,0.32859072,0.2050593,-0.4210942,-0.04521198,-0.9213082,0.24566463,-0.17670417,-0.1810795,0.10580437
0.458853,0.3880012,0.2595336,0.30697274,0.36232138,-0.3541578,-0.73507833,-1.2013781,0.40000647,-0.036380537,0.15231706,-0.27315158
0.46976689,0.08270528,0.30747214,0.23210587,0.36715025,-0.31331807,-1.1128901,-0.9231532,0.39999023,-0.047868464,0.4093738,-0.24720857
0.46005088,-0.13372041,0.21893705,-0.18186854,0.21116668,-0.90052575,-1.4117739,-0.35949272,0.39999878,-0.08775539,0.5675468,-0.10175884
0.48196998,-0.3260016,0.40000013,-0.17850138,-0.4039407,-1.0404555,-0.80692214,0.2880959,0.07760529,-0.2078607,0.59699357,0.08990554
0.9257524,0.30675274,0.40000013,0.04246872,-0.053683773,-0.5283934,-0.34583142,-0.2169977,0.060286567,0.24248558,0.07562948,-0.8281709
0.6888926,0.88308793,0.40000004,0.042152025,0.2147288,-0.48264256,-0.34434757,-0.39730588,-0.02739223,0.06455649,-0.6037863,-0.64921504
0.37800828,0.7744934,0.012337789,0.06839103,0.36120865,-0.3421766,-0.35509193,-0.6732499,0.114351526,-0.2501393,-0.35047948,0.0919119
0.49665362,0.34652257,0.33685136,0.03534693,0.32923526,-0.48697215,-0.7749794,-0.9797543,0.40000525,-0.10009824,0.09516465,-0.35987368
0.4736078,0.027667485,0.34201103,0.06801892,0.3720682,-0.3317518,-1.1612954,-0.9558226,0.3832519,-0.12511659,0.3861471,-0.3367892
0.46675223,-0.18936735,0.25323233,-0.13462283,0.13656203,-0.6871807,-1.386263,-0.50958073,0.39994836,-0.15126114,0.56985366,-0.21266362
0.3916906,-0.2999765,0.18467835,-0.26636052,-0.28196943,-1.0551506,-0.9241647,0.31223783,0.22559291,-0.29394868,0.6267744,0.1368677
0.9712054,0.28343898,0.40000015,0.07563677,-0.0682664,-0.4960437,-0.23974432,-0.2159038,0.053876247,0.23801245,0.03235655,-0.83851016
0.61606675,0.9271156,0.27335644,0.11007281,0.2122177,-0.40858713,-0.2464094,-0.4150982,-0.053491324,-0.008811917,-0.6826251,-0.48942292
0.33305433,0.67058104,0.067922644,0.13814878,0.31481898,-0.32760945,-0.29588652,-0.7348998,0.21834868,-0.17102328,-0.24195017,-0.06290287
0.4127053,0.30585867,0.31987357,0.12381477,0.42245302,-0.21384226,-0.91537684,-1.1036726,0.39999792,-0.06625321,0.14605981,-0.34734765
0.43787163,-0.039612025,0.33910602,0.15390287,0.4717189,-0.17692207,-1.2213122,-0.86909246,0.38334647,-0.07360815,0.4922473,-0.36045566
0.42410558,-0.18363754,0.19216284,-0.25633568,0.13097501,-0.934041,-1.4257631,-0.26591808,0.39999625,-0.13358334,0.62997794,-0.22466072
0.49777487,-0.3625441,0.40000015,-0.080340974,-0.451139,-0.7531335,-0.678769,0.2219663,0.025658756,-0.17067342,0.62977564,-0.0653295
0.9052323,0.36362997,0.40000013,0.033648785,-0.06663351,-0.5469986,-0.27614564,-0.25895435,0.029427001,0.2880545,-0.054755528,-0.79383314
0.6312756,0.94384605,0.28269607,0.07006565,0.2087204,-0.4958644,-0.2915698,-0.42566195,-0.05773018,0.0014012515,-0.5900013,-0.490164
0.3812195,0.6901016,0.026861027,0.08471905,0.28362116,-0.47345856,-0.39520043,-0.7692831,0.29584265,-0.18321653,-0.27850983,-0.18443082
0.5286652,0.29986176,0.2981588,0.09434112,0.36604407,-0.38866204,-0.83930886,-1.1264502,0.40000284,-0.179746,0.109661154,-0.35503176
0.48463148,0.072982945,0.29265705,0.11210844,0.35353982,-0.28336823,-1.0952511,-1.0186465,0.39997727,-0.16179204,0.34725976,-0.36433434
0.48408234,-0.18444234,0.19169362,-0.109591834,0.17239198,-0.80269706,-1.3833233,-0.4808372,0.39995825,-0.18409644,0.5854846,-0.21826357
0.4116007,-0.33225054,0.18389687,-0.23490122,-0.24027146,-1.118477,-0.9534569,0.28124946,0.21890569,-0.304014,0.6673906,0.11415734
0.9453783,0.22741978,0.40000015,0.11024868,-0.011602505,-0.59840876,-0.37714538,-0.15847626,0.005644998,0.28175285,0.032779433,-0.7749927
0.61413485,0.9418035,0.2747471,0.16670203,0.2582925,-0.48795626,-0.3986327,-0.37257415,-0.045172915,-0.01676129,-0.6001391,-0.381845
0.44861487,0.6263732,0.14055622,0.12233819,0.33312386,-0.44324577,-0.4502915,-0.8324722,0.400097,-0.120312355,-0.2203978,-0.24245577
