ancorasir/BennettWheelLegRL/experiment_data/2023-12-27_22-47-53/joint_position_env11.csv
Joint_1,Joint_2,Joint_3,Joint_4,Joint_5,Joint_6,Joint_7,Joint_8,Joint_9,Joint_10,Joint_11,Joint_12
0.31006172,-0.0,-0.0,-0.2612937,0.0,0.0,-0.41094795,-0.0,-0.0,0.22978546,-0.0,0.0
0.071236126,0.21277043,0.08608787,0.18063341,-0.06981996,0.07678681,-0.16935563,-0.18710431,0.10307494,0.08006682,-0.043674074,-0.08098869
0.28526744,0.30574778,0.3169586,0.100441225,0.100784615,-0.166665,-0.2618601,-0.25287107,0.21667099,-0.1541497,-0.27732873,-0.39877164
0.71794283,0.62173766,0.40000004,0.1380621,0.20635839,-0.11604107,-0.27811232,-0.39706248,0.16347921,-0.074490465,-0.3674906,-0.55480427
0.36768952,0.48923406,0.056022953,0.27910712,0.2672951,0.015728643,-0.30185175,-1.0103941,0.3687742,-0.14625564,-0.09169647,-0.4937137
0.49769375,0.106090724,0.24792516,0.42765278,0.4060987,0.3149577,-0.6611515,-1.1238523,0.3999989,-0.14651932,0.3737961,-0.59625006
0.49050996,-0.09294321,0.18082282,0.41670138,0.5153996,-0.01604893,-1.0556645,-0.82029283,0.39991882,-0.1395067,0.6437298,-0.5410056
0.44193912,-0.18737799,-0.07995114,-0.23408565,0.1028968,-1.0499462,-1.3937192,-0.06742852,0.39999658,-0.2571542,0.7055463,-0.25288334
0.8043766,-0.29940203,0.4000002,0.08948963,-0.2356163,-0.4104886,-0.3270122,-0.06706988,0.0037636198,0.0797683,0.5569271,-0.6437757
0.8102627,0.63593996,0.40000004,0.11303487,0.13022189,-0.4787495,-0.3785861,-0.31105214,0.026350347,0.15393509,-0.42819664,-0.69248295
0.49356213,0.8673081,0.15958536,0.15960708,0.31649855,-0.3196686,-0.37913197,-0.5467186,0.03112651,-0.11161229,-0.39953825,-0.14320804
0.47188634,0.42964935,0.30154598,0.091120295,0.34174523,-0.38648978,-0.7165175,-0.93995154,0.40000138,-0.014418378,0.07560324,-0.43901202
0.46504763,0.12647487,0.3754397,0.06706636,0.34391576,-0.41620973,-1.1041297,-0.9944073,0.39998004,-0.015978005,0.36825618,-0.4567198
0.5058621,-0.19004655,0.2816945,-0.24202247,-0.038353052,-0.8186247,-1.3845925,-0.30052957,0.3865417,-0.11328911,0.60082453,-0.2321067
0.5523226,-0.37493724,0.40000018,-0.01188519,-0.3406533,-0.40708086,-0.5580208,0.1365269,0.03232201,-0.103307046,0.6782676,-0.24445255
0.8849573,0.18047622,0.40000018,-0.028725155,0.019163158,-0.5707185,-0.297792,-0.306403,0.11908327,0.41263083,-0.01729569,-0.75238407
0.694881,0.8378262,0.29806414,-0.025381915,0.2771908,-0.4633404,-0.28863502,-0.50004977,0.023618994,0.041078016,-0.6859535,-0.6083324
0.47336337,0.6740977,0.056788776,0.014334902,0.4368446,-0.32064843,-0.31246623,-0.7125635,0.00056394306,-0.26654243,-0.35976398,-0.22445248
0.522421,0.39379168,0.28752124,0.024061333,0.4590607,-0.32029718,-0.7731734,-1.1222655,0.39999944,-0.1995469,0.091873154,-0.31287408
0.5154345,0.061723776,0.32350594,0.112989776,0.46912202,-0.074054636,-1.1281699,-1.0275086,0.37431416,-0.18720792,0.42404568,-0.33869445
0.47973832,-0.14580779,0.22600482,-0.07416051,0.36042565,-0.67769325,-1.3821443,-0.50366586,0.39999148,-0.21748751,0.59158075,-0.226876
0.42932147,-0.30912355,0.35641426,-0.2610467,-0.28347865,-1.1062394,-1.0131257,0.30447116,0.22566828,-0.3334522,0.6183805,0.07767771
0.9337555,0.06011836,0.40000024,0.10711406,-0.15859729,-0.46219656,-0.35398477,-0.21839993,0.104716174,0.2995187,0.22945939,-0.79217166
0.73634064,0.7965558,0.39449975,0.10393711,0.12549359,-0.44000447,-0.3260237,-0.4000549,0.03198621,0.12240846,-0.52668834,-0.6430145
0.45586798,0.84750944,0.083860174,0.12169713,0.30006656,-0.30695313,-0.30333385,-0.5957731,0.012876326,-0.17022094,-0.4334975,-0.09011133
0.48290417,0.37644663,0.31220418,0.096299425,0.3108392,-0.35309002,-0.6122928,-1.0322367,0.40000302,-0.14204845,-0.005613787,-0.34469077
0.49111766,0.046909973,0.3883341,0.095434815,0.37231988,-0.3113956,-1.0622046,-1.0720079,0.40000024,-0.11640526,0.33459803,-0.41281036
0.49822387,-0.19182557,0.33990395,-0.10443389,0.17424494,-0.675786,-1.339104,-0.6259845,0.39999908,-0.13257189,0.5449,-0.3240616
0.48851922,-0.32209677,0.17221136,-0.27683386,-0.16592759,-0.97328705,-1.2408681,-0.008924992,0.375689,-0.19007869,0.64741635,-0.12862566
0.6627486,-0.30847287,0.40000024,0.047561716,-0.36844873,-0.37222245,-0.25345805,0.025871137,-0.060504884,0.050017305,0.58425677,-0.40663278
0.8421416,0.28043133,0.4000001,0.005051509,0.012853077,-0.58306134,-0.3442074,-0.23055471,0.09712698,0.40506983,-0.13792199,-0.6615746
0.70028055,0.7945142,0.3747399,-0.03114307,0.26829126,-0.5459797,-0.32889155,-0.41544318,0.06744621,0.17678854,-0.7261378,-0.56649023
0.5772408,0.8601709,0.1429496,-0.018042712,0.40019575,-0.3691222,-0.3436182,-0.57517076,-0.016920483,-0.10864724,-0.68547255,-0.4017549
0.45446628,0.60421544,0.13823517,0.02666839,0.34462148,-0.41401854,-0.36222044,-0.84110105,0.3309412,-0.20268635,-0.10545332,-0.17642683
0.46702382,0.32801846,0.2944839,0.0056138546,0.44210938,-0.27396053,-0.92719644,-1.1437386,0.3999936,-0.12719883,0.17916572,-0.3301561
0.4646932,0.08296594,0.32401067,0.049260393,0.44847482,-0.12686601,-1.1686487,-1.0190575,0.40000528,-0.12878534,0.40547407,-0.34379277
0.45482942,-0.098874286,0.25558227,-0.087287694,0.3063559,-0.62466896,-1.3456703,-0.6050045,0.3999936,-0.15568541,0.5686721,-0.27026716
0.46690488,-0.21195301,0.08287579,-0.31684515,-0.022858007,-1.1246045,-1.3074421,-0.041319303,0.3987349,-0.26168644,0.6394078,-0.04230235
0.64466906,-0.32904124,0.40000024,0.09933947,-0.34242553,-0.28490987,-0.38410786,0.060756065,-0.04681421,-0.13903156,0.5867042,-0.2976315
0.86993426,0.51105756,0.4000001,0.04736054,0.039297324,-0.5291117,-0.25851837,-0.28248584,-0.028472643,0.20273209,-0.26679993,-0.7326462
0.55188507,0.92233324,0.17361401,0.11784917,0.24956088,-0.4083869,-0.28868484,-0.49042025,-0.070059165,-0.06250104,-0.5957057,-0.27918652
0.46630192,0.3906815,0.26084656,0.085113175,0.3177384,-0.40169236,-0.6627965,-0.99993676,0.40004554,-0.1251673,0.059008718,-0.31586885
0.48235512,0.10111479,0.33871746,0.09138941,0.43527856,-0.22884984,-1.0842568,-1.1323528,0.3999966,-0.117005005,0.32806495,-0.34579942
0.47860503,-0.14107,0.2748426,-0.08724407,0.2750763,-0.62523484,-1.4055477,-0.6293046,0.39994174,-0.13452972,0.5494262,-0.26347885
0.46681243,-0.24340624,0.09822193,-0.31385273,-0.0007565635,-1.073289,-1.3684254,-0.08374283,0.39997,-0.210152,0.63512844,-0.07143966
0.7324516,-0.2593803,0.4000002,0.059085496,-0.25816864,-0.4801882,-0.1976072,-0.028253786,-0.05603886,0.14023262,0.5226709,-0.52481985
0.8056777,0.46821478,0.4000001,0.08233093,0.05340461,-0.54637265,-0.29220572,-0.28088164,0.08412005,0.34785455,-0.3172048,-0.64340997
0.59778273,0.9266925,0.20693909,0.08471837,0.32791236,-0.42174822,-0.28876925,-0.5012484,0.0028591314,-0.07974682,-0.653565,-0.41643992
0.4595163,0.57284325,0.10989424,0.06729064,0.27857846,-0.48512962,-0.39926693,-0.8243998,0.40000188,-0.18867803,-0.14423417,-0.18502301
0.5059579,0.25174472,0.26433262,0.08621605,0.3902143,-0.31178096,-0.9355195,-1.1128086,0.3981323,-0.13863198,0.20143466,-0.34101838
0.52096915,-0.0010753304,0.27001676,0.062257055,0.31471938,-0.40299124,-1.2329403,-0.8678628,0.39999512,-0.14949276,0.4484511,-0.33603165
0.52078366,-0.17285042,0.15913378,-0.190607,0.15747854,-0.83220166,-1.3635778,-0.34722933,0.39997926,-0.17117505,0.6200719,-0.203358
0.534933,-0.363419,0.40000018,-0.108225204,-0.29403946,-0.7853723,-0.71788436,0.22436881,0.08160012,-0.25662252,0.64901155,-0.057241768
0.9646757,0.10258586,0.40000018,0.04354751,-0.026661254,-0.5494594,-0.34597528,-0.15660064,0.00025665128,0.2063856,0.124766886,-0.7715723
0.7166777,0.83057725,0.37057972,0.07299021,0.24607024,-0.47859728,-0.35550565,-0.34179658,-0.08124615,0.07552192,-0.60487604,-0.6327391
0.31515297,0.76434684,-0.03423897,0.11767872,0.34135675,-0.3763801,-0.35294542,-0.64848065,0.14838578,-0.15601258,-0.29373822,-0.039162904
0.46083364,0.17368427,0.34582588,0.10417689,0.4322191,-0.2750863,-1.1256584,-1.0280426,0.3999978,-0.070165016,0.2847524,-0.32845733
0.4920528,-0.17855458,0.25594017,-0.13336322,0.14868568,-0.7356549,-1.3988714,-0.4971882,0.39996782,-0.1371833,0.5804012,-0.17931558
0.4346468,-0.30733836,0.12358559,-0.34088784,-0.26708016,-1.1347646,-1.031912,0.24624708,0.33723006,-0.27619335,0.6388358,0.16505429
0.9456067,0.016027743,0.40000015,-0.0069048656,-0.1458954,-0.48727065,-0.18323165,-0.15125778,0.022982135,0.22913234,0.42083642,-0.81591374
0.74248004,0.8135191,0.4000001,0.0029750217,0.15831347,-0.47958195,-0.1780612,-0.33760417,-0.039044436,0.12798671,-0.5027929,-0.7021443
0.43451852,0.80254054,-0.00969832,0.07039891,0.3344841,-0.31441468,-0.23729342,-0.5691891,-0.036568813,-0.18303417,-0.49245393,-0.17411046
0.48652637,0.460116,0.2172203,0.049879935,0.3901255,-0.32093742,-0.6670923,-1.0081173,0.39999786,-0.19614807,0.00031052995,-0.24139142
0.47346723,0.17248827,0.30002546,0.09426441,0.4237759,-0.046852767,-0.9818522,-1.1059058,0.39999664,-0.14448844,0.29528356,-0.32064652
0.45660627,-0.06543034,0.27280423,0.041959677,0.35714105,-0.3403128,-1.2808427,-0.85401005,0.40007702,-0.14067069,0.51151645,-0.27574867
0.43339023,-0.22375286,0.075170934,-0.31438756,0.033274185,-1.1118182,-1.3527789,-0.06140627,0.39999244,-0.23784208,0.6180549,-0.04121979
0.6923761,-0.32788137,0.4000002,0.06784702,-0.318461,-0.34359092,-0.24368474,-0.006183206,-0.12418494,-0.048408125,0.6659227,-0.42626727
0.9142167,0.4844813,0.4000001,0.029081684,0.0971688,-0.47684833,-0.30065426,-0.28400669,-0.038670033,0.2662314,-0.097047195,-0.80781937
0.518123,0.92278826,0.11198808,0.0722611,0.3233382,-0.27901715,-0.29556456,-0.5103174,-0.11148848,-0.10728271,-0.5699578,-0.22567578
0.43560156,0.5265905,0.17342195,0.017113796,0.2592571,-0.50006443,-0.4245853,-0.7970978,0.4000114,-0.13882598,-0.17044751,-0.26251003
0.49835604,0.18233468,0.27552196,0.11131834,0.37767866,-0.2389996,-0.9262962,-1.1843488,0.4000073,-0.15585758,0.21321245,-0.38387996
0.483258,-0.053912792,0.2346567,0.05196429,0.35634065,-0.39631805,-1.2355245,-0.8809911,0.39997846,-0.15406123,0.47169203,-0.35371327
0.46250027,-0.2599903,0.020634841,-0.27796918,-0.12316547,-1.1107491,-1.2168874,0.04640016,0.358217,-0.25011063,0.6398302,-0.060237408
0.9173697,-0.076205745,0.40000024,0.07157315,-0.19099464,-0.5517247,-0.25757086,-0.08640483,0.031232858,0.10973956,0.48788744,-0.73126423
0.76047754,0.71408397,0.4000001,0.110161886,0.16267426,-0.5621756,-0.30271652,-0.3288691,0.05682502,0.13879074,-0.41029462,-0.72346133
0.49941295,0.8716695,0.0777544,0.16613176,0.34929764,-0.36228064,-0.32920527,-0.5544733,0.0058501395,-0.16632871,-0.42504886,-0.23816013
0.4423605,0.4765246,0.24616267,0.15261313,0.3566965,-0.3534293,-0.57538795,-1.0137672,0.40000427,-0.13996884,0.0096421195,-0.31980056
0.4523281,0.10472339,0.35421112,0.1901055,0.38753086,-0.27475375,-1.0533384,-1.0761168,0.3999638,-0.118786134,0.36892942,-0.37459457
0.4397973,-0.19014087,0.27930668,-0.1971589,0.05073776,-0.8269244,-1.3489847,-0.2948887,0.39998403,-0.1297401,0.6183938,-0.2450166
0.5649829,-0.32260182,0.4000002,0.013294738,-0.36505783,-0.5013417,-0.48228848,0.10658515,0.032166045,-0.08928884,0.69592994,-0.31720418
0.92904043,0.22983775,0.40000018,0.04592948,-0.0112330485,-0.56943625,-0.3685764,-0.26776615,0.1283823,0.35077143,0.036916494,-0.7887143
0.7308763,0.8429606,0.38920432,0.04793352,0.25930125,-0.5139385,-0.35298717,-0.43812928,0.028923236,0.051353406,-0.6380403,-0.6424076
0.38721627,0.7821378,0.030926265,0.10484917,0.3851028,-0.31897134,-0.34243056,-0.71017087,0.13089946,-0.1964044,-0.3728846,-0.04824658
0.47799838,0.370263,0.31365108,0.12729034,0.44061348,-0.25703552,-0.7588671,-1.1474218,0.39745393,-0.112493336,0.04362002,-0.36377227
0.440928,0.03537885,0.32724285,0.1678731,0.4461876,-0.2612543,-1.1361272,-1.0117637,0.39999422,-0.09277503,0.40329835,-0.4091392
0.4579688,-0.19363303,0.1789441,-0.19191842,0.08413832,-0.9196169,-1.3717874,-0.24389797,0.3999727,-0.18650131,0.5985641,-0.22162764
0.5158599,-0.30771384,0.4000002,0.04845113,-0.37858993,-0.43758613,-0.49244097,0.13696451,-0.044500932,-0.15602344,0.67271507,-0.337341
0.89311695,0.3456891,0.40000018,0.11054808,-0.059053335,-0.507592,-0.40107965,-0.20651807,0.009268913,0.29614663,-0.092530236,-0.83801836
0.5907278,0.9287107,0.23082799,0.107217915,0.23866749,-0.4340211,-0.40130222,-0.42013025,-0.09276238,-0.0698156,-0.55619466,-0.414114
0.44490972,0.51093656,0.2459045,0.093706444,0.33900195,-0.40813702,-0.51344573,-0.8682355,0.399998,-0.08859734,0.00083937246,-0.36203185
0.45472434,0.19044596,0.33883047,0.13440444,0.39059362,-0.2822445,-1.0417637,-1.0807538,0.39501706,-0.07917287,0.3350547,-0.42140228
0.44084692,-0.062867455,0.27879113,-0.019169709,0.369965,-0.5794503,-1.3561225,-0.6864387,0.3999986,-0.11349902,0.56513035,-0.33495116
0.41382983,-0.19408886,0.07076854,-0.33255023,-0.08375236,-1.1429942,-1.3360069,0.035170835,0.39999953,-0.21625078,0.64912456,-0.07968016
0.92526805,0.078854635,0.40000018,0.008779178,-0.095130816,-0.5279693,-0.32147014,-0.15048902,0.048480783,0.2519876,0.15813915,-0.76511216
0.64117306,0.900615,0.2964636,0.05710695,0.23999797,-0.45033282,-0.34904915,-0.38913044,-0.030193862,-0.010015413,-0.63846475,-0.42497265
0.48358747,0.55515146,0.20322275,0.07635688,0.28690606,-0.41488445,-0.43506813,-0.87429166,0.40001616,-0.18446977,-0.1489547,-0.27495077
0.49865153,0.20311707,0.3452985,0.102215186,0.40111676,-0.16688779,-0.94663584,-1.1202756,0.39999682,-0.14205435,0.22303215,-0.40825856
0.4874798,-0.063077,0.31224132,0.14475517,0.4368958,-0.31609502,-1.2782729,-0.8569481,0.39999983,-0.13476528,0.51655906,-0.39376402
0.47596633,-0.2609688,0.1109614,-0.3041103,-0.07571196,-1.058165,-1.2910904,-0.031678617,0.3999998,-0.20205912,0.6887891,-0.16014059
0.9248369,-0.16628265,0.4000002,0.068245076,-0.21215096,-0.44977474,-0.39877838,-0.075447634,0.0012740319,0.12625149,0.5340213,-0.7437994
0.87630355,0.5725058,0.40000013,0.03669962,0.14921792,-0.55562246,-0.414194,-0.28190258,0.003760335,0.22083442,-0.1975646,-0.83269644
0.4972194,0.8889194,0.12112621,0.07800112,0.3571687,-0.34336764,-0.41388944,-0.5427138,-0.028403752,-0.12611619,-0.4208443,-0.13059197
0.48703364,0.5499753,0.21660638,0.044077057,0.28366366,-0.50481224,-0.58452356,-0.8067505,0.40000337,-0.07713565,-0.09106473,-0.32111248
0.5082204,0.20755583,0.3400999,0.0707623,0.41243795,-0.29395834,-1.0731516,-1.0561398,0.4000067,-0.08044442,0.24533759,-0.39560765
0.511109,-0.05404573,0.3329967,0.028624848,0.4046537,-0.42457113,-1.2823825,-0.8395094,0.39996332,-0.10410739,0.47439784,-0.34978166
0.52354544,-0.2241619,0.22744565,-0.19554725,0.13964829,-0.9102713,-1.4049251,-0.34835553,0.39998436,-0.15803309,0.6054007,-0.19784749
0.55741054,-0.41695935,0.4000002,-0.12687667,-0.26829538,-0.86670494,-0.8375506,0.25361824,0.14286834,-0.24384776,0.65895885,-0.039867982
0.9605143,0.3095736,0.40000013,0.085537754,0.037954237,-0.5953024,-0.34060785,-0.2539882,0.074944004,0.23076445,-0.06386333,-0.83348745
0.45262736,0.82755035,0.09887545,0.15573871,0.33649296,-0.3918868,-0.3828823,-0.5534611,0.0169524,-0.16335991,-0.37737095,-0.12173746
0.4603927,0.37692294,0.3322085,0.11708296,0.42297924,-0.33091286,-0.7998369,-1.0895033,0.39999953,-0.09803168,0.08866965,-0.32301694
0.4431611,0.058165256,0.38030335,0.1438637,0.44760814,-0.17810297,-1.1695397,-0.9992163,0.3971905,-0.07672159,0.39411128,-0.35605443
0.42475367,-0.17719743,0.25763333,-0.18550418,0.19692935,-0.8439816,-1.4205717,-0.3787329,0.3999945,-0.12496944,0.5996137,-0.22740781
0.36611736,-0.2755146,0.1810152,-0.29634935,-0.21656054,-1.1614677,-1.0611198,0.2608241,0.25825056,-0.23978722,0.639142,0.08140323
0.871218,-0.06283253,0.40000018,0.055695444,-0.18835509,-0.4994493,-0.25554058,-0.118901625,0.07249749,0.2713769,0.2587187,-0.678631
0.73668736,0.634649,0.40000004,0.06314045,0.09901416,-0.53228,-0.2629117,-0.3026783,0.075592324,0.25953212,-0.51573455,-0.58506453
0.5585378,0.8993166,0.18784623,0.09543974,0.3036831,-0.40634635,-0.29276326,-0.4887614,0.0018635502,-0.057051625,-0.68370885,-0.38165432
0.4462667,0.49341926,0.20872392,0.11492795,0.21056178,-0.5187558,-0.50672174,-0.8124528,0.39998025,-0.1869783,-0.054878067,-0.28707266
0.4749245,0.17210765,0.30349028,0.1578773,0.3452247,-0.3056711,-0.9681101,-1.0659671,0.39130697,-0.19559681,0.26148745,-0.35459492
0.45089614,-0.061576676,0.26858538,0.07740185,0.29116604,-0.47719213,-1.2242063,-0.75895905,0.39842662,-0.1880029,0.48767528,-0.30353612
0.4313329,-0.26281583,0.07346063,-0.32669434,-0.07500835,-1.0744011,-1.293295,0.02614597,0.39497086,-0.25985265,0.63337344,-0.045071587
0.89615315,-0.045108676,0.4000002,0.049886677,-0.14098677,-0.4954693,-0.19801916,-0.14857022,0.016432423,0.22265624,0.3157399,-0.7154712
0.7017786,0.85891795,0.356457,0.088502005,0.20764247,-0.48663616,-0.23098244,-0.36884922,-0.040502395,0.10459139,-0.6224849,-0.5761092
0.3124188,0.7434493,-0.01980402,0.11168903,0.33106843,-0.3835832,-0.25280318,-0.7130384,0.1736724,-0.20533763,-0.31639987,0.09200719
0.43488064,0.3607105,0.2782308,0.0911804,0.442929,-0.30967242,-0.8372101,-1.1211914,0.40000415,-0.06231002,0.111652434,-0.32627136
0.43893477,0.107879125,0.31767324,0.124458574,0.44138432,-0.21733902,-1.1131493,-1.0538838,0.39997667,-0.064032495,0.35627103,-0.3550461
0.4714496,-0.14011611,0.2598091,-0.077733554,0.23586296,-0.6876464,-1.3666941,-0.61588305,0.39999756,-0.11598096,0.56559396,-0.24956676
0.45979577,-0.36528602,0.34976694,-0.2131637,-0.29820007,-0.95101774,-0.92231476,0.21950398,0.18674451,-0.22965415,0.65505546,0.07065023
0.942652,-0.032073136,0.40000018,0.011417886,-0.067835025,-0.59330994,-0.30940643,-0.13939346,-0.016168432,0.23342398,0.32886443,-0.79718965
0.7654267,0.7616728,0.40000004,0.049758736,0.2060914,-0.5490388,-0.3268336,-0.31224015,-0.07157622,0.14773457,-0.44506058,-0.6753928
0.5436278,0.90843755,0.15236834,0.10955788,0.36336347,-0.39847502,-0.36516443,-0.47823575,-0.11542445,-0.08407447,-0.54786515,-0.26335266
0.4928335,0.39357653,0.3067659,0.11387118,0.42297137,-0.3350138,-0.7035183,-1.0395705,0.40000027,-0.10413371,-0.021958036,-0.3659384
0.49016604,0.07133943,0.3530604,0.20334972,0.44991428,-0.025926316,-1.0138426,-1.0431281,0.38017786,-0.09741269,0.32344037,-0.40864092
0.4438887,-0.13620165,0.22958381,0.04595275,0.41753954,-0.49103975,-1.3234795,-0.64850765,0.3999875,-0.09768089,0.5768436,-0.3454008
0.4104776,-0.29830775,0.10175963,-0.3153195,-0.18079005,-1.2000012,-1.1577542,0.16790897,0.3290216,-0.231135,0.6675122,-0.026434505
0.8809576,-0.09079062,0.4000002,0.07736775,-0.24735121,-0.48613608,-0.3660481,-0.1422636,0.08285218,0.24283706,0.40165395,-0.77620363
0.72798556,0.7622383,0.39526778,0.09214703,0.13999416,-0.52842796,-0.38633233,-0.3900435,0.034321874,0.091276556,-0.5052404,-0.6109876
0.3597364,0.7835424,0.02821528,0.080236785,0.2797738,-0.42788312,-0.37584922,-0.6787439,0.2010272,-0.13684139,-0.38635972,-0.05988843
0.4735021,0.34566608,0.30618143,0.07127163,0.31932262,-0.45878464,-0.7994671,-1.009024,0.40000358,-0.07625517,0.06391806,-0.40546408
0.4631097,0.11218654,0.30774117,0.11686102,0.31986144,-0.31106466,-1.0595279,-1.0215937,0.4000164,-0.102746144,0.31163678,-0.3868476
0.45411727,-0.111283794,0.23546793,-0.068702914,0.21896824,-0.71327907,-1.364152,-0.58132195,0.3999526,-0.12305356,0.52358973,-0.27565694
0.44508624,-0.22950956,0.057599545,-0.29432496,-0.08282836,-1.0541979,-1.3132383,-0.034512244,0.39998797,-0.19030175,0.6269018,-0.06610548
0.79806703,-0.23277012,0.40000024,0.057006545,-0.32393304,-0.43537137,-0.3336384,-0.0005328128,-0.04707118,0.15367103,0.5176781,-0.6568943
0.77756935,0.6450839,0.4000001,0.035474934,0.09843135,-0.53756386,-0.3607898,-0.27064583,0.0002357296,0.27473086,-0.45962822,-0.64318436
0.5831114,0.910344,0.21764617,0.039333064,0.32378814,-0.43088546,-0.39586052,-0.47267658,-0.0321404,-0.06488979,-0.7049754,-0.47429967
0.5035855,0.55225164,0.20287468,0.058211826,0.35317248,-0.47143957,-0.4503087,-0.8719914,0.34876665,-0.1715985,-0.10814987,-0.26814085
0.5211499,0.20308582,0.33839312,0.1000478,0.43261048,-0.18888006,-0.9461413,-1.1371034,0.39999935,-0.13359529,0.25670186,-0.40198272
0.49068,-0.111876726,0.2538124,-0.08925593,0.19088224,-0.72559804,-1.33244,-0.57347363,0.3999838,-0.15904886,0.5561897,-0.29453608
0.43737435,-0.2581501,0.14256932,-0.31535414,-0.1636889,-1.1555647,-1.2244358,0.14369068,0.38267255,-0.24188279,0.6340771,-0.0463617
0.9149541,0.17720933,0.40000015,0.05021207,-0.058118243,-0.54398006,-0.36335692,-0.17250334,0.05125044,0.41282132,0.017665593,-0.7192684
0.6214738,0.8714852,0.318879,0.0629478,0.26913685,-0.44141895,-0.36733824,-0.42165285,-0.028325101,6.5644367e-06,-0.640201,-0.5051863
0.4851314,0.5049281,0.19318393,0.078967035,0.33660656,-0.4040683,-0.51935637,-0.8471731,0.39999926,-0.18660201,-0.08599776,-0.331045
0.49483615,0.12921412,0.31383672,0.095619045,0.44269565,-0.25953892,-1.0902809,-1.0731003,0.40000024,-0.15017007,0.32142523,-0.44331017
0.46620363,-0.076411426,0.23008546,0.089466296,0.41956475,-0.37180072,-1.2463071,-0.745193,0.3999972,-0.17368147,0.5391422,-0.3688907
0.42746848,-0.23411019,-0.045574334,-0.3483729,-0.066402875,-1.1561263,-1.2975796,0.105957,0.39999774,-0.29585752,0.66051835,-0.03526735
0.8408306,-0.033730883,0.40000024,0.058417145,-0.15756817,-0.4790157,-0.34428263,-0.11314292,0.05959065,0.29998755,0.25633124,-0.7132447
0.7396466,0.8193902,0.39999998,0.04374745,0.19653612,-0.47716114,-0.3411019,-0.35815153,0.032146864,0.12798677,-0.62741625,-0.61203223
0.5200885,0.86929303,0.12775531,0.102571934,0.35313734,-0.29375258,-0.38884336,-0.54897636,-0.02889841,-0.14805987,-0.48331106,-0.20240192
0.457417,0.4665984,0.27473474,0.095510006,0.36774948,-0.43587214,-0.67360646,-0.91947734,0.40000218,-0.08617541,-0.018941423,-0.26773342
0.463699,0.11848999,0.34843606,0.14522195,0.41570398,-0.20736511,-1.0968379,-1.0155182,0.37255803,-0.0786652,0.32470742,-0.33121198
0.4538863,-0.1345792,0.25623187,-0.12772657,0.27362067,-0.8322265,-1.3780107,-0.4575211,0.39996922,-0.105725765,0.5702699,-0.25204295
0.42154545,-0.31821197,0.38052002,-0.233583,-0.3000375,-1.0625081,-0.9217446,0.2899639,0.16562106,-0.25737274,0.609982,0.0618826
0.9041872,0.32829875,0.40000015,0.083133094,-0.04440282,-0.5052458,-0.36571142,-0.25995004,0.11426576,0.29319894,-0.054268733,-0.78823954
0.5631325,0.9250474,0.20759438,0.10852059,0.2534706,-0.40107444,-0.37076783,-0.4799826,-0.00032472107,-0.06444191,-0.5512717,-0.27463856
0.50889593,0.4399746,0.28261223,0.09586968,0.31129915,-0.41977474,-0.53005487,-0.90606683,0.40000054,-0.10185754,-0.028471002,-0.32553464
0.5162179,0.085320346,0.37659138,0.11547318,0.44162443,-0.17792292,-1.0667825,-1.0935831,0.39078686,-0.07268838,0.3352173,-0.40046218
0.51023453,-0.14588313,0.29128605,-0.06907662,0.27834663,-0.6612001,-1.3866967,-0.6516642,0.39998588,-0.11204591,0.549827,-0.30193496
0.45923328,-0.30838147,0.11885656,-0.27739203,-0.14470749,-1.106271,-1.1689667,0.16946986,0.34374386,-0.22332783,0.6439344,0.005192638
0.9373019,0.1772713,0.4000001,0.06615351,0.05250246,-0.58949745,-0.3694443,-0.28570262,0.12009785,0.27531517,0.13594462,-0.8336595
0.63350064,0.9172907,0.234463,0.111017786,0.30242053,-0.39790094,-0.33368686,-0.50127745,-0.018036725,-0.025348105,-0.579437,-0.30805576
0.44426757,0.53287643,0.18473822,0.09013633,0.25425553,-0.4675719,-0.5606917,-0.87653524,0.4000078,-0.11877395,-0.07076387,-0.31397933
0.45598635,0.27294004,0.26939198,0.12561151,0.36405486,-0.2831051,-0.9418437,-1.0734347,0.4000015,-0.1134588,0.20406692,-0.3706565
0.45347476,-0.03865534,0.2541186,0.06940624,0.32385328,-0.43568304,-1.2642767,-0.7885055,0.39997572,-0.12342779,0.5046629,-0.31975156
0.4534906,-0.21556552,0.066174775,-0.30182853,-0.03745918,-1.047528,-1.3181964,-0.037985284,0.39999023,-0.20365074,0.6572632,-0.102451354
0.7882189,-0.17481962,0.4000002,0.059397873,-0.30170223,-0.41538766,-0.19977653,-0.019478848,-0.010562805,0.14023899,0.5114523,-0.62254953
0.78984326,0.65962076,0.40000007,0.055366613,0.059279073,-0.5359353,-0.26185894,-0.26726478,0.07519801,0.25417995,-0.3938438,-0.6980582
0.5612648,0.8847118,0.17605978,0.07967806,0.3325051,-0.40863767,-0.30270207,-0.5116779,0.021793155,-0.08574858,-0.6062318,-0.33479902
0.4730991,0.5055021,0.19450875,0.051949345,0.38303006,-0.39196184,-0.3954185,-0.9014846,0.39999533,-0.18382101,-0.08367955,-0.24936473
0.50589883,0.19171989,0.29876894,0.12719645,0.44777453,-0.13957116,-0.92031133,-1.202632,0.40000424,-0.16009544,0.2530453,-0.34692913
0.47155908,-0.04727914,0.24832281,0.16829427,0.46631384,-0.25239557,-1.213166,-0.8339461,0.39998218,-0.15048543,0.5011605,-0.3110612
0.45691204,-0.23070471,0.065082684,-0.25451785,0.06773987,-0.9591489,-1.3805268,-0.2095503,0.39994475,-0.22732791,0.63807243,-0.08077599
0.75849867,-0.3009924,0.4000002,0.059381712,-0.42449087,-0.35011798,-0.16077854,0.03270744,-0.0944749,-0.00043654625,0.5973819,-0.56087124
0.913962,0.33319902,0.40000013,0.04799055,-0.075796865,-0.5008943,-0.24126217,-0.24911717,0.11205359,0.32856306,-0.09835353,-0.77052575
0.63041186,0.846492,0.3478479,0.057852227,0.16748433,-0.45359364,-0.24953772,-0.43380725,0.06516648,0.065393485,-0.67273575,-0.55894065
0.40121767,0.78375846,0.025841907,0.07689361,0.3325656,-0.36153123,-0.2782734,-0.64484614,0.0678346,-0.21181437,-0.42731485,-0.1186796
0.4846313,0.47475815,0.27543703,0.07129462,0.39033642,-0.4239512,-0.6406458,-1.0116589,0.40000296,-0.16466449,0.0060197734,-0.30107012
0.4984039,0.21350162,0.37074485,0.10966593,0.4370999,-0.20266327,-0.97399783,-1.1674986,0.39999864,-0.14190511,0.26628774,-0.3755941
0.47988465,-0.003544763,0.3659167,0.08132063,0.43877304,-0.34641933,-1.2455931,-0.91940504,0.39999962,-0.121956475,0.4836446,-0.36421555
0.48268083,-0.22292106,0.2659639,-0.22805528,0.12625538,-0.8636457,-1.4381613,-0.3549247,0.4000007,-0.17080642,0.6341426,-0.18914105
0.48142117,-0.34983104,0.27243903,-0.26361188,-0.23687632,-1.0496355,-1.051593,0.3049586,0.25797573,-0.3039372,0.6365169,0.11683473
0.9573638,-0.039326143,0.4000002,0.01984415,-0.09140904,-0.5146088,-0.30090708,-0.10584044,-0.05553107,0.24085407,0.3669889,-0.7667667
0.8265289,0.6454756,0.40000007,0.036886644,0.13421689,-0.47964248,-0.32898006,-0.28178602,-0.046104632,0.25513035,-0.40510902,-0.7068583
0.5478318,0.899743,0.13914183,0.07686168,0.32014066,-0.33434582,-0.38675907,-0.48106283,-0.07376651,-0.10034685,-0.57200205,-0.3173998
0.4392036,0.6116326,0.1791061,0.06171076,0.32489958,-0.41511706,-0.4427919,-0.85608464,0.37259415,-0.11925463,-0.1047668,-0.2332096
0.49174398,0.28966704,0.37093022,0.06395663,0.42415312,-0.3269199,-0.9592366,-1.1115562,0.39765432,-0.071433865,0.212111,-0.36530682
0.45261052,-0.017070355,0.36785883,-0.004083524,0.34116092,-0.5068567,-1.289898,-0.8605523,0.39996752,-0.06678597,0.4790854,-0.3218708
0.4522015,-0.21053827,0.22948594,-0.26294273,0.06834518,-0.98427355,-1.3941809,-0.19471492,0.39999667,-0.13536844,0.6156517,-0.11523575
0.7070315,-0.33241922,0.4000002,-0.0043599657,-0.30297777,-0.41527253,-0.23121642,-0.042926222,-0.063053384,-0.017065978,0.6672241,-0.44428372
0.7495417,0.8440655,0.4,0.02814207,0.1422617,-0.48009905,-0.21873586,-0.4636343,-0.028964441,0.09412667,-0.56733537,-0.6648258
0.3678976,0.7038286,0.038187325,0.03793272,0.25850844,-0.41777495,-0.1897104,-0.79317874,0.17415692,-0.18802145,-0.22476268,-0.068485096
0.45781368,0.3290848,0.30863115,0.015968516,0.3745554,-0.3836536,-0.8789117,-1.0919489,0.39999536,-0.09542482,0.15870947,-0.3174166
0.44703332,0.080568686,0.32427537,0.019988881,0.37170243,-0.40685588,-1.1989821,-0.9579306,0.39999983,-0.10098977,0.38488653,-0.30455858
0.47746387,-0.1790019,0.2574486,-0.18494359,0.06743214,-0.6716978,-1.3421321,-0.4044924,0.39997047,-0.15965034,0.5645737,-0.13419704
0.44916776,-0.30591685,0.32328406,-0.20444591,-0.24035777,-0.88771135,-0.8857199,0.25873214,0.21074069,-0.28928015,0.6054655,0.18367872
0.9379256,0.15413967,0.40000013,0.006819374,-0.020584077,-0.506197,-0.18107238,-0.25099647,0.10917907,0.36472988,0.07281035,-0.7900615
0.671486,0.8156063,0.3086037,-0.0016730803,0.23740083,-0.4523879,-0.16584271,-0.43882874,0.062720455,0.093940824,-0.7152236,-0.55711895
0.40310374,0.7368409,-0.028590012,0.04219593,0.410803,-0.22812544,-0.20984516,-0.66433877,-0.013545242,-0.17648388,-0.5295299,-0.3165765
0.4292209,0.74605554,0.09309553,-0.018675623,0.39129072,-0.27265406,-0.30025524,-0.9287971,0.3394238,-0.28362828,-0.055479288,-0.12826855
0.47421786,0.664991,0.24089256,-0.010849083,0.39939156,-0.17592895,-0.5764167,-1.1724153,0.39999822,-0.2794298,0.44365475,-0.24993883
0.3475798,0.4741854,0.3361066,-0.010961922,0.39512098,-0.10222112,-1.0780448,-1.062027,0.39999962,-0.21863097,0.6111962,-0.1386639
0.27801436,0.24353696,0.37426785,-0.16810216,0.38907805,-0.67086786,-1.3912373,-0.6342696,0.4000005,-0.23286098,0.6536115,0.058609728
0.25011665,-0.035873584,0.4,-0.33669677,-0.17825723,-1.1642315,-1.0913001,0.26087594,0.23413229,-0.41756505,0.59551275,0.39509097
0.98973507,0.25018746,0.40000013,0.0552904,-0.11207633,-0.443037,-0.23475833,-0.1421437,0.0021196369,0.22617355,0.027871985,-0.9197999
0.6424295,0.86286634,0.32229057,0.052249804,0.21604685,-0.4391009,-0.24031486,-0.38296288,-0.017492075,0.02960708,-0.6476867,-0.6169409
0.36032948,0.66775304,0.05473844,0.10826732,0.3571826,-0.2781307,-0.32158625,-0.5929938,-0.0013801109,-0.22918633,-0.3219746,-0.13492817
0.44414186,0.32155922,0.32540432,0.13296586,0.40485415,-0.24688973,-0.7179711,-1.0833927,0.3999976,-0.16741255,0.0487055,-0.30361548
0.42018676,0.016389951,0.34727496,0.16813587,0.4459447,-0.13331114,-1.1092654,-0.97531146,0.37988496,-0.11343216,0.3958813,-0.37744272
0.42578602,-0.20451425,0.21747434,-0.20566182,0.1868522,-0.83475304,-1.4325266,-0.33148313,0.39999893,-0.1708427,0.59953517,-0.23189569
0.35919544,-0.32309932,0.14811362,-0.26538512,-0.26824817,-1.1157837,-1.0310086,0.23719594,0.28574622,-0.28529254,0.6382036,0.069595136
0.96832335,0.22450547,0.40000018,0.04738269,-0.12760414,-0.5343244,-0.25064325,-0.2550505,0.013433212,0.17966826,0.1910919,-0.8820076
0.65610814,0.9215842,0.31490043,0.09660576,0.17599028,-0.4879246,-0.25601918,-0.41606906,-0.11116286,-0.008914176,-0.57776546,-0.54923975
0.4179993,0.6201085,0.1158664,0.14087656,0.35343605,-0.42374846,-0.3780419,-0.93276215,0.40000454,-0.13883457,-0.18716702,-0.17713541
0.50205344,0.299615,0.31632397,0.15008627,0.44008476,-0.30346394,-0.8342943,-1.1825149,0.40000042,-0.087973356,0.1530407,-0.3495244
0.46857426,0.012814592,0.3103337,0.11927222,0.39502385,-0.4151169,-1.221093,-0.90160286,0.39998394,-0.07037157,0.44704702,-0.3574668
0.49251693,-0.24091832,0.16285045,-0.2749038,-0.047293283,-1.0154204,-1.342472,-0.11593937,0.39999297,-0.15237638,0.6406168,-0.14021987
0.5171659,-0.35274425,0.4000002,-0.018254198,-0.4190462,-0.6326818,-0.5534032,0.16465086,0.014241449,-0.19373353,0.70362484,-0.19962035
0.9037074,0.3986173,0.40000015,0.079886034,0.016620163,-0.5941024,-0.28304237,-0.28770047,0.046962388,0.26762235,-0.09766296,-0.7618826
0.6344663,0.99176246,0.27310398,0.12811735,0.24963687,-0.49049264,-0.29453638,-0.44623432,-0.06302525,-0.005968745,-0.6584731,-0.43716842
0.39635286,0.6611824,0.06381456,0.15470114,0.32899785,-0.41049543,-0.31678385,-0.8629855,0.35110807,-0.09432427,-0.16502786,-0.22125182
0.49454212,0.33727115,0.28262848,0.122385904,0.39577103,-0.3159958,-0.79267013,-1.1705663,0.40000376,-0.05952136,0.17600028,-0.3715414
0.46500874,0.010764304,0.29053518,0.06716866,0.3648773,-0.38164958,-1.2476319,-0.933127,0.40000015,-0.049663216,0.48623437,-0.34504905
0.49552783,-0.17840388,0.19595559,-0.22021188,0.1269453,-0.95234823,-1.3953439,-0.30530155,0.3999697,-0.11647979,0.6222252,-0.17343704
0.6414472,-0.3890994,0.40000015,0.052080348,-0.39803287,-0.57751006,-0.48956403,0.14752413,-0.016796868,-0.089405194,0.6850514,-0.24626967
0.8547751,0.50385827,0.40000013,0.059269927,0.056880485,-0.5804398,-0.31038678,-0.2959954,0.10164305,0.23052299,-0.23482025,-0.7282701
0.59532243,0.8975167,0.23418632,0.11441047,0.2820394,-0.4129896,-0.30400753,-0.5060349,-0.01525798,-0.09242879,-0.57626086,-0.4024568
0.45382878,0.5408167,0.18957838,0.07904214,0.20430289,-0.50229526,-0.4100981,-0.8087274,0.40002617,-0.14317131,-0.033440605,-0.2862916
0.4833486,0.2502196,0.3167758,0.07237712,0.3289791,-0.46803316,-0.9674993,-1.0336804,0.39999843,-0.11080451,0.26873875,-0.38143143
