ancorasir/BennettWheelLegRL/experiment_data/2023-12-27_22-47-53/joint_torque_env21.csv
Joint_1,Joint_2,Joint_3,Joint_4,Joint_5,Joint_6,Joint_7,Joint_8,Joint_9,Joint_10,Joint_11,Joint_12
0.0,0.0,0.0,0.0,0.0,0.0,0.0,0.0,0.0,0.0,0.0,0.0
1.8854959,-0.060307264,-0.09341788,-3.5559251,4.7519746,-18.533823,1.0787663,-0.98449075,4.3514605,2.9338193,-1.6995473,-0.8805711
1.2122579,0.2991191,-1.0979394,2.7229583,-1.3756571,12.375731,8.5388365,-8.642284,-12.013801,1.0264828,-0.986519,-1.0437338
0.6242412,0.50867033,0.20845586,-8.100023,-3.4479356,6.6642838,-1.316635,1.6469326,0.69485974,3.025191,3.391953,8.400372
-5.0158687,-3.1235955,-2.4190524,-0.061963677,-9.514763,9.916822,1.1803217,-0.35768571,2.9547029,5.8927274,15.7501,20.0
-3.2010093,2.2475305,1.1546967,-6.2304344,-8.677333,-1.0210172,-0.5421369,-1.1278694,4.2618675,2.421042,4.963026,20.0
-3.074251,11.363256,4.0918875,-7.7801857,-2.0232415,-10.713253,-1.9217465,3.8433244,8.060261,0.30352736,-0.77607065,20.0
-4.0249224,11.132134,-10.740036,1.2410169,0.26648474,-0.8272079,-0.10504055,-1.8302658,1.162122,5.9890966,-0.21939176,7.3220625
-0.19620752,-2.9426603,10.020226,2.033379,2.5819256,13.378769,5.440712,-5.2063594,-3.820806,-1.2013155,1.6713824,-0.24574798
-1.6651406,-2.995737,-3.6709313,-1.8296679,-1.4140863,2.4666677,-1.8539879,0.34574032,3.564548,-0.2179184,3.322267,1.7832174
-11.558199,-9.154671,-7.390176,0.6579591,-6.6856155,3.7999084,0.85384464,0.08365369,2.2814002,-6.2651186,8.302557,12.532608
-6.372672,1.4450948,-4.64877,-1.9532684,-5.7166324,-4.3348656,0.6505642,-0.11543918,2.5855455,-5.053693,2.108621,10.837151
-11.02669,-0.70202637,-4.8567877,-2.4669077,0.5572916,-6.7467546,-0.3028133,3.79464,3.8214428,-9.573613,-2.969549,9.73326
-0.534847,0.34648728,6.781205,1.1560478,0.30442667,0.3331708,1.980639,-1.8284097,-1.7903286,-1.5987551,-3.3871148,0.107093096
0.0014973879,-1.6009226,10.155822,9.616167,2.9418395,16.42367,13.796791,-6.7958317,-4.0138764,0.18009682,2.4928474,-0.3914674
1.7152746,-2.2554681,0.9735906,7.449141,-0.023379564,9.127119,10.589198,-3.1646583,-0.6994114,1.3752928,0.89406204,-0.6430634
-18.331455,0.2600665,-12.457016,0.4441784,-6.7100935,-3.5583184,-0.2727619,2.1299021,-6.376604,-5.654394,5.3344855,17.562056
-7.9986644,-1.7674491,-3.8883955,1.313361,-6.7416215,-4.237246,0.88630986,1.0517619,1.0505697,-2.875996,4.459275,10.765467
-8.612614,-0.2366265,-3.3121734,-0.99513423,-4.720435,-2.0461984,-0.66793764,-0.025676966,1.1526484,-5.243956,1.5895435,12.203496
-10.802203,4.039947,1.3661207,-0.05296421,1.3598154,-0.21516395,0.016550958,-0.57266855,0.73534924,-6.00686,-5.7471895,9.684144
-0.6205609,4.4029884,-9.389334,0.24661875,0.99946856,-1.7727096,0.09852123,-2.2360482,2.3036518,1.2070675,-6.2713413,0.25111938
-0.112401366,-1.7669361,8.494368,4.922984,2.150449,16.259481,10.748698,-5.69275,-4.2135897,-0.60961866,2.1533785,-0.66030353
1.3397957,-1.4911478,0.41014373,5.4575686,0.34420013,7.7427225,6.069887,-2.7287693,-4.3019457,1.8937377,1.2404261,-0.37900066
-0.3780527,0.02853465,-2.6695747,3.2720847,-5.1016126,-0.19266832,5.741417,-0.91698396,-0.7021954,-0.2937348,0.55382967,0.7362678
-14.742883,-5.8285465,-11.631258,-0.88688624,2.1228023,-0.39814508,-2.3443828,0.83477616,-7.6164255,-7.7559543,6.476582,15.137068
-8.773007,-3.9115014,-6.911268,1.2852048,-4.1126986,-0.24897829,0.66468525,0.510139,0.31653306,-5.4336414,4.6385202,7.8640475
-9.265213,-0.12499046,-7.0600038,-0.89405847,1.0199741,-3.6448154,-0.041461587,-0.14953828,0.91722643,-8.237249,-0.009577751,9.933026
-9.872231,1.7625585,-1.617995,0.33959174,1.375356,-0.27471304,0.9027951,-0.24624586,1.3702388,-6.6605883,-5.8726177,8.484925
1.7318969,-1.080494,9.905934,1.5305758,-0.1055305,1.2395878,4.19086,-3.0234008,-3.0077593,1.773543,-0.7192452,-4.591474
-0.15320748,-1.1411128,13.182627,6.1945276,4.9531894,17.27514,13.867292,-4.627699,-11.677119,-1.3981936,2.2910843,0.17486525
0.6134565,-1.519233,0.37719828,3.3475556,0.94034374,8.269882,5.0060515,-3.1441205,-2.0620685,0.8589661,0.4880314,-0.15785658
-0.58657265,-1.8252511,-1.9507592,0.86030126,-6.4645395,-2.1066685,0.56689644,-1.364494,5.4055996,-1.2747571,0.88494444,2.5874588
-12.651442,-4.1836414,-10.525408,1.5782514,-3.3255816,-1.1640509,-1.4749899,-2.0239232,4.192594,-6.256054,6.1778173,12.328665
-7.490472,-2.091268,-6.1136622,0.5810155,-6.547411,-0.536307,0.85628366,0.61049724,-0.031173244,-4.369407,4.136423,9.516858
-8.3150425,-0.2234348,-6.184351,-0.37683392,1.700321,-1.516619,0.08197999,-0.60058594,0.19834788,-7.786486,0.096838474,9.2198715
-8.559577,0.8984407,-0.798929,0.17013001,1.2050936,-0.13660765,0.26331598,-0.6731968,0.59812766,-5.319894,-5.6421146,7.647087
1.4515002,0.5331499,10.018032,2.385993,0.33787024,0.96673775,5.5268955,-4.252055,-2.9794707,2.3583946,-0.13077664,-6.2609243
-0.9394803,-0.09036636,10.805905,7.437312,3.0059237,19.185541,13.718983,-7.3803816,-6.705171,-1.354912,1.2684693,0.18645144
1.0361462,-0.9646549,-0.0571398,5.69487,2.22129,10.863747,9.257211,-4.6695414,-1.4260542,1.1374435,0.99519086,0.26375604
-0.0876565,-1.5845299,-1.4348598,4.05853,-5.5591474,2.32029,6.536515,-1.8257623,0.5970892,-0.1744802,2.0682936,2.1397955
-10.353784,-6.810849,-6.923256,1.3637364,-6.093193,1.4581379,-2.4630105,-0.99513006,2.5656521,-3.8893147,5.9318843,11.853207
-6.675839,0.1701361,-4.8440723,-0.05098909,-4.3602533,2.9435048,0.08324838,-0.66947126,0.653427,-5.022351,0.60854304,9.349
-9.221788,0.9947603,-3.850799,-0.39501333,1.4663203,1.1620162,-0.06790483,-1.4088278,1.913765,-7.8845763,-3.5008724,9.33135
-4.0766993,4.8671937,-1.886198,-0.3908788,1.1056542,-0.20375708,0.24180984,-1.6754737,0.8871194,-2.2498388,-7.379802,5.155732
-1.3669965,0.10327339,14.800583,7.6326857,4.6771955,19.009554,17.879122,-5.0340424,-5.7176785,-2.2677777,1.777442,1.3142371
0.9704399,-1.2512975,0.2244546,7.3254895,3.3144531,10.538079,9.217253,-4.8351755,-2.7108073,0.82924795,0.72811127,-0.06958437
0.76698995,-1.3939569,1.9128039,3.381477,-5.372389,2.2229328,6.8329477,-1.3007469,0.3713246,0.4536605,1.1883657,-1.5869792
-11.344704,-3.0885932,-8.195492,2.8540704,-5.227416,5.0529575,0.60206056,-0.25978065,4.4528637,-4.1443353,7.789685,11.829702
-6.757332,-2.3141897,-4.4722667,0.47270367,-3.9467788,0.3045326,0.10941672,-0.30228138,0.5119719,-3.7647214,5.800233,10.377336
-8.395508,2.8184109,-3.9988909,-1.0380433,-0.3115703,1.6299324,0.07386947,0.86847043,1.4361331,-8.226938,-2.50804,9.225586
-8.8674135,2.7149243,3.553226,0.29194045,1.2308831,-0.11787844,0.66853094,-0.79607105,0.18381251,-4.7998548,-8.988827,7.6175213
-0.61490726,-0.8149929,16.014912,11.701605,0.9065409,20.0,-4.7311735,-1.0934196,3.4768226,-2.0812435,-1.0059556,7.084651
0.7215884,-1.1957169,3.4457116,6.216183,3.121583,13.289761,10.629447,-5.115387,-2.2578697,0.43946266,0.8173895,0.08776307
0.6582222,0.010863692,-1.5128183,4.916838,-1.4857243,5.6966863,7.0860324,-3.3714995,-2.8784595,0.6869767,1.0706546,0.39836907
-15.207717,-7.861373,-8.918522,-0.62999547,0.41342258,0.0208807,-8.1562195,-4.1970263,6.3696017,-10.463818,1.8344517,16.114674
-8.02401,-0.8811109,-6.7528853,2.056152,-2.7303457,2.7687285,0.93710256,0.7698722,0.89647305,-4.4541736,4.7653294,8.884387
-8.561661,2.128831,-0.4264151,-0.20288754,1.0490252,0.6827085,0.43593907,-1.0928469,1.1446441,-7.2118635,-6.2457128,4.8580475
-3.251359,0.16423512,17.29952,6.1045194,1.253092,18.75273,14.679532,-2.1306484,-3.2927864,-2.0063167,1.1428356,3.3336644
1.8226271,-1.7434678,2.0186155,8.032827,0.7260878,12.436823,10.877738,-3.1145878,-3.1013117,1.6647282,1.5183353,-0.62425625
-0.27849507,-1.143956,2.823772,4.662404,-3.617333,4.0959306,7.3544936,-2.518158,-1.942935,0.0819335,5.198387,-2.3734655
-14.970056,-7.079694,-8.922976,0.03705585,-3.7128425,-3.275229,-1.8335221,0.8462987,-5.227861,-7.5817566,4.966985,13.4754925
-8.141536,-1.0618055,-6.1845317,1.0801175,-4.0136547,1.0693793,0.64408207,0.5627425,1.3235806,-4.7894053,4.487418,10.584014
-7.838383,-0.51268435,-3.255433,-3.1820238,-0.095017195,-5.1551147,-2.0016084,3.2230914,1.5643687,-5.9257555,-1.6663473,9.112361
-11.107927,1.6718748,1.7057544,0.25013232,1.7658525,0.5344615,0.095134616,-1.3110828,1.1593035,-5.9736967,-9.658356,6.602663
2.9363837,-2.2276537,15.332414,1.5027533,1.8211375,-3.4931355,0.19327927,-4.5126514,6.8278675,0.4293332,-4.3764215,14.001275
1.1371821,-1.8106897,4.216167,6.065211,1.7881818,14.855207,9.052813,-4.0766354,-5.3905272,1.2180799,1.5237389,-0.70370066
1.6108134,-0.7867765,1.8118007,4.9989886,-0.3033682,8.243327,7.217937,-1.6847391,-6.2438836,1.0483139,0.2944427,0.0048032105
-7.204529,-3.0857182,-6.059127,2.1617515,-5.2738004,-1.9131322,-0.36623895,1.3868878,-4.6452484,-0.40840244,2.140963,-5.6390066
-7.129704,-3.7784886,-6.982832,2.8439236,-5.1449714,0.59634733,0.81288266,0.5880176,0.42191768,-2.0640879,7.474738,9.586201
-6.6395206,-0.79060626,-6.249641,0.25741407,-3.8495765,1.5399082,-0.025905132,-0.81562924,-0.029174209,-4.3601937,3.857576,10.761954
-9.352974,0.61191636,-0.6960069,0.39903116,1.3428204,0.61746454,0.17165326,-1.4049971,1.3077624,-5.7536297,-5.3766627,7.236103
-0.376881,3.5358825,-6.8688216,0.15831447,1.2920921,-1.2849896,0.7008982,-2.2497954,2.3285432,0.36014462,-8.007981,-0.17976618
-0.0937866,-1.428906,6.470356,4.3260527,0.26476192,12.266378,6.7357616,-3.3767443,-4.932867,0.33797944,0.9738555,-0.088160634
1.5312378,-1.1469326,0.4650241,3.6786885,-1.0559933,7.3923264,6.0685983,-2.3673027,-4.7605023,1.3561741,0.28174925,-0.08540684
-8.679431,-1.672277,-7.1693864,0.9993366,-1.3178673,1.2748122,-0.77273417,1.696995,-4.020974,-0.7648735,1.0159111,-5.788128
-9.327951,-5.160667,-6.5948505,1.7149146,-5.09247,0.76046896,0.65111876,0.9475554,0.44423077,-3.3262308,6.2829447,9.764827
-7.887039,1.3202318,-4.9582763,-0.4080882,0.78990555,1.517751,0.26461053,-0.95896935,2.0995247,-7.337061,-0.65258634,7.9529743
-11.179518,0.85865873,0.9497737,0.044294834,1.1691709,-0.2783606,0.16219306,-0.35075045,1.3157418,-6.5532446,-8.791346,7.773439
-4.229123,1.7956276,15.880469,8.656133,3.582397,17.77016,0.6669388,-0.51339245,-1.7500396,0.858511,3.0752478,-6.574344
1.5338268,-1.7789185,3.2640722,5.641082,0.9879844,10.283067,7.7966866,-3.6447625,-4.8105435,1.0331995,1.3998919,-0.6872295
0.7592176,-0.33994588,-1.970855,3.8925748,-2.8550029,4.981782,7.107081,-2.180951,-1.7115064,0.73973763,1.4813818,0.9772899
-14.9932575,-3.4177086,-10.114801,-0.018821597,-1.4214522,1.4820371,-1.5692085,2.1038506,-5.9223537,-10.9635,-2.5077481,15.698143
-9.562634,-3.5378935,-8.385147,1.0821579,-3.6453662,-1.0949069,0.03366685,0.22430795,1.9486822,-4.56782,7.7193003,10.50635
-7.4765444,-1.4407295,-6.315751,-0.42547107,0.7306411,1.0095956,0.3998084,-0.75505066,0.35213646,-8.616746,1.0149328,6.0414033
-9.540577,4.3544707,-0.5694859,-0.114663124,1.0289629,0.72210026,0.1040746,-1.1301575,0.47536272,-5.919209,-8.456135,6.8482614
-2.6824937,0.07411122,16.461681,7.66834,-2.6430032,20.0,-2.6897655,-0.9552641,4.77122,0.55858135,-0.87056756,7.801486
1.5535715,-1.7591355,2.652806,4.958973,1.5621128,11.899774,6.9577894,-6.0391693,-7.301734,1.71365,1.155086,-0.64414227
0.9677074,-0.9852855,1.590913,3.3139002,-2.3760676,4.009719,5.84429,-3.2679796,-2.6401794,0.66876423,0.2609074,-0.459805
-14.397054,-3.4275568,-12.171618,0.2796933,0.7272737,0.3128066,0.001842022,-1.2169358,4.885421,-8.539031,1.9472342,14.449064
-10.013898,-0.38425457,-7.458952,-0.27993524,0.7518758,0.2693646,0.3247478,-0.48441768,0.20784749,-9.020732,1.3001618,9.463275
-11.328444,1.5751449,-3.162012,-0.04491639,0.90929085,0.8788214,-0.41638568,-0.9831629,0.20437372,-7.975444,-4.3381553,7.759886
6.2957354,-1.3264058,11.358824,7.4227858,1.997499,-7.1677322,6.9645376,-6.4415436,4.832443,0.9951191,-5.0104303,7.84032
-0.55467105,1.9077582,5.3325677,5.7324605,3.6825564,18.244688,11.446182,-7.1362123,-5.9380646,-1.0024759,-2.171175,2.3838243
0.68039286,-1.384023,-2.1555948,2.8798456,-1.3883514,6.401142,4.130922,-2.2964048,-4.3894053,-0.69951606,0.74757934,1.9827411
-10.604653,-5.203828,-6.9167156,-0.17029333,0.8042283,-0.33982503,-1.254385,1.2617671,-6.773391,-9.774693,-3.688664,18.118769
-8.431771,-4.2825184,-5.3903556,2.4754508,-5.20525,1.1778135,0.29179955,0.8398436,0.4675941,-0.36016843,5.5949073,11.675994
-9.618342,2.6088748,-4.763772,-0.9270539,1.3371451,1.257853,0.18681335,-0.90102005,2.0045462,-8.987349,-4.7613626,8.634636
-4.64769,4.8085566,-3.414421,1.8058066,1.3554316,-0.9502414,4.800911,-0.61165094,3.155365,-4.727552,-9.108621,4.7962027
-1.3701645,-1.6172705,9.262026,8.965693,2.261673,18.042946,10.459119,-5.73499,-7.060686,-1.3566138,1.5144048,0.48313355
1.6720146,-0.67855227,0.9851644,3.2639196,-0.08340716,8.022423,6.8168097,-4.13517,-5.1473966,0.8849509,0.5048212,-0.28020012
-8.435145,-1.0355518,-6.972311,1.2948381,-5.309512,-1.6602355,0.7196514,1.285147,-2.922152,0.80894303,1.2580161,-4.119692
-9.4498625,-5.5826426,-7.8457685,3.2032144,-5.6046762,3.2780542,0.9966414,1.0313208,0.9241717,-3.4718857,8.4382715,10.555638
-7.2995853,-1.890217,-5.2360725,0.20591468,-1.6206255,-2.4487429,0.36901307,0.095181465,-0.0830065,-5.1705565,3.001003,8.113283
-8.95058,1.0693283,-2.4011698,0.055250645,0.88675714,-0.29616237,0.20350897,-0.6928067,0.41335773,-6.431617,-4.3981824,7.8772173
-5.0776486,4.1627574,5.9529686,0.58349377,0.27056384,0.2490344,1.9937396,-1.1284764,-1.0881674,-2.1345124,-8.696481,3.5788949
-1.8096986,-0.6508899,15.993437,8.510057,5.365575,18.860579,15.183922,-7.568678,-4.696349,-1.1248596,3.236598,0.9081397
1.3748238,-1.412998,1.0589787,4.5503244,2.3411427,10.270292,8.1656,-5.765801,-2.4204698,0.80183923,0.85658836,-2.2935028
-0.9597087,-1.0006571,-2.099918,2.854134,-6.617912,-1.510486,-0.22179365,-2.629675,7.901252,-1.1143692,1.6215229,2.9474835
-8.4095125,-1.4451005,-6.785814,1.5020149,-4.864389,-1.0013287,0.6733012,0.91920567,1.1431491,-4.2246766,5.0542326,8.799053
-7.4319577,1.4039521,-5.4196,-0.43957043,1.3085699,0.69751287,0.45818365,-0.88068175,0.23904577,-7.885025,-1.9065413,6.787356
-9.676327,0.30841732,0.7414053,0.16955459,0.7991679,0.00583148,0.18747997,-0.39668226,-0.16417661,-5.279967,-6.7529573,7.2220545
-0.74505043,4.377164,14.49652,6.9642467,3.3500648,20.0,0.27043247,-2.5020676,10.285189,0.6002283,-4.259869,8.183987
0.79188967,-1.1761031,5.232219,4.857028,3.3696828,11.177438,7.3271685,-3.3419502,-4.46741,0.49728084,0.46921492,-0.24441862
0.40849268,-1.3530445,-1.8227977,2.8550308,-3.1259851,5.8772416,4.5804863,-1.8683935,-3.0738902,1.2417338,1.4541508,0.65418077
-18.97493,-1.7039156,-14.651909,0.262417,-0.70571816,-1.3142995,-2.2140853,-0.11297631,5.5959587,-8.031332,4.375351,14.318361
-10.453204,-4.6092424,-8.224734,2.976975,-5.54174,1.954094,0.9788902,1.1375258,1.0800154,-5.9858027,7.7562213,9.919292
-7.1029725,0.3665545,-3.9402547,0.21903896,-1.2850362,0.614707,0.39674687,-0.5794363,0.45432344,-4.684334,-0.27026057,9.531536
-10.37883,1.9879487,-0.42802,-0.44577456,1.0312304,0.17864907,0.08742063,-0.5812118,-0.2518358,-7.011132,-7.102425,8.070367
-4.66552,5.635952,-2.6072369,-0.4228459,0.67746687,-0.18198192,-0.16491127,-1.5737782,0.88881445,-2.5292103,-9.473738,4.940939
-1.0580271,-2.2314157,10.799338,7.834073,1.6543622,19.489191,10.813273,-7.2071333,-4.663615,0.026658714,2.832436,-0.36808002
-0.11538565,-0.28887317,-2.2150857,4.292093,0.7955005,9.081399,7.878293,-4.196022,-2.542988,-0.8164883,3.00561,2.4831548
-11.006165,-1.401236,-9.4639,1.0292376,-5.5831575,-1.1546558,0.22393101,2.2362213,-5.1673803,-6.204668,2.203561,13.109993
-7.6194882,-3.7424335,-7.3167567,2.7109847,-4.7593007,-0.3733796,1.1689522,1.0137157,0.4595072,-4.9921103,6.5299683,8.3114195
-7.4246573,-2.678825,-3.577052,-2.9752402,-5.2429204,-6.1337795,0.42239428,-0.2810285,0.38110715,-4.312051,-0.17080963,9.613004
-9.315773,1.2520683,-1.322448,-0.07770181,1.5049434,0.9345107,0.06330788,-1.4008965,2.8937895,-7.2151613,-4.105188,7.7731667
1.847539,7.319716,-15.127519,6.347366,1.7242641,-5.596738,8.004133,-5.867706,6.9203215,1.2657213,-4.9878674,2.434857
-0.16692007,-1.1264877,9.105493,6.4262857,1.7824776,15.421064,10.671679,-6.621413,-3.5349002,0.21852143,0.7791543,0.22053605
1.0235076,-1.3386695,-2.4531517,5.0629163,-0.9225617,7.062619,8.0729475,-2.3958235,-2.5179896,0.7829355,1.2752557,0.48185658
-10.637884,-2.8243632,-5.0256166,0.338369,-0.8324795,0.41155958,-0.86915004,2.873123,-6.699081,-8.998376,-0.83347344,15.802086
-9.180445,-7.554838,-5.103177,2.810136,-5.449789,3.7734942,0.24515104,0.7408891,0.35960636,-3.6945472,6.676032,10.475012
-6.548926,2.2864065,-2.7817438,-0.90401447,-0.5006207,-3.4029925,-0.83224463,2.3683243,0.5264334,-5.511695,-1.9067154,8.06663
-11.500937,4.1152077,-2.0569234,-0.4005915,0.8825256,0.9333358,-0.40722728,-1.1113477,0.53096086,-8.558601,-5.1053963,8.376068
1.1564798,0.06611252,14.359872,1.9597087,1.6089331,-3.3071547,1.5709686,-3.76019,7.555575,-1.1852884,-4.974885,14.3508835
-0.4141879,-0.73659754,6.5762887,4.602904,1.1963899,15.156221,9.9976015,-6.45899,-3.9945388,-0.57063514,0.49678755,0.14510146
1.6425222,-1.0078063,0.5773909,6.446629,0.65237117,10.223926,8.123881,-2.9698663,-3.9719346,1.7002105,0.786538,-0.23390794
-11.375303,-2.117016,-10.221781,-0.31538108,-1.3067225,1.0161717,0.1434344,2.3864741,-6.8656464,-10.279487,0.8278744,13.971453
-9.35195,-2.1764388,-7.582311,0.6780945,-3.7490582,-1.2123114,0.3684976,0.69921964,1.6174079,-4.966903,6.880553,10.8336
-8.346978,2.3476114,-4.170819,-0.43665957,0.077082634,-0.5487144,0.5349077,0.18097329,0.9401163,-6.7449102,-3.6839986,9.149275
-10.083801,2.1961646,-1.7928339,-0.3381654,0.78465456,0.49585962,-0.35708463,-1.0191536,0.20391698,-8.255982,-4.7118483,5.655508
-1.5730591,3.5205202,-2.24717,0.06851554,0.92488647,-0.7370976,0.6782932,-1.7367332,2.0482583,0.08482063,-9.78829,1.2881701
0.21029639,-1.0313067,13.296926,4.7957273,7.023395,19.722677,18.515743,-6.790684,-4.7825937,-2.558099,2.879997,0.56830835
1.5830446,-1.4172242,0.19673774,4.9916754,2.6226125,9.776009,7.3633018,-4.629342,-3.573982,1.3992767,0.8972831,-0.46096575
1.2645352,-0.15325522,4.197402,0.26633906,-0.9935715,0.2535494,2.5920405,0.7108612,-2.2199004,-0.22911143,-0.20454645,-2.3826995
-11.830173,-4.0824666,-10.009516,0.8957268,-3.161294,-3.02241,0.69319534,-0.28442216,2.8743212,-8.107177,3.0024958,12.452452
-7.8717694,-3.0340743,-5.655464,-0.45017385,-5.3505006,-2.4757948,0.20856273,0.0075484514,0.36729455,-4.7814517,4.738043,9.905495
-10.034662,-0.8028399,-2.057457,-2.1219795,-0.40905905,-1.9465475,0.790791,3.9368894,1.591212,-7.226459,-6.3290997,7.9479885
2.7857356,-2.3683822,14.971041,1.1501598,2.2706842,-3.368863,-0.31543255,-2.8379478,3.385478,0.5939369,-3.017159,12.557671
-0.2943011,-1.9782152,10.925419,5.2217116,-1.0176586,15.144288,9.314111,-3.9071465,-6.589085,-0.07312608,2.156197,-0.4925369
-0.7875664,-2.8580258,2.9900854,3.42757,-4.2219496,2.9083169,5.074228,-2.08076,-0.6948303,0.41224766,5.2918453,-3.0097017
-12.225815,-3.7311058,-9.71413,0.3862149,0.7730615,-0.9722717,0.5309787,-0.2947333,3.8280504,-8.335672,3.8143501,10.720731
-8.773143,-2.8640542,-5.738521,-0.35259974,-0.04374659,-0.63667065,0.0890913,-0.23796034,-0.047077417,-7.988671,0.3893987,8.0241785
-10.114978,2.736051,-2.9589205,-0.10941839,0.91512287,0.8017285,0.08671641,-1.4474077,0.6552193,-8.28788,-4.6601763,7.801296
3.4804034,0.8623702,13.830228,3.6930985,7.3001804,-7.2050533,2.2263136,-8.030722,0.46262884,2.1477437,-7.534477,14.465141
0.58041584,-1.7613511,2.7984416,7.451629,2.630392,11.747047,10.0946455,-3.96039,-3.2103748,0.8253424,1.3845785,-0.39754057
-0.59973526,-0.28129458,-1.8352816,3.1330059,-3.5025764,-1.1838597,3.3300016,-2.1559196,2.5453439,-0.52670884,2.512796,1.3459997
-11.121252,-6.717738,-8.270953,2.2395828,-5.567974,2.2343795,0.86293983,-0.66377354,2.3818715,-7.5660906,5.2170267,9.2842245
-8.830495,-2.3983858,-5.8666344,-1.1040998,-0.5053432,-1.024884,-1.956167,1.7443072,0.9834081,-7.0506477,3.5633464,8.326798
-9.802575,3.103826,-2.3353925,-0.7047969,1.0968455,0.95171213,0.12694931,-1.0474677,1.4481256,-8.804661,-5.9058533,6.1035557
-7.9794707,3.8552983,3.4778352,-0.63910115,0.8244612,0.551728,-0.8212662,-1.3380032,0.40988928,-4.223472,-6.4576097,6.1462975
-1.4766788,-0.56461954,15.91981,7.8395166,4.0515823,18.659672,12.234919,-7.286592,-4.785484,-2.0447469,2.2628775,-0.35403156
0.6725935,-1.4127996,0.22198124,3.7277324,0.4097668,8.384787,6.88291,-4.877905,-3.4630938,0.6684592,0.43756747,0.021760106
0.4675088,-1.4552474,4.6549473,0.13662261,-2.574717,-1.0915099,0.7903004,1.7403514,-4.6802073,-0.24540257,1.0063629,-4.0022287
-9.675449,-6.5898395,-6.8822837,2.4496045,-6.944892,-1.1566226,0.90400434,1.2656239,0.742743,-4.523038,7.1500645,10.375967
-8.762904,0.34809482,-5.0974855,-0.21102768,-4.784855,-1.723671,-0.21804905,-0.74449825,1.0626686,-4.5578732,0.28087628,11.819361
-10.013294,0.38501906,-0.22504795,0.1523292,1.6041539,-0.46880126,0.4555902,0.1331687,1.881143,-5.2459893,-7.368083,8.58655
-3.7665563,6.1534777,-1.9494495,-0.15808702,0.7645886,-0.15101206,0.25748014,-1.9851978,1.3536112,-1.2884436,-7.5630493,4.75076
0.33306807,-1.4246368,10.303224,4.943478,1.0304039,16.809135,12.863832,-6.8938694,-5.7564,-0.85363805,2.1822367,-0.36688918
0.5548991,-2.4360256,2.0009294,5.607083,-1.5944917,5.99718,7.146368,-3.7673588,-3.1525269,0.122663856,2.0250797,-0.6819916
-15.211658,-1.1954322,-10.764997,-0.4704341,-2.2846644,-1.1273572,-1.7574501,-1.3220158,6.2722983,-7.4973407,2.2666323,20.0
-7.0510616,-5.1217346,-5.644579,1.0743922,-5.9007344,-2.9614472,0.6583142,0.7040628,-0.08805181,-3.64648,5.305296,9.251225
-7.812697,-0.27154982,-6.5502377,-1.2321126,0.1967678,-6.4934044,0.63825536,0.47340655,0.14207426,-8.456667,-1.0535035,8.6138315
-10.147423,-0.15540361,2.1166387,0.17180896,1.9471855,0.35439897,0.23295534,-1.2562966,2.1087086,-4.3598733,-11.211688,6.9260798
-1.8246899,-1.0044417,14.719017,10.301603,-2.1258662,20.0,13.404839,-6.396432,-4.4751315,-1.3236325,3.1408975,-0.0163517
0.92135954,-0.948606,-0.31605133,5.4514837,-0.0006209612,7.2424626,7.090885,-3.1922164,-2.7271883,1.1916497,0.84113646,0.06520283
-1.860961,-0.55735445,-3.1949017,1.7035599,-2.998847,-2.7416627,-0.73577935,-1.3037753,5.468255,-1.3122101,0.70857096,5.0284405
-9.730166,-4.7008147,-6.2014484,1.0945337,-6.6564484,-3.7674031,0.45951295,1.5435219,0.9973623,-2.8176413,5.5734434,11.288859
-7.453202,-1.3330932,-6.424398,-0.3380744,-4.9610233,3.180266,0.27790582,-0.21046293,0.026353031,-6.127893,0.14812326,10.508934
-8.828109,1.8785467,-2.363074,-0.23030734,1.1761003,0.85507846,0.41239053,-1.1255517,0.8788576,-7.933052,-5.5033956,7.40361
4.317209,-0.76233935,16.029423,8.299369,-1.7331977,18.62193,11.978464,-9.055446,-7.926779,4.104589,-3.1718514,-6.7472277
-0.71299756,-2.3225303,9.386792,5.7420244,1.8532977,17.096813,9.778919,-6.4711523,-3.5940776,-0.50225496,2.6035523,-0.60324836
0.98456454,-1.2950323,1.0377525,4.78757,-0.033654213,6.814237,6.282438,-2.5531,-2.4135067,1.2524992,0.81573546,-0.28700113
-1.6870475,-0.24516344,-4.2684965,1.1665881,-1.7083477,-1.6728947,-0.19373953,-0.69795394,5.6149883,-2.1564925,-0.54443836,3.1635995
-10.148032,-4.2682037,-8.67174,3.2897654,-4.957372,3.9100003,0.65846896,-0.4274199,3.2413564,-3.3352525,6.126693,11.351261
-6.4541445,-0.85958433,-4.853561,-0.54445755,-4.3064976,-4.3265743,0.95435953,0.82377625,1.3502017,-2.791739,0.12809479,9.740857
-8.864757,1.0047309,-6.466691,-0.49088025,0.83586407,-1.0565485,-0.26656938,-0.53248906,1.3663862,-7.173416,-0.08126509,9.641456
-9.773084,1.8129778,-1.2035159,-0.020287752,1.0708983,-0.4682448,1.3157138,0.65235376,2.5192783,-7.2553864,-11.078053,7.5022683
8.087393,0.39420605,14.72694,10.031904,0.6874201,14.799527,13.007206,-8.779339,-9.865271,6.5778513,0.28568518,-11.682662
-0.7964732,-0.13945627,11.192303,6.4030547,3.727563,19.21378,14.208702,-9.40647,-6.993356,-0.5649045,1.6131182,0.1934166
1.0295587,-1.4412336,-1.4572351,5.4485006,-0.6100914,9.412319,8.230223,-4.8478594,-1.4320512,1.1363416,1.3747432,0.6419761
-3.0694766,-4.3654385,2.1598651,-1.4510272,-4.476714,2.1191113,0.7753036,1.3598332,-10.210417,-1.8400583,2.2144637,-8.368494
-10.4674425,-1.8417194,-8.449991,4.2396736,-7.4890165,8.864333,0.04884243,-0.68677664,2.3398523,-8.382387,3.4969292,10.135693
-8.8233795,-0.8293419,-7.587708,-0.049280077,-0.044692874,0.27348763,0.39102316,-0.07484895,1.1915497,-8.078793,3.0247855,8.18774
-7.8152018,1.6204475,-3.4439216,-0.44045407,0.19847643,-0.7317314,0.24393904,0.14434648,-0.079458,-7.4960647,-0.78460574,6.57863
-12.140867,0.7639108,-2.2555482,-0.40632892,0.74703425,0.47937655,-0.6177277,-0.8826299,0.73734117,-8.904931,-7.004609,6.7802544
3.9770637,-3.0463135,13.478635,3.1215649,1.532017,-1.1950083,6.3234406,-5.2203536,-3.777264,7.6595173,4.1279573,-15.518484
-0.030629516,-2.1935978,10.051799,5.4789023,0.98991513,16.934996,8.0049715,-3.842743,-5.4569693,0.14015982,2.5135722,-0.72335196
1.3851197,-0.9195187,0.7608719,4.5481677,0.78069973,9.272595,6.532375,-2.5864105,-3.5549698,1.3083252,0.59825015,-0.023343563
-9.063159,-8.418001,-7.9147916,3.553411,-5.6039715,-1.6123625,-1.4357169,0.8144822,-7.006597,-10.721306,0.52681756,16.54366
-6.525623,-4.5713887,-6.9237356,2.5808864,-5.260846,-1.5453532,0.77991843,0.7204874,0.89420426,-2.06779,5.6250815,9.490393
-7.5493665,-0.8015379,-7.551073,-0.36909652,-1.570954,4.4910483,-0.20979738,-1.2515941,1.7302464,-6.519375,-2.1926007,9.040816
-8.796628,0.10078633,-0.008481145,0.5632082,-0.1542511,0.816545,1.8966415,0.9894266,1.5756618,-3.8206024,-7.099845,7.479457
-1.9584987,-0.113547325,15.950713,11.091611,-1.7755194,20.0,-2.7268362,-0.83464,1.5131838,-0.18255663,-0.7788265,6.3261356
0.958318,-1.4108002,-0.31348675,5.8077297,1.6787376,9.487906,6.882715,-4.7048206,-6.010073,1.2069461,0.8402996,-0.35556567
-0.8592646,-1.972372,2.7974453,5.072243,-4.7414317,2.0261476,6.145658,-2.3603978,-3.2703297,-0.3347541,4.504221,-0.51387024
-12.681466,-10.192189,-9.116911,0.30032516,-2.8474126,-0.81016016,-2.4669468,-2.3998635,6.997965,-9.094016,0.74122906,14.217188
-9.237575,-3.9200273,-7.4943876,1.0379169,-3.7799487,-0.34077853,0.45683813,0.5136708,1.0144293,-5.8555245,3.8342066,9.197794
-6.1465263,-6.4996758,-5.079488,3.9500625,-1.5816044,10.934101,1.1686808,0.903738,0.31638253,0.2831576,6.213964,2.365304
-1.1304474,-1.0874628,1.4603325,4.1987486,3.347661,10.534972,4.900998,-5.1377125,-4.76567,1.8135653,-3.9379983,-4.107167
-1.0649476,1.891321,6.171355,4.2170577,-0.68681365,11.146642,6.335682,-12.759143,-8.481684,-0.20558453,-0.62622094,0.9083141
-4.911134,-4.643403,-4.2986116,0.34348047,-4.9050965,-0.20836174,1.4051328,-2.581122,3.4309058,-1.9346867,5.952844,5.887759
-10.743493,-5.509147,-6.616463,2.018781,-6.759657,1.8748952,0.8721943,0.39521837,2.3468413,-4.318185,8.173431,13.064543
-8.994779,0.36785948,-3.8506355,0.23898411,-6.587918,2.7153735,-0.07949996,-0.9876447,0.6174444,-6.4838095,1.2508924,11.140095
-11.371004,1.4754467,0.17609918,0.46249604,1.8320358,-0.6443124,0.17369103,-0.32956123,2.4066322,-7.106198,-4.75322,9.314042
-3.7326586,6.504173,-5.7743573,0.16337013,0.93266773,-0.78508186,-0.18785381,-2.799437,1.5864303,-1.9515946,-4.3309193,0.30140877
-0.6865268,-0.70726824,12.056259,8.640611,0.05473566,19.515217,13.962139,-7.754571,-4.5895762,0.14198215,1.9434791,-0.305732
1.2808552,-1.626586,0.85966146,5.0129986,-1.2008072,7.1717486,8.155666,-2.8421807,-1.0939701,0.8264825,1.4578648,-0.9545331
-15.10861,-4.0311794,-10.64988,1.455611,-6.7442203,1.6907806,-2.0251746,-1.0333273,4.014236,-5.7015204,9.056423,13.364965
-7.1778812,-2.7814958,-5.345886,0.08656341,-6.3076406,-2.96202,0.83087087,0.99945116,1.2463503,-4.566631,5.4902086,10.015022
-8.129444,-0.31542134,-3.4640486,-3.578968,-1.1745317,-5.4079256,-0.2206285,2.3261688,1.1705544,-7.2829976,-5.26417,8.916161
-9.215855,3.6029942,-0.39402008,0.4584899,1.1503868,-0.16296124,0.54408,-0.35975885,1.1588544,-5.251557,-6.6039605,8.501013
-3.871693,-0.47477102,15.247147,6.9773226,-2.2109516,20.0,13.34917,-3.9234228,-5.320563,-0.55322886,0.75299644,3.686471
1.0035975,-1.6851697,6.4300323,6.1133933,1.2906108,15.803202,10.411131,-6.3325768,-6.594125,1.1351252,1.6822872,-0.4755143
0.98129225,-0.8611983,1.4757342,4.9249825,-1.0850437,3.886618,6.105276,-0.43466854,-2.9761796,0.6333363,0.009865522,-0.06285167
-16.435596,-3.944052,-9.998368,-0.08602141,-3.197369,-1.4067627,-0.98876214,-1.0465279,5.4260592,-8.746387,1.4214289,19.969088
-8.60327,-2.9673705,-6.0286493,0.34217003,-3.527091,0.30933517,-0.4404385,1.2401023,0.86443985,-4.4098673,6.2854357,7.6279073
-8.405629,0.73729646,-4.18465,-0.327847,-5.986786,4.413335,-0.1525588,-1.0522261,1.6431465,-4.930999,-0.5685079,10.667748
-8.405491,2.3587418,1.3153219,0.47373986,0.7683258,0.078308344,1.3101745,-0.37386036,3.4713256,-5.272859,-7.2411275,7.6507854
3.6196632,-3.0105295,13.773918,2.1050262,1.4870856,-0.6229086,4.4876575,-4.795558,-2.7548726,6.1417274,2.756384,-13.0140295
-0.054912686,-1.4376159,10.66434,8.387941,2.045915,18.048752,13.80544,-7.5972714,-3.9850383,0.16991991,1.9649765,-0.6139726
1.3513575,-1.3108195,0.7485359,4.634817,-2.5285056,5.878771,7.445057,-2.7400362,-3.1577685,1.1348557,0.92995155,-0.7034936
-10.2306795,-1.3183258,-7.844461,0.37718156,-0.93251026,0.10403752,-0.22390129,1.9164643,-5.150687,-9.103426,-0.7527654,16.767313
-7.907601,-1.5384867,-6.772874,0.18658762,-2.97253,0.93035066,0.7044072,0.8581034,1.400063,-5.4906225,3.1698496,9.309916
-9.094501,1.8219053,-5.4613237,-0.53626347,1.3531613,1.0250945,0.4417367,-1.1921983,3.4265816,-8.506476,-4.637087,8.826499
-7.5463595,1.9287183,3.631034,-0.16072297,1.1487389,-0.21007514,0.53380823,-0.055476665,0.20363072,-4.040791,-7.3537292,6.341061
-1.4914529,0.41436625,13.555436,8.480127,-0.8284049,20.0,16.022715,-4.5201902,-5.744687,-2.215076,2.2320127,-0.3428898
0.8358638,-1.6223795,3.3834298,6.425469,0.21302438,8.558978,7.640263,-2.7502036,-4.9832845,1.1397612,1.231401,-0.3995262
