ancorasir/BennettWheelLegRL/experiment_data/2023-12-27_22-47-53/joint_position_env39.csv
Joint_1,Joint_2,Joint_3,Joint_4,Joint_5,Joint_6,Joint_7,Joint_8,Joint_9,Joint_10,Joint_11,Joint_12
0.20246579,-0.0,-0.0,-0.22406112,0.0,0.0,-0.32043365,-0.0,-0.0,0.28638387,-0.0,0.0
0.10088709,0.16501074,0.1087613,0.013132619,0.076080814,-0.14208195,-0.14235961,-0.16973166,0.10815504,-0.12688015,-0.31008485,-0.08943392
0.35741135,0.36322638,0.40000036,0.02326978,0.1707125,-0.275063,-0.2864152,-0.24217655,0.26965976,-0.06471207,-0.3049138,-0.4604723
0.65812105,0.6215158,0.38871068,0.12621078,0.27136296,-0.16357425,-0.31336182,-0.39319777,0.15441205,-0.017934782,-0.4110059,-0.4395567
0.40067932,0.5225476,0.10930421,0.24357827,0.31222785,-0.066379875,-0.3089461,-1.042396,0.36430535,-0.13596721,-0.15449473,-0.5002863
0.5103761,0.13020684,0.28593102,0.394561,0.42224044,0.25127122,-0.65626806,-1.1998042,0.3830468,-0.1498414,0.34723514,-0.64871454
0.48047572,-0.067694046,0.20922263,0.30013633,0.53092676,-0.35160467,-1.1500323,-0.75141317,0.40000153,-0.15693998,0.6332382,-0.618779
0.44417945,-0.2093352,-0.046505705,-0.28396776,-0.06335687,-1.1046704,-1.3202835,-0.047784407,0.3999984,-0.2740257,0.718573,-0.29477122
0.7903345,-0.14619114,0.40000024,0.04200918,-0.3053866,-0.4735253,-0.29073417,-0.05949763,0.06949198,0.19164035,0.47303152,-0.64879906
0.7927638,0.610363,0.4000001,0.028499296,0.078751735,-0.5469119,-0.30015558,-0.3189145,0.11177237,0.32161576,-0.45520988,-0.6620792
0.60222274,0.90504736,0.22131395,0.0005717414,0.3346272,-0.4678681,-0.26887664,-0.49591428,0.032112423,-0.07044038,-0.7145461,-0.47140685
0.46131462,0.6150655,0.09183707,0.041211188,0.40762603,-0.35005865,-0.3618129,-0.85710204,0.37137365,-0.25391382,-0.12609603,-0.17532659
0.5200542,0.3265112,0.27068368,0.03503921,0.42275903,-0.3141882,-0.8349399,-1.1184713,0.39718056,-0.1999419,0.1773686,-0.34529942
0.4665726,0.00493002,0.25426513,0.041552678,0.3333232,-0.44366816,-1.2274663,-0.8013587,0.39998263,-0.18807703,0.4847992,-0.32086223
0.44149637,-0.19082896,0.071835615,-0.2828687,-0.1110148,-1.1326507,-1.2798586,0.058367323,0.38599828,-0.2489367,0.6411586,-0.07830103
0.8517312,-0.2985587,0.4000002,0.0951294,-0.2471678,-0.49373785,-0.25245267,-0.07862484,-0.08629126,0.094281495,0.5828497,-0.6317227
0.82947564,0.6401671,0.4000001,0.12355923,0.11603838,-0.5372704,-0.3307537,-0.34206626,-0.011199498,0.1962088,-0.38369814,-0.72528774
0.46577224,0.8625161,0.07584176,0.17644325,0.3026101,-0.36514217,-0.26394978,-0.7059114,0.12524037,-0.16617785,-0.3351554,-0.0039686365
0.4965761,0.40852752,0.2798986,0.13266334,0.3164444,-0.4170125,-0.623191,-1.0265039,0.40000287,-0.087969154,0.067985326,-0.3573444
0.47291654,0.041668452,0.32184976,0.11076473,0.3909758,-0.31569597,-1.1689228,-0.9507918,0.39999992,-0.088041164,0.41064543,-0.3498276
0.48103696,-0.16357644,0.21476534,-0.1349632,0.19354983,-0.7040407,-1.3646859,-0.5027869,0.39998978,-0.1415241,0.58848566,-0.2102707
0.43364978,-0.35237646,0.25026822,-0.26718026,-0.29417,-1.0269291,-1.02215,0.21386647,0.24210359,-0.26294163,0.6527847,0.09531223
0.9143105,-0.029603876,0.40000024,0.007905417,-0.12433707,-0.5359862,-0.30818927,-0.12758403,0.048812162,0.24022946,0.22700347,-0.7448723
0.7676763,0.73311627,0.3773452,0.023065254,0.18823056,-0.52218264,-0.33196357,-0.34654152,0.038640138,0.16069177,-0.44732207,-0.6544913
0.51666903,0.8844135,0.13583864,0.054395907,0.32794344,-0.35697937,-0.35715276,-0.51397467,-0.022938078,-0.1301478,-0.5446937,-0.252906
0.43881935,0.5285397,0.21832597,0.06031609,0.38884586,-0.31119487,-0.46272928,-0.8850264,0.39999336,-0.16253507,-0.10573465,-0.28857455
0.4667171,0.2160436,0.34949684,0.1450077,0.4221991,-0.05322648,-0.92920184,-1.2135319,0.38646847,-0.12193376,0.23397101,-0.40889367
0.4548307,-0.02542492,0.35283646,0.119686246,0.42598227,-0.2655987,-1.2093837,-0.92138106,0.3999997,-0.09935629,0.4953547,-0.43467695
0.46020982,-0.20499982,0.24821883,-0.20197742,0.13297287,-0.89534837,-1.4216056,-0.3565683,0.39999855,-0.14251181,0.65494365,-0.30549723
0.48555136,-0.35067317,0.30736515,-0.21402378,-0.3667456,-0.9236755,-0.92542994,0.27551728,0.17766973,-0.21297614,0.67995965,-0.11325529
0.8658049,0.1102687,0.40000018,-8.813581e-05,-0.112721436,-0.5600524,-0.35016343,-0.1837427,0.099357665,0.3003127,0.12900281,-0.7433424
0.79240763,0.745004,0.4,-0.003029285,0.17760672,-0.5608446,-0.34594184,-0.36520955,0.056120247,0.14066182,-0.4982863,-0.68079466
0.6050028,0.9219171,0.20021121,0.032383155,0.35970464,-0.4205463,-0.3769751,-0.5274416,-0.028172277,-0.10752898,-0.602208,-0.3683388
0.4627442,0.5779802,0.17927073,0.06964651,0.37869716,-0.3442514,-0.42882577,-0.86001194,0.380909,-0.14550777,-0.1959942,-0.2569383
0.48102286,0.27613875,0.3272595,0.07842281,0.4580375,-0.225565,-0.91300726,-1.1224884,0.4000046,-0.10045816,0.12114018,-0.40596583
0.49945548,0.03118811,0.34334707,0.16193284,0.47821745,-0.009401975,-1.1259608,-1.0282352,0.39046356,-0.114578836,0.38085914,-0.4207268
0.49742246,-0.14004032,0.26695484,0.07769364,0.48202917,-0.44211102,-1.3628143,-0.7026856,0.39998704,-0.13003883,0.57809746,-0.37558708
0.47598296,-0.2434606,0.08281219,-0.27389488,0.10110853,-1.0416722,-1.3891541,-0.116422325,0.399996,-0.20746775,0.6665857,-0.18261737
0.50789887,-0.30802283,0.40000027,-0.0867806,-0.33538213,-0.6719823,-0.6792401,0.24965644,0.15058021,-0.21884757,0.6964672,-0.12768377
0.8898641,0.22257124,0.40000015,0.061866246,-0.02060276,-0.5529613,-0.31238744,-0.2398793,0.16357124,0.36692438,0.0051228846,-0.76053905
0.68683505,0.8488534,0.36412746,0.059515223,0.24334307,-0.47823125,-0.27479708,-0.42245817,0.074457616,0.0975062,-0.69708884,-0.5232496
0.34702343,0.7054362,-0.018041734,0.12034725,0.35845524,-0.31697026,-0.2967676,-0.75686747,0.17429905,-0.25972256,-0.2824909,0.09946822
0.5084466,0.3567105,0.33512694,0.06497693,0.33466288,-0.45077562,-0.75762767,-1.0380293,0.4000025,-0.09600915,0.102149084,-0.34576127
0.49878603,0.02515537,0.40020174,0.051715415,0.3631712,-0.41039526,-1.1694378,-0.9861765,0.3878673,-0.0800334,0.3992766,-0.36842954
0.5121756,-0.17926967,0.33432487,-0.13540626,0.19212314,-0.75640744,-1.3514173,-0.4716058,0.39998823,-0.112917766,0.57019174,-0.2629703
0.41486114,-0.3240494,0.29917356,-0.2328485,-0.26516572,-1.0717299,-0.9864915,0.20708936,0.24947149,-0.2356549,0.63895357,0.064025365
0.9855996,-0.092763945,0.4000002,0.067283526,-0.15827784,-0.53238475,-0.3223402,-0.10665922,0.03542206,0.18325411,0.305506,-0.8018569
0.6843125,0.81021535,0.38826218,0.07910445,0.17908622,-0.51741767,-0.3108874,-0.3177041,-0.018708358,0.067900755,-0.5205427,-0.6013594
0.40595943,0.7972887,0.050874304,0.14289081,0.33486977,-0.30260763,-0.31037572,-0.5567775,-0.031913288,-0.17756723,-0.41542998,-0.059997853
0.44771966,0.3865329,0.25698268,0.06793757,0.2573473,-0.4900285,-0.70436513,-0.95051664,0.40000895,-0.09903028,0.053622533,-0.31507808
0.45308316,0.13887843,0.29035985,0.10299505,0.35609683,-0.30989784,-1.0468551,-0.9604261,0.40001744,-0.10568948,0.30722338,-0.35254356
0.42841944,-0.06616884,0.22877066,-0.02450687,0.2284394,-0.5633066,-1.2815251,-0.6569834,0.3999601,-0.11601158,0.5058455,-0.28647134
0.44226098,-0.2132037,0.02763159,-0.32755393,-0.09552814,-1.0647515,-1.2704076,0.04642338,0.3999993,-0.21803728,0.6246807,-0.02589353
0.6753313,-0.29325622,0.4000002,0.034179155,-0.3639107,-0.31102076,-0.27199274,0.04338567,-0.121320404,-0.054047547,0.56773466,-0.49394602
0.8281091,0.64333403,0.39999998,0.029541804,-0.0007194211,-0.49793062,-0.24600197,-0.23979963,-0.047924086,0.22546569,-0.3935116,-0.6874522
0.4757597,0.9154205,0.11420868,0.08017486,0.24714132,-0.4209175,-0.31343943,-0.4386192,-0.07282311,-0.098327585,-0.5506179,-0.2698761
0.46208873,0.28608334,0.31468025,0.09017009,0.3036466,-0.39676303,-0.8134907,-1.0490022,0.4000075,-0.16192369,0.14999561,-0.34150222
0.41793373,-0.10702362,0.26524198,-0.06260444,0.21068715,-0.650137,-1.3477583,-0.61080253,0.39996666,-0.16968425,0.5075125,-0.25635725
0.37961084,-0.3002019,0.24268854,-0.2425834,-0.2776628,-1.138579,-1.052553,0.23314902,0.2685886,-0.27926135,0.6129084,0.04022867
0.88682866,4.9673134e-05,0.4000002,0.063893646,-0.1110928,-0.5207937,-0.3423381,-0.15058154,0.10016956,0.31689247,0.15125965,-0.6898804
0.7197663,0.7707236,0.39462122,0.03359469,0.23486796,-0.51814115,-0.3373421,-0.39225706,0.06576786,0.08642327,-0.6227199,-0.6319099
0.49240658,0.84710044,0.07830236,0.06835048,0.39261612,-0.291003,-0.34039554,-0.60710365,-0.0007123995,-0.19143157,-0.4331733,-0.12937902
0.50402284,0.45065823,0.2824129,0.011166865,0.39193788,-0.34643292,-0.72784567,-1.0307043,0.39999762,-0.16093394,-0.001301331,-0.29730833
0.5044454,0.14716575,0.3658659,0.04347113,0.45921543,-0.1259077,-1.1036524,-1.0547785,0.38338146,-0.13280535,0.30570167,-0.37152722
0.4984154,-0.07984924,0.3226065,0.036623403,0.41622517,-0.32852218,-1.2751405,-0.7871151,0.39999962,-0.15548839,0.5128308,-0.3172126
0.4846836,-0.25256848,0.14503978,-0.3028032,-0.01377621,-1.0715516,-1.3128792,-0.00500976,0.39872327,-0.24003966,0.6229584,-0.074382626
0.80740607,-0.26654318,0.40000024,0.08380416,-0.23302759,-0.4703963,-0.34644136,-0.032667596,-0.03357647,0.15153123,0.55530006,-0.63802445
0.7927914,0.5792395,0.40000004,0.07292902,0.12448047,-0.51942754,-0.36910793,-0.27458763,0.0120234955,0.22681265,-0.43421167,-0.6294325
0.5765317,0.90040284,0.1680911,0.065134116,0.36255944,-0.3480989,-0.3677091,-0.4979863,-0.07754672,-0.06950514,-0.6644418,-0.4146467
0.4350201,0.6291091,0.12981038,0.10267503,0.3944428,-0.3796507,-0.40183803,-0.8769238,0.37299734,-0.15876521,-0.11532291,-0.19106914
0.47023305,0.23750424,0.3309645,0.11829243,0.45161894,-0.21997112,-0.98458505,-1.1064844,0.39988685,-0.07741728,0.2964934,-0.39397067
0.4674683,0.0028070055,0.3129897,0.030690117,0.37210107,-0.47854623,-1.3089194,-0.82706743,0.39999503,-0.088286765,0.5198019,-0.34444556
0.46380502,-0.22070368,0.12679686,-0.350336,-0.14370716,-1.1100843,-1.2816069,0.044763695,0.37376854,-0.19275407,0.6586188,-0.04045612
0.80593264,-0.19438694,0.40000024,0.012695554,-0.27047563,-0.48932323,-0.28845644,-0.11634032,-0.0013164049,0.18319638,0.42754984,-0.5781568
0.81361705,0.6720465,0.4,0.03219203,0.11804908,-0.5369933,-0.33485436,-0.36518356,0.0073846863,0.216403,-0.37690982,-0.6783739
0.52166116,0.8789175,0.10541345,0.07711049,0.35349604,-0.3608371,-0.34916663,-0.58953273,-0.05848912,-0.1471877,-0.4867912,-0.17957313
0.48992366,0.4474965,0.2707923,0.08146712,0.37406182,-0.385854,-0.6326677,-0.9630844,0.4000034,-0.11373514,0.00706905,-0.29905322
0.47721422,0.10270877,0.34358463,0.08656846,0.42227185,-0.3057112,-1.1486489,-1.0123233,0.3824275,-0.077122234,0.3584652,-0.3471874
0.46884033,-0.16367984,0.25192,-0.16120815,0.23793735,-0.79792285,-1.4172001,-0.43268755,0.39999786,-0.12634496,0.5636763,-0.19422556
0.49224102,-0.35152528,0.40000173,-0.15327458,-0.22586091,-0.8767193,-0.8770704,0.26233906,0.13399258,-0.255869,0.62225366,-0.051538803
0.96111876,0.10469319,0.40000018,0.050273255,-0.03579495,-0.49404514,-0.2719314,-0.22125737,0.02121279,0.28675452,0.13634351,-0.80459255
0.70016414,0.8660574,0.34427023,0.06586632,0.21641953,-0.4472648,-0.2797909,-0.393926,-0.02613532,0.07716756,-0.55415916,-0.58963263
0.33987173,0.73610294,0.021209307,0.095427126,0.3348698,-0.34965563,-0.29382274,-0.73117775,0.23601623,-0.19713233,-0.3232928,-0.0036268227
0.4810953,0.33411768,0.34011036,0.142631,0.46032998,-0.101140395,-0.8238151,-1.2049383,0.40000397,-0.09735267,0.095818125,-0.31835774
0.46257913,-0.002096282,0.3709067,0.13561712,0.45176193,-0.31505764,-1.2099533,-0.86201465,0.3999703,-0.064896815,0.4363827,-0.36573815
0.47458422,-0.2296452,0.23265958,-0.25648093,0.07416119,-1.0423691,-1.3849974,-0.18010785,0.39999846,-0.13489558,0.618853,-0.17789593
0.7172171,-0.30010498,0.4000002,0.077101655,-0.3988547,-0.40750414,-0.26427153,0.023476645,-0.1101872,-0.0002420746,0.570244,-0.5231295
0.8365222,0.4602293,0.4000001,0.06616667,-0.0058321427,-0.5599039,-0.36039206,-0.24722694,0.031094242,0.21080935,-0.28337708,-0.74424887
0.57109606,0.9465351,0.17330706,0.071884334,0.3242098,-0.48159397,-0.34835038,-0.46819252,-0.057140823,-0.09851463,-0.6824273,-0.4268293
0.48526743,0.5412189,0.20044631,0.06768121,0.28032318,-0.47465378,-0.47630474,-0.8896964,0.39997056,-0.17741154,-0.08427403,-0.25777057
0.48898596,0.21403377,0.32697618,0.07471521,0.38794124,-0.29959416,-0.9885296,-1.1211604,0.4000014,-0.14121185,0.23742208,-0.35107774
0.47131115,-0.07518347,0.31760633,0.0055790623,0.3323962,-0.40708172,-1.3096131,-0.79470557,0.39997837,-0.13077985,0.50035626,-0.31189367
0.49740982,-0.26339346,0.18132271,-0.25267455,0.024203636,-0.84973943,-1.3649033,-0.1931766,0.3999915,-0.19150706,0.64870334,-0.11916195
0.78374934,-0.2801058,0.4000002,0.10573784,-0.3229415,-0.345605,-0.18347073,-0.035888802,-0.0933862,0.014151929,0.62453955,-0.50997
0.80229783,0.72639716,0.40000007,0.0695224,0.15357156,-0.5483768,-0.26897857,-0.3409952,-0.001823674,0.20324719,-0.42611638,-0.69545466
0.43334585,0.7960208,0.030532034,0.13273321,0.3644227,-0.3516978,-0.29521695,-0.6058148,0.002066231,-0.18442969,-0.41285622,-0.1421918
0.4929881,0.37686506,0.2689876,0.09692696,0.34413922,-0.3982478,-0.721693,-1.0751026,0.40000156,-0.11837492,0.045121957,-0.31528592
0.49805507,0.056991406,0.33412892,0.1150192,0.4153596,-0.21645589,-1.1335737,-1.0033298,0.37180185,-0.093524046,0.36868772,-0.37273493
0.48627123,-0.2029536,0.21007264,-0.20424606,0.12542073,-0.90384775,-1.4010956,-0.31419617,0.39994752,-0.13557667,0.6052563,-0.23935303
0.48945227,-0.32368073,0.40000015,-0.03624169,-0.37720075,-0.66476434,-0.6151903,0.19554625,0.03133738,-0.10527564,0.6788937,-0.26840273
0.84530914,0.2718292,0.40000015,0.05106899,-0.03610746,-0.58172524,-0.35380265,-0.21523555,0.112393275,0.35583338,-0.12659475,-0.6609285
0.6364185,0.9113362,0.3479326,0.05665488,0.28523207,-0.50344276,-0.34677467,-0.44101077,0.033670083,0.048057627,-0.73098606,-0.5221978
0.47882804,0.8406605,0.06595273,0.10564484,0.388632,-0.324771,-0.3675176,-0.61266404,0.02040445,-0.18775052,-0.45007545,-0.11919997
0.51510775,0.39588442,0.31610763,0.07685649,0.39959368,-0.30158845,-0.6866565,-1.1057534,0.4000032,-0.13047485,0.009822219,-0.33831277
0.49019885,0.12150937,0.36116624,0.111018546,0.41343322,-0.26138544,-1.074032,-1.083485,0.4000013,-0.100934885,0.30163682,-0.39240602
0.46675038,-0.0969413,0.30866563,0.009788469,0.28754112,-0.5768937,-1.3415112,-0.71527606,0.39995956,-0.10506644,0.512141,-0.33141333
0.45027092,-0.23945412,0.08409315,-0.29729933,-0.089286745,-1.0532693,-1.2774562,-0.003941378,0.39701894,-0.19952981,0.6443513,-0.076691225
0.92111677,-0.14467612,0.40000018,0.054053586,-0.28347006,-0.45184684,-0.26788637,-0.13937883,0.015734565,0.17919776,0.37192076,-0.69690466
0.5909676,0.9111779,0.23968561,0.10985607,0.1850721,-0.48420134,-0.31307548,-0.40636015,-0.07197042,-0.021686215,-0.6008588,-0.4650895
0.43565246,0.5858135,0.1608267,0.07097156,0.21053605,-0.5052763,-0.36456642,-0.7985763,0.39999074,-0.19625986,-0.11717857,-0.23725162
0.47263768,0.24767253,0.31192687,0.07688881,0.34648922,-0.33338934,-0.87508166,-1.1411556,0.39894617,-0.18107852,0.21159172,-0.33555692
0.44038618,-0.06401876,0.29344496,-0.00699754,0.19463976,-0.6190008,-1.3077888,-0.75431156,0.39995372,-0.17366493,0.49302486,-0.29003426
0.48227727,-0.24791703,0.18365532,-0.24362305,-0.04806564,-0.9345926,-1.3041166,-0.11500888,0.3999879,-0.2425808,0.6241329,-0.10416037
0.5400001,-0.3605724,0.40000018,-0.00035532913,-0.34821275,-0.32484138,-0.49728242,0.118828356,0.049061768,-0.12628767,0.71717846,-0.3311365
0.8483915,0.1631949,0.40000018,-0.032271195,0.0033354461,-0.5673339,-0.25687715,-0.29724574,0.113004595,0.41177922,0.04277285,-0.6830585
0.6797919,0.7616683,0.40000004,-0.030351916,0.2014191,-0.48355433,-0.24255198,-0.45299816,0.05586133,0.18733431,-0.62118894,-0.5491343
0.5148565,0.7979524,0.045243718,-0.008274357,0.41000116,-0.28423327,-0.25734437,-0.6524971,-0.054867372,-0.1998739,-0.5869273,-0.41197857
0.5212378,0.46584162,0.24308462,-0.029336963,0.43018442,-0.25828543,-0.62939984,-1.0829735,0.39999282,-0.20038673,0.023938438,-0.24253541
0.53765666,0.19725467,0.34290764,0.04770528,0.43004373,-0.0058486024,-0.94316655,-1.1946219,0.39998966,-0.16921449,0.2835371,-0.3171771
0.4929183,-0.06648746,0.29044285,0.023069024,0.42068484,-0.32280448,-1.3128433,-0.758702,0.39998686,-0.14043951,0.55290866,-0.28553754
0.46526563,-0.25082684,0.118711814,-0.3458306,-0.18771666,-1.0809879,-1.2215799,0.12078679,0.35518083,-0.25667235,0.6386099,0.006429488
0.92599696,0.025239792,0.40000018,-0.0047091153,-0.120602265,-0.48856175,-0.32642594,-0.13544537,-0.0015182185,0.33766106,0.16887285,-0.7389669
0.6745409,0.92469543,0.36311233,-0.03935323,0.23958473,-0.47108877,-0.3091245,-0.3658859,-0.08446853,0.09941875,-0.6936089,-0.5602345
0.37704885,0.75003695,-0.046000704,0.01637369,0.39420903,-0.31482935,-0.3335633,-0.6599612,0.07669968,-0.25866026,-0.4092134,-0.02204638
0.5133416,0.44295874,0.2812108,-0.020653268,0.30296963,-0.47583008,-0.6533739,-0.9830364,0.40000212,-0.1574646,0.037863646,-0.3165631
0.50850785,0.15671355,0.34229726,0.027242705,0.37357786,-0.28302827,-0.98003596,-1.1321139,0.36675128,-0.1533849,0.31467938,-0.35721955
0.47861674,-0.14862207,0.26532874,-0.043844245,0.24609084,-0.6257364,-1.2870235,-0.595605,0.3999814,-0.18575358,0.56359047,-0.24725093
0.43308234,-0.24796343,0.07632013,-0.3078905,-0.016443769,-1.1606972,-1.3153371,-0.014777686,0.39999434,-0.25871512,0.6305773,-0.013742676
0.8915119,-0.32076436,0.4000002,0.14043099,-0.3416652,-0.31779268,-0.2926917,0.0070386557,-0.061901893,0.1373994,0.51670593,-0.65135807
0.89662063,0.48435575,0.40000015,0.107957944,0.02958884,-0.5126057,-0.34287786,-0.20885852,-0.0032739206,0.25430715,-0.1791531,-0.801315
0.50256574,0.8884777,0.1298387,0.13419291,0.32241347,-0.36056453,-0.38665953,-0.5089159,0.032031804,-0.095384285,-0.51781,-0.13899283
0.479629,0.44545707,0.28507507,0.11333128,0.36996847,-0.43798494,-0.6525259,-0.94338953,0.39996675,-0.08814972,-0.035658244,-0.30725214
0.47853133,0.12374638,0.35080743,0.14779356,0.45649648,-0.22097735,-1.0598825,-1.066192,0.39611664,-0.07944433,0.2917798,-0.36179632
0.44156975,-0.101092435,0.24935548,-0.037837334,0.3450938,-0.63793755,-1.377534,-0.6122871,0.39998928,-0.0896739,0.5388268,-0.3054216
0.4086176,-0.22495003,0.04766205,-0.36480257,-0.07183124,-1.1784079,-1.3228734,0.06136189,0.39999923,-0.1888051,0.6111501,-0.05556042
0.8696582,0.011257021,0.40000024,-0.017944582,-0.011464614,-0.5521555,-0.26299176,-0.15544526,0.023746133,0.28699258,0.24804184,-0.7599118
0.72917175,0.8512595,0.34383717,0.01090109,0.27812627,-0.48135334,-0.27579698,-0.3574031,-0.039964292,0.12235473,-0.6666117,-0.5504521
0.355602,0.6875054,0.041179623,0.07744713,0.30169204,-0.4561973,-0.28831235,-0.80343115,0.3286419,-0.06912662,-0.24434514,-0.12912767
0.44912383,0.39282066,0.25423843,0.0445298,0.3422095,-0.4297033,-0.7463567,-1.0756321,0.40000546,-0.023395201,0.06546532,-0.29368183
0.4807176,0.11698902,0.3075435,0.10248934,0.4033518,-0.23387693,-1.0855451,-1.0652511,0.39999503,-0.036714192,0.33403897,-0.3203601
0.4960071,-0.09126222,0.25700974,-0.060578108,0.24087833,-0.63153297,-1.3482263,-0.66742396,0.39996895,-0.06787006,0.5242643,-0.24872081
0.44353387,-0.26763093,0.15816721,-0.3395705,-0.2070182,-1.194328,-1.1386137,0.1692856,0.30262098,-0.17699595,0.61434484,0.043756332
0.8939935,0.122551285,0.40000015,-0.01677302,-0.11271712,-0.49681604,-0.27195126,-0.18685883,0.05193252,0.2879526,0.098246105,-0.7435077
0.739026,0.83751327,0.36058003,-0.01504423,0.18290521,-0.4829216,-0.27292734,-0.37451476,-0.014062712,0.09483218,-0.6495205,-0.62246287
0.35927862,0.74285066,-0.010454589,0.06163343,0.38015604,-0.33610973,-0.31436682,-0.6490679,0.027990602,-0.2287058,-0.35494354,-0.092155054
0.48083588,0.36946744,0.31895834,0.024867766,0.43038264,-0.43045002,-0.8592366,-1.0845672,0.40000504,-0.12649095,0.07034272,-0.33259663
0.46976557,0.012438133,0.34167135,0.0061097182,0.31762958,-0.4558328,-1.2684464,-0.8381184,0.37195665,-0.12953968,0.41763097,-0.34376714
0.48616073,-0.18364035,0.24494067,-0.10756183,0.22520033,-0.69532377,-1.3787017,-0.45069823,0.3999486,-0.18698049,0.5830669,-0.22447798
0.51127344,-0.38151595,0.40000018,-0.08785618,-0.25265634,-0.6809156,-0.73094755,0.25132796,0.07700641,-0.28814125,0.6576189,-0.029912705
0.8900588,0.4863675,0.40000013,0.1295382,0.0017153145,-0.5330276,-0.26683185,-0.31756938,0.083549745,0.23167554,-0.16923662,-0.79782486
0.4931819,0.7901184,0.1349848,0.18565564,0.29910582,-0.41873643,-0.28877458,-0.6093317,0.021196127,-0.13620897,-0.3864654,-0.20817372
0.47127536,0.3252851,0.3188465,0.10564699,0.3432021,-0.4102007,-0.71957827,-1.0557393,0.4000066,-0.10256382,0.0970304,-0.30453542
0.44412094,0.04572737,0.334328,0.072140306,0.3299784,-0.44872695,-1.1495054,-0.9613761,0.39998525,-0.0896997,0.36139488,-0.29901284
0.4425623,-0.22119541,0.19884273,-0.26977623,-0.031924903,-1.0396508,-1.3463707,-0.15002279,0.3995445,-0.1344945,0.5837891,-0.10583591
0.75152177,-0.251626,0.4000002,0.102013305,-0.36018398,-0.29121396,-0.27886796,-0.032661118,-0.023282034,0.20865932,0.4982445,-0.56881243
0.73649305,0.69049424,0.40000004,0.008185134,0.10456137,-0.5169274,-0.30003813,-0.3087465,0.0274999,0.20174599,-0.5358503,-0.56336725
0.5860995,0.88536274,0.17270616,0.023326091,0.31699628,-0.38585964,-0.32188886,-0.4997675,-0.042847544,-0.09718573,-0.67810243,-0.45984915
0.49566323,0.54404247,0.15553561,0.015826711,0.43100274,-0.418623,-0.46666732,-0.8853949,0.4000022,-0.21707961,-0.07015634,-0.2406283
0.5158634,0.20902753,0.28464592,0.06523113,0.4330518,-0.21978448,-1.0004256,-1.1298016,0.39999884,-0.18115775,0.27389705,-0.36503324
0.48401847,-0.05190477,0.22310024,0.023098556,0.35075328,-0.46962145,-1.2963443,-0.7390666,0.39996052,-0.18384464,0.5371091,-0.30096146
0.49964458,-0.22743842,0.018126316,-0.29994845,-0.040425234,-0.9846144,-1.2574712,-0.015165527,0.39999983,-0.31116313,0.63527435,0.010303953
0.8866816,0.035569623,0.40000013,0.06680175,-0.05585255,-0.5158074,-0.19500712,-0.19741063,0.019100541,0.19721647,0.24274413,-0.8102809
0.6618641,0.9002474,0.32730845,0.06007507,0.21834059,-0.47600698,-0.18208934,-0.38209733,-0.030914655,0.07252183,-0.7055352,-0.5406011
0.3832684,0.61717665,0.071629904,0.105886355,0.31291437,-0.35057175,-0.17964472,-0.7540577,0.15634002,-0.2972347,-0.20022915,0.07928272
0.44001874,0.28211024,0.29185867,0.071452476,0.30850327,-0.38850018,-0.78490865,-1.084557,0.4000028,-0.1587424,0.193435,-0.2810129
0.4290371,0.01163251,0.3004468,0.048462138,0.35003045,-0.34502265,-1.1943854,-0.98863435,0.4000703,-0.15118235,0.4397863,-0.26744208
0.42913753,-0.19638164,0.1536876,-0.29284322,0.10890264,-0.98238456,-1.3805344,-0.177879,0.3999871,-0.21875362,0.6100552,-0.096262686
0.76802015,-0.21675038,0.40000018,0.0006499766,-0.26880842,-0.42267007,-0.09819469,-0.08464242,-0.11729769,0.099735275,0.46003994,-0.5183324
0.70094806,0.8338547,0.38043183,0.018068658,0.14439847,-0.48336923,-0.1954678,-0.42061976,0.024864526,0.12007149,-0.6469957,-0.57142806
0.32474625,0.67410165,0.032030106,0.0905019,0.29725313,-0.3939693,-0.308397,-0.7461545,0.22877641,-0.24061616,-0.27396053,-0.02133751
0.4676412,0.36023954,0.32902923,0.097742,0.403819,-0.28872904,-0.7455677,-1.0605218,0.3999981,-0.13660851,0.060479544,-0.33805215
0.4639183,0.020974163,0.39955136,0.1036915,0.45659256,-0.28321287,-1.1823968,-0.9636763,0.39999565,-0.09938141,0.40229425,-0.41034758
0.4497039,-0.21404806,0.28830844,-0.17496826,0.17007478,-0.8115937,-1.4217731,-0.43619728,0.3999511,-0.13089216,0.6137419,-0.27906385
0.47228447,-0.3580792,0.40000013,-0.14334174,-0.34899947,-0.8682947,-0.8019469,0.22125496,0.111282125,-0.25320217,0.6415893,0.036182787
0.99967515,0.2858055,0.40000015,0.0326637,-0.054959066,-0.55392385,-0.2731711,-0.20310377,0.042507883,0.2116218,0.10860864,-0.8522068
0.60836047,0.94214463,0.27912393,0.08434191,0.23536508,-0.46770915,-0.2894517,-0.3992247,-0.044876665,-0.0138264075,-0.61957204,-0.48183578
0.3865936,0.62320447,0.10072088,0.07462617,0.28956836,-0.45010734,-0.29760012,-0.7809832,0.31920028,-0.1993298,-0.20108119,-0.056964014
0.46723035,0.2789105,0.3015022,0.05470518,0.30115205,-0.3808246,-0.8311884,-1.1122962,0.4000052,-0.13994184,0.15167442,-0.29200494
0.46492833,0.0022608663,0.32316527,0.017633982,0.21548589,-0.48555833,-1.217379,-0.86354357,0.39962322,-0.14123464,0.396086,-0.28117034
0.46064126,-0.21406856,0.20227964,-0.20151107,0.0816486,-0.81233674,-1.3228195,-0.27592754,0.399952,-0.17134482,0.5857631,-0.12921411
0.5205201,-0.36895114,0.40000015,-0.13617979,-0.39648607,-0.8582871,-0.69148934,0.2507925,0.030171249,-0.2566941,0.6433194,-0.08479522
0.97077566,0.16512506,0.40000015,0.04444529,-0.19004962,-0.5273606,-0.22035988,-0.23602505,0.042803634,0.254911,0.11687758,-0.78784835
0.721881,0.80208284,0.3759076,0.07454716,0.07369976,-0.55177647,-0.24419527,-0.38082582,-0.01321628,0.059909172,-0.49364677,-0.62581027
0.5036069,0.8343959,0.10832838,0.12242349,0.27901202,-0.46089947,-0.26367414,-0.5780623,-0.039643086,-0.15462287,-0.49907658,-0.2583082
0.4434339,0.51138455,0.16993941,0.12425025,0.33272284,-0.40799624,-0.48764446,-0.94926816,0.3999942,-0.15280715,-0.08170928,-0.28478202
0.47692376,0.2426227,0.2827084,0.15661082,0.41787502,-0.20936523,-0.8867798,-1.1413033,0.39490417,-0.124845415,0.21338066,-0.401628
0.47144076,0.024588432,0.2944431,0.14348613,0.45727313,-0.31732586,-1.1649624,-0.9725508,0.39999026,-0.10253049,0.4556361,-0.42597464
0.4920028,-0.17818196,0.20347232,-0.12551352,0.22227438,-0.73224473,-1.3698089,-0.49956545,0.3999536,-0.1401761,0.64828235,-0.30511248
0.45568684,-0.30054203,0.08869347,-0.30075493,-0.1928163,-1.1201911,-1.1462797,0.12650144,0.30826002,-0.23109943,0.7014476,-0.04111309
0.85859597,-0.18373543,0.4000002,0.04099366,-0.17438918,-0.51930064,-0.33338287,-0.07966886,-0.020441672,0.085854694,0.5607186,-0.64359874
0.88414145,0.49607876,0.4000001,0.055252798,0.14390661,-0.5727198,-0.36501154,-0.26621166,-0.026854616,0.19790205,-0.17344666,-0.768845
0.5996348,0.9392273,0.22381443,0.09421248,0.3098107,-0.40973884,-0.38475898,-0.42962795,-0.11148126,-0.039677706,-0.6172295,-0.3911819
0.39746657,0.67889845,0.10158753,0.10807757,0.27562267,-0.48656523,-0.38961548,-0.71178573,0.25313658,-0.13331681,-0.25113246,-0.2164667
0.45824134,0.35756955,0.29985744,0.08652502,0.3952785,-0.45093942,-0.8460884,-1.0108416,0.40000364,-0.08460277,0.101654924,-0.40259928
0.47184744,0.045146987,0.31760746,0.09888065,0.42357552,-0.34153548,-1.1956867,-0.9691936,0.39999202,-0.1165377,0.4249115,-0.42671385
0.49421367,-0.17877854,0.22333357,-0.14862487,0.14595367,-0.7446529,-1.3980463,-0.5002656,0.3999596,-0.17392857,0.6191397,-0.2858664
0.44108903,-0.3278882,0.1829592,-0.2188577,-0.18423179,-1.0435853,-0.9690247,0.2738495,0.28228465,-0.3272593,0.6650851,0.097785406
0.8696463,0.5172352,0.40000007,0.08942157,0.07540822,-0.5816696,-0.306661,-0.2331445,0.037368584,0.22791108,-0.28585443,-0.75560594
0.5404433,0.8870824,0.14808874,0.12519763,0.33109087,-0.45872626,-0.35552466,-0.45912677,-0.007345274,-0.09092425,-0.5244643,-0.31502065
0.47194156,0.48273268,0.225703,0.15337832,0.44599584,-0.27398285,-0.5353691,-0.9621949,0.39999622,-0.16506752,-0.019302718,-0.3630211
0.49197304,0.1875402,0.31777936,0.25161138,0.458434,0.03363195,-0.8913127,-1.205306,0.38888505,-0.15384129,0.29856873,-0.43390474
0.44997936,-0.0762007,0.25654164,0.23425367,0.4617587,-0.09823979,-1.1638101,-0.788429,0.39997178,-0.14662789,0.57762223,-0.38715512
0.43566376,-0.22983862,0.048206273,-0.28401142,-0.026412109,-1.1103468,-1.3188803,0.009710777,0.39999136,-0.2487877,0.6768005,-0.11892304
0.80987215,-0.21340328,0.4000002,0.09299213,-0.3021346,-0.3444118,-0.32610956,0.04367457,-0.07756252,0.038832966,0.57288074,-0.59989625
0.8648043,0.5509281,0.40000007,0.06831326,0.11655721,-0.52829355,-0.38330454,-0.19604012,-0.043124937,0.18427941,-0.25024852,-0.80917186
0.5068175,0.877304,0.14229304,0.10144202,0.33470201,-0.32770404,-0.38972932,-0.45027578,-0.084321864,-0.09388816,-0.5657469,-0.1992977
0.4304857,0.6134448,0.20403229,0.08181687,0.38836306,-0.36683458,-0.37914672,-0.8463589,0.34487143,-0.111107096,-0.21531014,-0.18294255
0.43051612,0.36431503,0.36547485,0.10978415,0.41545832,-0.13721292,-0.7966019,-1.1632481,0.39712045,-0.09041567,0.1178246,-0.27986282
0.35266867,0.05637151,0.395698,0.12538023,0.4399802,-0.2913697,-1.2477453,-0.92163914,0.3853566,-0.053008,0.410244,-0.26471078
0.3467099,-0.1862859,0.2855497,-0.30995882,0.09785778,-1.0294719,-1.4249572,-0.15145957,0.39999884,-0.1408547,0.5440302,-0.060736436
0.59849286,-0.34422225,0.40000024,0.03820275,-0.37394828,-0.47375628,-0.49953756,0.20967044,-0.008243527,-0.097219005,0.5692809,-0.16617714
0.8579052,0.51191515,0.4000001,0.082441345,0.028635899,-0.48845375,-0.28619868,-0.2863461,0.083331585,0.28405312,-0.3680316,-0.6770557
0.4396135,0.8986211,0.10105353,0.11105801,0.31953228,-0.36810517,-0.3132439,-0.5291727,0.014395378,-0.11324741,-0.50261974,-0.20678578
0.4501737,0.52068555,0.24364156,0.11544122,0.38748768,-0.36841795,-0.5178377,-0.94851834,0.3999715,-0.13940462,-0.056300625,-0.25341165
0.44843486,0.18831325,0.35455227,0.1513038,0.42833003,-0.24455628,-1.0622015,-1.140536,0.39999995,-0.082625024,0.29559228,-0.35602677
0.44255617,-0.12247587,0.31321552,-0.10178804,0.24081568,-0.74290055,-1.4273748,-0.5760403,0.39993036,-0.112796925,0.5435058,-0.25140157
0.3759042,-0.2824434,0.26954544,-0.25056338,-0.24220254,-1.064502,-1.0842595,0.21683927,0.298068,-0.23027791,0.63223547,0.05318176
0.8838551,-0.012029602,0.40000018,0.050948855,-0.19598846,-0.49060494,-0.32014528,-0.13479641,0.063556835,0.22859995,0.20638211,-0.6798948
0.67712176,0.8342134,0.40000004,0.0371264,0.18226226,-0.5099518,-0.3048103,-0.3641179,-0.0061438857,0.12200521,-0.6431366,-0.6228346
0.40364134,0.76549995,0.0037919783,0.07298176,0.37646773,-0.34038395,-0.3153389,-0.6460034,0.0510775,-0.21877164,-0.39889908,-0.061126165
0.46634316,0.35526726,0.2946906,0.034177575,0.36763346,-0.43908992,-0.8001917,-1.0544951,0.4000026,-0.13697796,0.11937669,-0.34011048
0.44992998,0.11677022,0.30964825,0.08230112,0.40338123,-0.2224332,-1.1026038,-1.0519165,0.38128212,-0.13418259,0.36092496,-0.35637513
0.4565243,-0.11315146,0.23169945,-0.11027014,0.24160473,-0.8003532,-1.3989573,-0.5266707,0.39999565,-0.16897629,0.57308507,-0.24874674
0.42364115,-0.2810468,0.31245145,-0.2064726,-0.28088552,-0.954687,-0.95838684,0.27678654,0.22803397,-0.32805386,0.63562423,0.11764741
0.93291926,0.11474738,0.40000013,0.02765444,-0.06895544,-0.49608043,-0.29135922,-0.20579992,0.02905879,0.32336923,0.1383554,-0.7794215
0.6677701,0.92510724,0.3762707,0.045607585,0.22661698,-0.44929156,-0.28803897,-0.39088514,-0.04834263,0.07454534,-0.69552577,-0.5548871
0.31782603,0.6915639,-0.05078262,0.067477606,0.36272162,-0.37083042,-0.29126832,-0.67192256,0.12249222,-0.23239239,-0.33535826,0.00091515406
0.50763196,0.35877082,0.26030356,0.09710634,0.38240787,-0.33021018,-0.6992081,-1.0724534,0.39999974,-0.18085138,-0.00831055,-0.30008548
0.50644666,0.096079774,0.29242513,0.16435024,0.409059,-0.10635466,-0.9966682,-1.067359,0.4000008,-0.15361522,0.3014273,-0.39625138
0.5003168,-0.14254732,0.18562713,-0.052717876,0.24663937,-0.7263932,-1.3143783,-0.5499146,0.39995372,-0.17235194,0.57803726,-0.32221964
0.47987166,-0.2610454,0.014651075,-0.30549082,-0.15078162,-1.1389526,-1.2147555,0.070244275,0.40000042,-0.24975543,0.6659621,-0.09811087
0.946184,-0.036950625,0.40000024,0.06321776,-0.10381106,-0.5447043,-0.3243625,-0.15539618,0.09080601,0.21888088,0.37870124,-0.8078291
0.7480462,0.858359,0.3874064,0.06304625,0.26277053,-0.52257586,-0.31533644,-0.3924475,0.04183125,0.065613985,-0.51912194,-0.6801506
0.3688535,0.74327075,-0.024746474,0.082790695,0.3654765,-0.41172025,-0.34912166,-0.7258625,0.20997576,-0.17569631,-0.29758018,-0.05725215
0.5233359,0.33477485,0.28444225,0.06416305,0.40025577,-0.400111,-0.85143614,-1.0444211,0.40000382,-0.110387385,0.13459474,-0.36894286
