ancorasir/BennettWheelLegRL/experiment_data/2023-12-27_22-47-53/joint_vel_env41.csv
Joint_1,Joint_2,Joint_3,Joint_4,Joint_5,Joint_6,Joint_7,Joint_8,Joint_9,Joint_10,Joint_11,Joint_12
0.0,0.0,0.0,0.0,0.0,0.0,0.0,0.0,0.0,0.0,0.0,0.0
2.7657251,-2.7800786,4.627942,-2.2323453,2.9085832,-4.499011,-2.6286929,-2.059744,3.9661505,-1.1038848,1.270094,-9.818898
7.2438226,4.562576,1.4068508,0.1263316,0.72033435,0.33537543,0.81426,0.34903762,-1.3891983,1.7000775,-5.3968763,-3.5932205
-1.3284065,3.8160458,-2.8305726,1.7946439,0.8072024,2.6236682,1.6673491,-5.0574994,-4.7757444,-1.5471069,3.3289726,4.3392844
-10.916016,-11.938968,-2.1944642,2.3184595,1.1166496,0.9623518,-1.2996761,-7.8001976,0.27693355,-2.4956264,5.066991,-2.793004
0.104697526,-4.457333,0.91434693,1.9057796,0.3998698,5.642231,-3.4047098,-0.3497686,0.0024398416,-0.29724106,5.271766,-0.016677525
0.4828413,-3.3806283,-0.89271677,4.2537513,-1.1955379,6.681233,-4.914933,6.3101873,0.009639777,-0.72756696,3.9923942,0.9979383
-0.18467653,-1.2065535,-3.532957,-7.718556,-7.7793484,-12.719933,-5.542323,6.1235833,0.01502215,-1.9879726,0.40053356,4.412749
-2.0425596,-0.38200784,-4.8887496,4.4602194,-4.255619,0.022379799,11.084777,5.7126536,-0.85100234,-1.7112455,-0.12875019,4.982041
0.8485902,11.867289,-0.00036175427,0.47155505,5.0829816,-0.8241753,-0.10915633,-2.6410735,-0.58492714,2.9202347,-12.409147,-4.504372
-4.444391,6.753755,0.5487954,0.8259499,2.8529649,2.1636295,-0.41042715,-2.4991,-1.3109766,-4.2499003,-9.069037,2.0936701
-7.0910263,-5.8691673,-7.8282795,2.0469317,-0.5090045,-0.7656863,0.4936056,-9.972869,18.337765,-6.604908,7.375827,16.959187
0.37134388,-4.952778,2.4651282,-0.26026714,2.780131,2.141183,-7.32918,-5.396378,-0.013172561,0.47812307,4.9066787,-1.6331451
-1.1253529,-3.2292666,-1.0865163,-1.4818608,-0.7494458,-6.1485558,-3.702177,3.510024,-0.0032513067,0.20127922,3.2054458,0.9360545
-0.45465007,-2.1109288,-2.8357353,-5.5084114,-6.0932703,-6.293355,-0.19754313,10.099573,0.0036941767,-1.2452328,1.2354866,3.7204323
-2.886316,5.379073,-0.68532896,6.3916664,-4.3826785,1.8471985,16.392193,3.410164,-3.3041527,-3.2828045,-0.3187542,6.229685
-0.90328217,12.217852,-0.00028110173,-0.043854807,4.2504554,0.37944496,0.41432363,-2.8038228,-0.65952444,-1.930383,-11.792939,-1.4374572
-2.0140293,3.4705215,-5.747488,0.17215835,3.0338008,2.3988736,-0.05716011,-2.5716486,-1.8528397,-3.8942122,-1.9614376,2.0253215
8.845779,-6.256953,13.069705,-0.75643414,3.9779568,-11.833418,-5.894154,-11.46585,31.940903,-9.781667,8.790396,27.851282
0.20020792,-4.203983,1.0686104,0.7820337,0.68738234,3.7592154,-6.1668706,-0.9624139,-0.01741834,-0.13590956,3.8379467,-0.40635473
-0.06981835,-3.9786718,-0.28755233,-1.4642364,-4.706606,-3.0857215,-2.9689157,6.587669,0.00019937288,0.14609326,3.4661999,0.87085605
0.16543388,-1.8341445,-3.0367813,-3.4689734,-3.9920008,-3.781376,1.3587277,8.443498,0.0056638094,-1.8288486,0.9127291,4.221827
-4.7633114,5.8412533,1.9408051,4.3177204,-3.912242,-0.7111114,13.953116,4.0406795,-2.1354463,-2.5342634,-0.07890919,5.0834084
-0.706191,15.039525,-0.00024583458,-0.0812309,4.972343,-1.4775413,0.09121138,-2.9973032,0.5406942,-0.0050734286,-13.548944,-2.0606241
-5.58511,3.0289629,-1.4373021,0.27676034,3.3514533,0.9343265,0.10119005,-2.1203537,-1.360175,-5.903116,-6.716404,4.071282
-0.8917409,-3.6949766,-0.91016936,0.34043524,2.3701274,2.2253335,-0.83053166,-2.7578537,-1.0576112,-2.4172516,3.7328002,1.4043164
0.3349984,-3.2833915,2.76983,-0.5532084,-0.7138028,-0.24299476,-13.618206,-3.3916976,-1.7431896,3.5879292,5.5001245,-8.669338
0.8098977,-4.0588126,0.91900325,0.98777634,1.0863973,3.393344,-5.2471886,-1.10535,-0.012362679,-0.7975027,3.1324253,0.85485744
-0.40157816,-2.6323762,-1.0986403,-0.81978345,-0.80925333,-3.5960205,-4.1692667,5.364338,-0.0038380274,-0.13244794,2.7685032,0.96895146
0.19628523,-2.5078788,-2.2855704,-4.914494,-3.7956383,-6.3380027,-1.9131306,8.411623,0.00023643603,-1.3913652,1.7268511,3.166109
-0.27548587,-1.3628577,-3.7706673,0.50564384,-8.677964,-3.2379136,8.985294,11.021841,-0.46611604,-2.760627,-0.01672864,5.3529773
15.208936,13.118099,-0.0003518875,1.7535157,6.400261,-7.262702,-6.710776,-10.276499,17.041052,11.22242,-12.374193,-15.977167
-6.140914,11.309965,-8.622478e-05,0.7622203,2.7681603,1.4333899,-0.2137295,-2.5149171,-0.73914754,-2.5687273,-12.189785,5.7636247
-4.450967,-1.9418671,-2.4597847,0.77893525,2.994258,1.8654101,-0.90103483,-3.4754941,-0.06749891,-5.539487,6.226212,8.236076
3.5871184,-5.540541,5.901628,0.6537966,-2.9167638,-3.5730913,-9.952598,-1.934277,0.003538765,1.363789,5.509602,-5.835197
0.2224335,-4.299831,1.2949543,0.22358261,1.6560483,2.8456647,-7.002442,-2.8396688,-0.011573539,-0.11549328,3.7343514,-0.34176856
-0.30179846,-3.964427,-0.17355852,-0.29423815,0.23635034,-1.4677564,-4.410506,3.4929926,0.0004991229,-0.23588733,2.9894347,1.10059
0.21307959,-2.2443526,-2.0255303,-5.9086757,-4.671957,-6.406165,-4.8230867,10.22943,-0.00047707668,-1.3002498,1.7989517,2.3035984
-1.6067829,-2.9279993,2.2067614,0.8086037,-10.35232,-6.9870176,8.398671,11.762709,-2.8000934,-2.4470544,-0.015275121,5.252962
13.199337,8.979513,-0.00042512256,-0.12817836,7.2189846,-8.32367,-7.723266,-6.347401,9.591042,10.231691,-10.276991,-19.03843
-5.0617995,8.796807,-5.8648046e-05,0.3510657,3.5257664,1.0938804,0.32611066,-2.0916753,-1.7444221,-5.710614,-11.023713,5.8784013
-3.7733965,-5.827203,-1.6997391,0.24792896,2.5155842,2.4243844,-0.07378917,-3.7689295,-0.29575092,-4.0862627,9.677906,5.872852
0.50532115,-4.485556,2.4526105,0.56258696,1.4613628,3.4281611,-5.927612,-5.5246034,0.00032718852,1.5204833,5.5334535,-3.5061276
-0.029443713,-4.4917517,0.11590163,2.9263675,-1.2027009,7.1721563,-3.659465,2.5225646,-0.0041606585,-0.1814612,4.5122185,0.43096897
-0.058002934,-2.5462384,-1.9589471,-6.959727,-3.5182054,-19.05684,-6.006616,7.1898894,-0.00051152887,-0.8742467,2.6752844,1.9791561
-1.3395457,-1.1558827,-4.4030714,-1.6141161,-9.465158,-8.083931,8.896777,13.660327,-1.9958252,-1.3478212,0.3737042,4.8873487
8.874514,10.338545,-0.00044793636,-3.90927,8.942312,-10.659569,-0.59480464,-3.7384408,2.0013769,11.078742,-13.927122,-9.124609
-5.438947,9.457185,-4.0793035e-05,-0.024905778,4.1329684,0.870242,0.17500737,-2.3849363,-1.9178942,-5.5720377,-8.69468,2.5765443
-6.055205,-5.524906,-7.618083,0.024293356,2.6594748,2.5978093,0.9997077,-6.458931,6.396455,-5.657615,9.420871,15.7687645
0.21351007,-4.689376,2.3902285,-0.12313001,2.2031116,2.607593,-7.749731,-6.194263,-0.018706456,0.5993841,4.846114,-1.7288927
-0.88178,-3.7671092,-0.1800916,-0.08885052,0.009760782,-0.9127114,-4.8009233,3.242968,-0.0021090591,0.19445376,3.6800704,0.5153992
-0.029558934,-3.4232898,-1.313532,-1.9187667,-4.131556,-1.6616858,-2.6481206,4.1230197,0.47341806,-0.7309579,2.755841,1.8017138
-0.67758226,-1.1542861,-4.015985,-4.0505443,-6.6551633,-7.434971,4.285357,11.378774,0.27227202,-1.6401762,0.60801715,4.830043
10.684925,0.66586834,-0.00041793432,16.720066,1.6187553,35.537086,26.7015,-14.550331,-12.526337,14.387369,3.3871655,-36.75661
-2.7201607,13.949899,-0.00016432555,0.5329713,4.2371078,0.74779713,0.38823175,-2.1568904,-1.5599557,-0.91173846,-13.997534,5.3489356
-4.223358,0.023369543,-6.968512,0.53203005,2.604128,2.5853715,-0.2526851,-2.3692863,-1.4541534,-4.0290084,0.6938889,10.131577
1.0550311,-4.6242433,1.4240373,0.47848955,3.8510673,1.008255,-6.2571864,-6.0284243,-0.016150482,-0.8670635,4.1328387,-0.50272787
0.12961838,-3.234432,-1.3395766,-1.8866636,-3.775357,-1.4204128,-2.158726,5.0995064,0.0028625573,-0.97366107,2.4338892,1.809034
0.12762776,-1.6371034,-3.1569402,-2.0399225,-6.612572,-5.840499,3.9549184,10.07781,-0.00039494433,-1.7907531,0.92735416,3.9355114
12.594941,4.9514465,-0.00034739397,-2.2556736,7.5898995,-6.636209,26.585716,-13.4424,-11.025942,13.917575,0.24922964,-38.684433
-2.0507352,9.445416,-0.00021971512,-0.543769,3.5698311,0.7943336,0.74383074,-2.190881,-1.4285777,-2.5442026,-9.666585,0.087576486
-3.650111,1.1230242,-9.244623,0.31498387,2.6565385,2.5133715,-0.05525451,-2.1997073,-1.7547204,-4.874679,0.4386173,4.480218
3.2260911,-4.7617617,5.735161,0.6630144,0.83250934,3.0090399,-5.317662,-12.089278,29.203966,3.2314036,6.058554,-9.076501
-0.6487242,-4.15612,0.9957682,0.92604274,-0.04786727,4.2310143,-4.2913632,-1.2021714,0.0031809842,0.86858153,4.246652,-0.68918556
-0.014461495,-3.4407108,-0.4534822,2.1196258,-0.66332734,5.6864886,-4.796984,4.5939307,-0.012842387,-0.24956748,3.3256125,0.41226423
0.24356782,-2.53199,-2.2595794,-4.964824,-6.433339,-5.6079626,0.18920648,8.41333,0.0039615417,-1.1596446,1.9213713,2.8775928
0.5101107,-1.3681557,-3.4558809,2.1881552,-4.822635,-1.8219203,9.262568,9.104291,0.105183534,-3.374574,-0.6397884,6.0440774
0.80285996,12.436613,-0.00035916583,0.09925178,5.349896,-1.7056041,0.036168307,-2.485763,-0.9011961,2.4191623,-9.0902,-4.1002293
-3.0549326,3.545015,-0.64265394,0.4391189,3.2389338,1.6032426,-0.1543712,-2.1411638,-1.656477,-4.9744353,-6.2867203,2.1764958
-5.733163,-4.9137173,-8.074804,0.69653374,1.5687361,3.0060399,-0.08066894,-3.2873337,0.0051111244,-4.885169,10.011281,11.54663
0.66856843,-4.7782106,2.4411108,-0.5313842,3.479587,1.2109389,-8.429988,-4.7126064,-0.013078248,0.6517584,4.748945,-1.7131381
-0.4937073,-3.1682673,-0.7080853,1.1952823,0.120794386,4.41169,-2.3121455,2.5185812,0.19565535,-0.3707634,2.783328,1.5405141
-0.77480793,-1.816552,-3.0879688,-6.5474987,-7.0691347,-6.6412306,-0.10620953,11.371936,0.30829388,-1.0753236,1.2078502,3.7456443
12.727473,-2.8767006,-0.00031216798,15.69679,-1.4074324,16.899845,22.714573,-7.981177,-3.7702904,5.62534,-4.3721695,8.375677
-4.051381,10.505293,-0.00022228673,-0.32853198,4.4996805,0.39157933,1.0272981,-2.2710998,-1.8379977,-2.8935115,-10.613453,1.6062919
-4.0020456,-1.468843,-2.0334876,-0.008741498,2.4708154,2.6726391,-0.052436758,-2.6910565,-1.152033,-1.6478469,4.186799,6.9709625
1.0652637,-5.21329,3.5865889,-0.09973513,2.1245115,2.6920877,-7.7547455,-6.532444,-0.011064582,1.3472435,5.4974966,-3.920808
-0.55233824,-4.253867,0.28543943,-1.3369699,1.0094552,-11.979366,-4.696712,4.3736825,0.95160574,0.78422,4.625161,-0.7278431
-0.33092022,-2.8300028,-1.9772351,-6.7714705,-5.8709426,-10.454193,-3.4232116,9.355611,0.0068069464,-0.62121886,2.5799813,2.0625556
-2.3840637,-2.5290704,8.218905,3.2834806,-5.200435,-3.0163274,9.966655,7.418143,-4.9628234,-1.9306341,0.16942985,5.163238
7.296197,12.3882065,-0.0003867682,-1.3015927,6.5114255,-3.0659425,0.47787604,-3.7614555,0.6428499,8.976147,-13.526999,-12.052901
-4.6258473,10.066658,-9.589223e-05,0.5663728,3.482689,1.6286608,-0.07729595,-2.3915937,-1.8651692,-4.2382746,-8.228694,1.9812256
-8.215705,-4.094498,-8.719179,0.3367467,2.3763225,2.7159219,0.51960766,-5.8524547,11.941641,-4.498987,8.533421,19.096035
0.11185458,-4.5762987,1.6932641,0.6712337,1.1696078,3.770107,-5.5636187,-6.1672893,-0.008654445,0.1737884,4.798052,-1.0943018
0.06487342,-3.8987606,-0.31558806,-0.5955923,1.070309,-11.662475,-2.729763,5.253881,0.00042674574,-0.068437755,3.906581,0.62188977
0.011639968,-2.2367127,-2.586307,-5.982032,-9.548367,-7.9688296,-0.24211642,10.354717,0.0045617833,-1.330596,1.3122565,3.746871
10.419057,-0.705788,-0.00043342286,15.372746,-2.2598257,32.21171,26.435774,-10.262048,-16.193195,13.36104,3.123514,-35.69375
-1.6128827,10.748871,-0.00028409308,-0.056268554,4.251065,0.23743984,0.12546535,-2.7929704,-0.33283737,-0.9812502,-8.517226,0.009019414
-3.5422926,-0.26851752,-2.0658407,0.14801314,2.5286622,2.6310093,0.17075644,-2.306033,-1.4792577,-4.24913,-0.977851,4.3342233
2.16607,-6.196402,5.286342,-1.0003108,-4.406749,-3.9430647,-3.6418717,-1.4257809,2.210408,1.6412399,5.998194,-5.4675903
-0.28527284,-3.906977,0.38378626,0.88474065,1.8906691,3.1233099,-4.652891,-1.0501021,-0.40422356,-0.14533356,3.5582979,0.08557705
-0.033398192,-3.627958,-0.93035173,-2.5215244,-3.5583336,-5.0368195,-4.2313733,8.908453,-6.51991e-05,-0.06772587,3.4524117,0.9495759
-0.3818282,-1.6506585,-3.3207536,-2.857991,-5.4642134,-5.050672,3.524385,9.794651,0.84951496,-1.3581531,0.9875815,4.188118
5.0956597,10.15316,-0.0003052341,0.81718004,4.6661696,-1.7336689,-2.8183393,-4.062982,3.0344846,9.651819,-17.420807,-1.9744947
-1.4452195,5.677917,-3.3264216e-05,0.005333215,3.449347,1.8881615,0.25407368,-2.5912395,-1.42659,-4.381038,-2.6592245,0.86609864
-5.584106,-2.7855864,-9.867355,0.4808218,2.0393152,2.9688575,-0.46218646,-2.5071778,-0.8689758,-4.940069,7.370178,9.613163
0.25283322,-4.4668474,2.4988165,-0.2767819,1.8331608,2.6287622,-8.130376,-6.4263678,-0.009116603,1.3378377,4.716504,-2.417064
-0.1592792,-3.5802512,-0.14378685,3.0335598,0.6758184,7.079894,-6.3380704,5.3389606,-0.027780391,0.14877255,3.5602827,0.24426179
-0.07283034,-2.528395,-2.2577765,-3.0033815,-4.2088256,-4.7466083,-0.40083206,9.323116,0.0007798203,-1.0760027,1.7540722,3.0592494
9.090743,0.30174848,-0.00032009318,13.879335,-2.3128908,12.886775,21.963867,-5.923012,-4.8106346,5.4306116,-6.396739,11.518321
-1.2576138,12.10597,-0.00027208973,0.14766404,4.7496767,-0.39094505,0.29308257,-2.5392065,-0.42628676,-0.7212382,-10.633897,-1.9787674
-2.6183105,-0.38267875,-1.8530822,1.0972718,1.7199855,3.1315088,-0.66518444,-2.4720738,-0.79683954,-3.8315127,-2.0609598,2.9384937
-9.073205,-5.2240167,-12.548811,1.8113426,1.4009373,-2.3320282,1.5274067,-8.099938,7.874083,-6.279114,11.567995,16.582556
0.44674072,-4.030676,1.2750564,0.66529554,1.197022,3.1843622,-5.721174,-3.0893264,-0.015841678,0.11676017,4.2400327,-1.3469175
0.42770272,-3.79164,-0.25921217,1.31311,0.1050933,4.479247,-2.3889117,3.3432508,-1.6797687,-1.033667,3.044933,1.3191115
-0.3448062,-2.5739155,-2.0946922,-5.3699446,-5.3717465,-4.6159973,-2.9665227,7.4962845,-0.0003561672,-0.5975276,2.500034,1.8663459
-1.2328585,-1.1147196,-4.303604,-1.1394054,-9.955703,-6.2325044,9.793229,12.384114,-1.1792848,-1.8477312,0.106624305,5.385236
2.8616834,12.95831,-0.00033594138,-0.11883621,6.0124702,-2.0432103,-0.049566433,-2.9049013,-0.19278035,5.4641986,-13.918218,-7.3913474
-3.339799,-0.43182185,-1.9428223,0.28417617,2.2938654,2.888395,-0.3827147,-2.592564,-1.437133,-2.8542786,-0.8941108,5.7290654
2.5437212,-6.383477,5.8943815,-2.086205,-5.649879,-2.2647212,-6.971656,-0.17790009,0.0019983843,1.3917929,5.5791364,-4.850337
-0.09447781,-3.7557607,0.44559896,0.61362183,1.4170985,3.0764012,-6.5876713,-1.2860607,0.24717335,-0.40102315,3.319018,0.5561829
-0.038750727,-3.4263992,-0.97040117,-3.6000323,-5.2872944,-5.1385436,-4.6706934,8.39433,-0.00011522602,-0.3542536,2.9752028,1.1651138
-0.25480664,-2.0217638,-3.0943992,-4.463726,-6.5793743,-7.3522983,1.482499,10.540031,-0.00013400312,-1.25403,1.3161273,3.9587295
8.4109335,-0.4670589,-0.00035383267,13.947123,-3.691354,22.70057,26.208715,-2.348121,-20.097654,6.761913,4.023532,-29.302538
-1.2125311,12.374013,-0.0003043468,0.5325584,5.3760247,-1.3849583,-0.47368628,-2.9007204,0.11340852,1.1946414,-11.337032,-2.2698708
-3.7833388,5.924692,-2.6793103e-05,0.106318034,3.5834332,1.3915398,0.24194285,-2.3496447,-1.3864704,-2.9887595,-5.751911,1.8475686
-1.9502889,-4.7691927,-1.5823137,0.92180157,1.3221693,3.4291828,-0.97655463,-2.7339704,-0.6479994,-4.4126873,6.8237743,3.950475
0.78461707,-4.8238864,2.7325737,-0.62937117,3.9962723,0.5262114,-8.013925,-4.3206325,-0.008154461,0.9080474,4.811451,-2.7150023
-0.89184356,-3.8988671,0.0150196105,-0.21699387,0.9094994,3.6183703,-3.546423,0.9631353,-0.014303621,0.27917793,3.5664113,0.18137845
-0.20004223,-2.8381279,-1.7509731,-3.5736158,-3.3684456,-3.4915378,-2.471606,8.144924,-0.0003080835,-0.13371027,3.0290608,1.5188992
-0.14308307,-0.992386,-4.5176387,-0.87212706,-2.4097512,-2.7303324,6.483527,10.11575,0.0046179057,-2.755528,-0.07216394,5.8228245
2.9019856,12.570098,-0.00035172107,0.4104401,5.091876,-1.8627024,-0.82529306,-3.0676026,0.7811977,5.5567694,-11.132264,-8.08187
-4.2065744,3.4311883,-0.9231824,0.19356544,3.562024,1.2389182,-0.17116347,-2.5084627,-1.3252428,-2.997871,-7.6578326,2.500834
-10.9397335,-6.0481653,-12.115567,-1.6569238,-2.858858,-2.6644561,1.1916732,-8.349062,16.149248,7.5653687,7.467432,-15.966598
0.24054019,-4.6702185,2.469467,0.09624274,1.4347489,3.3364341,-9.425004,-5.1630893,-0.010571189,1.0888773,4.859383,-2.122188
0.041207783,-4.6013074,0.6068468,-0.2550915,0.9259023,-7.2468424,-5.493003,3.5536566,-0.0002709604,0.18609653,4.0373006,0.23011777
0.3524105,-3.1121106,-1.5640886,-7.8697853,-7.2307396,-6.9367604,-1.4422239,11.376059,0.0060245544,-1.0546987,2.0002782,2.7165961
-0.9889819,-1.4953593,-3.7367673,2.0132272,-6.051938,-3.821661,10.413986,7.5562406,-1.2717427,-1.947184,-0.02554059,5.17299
6.7761974,7.126391,-0.00042141962,-0.86818707,6.7653646,-3.9426234,-1.0107468,-4.0924187,1.785028,7.7122,-9.949774,-9.888047
-4.5382156,10.274067,-0.0002179321,-0.2467576,4.0700307,0.7930495,0.44700196,-2.6084404,-1.1851003,-1.6482357,-9.987144,1.7267988
-3.9188583,-1.9457664,-10.230515,0.8630324,2.232291,3.2645986,-0.49245557,-2.532473,-1.5672615,-6.1414948,3.2173085,17.190947
0.8652185,-6.0788856,4.0259647,-1.1170982,2.2349465,-1.2819953,-6.566638,-5.090187,0.0020855977,0.5704749,5.046156,-2.6012645
-0.1291694,-4.533269,0.45301646,0.16569752,-0.5586184,-1.6657562,-4.590908,2.9351196,-0.42838666,0.05646897,4.064383,0.15565033
0.3605861,-2.424545,-2.1931574,-5.429079,-3.7183864,-10.75832,-3.582117,9.490895,4.1821506e-05,-1.2372457,2.2991765,2.334428
-1.1255393,-0.7863448,-4.7089114,-1.277683,-5.4542685,-5.92222,6.8444934,9.0081005,0.2906251,-1.982365,0.31040984,5.180447
6.981296,10.756581,-0.00042781117,-0.4893096,8.331492,-5.9631834,-2.3498137,-4.132008,1.9514363,4.3857293,-11.172124,-7.256134
-4.4698625,6.8116603,-2.5948658,0.8733102,2.9274292,2.4555738,-0.63418424,-2.6636653,-1.4053986,-6.5559077,-7.249122,6.0183773
3.4447792,-6.1200933,6.5491095,-0.45356208,1.5354671,-4.9305506,-2.8689768,-6.8583164,17.030973,1.7504557,6.082921,-6.1144385
0.13658223,-4.33632,1.2067705,1.3519946,0.44900662,4.522655,-4.4969783,-4.5121946,-0.008267716,-0.031339213,4.7912617,-0.83827513
-0.24241889,-4.0981717,-0.14601889,-2.18293,1.7827213,-14.034333,-3.2846649,3.3300753,-0.015563749,-0.11973431,3.6230602,1.0845602
0.47287133,-2.6546037,-1.6696589,-4.4977336,-6.4957423,-5.5151763,-4.2225866,6.8972673,0.003999775,-1.5210425,1.6968381,2.726123
0.30618984,-1.7324985,-3.4337685,-0.88177276,-7.405667,-4.8842087,8.630702,10.866937,0.16635159,-2.6388185,0.106072485,5.491878
1.3397502,12.224535,-0.0003535818,0.9939418,5.077873,-1.5007877,-2.1569178,-3.6155987,1.9997925,3.5044584,-12.712793,-2.9523962
-3.171462,7.1574306,-0.00010552106,-0.55698013,3.8791664,1.2753457,0.88752735,-2.4952848,-1.8676473,-3.2231545,-8.041074,1.1880071
-1.1190964,-1.9114522,-1.1445272,0.04833454,1.5797828,3.1532195,-0.45190662,-2.8166983,-0.7511527,-1.5451463,3.581373,3.6367202
0.570729,-5.4278507,3.5563655,0.496441,1.6492351,2.3119514,-8.345392,-2.644028,0.06674453,1.6706918,5.3483377,-3.7778018
-0.10553533,-3.6013966,-0.37662798,0.47874883,0.4773798,-2.6951337,-2.731903,4.099463,0.8183858,-0.2667871,3.0506518,1.1984653
0.07850341,-2.2436175,-2.246944,-3.9561648,-3.7685769,-4.753938,-3.2281342,7.1864886,0.0037209466,-1.0088822,1.9568802,2.5138955
8.527103,-0.81212026,-0.00014411123,14.343177,-4.734024,16.42552,20.238749,-2.8818924,-6.470613,-0.16248842,-4.240435,7.447764
-3.3604722,13.084656,-0.00022881042,0.4009794,4.8137193,0.23886171,0.31932724,-2.4442542,-1.537151,-2.8793738,-9.751754,-0.7202718
-6.412084,-5.50762,-1.4155713,0.056889445,-1.1275651,0.3908555,2.066995,-2.6558022,-3.1327064,-4.1316423,10.176566,7.6818113
0.48703182,-4.3290787,1.777992,0.6202302,1.2075775,3.410601,-6.989167,-6.082065,-0.017086508,0.5736082,4.7014537,-2.1987095
0.093219355,-4.298178,0.34043795,-1.2645211,2.114598,-13.287861,-6.687075,4.9802413,8.943677e-05,0.21122928,4.0892353,-0.060493242
-0.40828553,-1.8243246,-3.006043,-3.3057976,-6.043953,-4.2536063,0.9290728,9.183312,0.004891371,-1.0270864,1.7345539,2.9114704
8.120457,-0.8342339,-0.00041346054,14.766939,-2.640808,31.687393,27.572603,-8.161991,-17.691359,10.73173,4.7419305,-32.44862
-3.0617464,11.474894,-0.00015783892,-0.22797962,4.816909,-0.5923086,0.39359924,-2.5781772,-0.6408071,-3.1067297,-8.778589,1.9653401
-2.4418836,1.7783891,-1.8783023,-0.23361875,3.634907,1.5716205,0.24099168,-2.539501,-1.1598569,-4.111351,-2.0066185,0.848684
-3.9981809,-2.6183248,-7.829267,0.95462084,0.6570458,3.6882226,-0.2688573,-3.2484612,0.61492085,-4.419019,9.861151,11.701492
0.3597635,-4.2636514,1.5308478,0.73616,0.9228312,3.5660617,-6.32061,-6.834507,-0.00901337,-0.012240902,4.242748,-0.9829943
-0.91312957,-3.285553,-0.84350246,-1.1097442,-0.41022974,-7.9048467,-6.375087,4.316587,-0.0007451987,0.50308996,3.6020718,0.87458766
-0.20746407,-2.2617126,-2.6536531,-4.640808,-6.8357334,-5.8392487,0.9446153,10.336879,0.0023116563,-1.1340209,1.5683573,3.282823
13.223188,0.8145873,-0.00033567002,15.767282,0.29402432,15.692206,21.154696,-10.184224,-2.7183037,6.4536695,-5.834038,9.310598
-3.8849685,12.930067,-0.00016736361,0.04258455,4.4215236,-0.14787439,0.043648385,-2.3658047,-0.8075854,-2.654346,-12.842243,2.3291698
-5.4491367,-1.2340883,-8.116473,0.49204183,2.7885969,2.3529458,0.36053944,-3.9636683,0.7555871,-4.499894,6.8281894,14.075793
1.6396204,-4.7032743,2.8535345,1.2447342,1.0828546,3.7226052,-7.0011663,-8.169963,-0.012399495,-0.5744655,4.887132,-1.5981569
-0.80812305,-4.4692245,0.46250743,-0.10049084,0.5808568,3.2930086,-3.2173939,1.2913874,0.26670942,0.5164375,4.4397593,0.13384677
0.47748864,-2.7187102,-1.6516181,-4.8546524,-4.6218243,-5.368831,-3.2161014,6.783344,0.0057696467,-1.1838043,2.0871532,2.9092011
-1.0729434,-6.060124,19.013165,2.2101402,-5.959209,-0.6167217,10.186821,12.939011,-12.316468,-2.243894,0.2157939,5.0659614
0.011820998,10.678308,-0.00034130248,0.22728123,5.745293,-1.7021208,0.2038879,-2.4363253,-0.81284946,2.7547636,-10.600279,-4.417905
-4.047595,5.4269314,-3.2626755,0.994811,3.147974,2.1141655,-0.5256269,-2.2922542,-1.4953363,-3.094693,-4.811091,4.820487
-7.7583957,-5.6694727,-8.168764,0.11254203,2.2903295,2.010552,1.7125294,-5.953596,9.534472,-6.1130385,7.946983,18.807419
0.07272793,-4.383773,1.209416,1.3914094,0.33989835,4.566159,-4.204954,-4.0419087,-0.0060121603,0.1276198,4.6345367,-0.828808
0.0030672103,-3.4609764,-0.63260245,-0.4259378,-1.0295532,-1.4130917,-4.903201,5.5585766,1.2866818,-0.119345546,3.795047,0.027202047
-0.7987827,-1.143002,-3.5459976,-3.8555226,-6.6723003,-5.5524526,1.0774002,11.258707,0.00012874702,-0.9883127,1.5733039,3.1679497
9.356212,1.9913381,-0.0001942511,14.0605545,-0.8171723,17.716267,17.940351,-6.215789,-5.5196505,1.9806999,-3.8451104,5.3087645
-3.3232813,13.801733,-0.0001912957,-0.026915211,4.6756916,-0.08679303,0.32311052,-2.4458785,-1.0850132,0.06932955,-13.155262,1.560211
-2.4864445,2.2597516,-1.5944973,0.6885857,2.4672058,2.9647942,-0.16184846,-2.5780756,-1.6332527,-3.6482089,0.41841966,3.8242745
2.6808772,-6.25768,5.5368967,-0.88816506,4.580212,0.6975386,-4.709025,-4.467877,-0.024881627,0.9233781,5.978248,-4.625054
-0.12473226,-4.1711736,0.22496682,2.4961238,-0.65723747,6.0413904,-4.8850346,-0.25908113,-0.9986765,-0.30978572,4.601801,-0.32438594
-0.4740384,-3.3986459,-1.2731385,-4.441041,-4.6861343,-0.4168723,-4.716108,4.8328524,-0.00047270587,-0.46784952,3.284453,1.070245
0.82748324,-2.6328652,-2.875349,-3.8191607,-6.171768,-3.9604537,1.9010785,9.679905,0.004128793,-2.495096,0.87175167,4.6999717
1.5380305,4.9016137,-3.0540109,9.995453,-4.7295666,8.6173115,18.571234,0.45174366,-5.28976,1.2323549,-5.4177494,5.29879
1.8680094,11.780861,-0.00035958108,1.3926932,4.0401773,0.6206055,-1.3030372,-3.0878582,0.3215493,1.5071172,-11.527245,-4.481371
-4.225501,9.167262,-2.4997054e-05,0.5420586,2.5254455,2.1948512,-0.5112578,-2.1936386,-1.4253876,-3.9967234,-12.132969,5.302653
-4.643321,-4.059093,-2.1570222,0.87044764,1.8342767,3.2458234,-0.97723323,-2.7424188,-0.8904621,-2.0582128,8.236122,7.955686
2.5628498,-5.849799,5.05687,0.4980196,2.9702988,2.1749687,-5.020947,-5.6226964,0.0072361883,0.8276296,5.680822,-4.499349
-0.6071202,-4.318333,0.82137555,0.4135434,0.6663031,4.277875,-7.0076094,-0.86609125,-0.008161543,0.48242617,4.81818,-0.93840015
-0.67432594,-3.0846403,-1.095829,-1.6971701,2.7681031,-15.27605,-4.282867,5.490027,0.0011728309,0.0030889413,3.2043085,1.004086
-0.46965834,-2.3851438,-2.4516058,-6.5802236,-6.4815035,-6.176574,-2.1285675,9.059369,0.18271871,-0.8430027,1.8757322,3.1636748
-1.7278175,-1.7283581,-2.8728044,-2.4065511,-8.204809,-6.6618466,8.553606,10.969119,-0.08467809,-1.8134122,-0.0058927536,5.655476
15.363025,6.840417,-0.0004269405,-1.5555766,8.1946335,-7.8083243,18.173439,-15.275355,3.3800235,13.891841,-14.561162,-3.3542063
-3.8349316,12.98718,-0.00017518096,0.15166476,4.6186275,-0.0033440888,0.30554107,-2.483605,-1.1937587,-5.1276827,-10.456126,2.8942518
-2.8609412,1.1010655,-1.4539069,0.113597244,3.5843124,1.6165727,-0.12397652,-2.499716,-1.7450919,-5.3517284,-2.2080412,3.404001
-9.323415,-7.7492,-7.3967113,-0.6365881,-1.5369039,-0.9925736,1.3354988,-8.261759,16.307856,6.808635,6.5138893,-13.759935
-0.22119908,-4.05291,0.9270779,0.88971376,0.6264679,4.065311,-5.092118,-4.0182347,-0.012571819,0.2861707,4.5203233,-1.09536
0.121837825,-4.1261797,-0.2449933,0.50981736,1.27899,3.6398404,-3.5970356,4.622065,-0.004514985,-0.34854564,3.759855,0.87083083
-0.15021381,-2.0055883,-3.118662,-4.0877438,-5.5251617,-5.4747386,-1.4447649,8.434557,0.004901897,-1.2806659,1.8335948,3.2927449
13.168364,-2.4835668,-0.00040904875,-3.7259307,8.992205,-8.737223,25.781982,-15.836386,-6.530207,13.916707,-8.7334585,3.3614266
-1.7080458,10.840623,-0.00022714806,-0.26826817,4.021317,0.4461587,0.113178395,-2.8112996,-0.57156765,-3.3200026,-11.425515,-0.01621635
-1.9179722,-1.2363938,-1.7591144,-0.15082198,2.7761142,2.3462098,-0.2896316,-2.729191,-1.0698655,-4.5052886,2.338641,1.6625432
1.7789024,-4.133823,4.52578,3.7608702,-2.4132493,-6.9471593,-6.503199,-10.283267,31.547256,6.204768,7.8384056,-14.75213
0.26951498,-3.585789,0.38258752,1.3418263,0.7552597,3.650575,-3.1366901,-2.5480466,-0.011095591,-0.5778349,3.239566,0.7471049
0.18287814,-3.5187488,-0.86562216,-2.291362,-0.7535442,-7.736563,-3.6806717,4.89666,-0.00021338038,-0.78087693,2.7056894,1.7626991
-0.024765998,-1.7975097,-3.235756,-4.246391,-6.884169,-8.459764,1.9412996,12.535411,0.00047628663,-2.039278,0.7531739,4.4505005
11.926833,-0.9279316,-0.00041963084,16.23565,1.8564322,33.22346,26.37614,-13.347556,-14.361559,14.016601,5.0291023,-37.585842
-4.266614,10.800781,-0.00017103108,0.39374948,2.469453,2.2330685,1.0545853,-1.4995838,-2.5083318,-3.9950156,-10.944078,2.6672776
-6.5005336,-1.8705044,-10.843192,-0.60199827,-0.7123162,-0.19355011,0.71103233,0.55693394,0.46637642,-0.6398682,-8.897227,2.5323546
0.6608397,0.54992765,0.47174072,0.3948187,-0.023718886,0.31994382,3.8482077,-5.8859787,-4.2076945,-4.9263887,9.973651,0.8484927
2.6786048,-2.1323478,2.669123,0.7040605,0.14249408,0.97877866,-6.0707316,-5.7260523,12.965356,-1.6587,0.56858724,0.4434295
-0.5202245,-3.5844848,0.7080094,-0.18763897,1.5850966,2.4166427,-7.316638,2.6414797,-0.006359281,-0.29581842,1.9135866,2.3098538
-2.1286898,-2.9588568,-1.239155,-0.31649995,-2.7343955,-1.9674556,-4.664489,4.9883575,0.00031446328,0.97693616,2.2112346,1.9266076
-0.36128825,-2.170158,-2.29623,-4.032429,-2.1522882,-9.92971,0.11341959,9.765227,0.001417486,-0.79340434,1.2005934,3.3955953
13.927004,-1.572434,-0.00046322343,18.381777,-6.845192,34.164143,29.267004,-6.7701445,-25.740889,14.357685,6.5230045,-45.27703
-3.0883663,11.521286,-0.00026393804,-0.032941774,4.073563,-0.32230887,0.12965582,-2.6750014,0.50411147,0.17729321,-9.194747,0.63023293
-3.024451,-0.13416484,-4.6330476,0.19296455,3.1644566,1.7129539,-0.34279394,-2.9510746,-0.67805445,-3.355829,-5.285572,1.0079596
2.2157047,-5.5272603,6.293888,-1.2613573,3.4271507,1.5286844,3.014319,-5.0814157,6.683225,-4.7032995,12.770714,13.71752
0.11342944,-4.383385,1.6540236,0.09916201,0.7470969,3.4371371,-7.6060452,-2.3564973,-0.0050590597,1.0091267,4.822351,-2.751752
-0.8805392,-3.2786217,-0.85042673,1.1119363,2.500252,6.923977,-4.945899,4.1092677,0.003343884,0.24981901,3.4926178,0.36374897
0.4375533,-2.3805103,-2.344237,-2.688055,-3.6200047,-3.3989804,-0.40690097,7.1123643,0.001880012,-1.0344436,2.0834749,2.818383
-3.704084,-2.1931481,15.871008,6.299621,-4.5315204,3.8622804,13.665926,4.3506575,-8.323375,-2.2626395,0.07936379,4.6057143
-0.85973734,14.18252,-0.00030374347,0.30611,5.1258903,-1.2389323,0.7148571,-1.6745703,-1.7451282,1.1311127,-10.44062,-1.6952082
-4.930187,5.847861,-0.39413986,0.8885771,2.3205683,2.3164167,-0.6461185,-1.9284112,-1.126607,-3.9600077,-5.640938,5.535696
3.762706,-6.1012254,6.162242,-4.5811615,-1.8413273,-2.7947295,-1.9656155,-1.0311615,-0.7899473,0.9037757,6.07931,-6.2668595
0.035221443,-4.064613,0.5533379,0.8456237,0.9766393,3.7472672,-4.759832,-1.4748163,-0.00998884,-0.09090153,4.156567,-0.10141167
-0.030300934,-3.8211257,-0.3671866,-3.4471688,1.2925118,-14.603093,-4.8007793,5.890474,0.39747477,-0.32725403,2.6921585,1.830571
0.25347742,-1.7178054,-3.1912084,-4.4617395,-3.634393,-6.0307903,-0.53999865,9.6006365,-0.0010766443,-2.199092,0.46816498,4.9027057
11.834698,-1.4916458,-0.00044347683,18.927528,-5.0038104,39.747215,21.816034,-9.81981,-6.9160104,6.000042,-4.4394755,-0.3463523
-3.0383096,12.825743,-0.00022493053,-0.48782337,5.2451878,-1.0762482,0.50131536,-3.0945635,-0.35579002,-0.539075,-14.191938,2.2352316
-3.5273337,3.7292802,-0.4056608,-0.5232022,3.6203513,1.2334684,0.3242384,-2.6370447,-1.4337159,-3.414325,-5.4602313,2.0792942
-3.9975076,-6.2565126,2.3345602,-0.82224774,2.4044423,2.3947487,-0.7807998,-2.6693454,-0.69201267,-4.366677,9.413261,4.7888894
-0.09379876,-5.0227637,3.2138228,-1.9274777,2.6520557,1.9474723,-8.232165,-6.218223,-0.074808136,2.022283,5.25582,-3.5682447
-0.6245243,-3.7073405,-0.033101127,1.3009593,-0.4742554,5.0151386,-4.436474,4.072425,-0.005137086,0.4988964,3.7245066,0.052855324
0.43254122,-3.5207489,-1.383344,-4.1634235,-5.68106,-4.360315,-1.7770686,7.0625143,0.0038560112,-1.0175478,1.992637,3.1470025
-2.6749516,-1.3702164,12.136647,6.193343,-5.321683,3.6595714,16.170265,7.530481,-10.928997,-2.48193,-0.10136982,5.272224
-1.8514425,13.416238,-0.0003110908,0.18729146,4.793447,-0.5912866,0.7610439,-1.9198534,-1.330076,2.797566,-8.065176,-1.3827652
