ancorasir/BennettWheelLegRL/experiment_data/2023-12-27_22-47-53/joint_vel_env14.csv
Joint_1,Joint_2,Joint_3,Joint_4,Joint_5,Joint_6,Joint_7,Joint_8,Joint_9,Joint_10,Joint_11,Joint_12
0.0,0.0,0.0,0.0,0.0,0.0,0.0,0.0,0.0,0.0,0.0,0.0
-4.948811,12.891374,-3.4316773,10.723676,-14.234104,43.48154,4.420883,-0.6471985,2.4927506,-4.303505,-20.903517,-3.3874185
3.5179377,-4.0370493,7.4931126,0.7450825,1.0043799,0.96176547,0.6458377,-0.7220761,-0.0042349696,-0.9003613,4.1451426,1.6376275
1.1847284,-1.8698617,1.3746899,1.0156189,1.0591629,1.869189,0.6186939,-1.4760187,-0.40420178,-1.7592878,4.399054,0.013217803
1.8723866,-2.8659635,1.1160643,2.170782,-0.8326075,3.5335932,-5.829873,-9.36347,-1.3147794,-1.0517166,3.1239855,-2.4842594
0.77254474,-3.259572,-0.7025171,3.5030537,-0.552399,6.630099,-2.1725717,0.38668236,-0.001476761,-0.87572896,3.5372133,1.3495947
-0.9367543,-1.4574804,-2.7622893,-7.962635,8.612059,-44.119774,-4.0984607,5.850361,-0.0052716397,0.6996616,4.0494785,-0.22536087
-1.0203373,0.354303,-7.0005417,-6.3473597,-6.2052364,-9.55894,-0.95628107,9.070879,-0.010719165,-2.8430493,0.32271433,5.208485
14.664144,1.9110851,-0.00040845666,18.27571,-0.7409145,27.143826,21.810429,-16.605555,-7.6469154,15.118759,-1.4043055,-3.3972487
-4.167544,11.508289,-0.00015923352,-0.18266703,4.452143,-0.21091856,0.4995078,-2.5809932,-1.0801427,-4.277151,-13.931401,2.6418648
-2.8553467,1.1562314,-1.464152,0.5492536,3.5988257,1.6905617,-0.7089458,-3.0001926,-0.89856696,-4.2068095,0.50074995,2.707848
2.9001317,-5.5159755,5.589761,-0.8147104,-3.564792,-4.626427,-6.4635115,-7.05213,17.307814,2.4260175,5.9220047,-7.874648
0.070168935,-4.0470915,0.81223035,0.52358186,-1.6428729,0.30172285,-5.651849,-0.8097756,0.0011182252,0.25702405,4.482874,-1.5535619
0.043062024,-3.0965326,-1.2472439,-2.927935,-2.3857226,-12.73103,-3.6175866,5.819748,-4.1889492e-05,-0.8131198,2.6012042,1.5561473
-0.30331463,-0.980093,-4.299566,-4.179436,-5.012046,-4.909192,1.7330112,7.9181676,0.003861295,-2.3228643,0.60573834,4.4744697
7.259802,2.9092896,-0.00029796234,13.522313,-3.9259884,12.762626,22.030455,-4.658093,-4.686775,1.8338618,-6.7053204,9.375165
-2.5056877,10.318865,-0.00018948261,0.25777486,3.5490727,0.83322096,0.50083727,-1.754668,-2.1270778,-1.3169943,-10.786488,-0.08516636
-6.931212,-4.717138,-7.4811735,1.7661778,1.7100166,3.208413,1.0901045,-5.754228,1.8351673,-3.1141665,9.384713,11.467873
1.6914705,-5.3884892,3.7474551,0.025069907,3.4674513,1.1369106,-8.193658,-4.9072165,-0.00083157886,-0.22640659,4.33222,-1.2559129
-0.30628666,-3.7557786,-0.18257836,0.4686847,1.5781568,3.2686963,-4.976665,3.4973364,-0.006611704,-0.06883719,3.305447,1.0992426
0.045223884,-2.9815829,-1.510721,-5.043386,-2.4879708,-5.779299,-3.6087575,8.7802725,-0.0007797603,-0.42699745,2.3221557,2.5988963
-0.11121094,-2.519926,-2.83817,4.061695,-4.296808,-1.5901982,13.3129015,7.294357,-1.999042,-2.7735224,-0.1772337,5.745308
2.9455032,12.137171,-0.00033808895,-0.48149878,6.08062,-2.6822731,-0.4404182,-3.2578835,0.63287616,4.1764507,-12.838035,-7.023658
-4.7587714,8.210482,-2.714741,0.17769383,3.701905,1.5497715,0.20322257,-2.290554,-1.7978394,-4.662927,-6.2038727,4.4423733
-6.968825,-6.6915693,-2.4560869,-0.32347226,3.11837,1.8783778,4.7156625,-4.2799573,-5.4684463,-3.5709198,10.584069,7.8154225
0.76646,-5.3924537,3.3522701,-0.92350245,4.448864,0.45435396,-7.243431,-4.2285366,-0.006587091,1.1692632,5.215621,-2.5116825
-0.091356024,-3.8599012,-0.05019121,0.75371796,0.9257636,3.5784311,-3.5001535,1.6182723,-0.014417176,-0.72042143,3.2300756,0.96403503
-0.16820425,-3.3014712,-1.2587419,-2.2649941,-2.2063792,0.7949901,-4.2749496,5.703492,0.00026378827,-0.7164397,2.6397026,1.634776
-1.002453,-1.4257698,-3.4740453,-6.115638,-8.523403,-8.576898,0.86169416,11.351948,0.7284102,-0.98954064,1.2268666,3.546456
0.71091306,2.1648195,-2.1397557,6.7718797,-10.771953,4.5642447,17.44677,3.4602554,-3.3160908,-0.58947057,-1.1322167,0.37232098
2.1251538,15.916091,-0.00036248734,0.17764091,4.610969,-1.5729346,-4.578283,-6.7534313,7.7207537,5.2961154,-15.484232,-6.9403443
-4.3223352,8.413183,0.116922006,-0.3052336,4.2593946,0.35688922,0.72751004,-2.0822074,-2.2017856,-5.79236,-9.26847,3.6175163
-3.059993,-4.613203,-2.3564394,0.8092608,3.220358,1.9300508,-0.9772533,-2.7353344,-1.0334464,-4.136717,6.579722,5.1871552
2.668235,-5.648034,4.9519258,0.63932174,3.4630356,6.742581,-6.838446,-4.111504,0.023900384,0.49108657,5.1921506,-4.332906
-0.18747538,-4.2715144,0.9890978,0.41971892,1.1051352,3.7244947,-6.9393697,-2.0740716,-0.0073531726,0.11187068,4.3303065,-0.23458724
-0.048831664,-4.0337048,-0.20299178,2.2764437,-1.0528107,6.1256843,-4.331527,4.217134,0.002207471,-0.16731936,3.8219147,0.46475303
-0.385893,-1.9501138,-2.2951617,-4.9311604,-5.0268626,-1.6779587,-4.843582,8.350014,0.0028418493,-0.7737337,2.3244302,1.5612171
-0.3221696,-1.6831203,-3.6720796,-4.1341734,-11.234347,-7.774216,4.5179534,12.453658,0.0018116292,-1.9902799,0.4018767,4.9911222
11.599386,2.3701818,-0.0004213915,14.647688,0.6912874,35.036224,26.335402,-14.561105,-12.851343,13.980129,2.6292012,-33.885136
-1.381964,12.592469,-0.0002671166,0.2174809,4.8609815,0.27539766,0.59167737,-2.3203485,-1.6101229,-0.42048058,-11.496698,-0.5846619
-3.366838,2.9254904,-8.156946,1.4203951,2.3683038,2.9075248,-1.2126527,-2.3902166,-1.2081894,-4.0204883,-3.1258662,11.063602
0.59169036,-5.886154,3.9048834,-1.5844104,-4.347759,-1.4202313,-7.5514183,-3.3680046,0.00081921834,1.9421632,6.248492,-4.367
0.18364352,-3.8579457,0.16045496,1.133713,0.5288088,3.885683,-3.6439712,-1.4914427,-0.072891876,-0.6988323,3.69894,0.0488923
-0.02174798,-2.9843762,-1.831484,-2.3702002,-1.9015712,-3.5977356,-3.252003,5.774693,0.0017439601,-0.7989604,2.426437,3.0035155
-0.62885743,-1.3973695,-3.6045609,-2.6697855,-3.9747655,-7.2969995,1.7018172,9.795999,-0.16678251,-1.2915802,1.1285596,4.084915
10.832944,-1.6214812,-0.000404678,16.850447,-1.1374952,35.978195,24.67241,-10.86368,-16.08005,13.842512,7.144653,-43.461864
-2.9714575,10.400482,-0.0002506118,-0.36412027,4.3127084,-0.36053747,0.95226896,-2.3347487,-0.8986849,-0.058247354,-9.968998,-0.51417905
-2.3244622,1.0314133,-1.4641281,-0.50522476,3.6096072,1.3426656,0.38781738,-2.4025156,-2.044312,-4.3798666,-3.946523,1.6595966
2.2024443,-4.493715,5.3086486,-2.1363852,-3.8214965,-4.7864494,-6.720902,-9.896096,18.229128,7.5601473,8.19397,-17.291466
0.042686403,-4.07963,0.8694346,-0.3758376,2.3926578,2.0777655,-6.3994403,-0.6551207,0.056357987,0.33613288,4.241295,-0.98695534
-0.13070914,-3.418494,-0.94118845,0.4199879,-2.5228674,-3.6488943,-3.998537,4.8992763,0.004333955,-0.3674547,3.0405264,1.4386282
0.20259942,-1.9212539,-2.6245058,-3.9970255,-5.4937644,-6.1377254,-1.8358117,9.332313,-0.00021398888,-1.5067936,1.4398118,3.2389076
0.11058527,0.012860298,0.7029915,10.338514,-7.8953085,17.198324,21.391975,0.99690837,-14.20974,-0.5249059,-0.23805392,-4.448091
1.1660914,12.6203785,-0.0004178658,0.80982614,3.6467168,0.26424974,-0.27138644,-2.2360244,-0.5549107,4.8217115,-12.701348,-5.353549
-4.339563,8.43348,-6.7915916,0.42601523,2.9468691,1.976698,0.3308615,-1.8943229,-2.288366,-5.6995487,-11.957649,12.182742
-7.7017508,-6.69081,-11.165193,0.29492617,2.560009,2.2846444,2.0478983,-9.642325,17.461567,-6.0259566,10.819853,15.224646
0.76276886,-3.736003,0.1332972,1.7229168,0.06925577,4.3992977,-1.6860653,-1.3804833,-0.012909841,-1.342542,3.0065908,1.1946745
0.111557126,-2.8498964,-1.7579224,-5.387866,-4.130442,-6.2847524,-3.7941484,7.932042,0.005567779,-0.6692705,2.3686974,2.428472
-0.24690647,-1.3473811,-3.8234315,0.44702226,-5.5078735,-0.007902178,9.632716,9.259236,-0.06880053,-2.6555467,-0.2177125,5.827461
4.784015,12.441071,-0.00035289384,-0.7874737,6.4427323,-2.7639284,0.39760792,-2.8516374,-0.4522611,7.1281166,-15.107204,-4.732572
-4.1892877,6.4528484,-3.7834237e-05,0.36733204,3.2020574,2.084341,0.55488557,-1.9367565,-2.132428,-2.9597032,-7.609505,2.0912573
-4.7747974,-7.382553,-2.3980951,1.2413495,1.3182079,3.276299,1.6899581,-10.274683,16.263878,-4.975264,9.625507,13.806176
0.67401123,-4.7451425,2.4630024,-0.24394777,1.6721469,-0.18387406,-9.670763,-2.723755,0.0052658143,0.99648976,4.953043,-2.9907713
-0.40581715,-3.2609363,-0.66903406,0.025550153,0.30282015,0.70001906,-2.8734882,3.150416,0.0029705085,-0.23129463,3.3025134,0.6767239
0.35980353,-3.319715,-1.2305306,-2.6948743,-5.248624,-2.918203,-3.3411174,5.0360947,-0.00082851015,-0.75998616,2.7769592,1.7857974
-0.92583066,-0.43949306,-4.30736,-2.2746077,-5.0955186,-6.8831162,3.8036754,10.9442,-0.44645223,-1.4857877,0.86264724,3.8904212
13.985353,-0.50253814,-0.00033797516,14.114391,-3.6310852,15.370085,21.568096,-9.505398,-2.6037636,0.58002305,-9.203339,12.216332
-4.835069,10.589704,-0.00015868671,0.7954496,3.385635,0.9777067,-0.04322827,-1.9273515,-1.6352485,-2.282672,-7.850808,1.5015495
-3.9442825,1.4018044,-7.2181597,0.6066229,2.3748252,2.6394556,-0.5110235,-2.386878,-1.0961869,-3.5865002,2.095123,8.528748
2.4173129,-5.4185057,5.353778,-3.1084275,-3.604077,-6.448019,-2.126986,-7.0117817,17.502836,2.3068528,5.6210675,-6.1511626
-0.36597466,-4.1749434,0.55781066,-1.1740106,-2.397176,-1.6912221,-7.171068,0.09641111,0.010444602,0.23703712,3.7213855,0.13444915
0.21741405,-3.4221754,-0.80355227,-3.0730557,-5.3113523,-1.8845272,-2.4386988,4.877715,0.5275742,-0.535678,3.0065403,1.2155961
-0.45463952,-1.3588883,-3.4392624,-0.7035988,-3.9573731,-5.3655987,4.978001,9.2464285,0.9528262,-1.7331438,0.667626,4.175632
16.01831,6.5209517,-0.00041958457,-0.7896932,8.014497,-8.873182,-6.4198728,-5.161556,7.285834,9.237786,-11.98694,-6.0114145
-5.17773,10.569915,-0.000137917,0.13862142,4.207766,0.554015,0.26520696,-2.2117248,-1.7250402,-2.2716923,-8.1611595,1.5487708
-3.7637882,-4.8005204,-1.4829123,0.042376846,2.070813,2.477576,-0.5051837,-2.4753087,-0.900209,-4.344367,7.298515,5.0985956
0.6825348,-4.5814695,2.5813937,0.28863186,2.1593301,2.7244925,-6.694065,-7.4131827,-0.012788439,0.39318055,4.589386,-1.2993824
-0.3490795,-4.1771793,0.09320713,-1.3409575,-0.9499514,-1.819767,-4.689173,3.1357944,0.084278,0.09514582,3.7169867,0.7921866
-0.014856882,-2.5817504,-2.0040016,-6.5256176,-7.2273965,-8.174492,-0.9422957,11.121725,-0.0005455543,-1.0086421,1.7473359,2.9086258
3.4538288,1.4623091,-0.0006369145,8.626089,-5.1688714,10.839875,19.717344,0.575242,-11.966586,-0.36026794,2.7098532,-5.840442
0.66753805,12.897453,-0.00031049078,0.08134976,5.22839,-1.3144174,0.23308772,-2.2099316,-0.8243076,2.2779524,-11.650063,-2.0613997
-5.978645,7.458495,-0.53673947,0.8929189,2.9335313,2.1190324,-0.2272702,-2.1948843,-1.3801798,-4.1785436,-7.3181496,4.2416115
7.555886,-6.627686,8.985425,-0.14285976,0.36119163,-0.36417198,-4.055237,-11.820753,18.99569,-0.4686458,6.176092,-6.5927067
-0.10321001,-4.5485644,0.9168627,0.21953811,1.3576652,3.4824255,-6.33705,-0.40581197,-0.0046788547,-0.23276675,4.376609,-0.32531568
-0.5470161,-2.9966543,-1.0761454,-2.0251935,3.7941356,-16.520157,-4.0363517,5.1564245,0.00016468577,0.077746525,3.0182052,1.084605
-0.7232865,-1.1251924,-3.7313273,-5.717644,-7.3757033,-8.974844,1.8168805,10.340799,0.0029401835,-1.4090815,0.9421201,3.9281907
11.571516,0.76163286,-0.00043364754,15.431391,-0.35165754,29.06784,24.539,-8.796154,-16.329433,14.034873,5.1968293,-39.11508
-1.5015736,10.716935,-0.00031672028,0.28049013,4.793936,-0.65812886,0.005579978,-2.7734985,-0.5748839,-0.8047576,-11.53418,-1.6510986
-2.78427,0.5902863,-1.8468577,0.19298577,3.3597183,1.926984,0.16352776,-2.4105005,-1.9492941,-4.208681,1.8364953,2.3976157
2.4864209,-5.995207,5.714764,-1.1477721,-2.456428,-1.0635127,-4.764084,-2.73749,1.312604,1.9080263,6.128745,-6.4931073
-0.5737973,-4.088718,0.62609714,0.38108242,4.145864,-10.3575945,-5.9740252,1.2166978,0.0008223803,0.99604166,4.5200114,-0.9817254
0.88373387,-4.09086,-0.45714235,-4.266596,-6.5831103,-3.8185449,-3.404434,7.7632985,0.00040815712,-1.1235421,2.5643983,2.3028364
-0.6523965,-1.0941638,-3.7466836,-2.9605536,-3.5170252,-3.068356,2.5827923,8.476521,0.7108868,-1.1269561,1.1799785,3.7129827
14.116462,7.22939,-0.00032332534,-1.9914069,7.5720425,-9.391712,26.177958,-13.842953,-15.841097,13.389285,-4.1698804,-32.514816
-4.4017835,5.6253886,-6.187432e-05,0.65201235,2.6836798,1.8424063,0.20560804,-1.7449181,-1.7750461,-4.772216,-9.233692,3.2995174
-2.626851,-0.99099445,-5.0791225,0.77461195,2.4957829,2.3457494,-1.0455358,-2.951388,-0.26683113,-1.9544891,6.68218,4.7318664
2.333955,-5.600157,4.4490066,-0.05237815,-0.906638,0.91180766,-8.99025,-4.4156337,0.0015576028,0.31585163,4.8177996,-3.2345622
-0.12419535,-3.8977222,0.21731845,0.6548065,-0.18504122,1.3951411,-4.823312,1.5546588,-0.014187751,-0.30716312,3.2251077,0.73570216
-0.2965967,-2.6439538,-1.9939852,-6.376963,-5.9222174,-11.254306,-2.5073931,8.510128,0.0023544158,-0.8003812,2.1436443,2.205967
-0.2958132,-1.0926608,-3.9155715,2.213776,-6.529495,-1.2242305,11.997714,9.552376,-1.2450621,-3.0635138,-0.62145007,6.119098
3.8959434,14.698117,-0.0003123632,-1.4809935,6.4573755,-3.2294872,1.4020998,-2.8923106,-0.70224947,7.9784365,-13.863544,-9.898493
-3.6842644,2.755091,-1.6175951,-0.009285411,4.127915,0.9494251,0.15616307,-2.3949506,-1.9088365,-4.477575,-5.216318,2.4221494
-5.600267,-2.0944421,-7.4288607,1.2308558,1.7662265,2.840845,-1.1559772,-2.581033,-0.07515101,-2.9500282,8.621899,7.1714787
1.2791632,-5.410212,3.800368,-0.54487777,2.9261634,1.7125297,-10.037742,-5.4926033,-0.009720599,1.159778,5.3227406,-3.562098
-0.20582885,-3.8424933,0.07794378,1.2343779,-0.13135985,3.5241387,-4.180136,2.6436965,-0.000561289,-0.028261982,3.412695,0.3705389
-0.001565136,-3.3205388,-1.0988754,-4.532016,-5.6838655,-2.0104406,-6.044527,7.5994463,8.149119e-05,-0.76080596,2.3675995,1.7492237
-1.0866914,-1.7824811,-3.3545587,-2.7941482,-11.370714,-8.303867,5.564083,12.12995,0.085590914,-1.393923,0.4502231,4.593639
7.546886,12.36407,-0.00035678432,-2.9142349,9.962895,-10.288996,-2.0081234,-5.1749306,3.6966226,8.277244,-14.637752,-8.175384
-3.9980068,1.2883309,-2.0374963,0.811674,2.5736253,2.7896347,-0.6161891,-2.738693,-0.9259902,-4.1521306,2.0843098,4.3312335
3.1107228,-5.7203393,5.9074388,0.4222858,3.977182,1.2448301,-5.840034,-8.231957,11.337217,2.3246014,6.0749025,-7.2389536
0.019885495,-4.4964604,1.08971,1.1483717,-0.06294594,4.700557,-7.0841904,1.5552154,0.0027320087,0.29490024,4.507973,-1.0847673
-0.33857515,-2.481586,-1.7080702,-3.6149402,-2.589522,-0.4719156,-4.6287675,5.7481833,-0.0058932058,-0.573869,2.6293397,1.7627141
-0.43416286,-1.8620703,-3.454901,-4.7380495,-7.344748,-5.042974,1.0069361,9.852142,0.0031231074,-1.6673851,0.9506793,4.3435326
0.26692343,-2.4878654,23.303497,7.553934,-6.0046034,8.523809,17.249308,3.007015,-9.699189,-2.2726626,0.09051639,5.0893965
2.969556,11.682729,-0.00041229127,-0.353023,5.51412,-1.5047771,-1.3787771,-5.212853,3.3544672,7.43177,-12.820578,-10.878779
-4.7242775,8.628861,-7.483193e-05,-0.5529252,3.9679217,1.2837161,1.0663638,-2.1089816,-2.3689406,-3.6461165,-8.484035,2.28947
-5.040356,-6.5180316,-1.280725,1.4790691,0.77580845,3.807348,-1.1715477,-3.5826035,0.3792034,-2.6640272,11.152399,7.6067123
0.666373,-4.6311026,2.5391707,-0.1829624,2.1480722,2.212948,-9.139096,-5.7670965,-0.016001584,0.9226955,4.823104,-2.8760562
-0.049389165,-3.683191,-0.07238149,1.481463,-0.44113296,4.790683,-1.7604196,2.060449,0.10290213,-0.5491259,3.1716814,0.72015786
-0.064912274,-2.2101698,-2.3215032,-2.9203618,-0.8148869,-4.754394,-2.993619,8.050604,0.004206598,-0.7936155,2.164248,2.7980819
-1.0727911,-1.7991586,-2.7288914,1.4090458,-5.879107,-1.9818696,8.786077,8.8472805,-0.38601616,-2.058838,0.19997922,5.08945
2.1686318,11.767697,-0.00043474894,1.1937906,4.1089444,-0.41329494,-1.2611375,-2.7223537,0.25028765,2.2487714,-9.447589,-5.777048
-4.313484,3.7011027,-0.7868935,-0.1287378,3.29314,1.433386,0.51021636,-2.0164118,-1.8367654,-4.8130717,-6.8739347,3.6557114
-10.131961,-6.74549,-10.194177,1.1497637,5.4517984,5.7071457,2.0546837,-11.921135,21.932533,8.061974,7.4973836,-16.868273
0.12094829,-4.7668695,2.0277145,-0.032844707,1.7136731,3.262813,-7.4380507,-5.278436,-0.007103961,0.80812347,5.2198544,-2.1132467
-0.48504436,-3.518891,-0.17127122,-1.5121281,0.2533518,-11.254959,-4.2143383,4.9677744,-0.91359264,0.68435925,4.1550417,-0.44982478
0.15735361,-2.0904427,-2.7427692,-6.7326503,-3.9899747,-7.739844,-2.1645975,9.608782,0.012088456,-1.3830091,1.8076601,3.2779472
-1.5768424,-1.9444485,-3.6931376,1.7374312,-7.744848,-0.939049,12.341281,10.172871,-2.7518156,-1.4939712,0.11516896,5.137173
5.026489,9.493163,-0.0003979,0.19671799,6.201913,-2.3651876,-0.99311733,-3.6787665,0.4215137,3.91268,-11.417874,-7.8900075
-4.3822904,10.7048235,-0.0001076787,0.09451262,3.964762,1.4618195,0.36177424,-2.5725539,-1.7766266,-3.3343008,-8.804632,1.429444
-7.2549515,-7.3565707,-3.7409189,-1.3377802,-0.5145373,-4.6334968,-1.4451784,-12.651761,28.715668,8.852171,7.229321,-16.232258
-0.390791,-5.176441,1.8250749,-0.6342739,2.476563,2.61907,-7.1046987,-4.006744,-0.021948328,0.77277017,5.636126,-2.308213
-0.25743747,-3.9379656,-0.52146775,-0.9767552,1.4723432,-12.983177,-4.1403937,6.22904,0.3479953,-0.3217012,3.8411803,0.51028085
-0.15785624,-2.2647495,-2.8481047,-4.116679,-7.0597706,-4.744701,-1.0017309,8.241807,-0.20411292,-0.86613715,2.2048385,2.946669
-1.3712966,-1.7493094,-2.3314896,2.4322343,-5.113642,-0.70797306,10.416989,7.0272717,-0.9688786,-1.6576911,0.1562408,4.6949453
0.71161205,10.593203,-0.00038526993,-0.23633061,5.7823935,-1.6895034,0.29416224,-2.9645905,-0.074628696,3.6035442,-11.038815,-4.6598682
-3.5908062,6.0302854,-2.1840122,0.0034011193,3.2162735,1.695654,0.024627797,-2.541248,-1.1905607,-4.9332905,-7.4436493,2.95367
-6.4330664,-7.524487,-6.1991034,1.2806476,0.5573583,1.6555835,2.3918083,-6.708009,5.078661,-6.387828,11.587948,15.454984
0.069959685,-4.979421,2.6886408,-1.0484513,3.8897355,0.9664228,-9.3944025,-5.5823264,-0.011386441,1.105774,4.810116,-2.0660863
-1.0120662,-3.5012236,-0.30865866,0.18675299,-0.31931555,2.1600876,-3.3426998,2.0084374,-0.00037304917,0.26842016,3.2790408,-0.014340699
-0.3774661,-3.6733239,-0.89277464,-2.146511,-2.9729614,-2.0512676,-4.2231555,3.3300667,-0.001340739,-0.037382826,3.1837513,1.1883699
-0.67881507,-1.1230586,-3.9542954,-4.341479,-6.080059,-6.758799,2.0885983,10.555968,0.004384771,-1.4167657,1.2109737,3.693565
10.605206,4.9274755,-0.00041688827,-5.7535505,8.646378,-10.423133,25.399376,-16.330563,-3.746877,18.311972,-3.4625201,-29.185843
-3.9782388,10.0020275,-0.00012217366,0.6687981,3.552838,0.6700844,-0.1895215,-2.2858298,-1.0993779,-4.526732,-11.07265,2.1635377
-2.8604739,-4.33323,-1.48701,0.63679296,2.8054292,1.997582,-1.4261892,-3.2593675,-0.37556374,-4.2636538,5.194727,3.2105591
0.55481625,-4.934397,2.9651148,-0.28684592,2.1691685,2.562453,-6.5709643,-6.517058,-0.010196339,1.0337286,4.9044685,-2.2127116
-0.64381605,-3.7765436,-0.13022509,-1.9917718,2.7359989,-11.091132,-5.5271688,6.7553787,0.00055855233,0.31424934,3.0026596,0.94538844
0.13771147,-2.726524,-1.7489349,-4.539179,-3.5070322,-4.951121,-0.9166447,8.667056,-0.0014475547,-1.1692197,1.4785721,3.1724803
12.711938,1.0631586,-0.0004427936,17.500404,-1.5521327,43.404972,23.326836,-11.673618,-5.384948,6.9677386,-1.7683905,-7.2092752
-4.4506326,9.182372,-0.00013564422,0.1444008,3.4781175,1.0879551,0.42726806,-2.1976573,-1.2386484,-2.9233832,-10.284133,1.0652634
-6.470653,-7.326236,-2.7772295,0.93729997,1.794783,3.118351,1.1545645,-5.5564713,1.1779721,-3.4124827,11.147055,6.429071
0.05499444,-4.418647,1.6426027,-0.18904209,2.7321224,1.9709171,-8.690783,-4.541478,-0.016490942,0.6445387,4.700822,-1.6415303
-0.13863216,-3.6760342,-0.31052855,-1.2013956,4.417546,-12.261545,-5.830541,4.2481523,-0.0017651687,0.14122286,3.8430989,0.5385344
-0.71922535,-1.5960319,-3.2244003,-5.126514,-4.921292,-7.095846,0.54868144,12.505209,0.00078766624,-0.6030896,1.6988446,3.2777586
10.873921,-0.03204675,-0.00044778327,16.53224,0.5046632,31.279976,26.064095,-10.883405,-16.732935,11.26637,3.3659096,-37.9132
-4.147133,13.244853,-0.00015221603,-0.30550307,4.6865354,-0.16688286,0.56362027,-2.3415449,-1.219843,-3.1257489,-11.919497,3.6712046
-2.197973,1.0908122,-1.4195116,0.64823604,2.9242852,2.3768911,-0.6261082,-2.5483818,-1.3456246,-3.4436429,0.44996077,2.984813
3.1564918,-6.3488817,6.177786,-0.6051255,-2.7476642,-2.6556916,-5.729149,-3.1367106,0.0040869713,0.93563986,5.561655,-5.3696356
-0.35678577,-4.325539,0.6146563,0.5314412,0.88185024,4.033652,-4.13216,1.3804033,-0.42418513,0.15999427,4.391644,-0.45521593
0.13270532,-3.3568113,-1.0783912,-4.5727925,-2.827722,-10.981582,-4.057783,6.862196,0.0017438296,-0.34019828,3.1388142,1.4107344
-0.36393487,-1.54954,-3.6887574,-1.1283526,-5.7568264,-4.0667853,5.3547177,10.09469,0.0005201815,-1.9400729,0.52052766,4.812957
6.259807,9.848615,-0.0004175988,-2.835894,8.499233,-9.374403,-6.3357897,-7.6793265,10.741445,10.714357,-11.332875,-9.817694
-4.4568114,9.657942,-5.1321374e-05,0.15053976,3.294389,1.5814439,0.5032366,-1.8956306,-2.1735451,-5.515439,-11.975942,4.422949
-7.8589773,-5.8898716,-7.2692432,1.6478108,1.0300572,3.667758,3.8538952,-10.739267,15.714235,-4.1246095,12.0415945,15.075447
0.5434867,-4.353339,2.0221665,0.16126768,2.9736795,1.6999307,-7.956208,-4.0577717,-0.008432021,0.2598924,4.3882594,-1.2650266
-0.16191556,-4.160255,0.3524649,1.0649605,1.2413815,3.8008265,-4.0253525,1.5724841,0.026200041,-0.2872076,3.404583,0.62301457
0.4681841,-2.9214418,-1.7443247,-3.2686176,-4.1725736,-2.8747246,-1.3916321,6.0653505,0.18913911,-1.2392031,2.0503852,2.9454458
1.881699,-9.719051,34.999977,1.0476109,-8.991704,2.0078833,11.516882,11.899159,-17.507763,-2.9265132,-0.1027417,5.2594523
-2.0797863,13.167468,-0.0002633424,0.54099053,4.3673854,-0.48895764,-0.6346731,-2.6522355,0.40153256,-1.1613338,-12.317544,-0.10219857
-2.2159672,3.5466635,-4.6100426,0.5664973,3.0145688,2.1554487,-0.75639653,-2.7043624,-0.57208776,-3.5254345,-1.9878007,1.615581
-5.390587,-6.2327,-5.9181213,1.2875715,0.8467066,3.959917,0.55426884,-5.6113195,2.8519325,-4.005669,12.720682,14.418565
-0.40292937,-5.362386,2.150373,0.97533774,-1.2546726,-0.25940785,-8.373881,-3.4350104,0.0037586007,1.1747589,5.1831703,-1.6757758
-0.92587835,-3.1324227,-1.169752,-2.4158468,-3.1395967,-1.483033,-3.587844,4.056295,-6.765057e-05,0.11192523,3.145421,0.8956818
0.15191993,-1.971208,-2.700774,-3.7327995,-3.8338737,-6.7258096,-1.4706188,8.859876,0.0041722897,-1.1417506,1.9064394,2.899717
9.804813,3.2254968,-0.00020578568,14.269344,-3.6901746,18.375513,21.923939,-3.4300566,-5.613406,-0.78186816,-6.1317353,8.358472
-3.7761652,10.231697,-0.00011625263,0.85382074,3.6166046,0.27684373,-0.8264508,-2.2860801,-0.32037655,-2.5846334,-10.386567,1.5952907
-2.0523264,0.39848012,-1.0334876,0.4265235,3.6997726,1.5502187,-0.40070215,-2.662054,-1.2265869,-2.835061,-0.2808097,1.6059119
0.8556408,-4.2860484,4.2426343,0.41643432,6.16603,9.115135,0.59151554,-9.565799,21.41335,8.050177,8.246724,-17.101532
0.16558203,-4.343774,0.8681633,0.7342855,1.3238921,3.5173929,-7.8036833,-2.4158027,-0.010292322,-0.17538512,4.179819,-0.28573847
0.5650708,-3.200747,-0.83399904,2.4237304,4.1051116,2.4804034,-4.2235937,5.586618,-0.055920016,-0.70628405,3.042964,0.8464465
-0.30898944,-1.4586688,-3.4812887,-3.529905,-6.6022587,-6.0153174,2.448461,9.115324,0.0076371823,-1.437836,1.2124944,3.7417054
2.9750829,2.2515516,0.0361548,11.659571,-5.546103,12.42244,18.9937,-0.17312892,-5.7529745,-2.1828437,-0.16246513,4.7174673
2.259294,11.309041,-0.00039312936,1.8494372,3.9590256,0.9637976,-1.5095171,-3.1860936,0.48825932,2.7571793,-9.68897,-3.9849112
-3.4805043,11.716428,-2.9389841e-05,0.5107733,3.9206445,1.4597038,-0.2448046,-2.6115859,-1.6954112,-5.675114,-12.434257,2.9177024
-6.5018415,-4.9241247,-2.361927,0.51938313,2.4050322,3.0318089,0.11385828,-2.9233062,-1.2027333,-4.290428,8.369173,8.807737
2.2339578,-5.997475,4.861038,-0.13972242,4.3122277,0.58701277,-6.04932,-3.660084,-0.0034943111,0.557727,5.4931326,-3.8062108
-0.3007685,-4.0735235,0.5516843,0.8794858,0.9989292,3.8119378,-6.395582,-3.4459612,-1.0220853,-0.37145412,3.885665,0.16931447
0.3581806,-4.258461,-0.08732801,0.2949655,-0.10792911,-0.32377696,-5.2860937,5.0260878,0.9097416,-0.69094616,3.1021044,1.6499856
-0.16457734,-2.5980906,-2.100537,-4.5501804,-4.519291,-5.099177,-1.3061604,7.7228713,0.0004720874,-0.3359008,2.6489716,2.1356502
-0.11015913,-1.034398,-3.9537046,-2.829588,-8.805908,-6.902153,6.7998047,11.727834,-0.14284112,-1.7355113,0.6859858,4.5333867
17.090057,8.477471,-0.00045092194,-0.029698119,7.91032,-8.278233,-8.687815,-4.9884367,9.362444,9.523968,-15.638763,-2.5523915
-2.9217362,13.085173,-0.00023210532,0.07880817,4.79425,-0.04624045,0.3211741,-2.5960972,-1.1268243,-2.0028641,-9.003109,2.3538227
-3.7149804,2.6584659,-1.8064835,0.32924145,3.5634675,1.7493011,-0.1829654,-2.2730618,-1.5677184,-4.88182,-0.30060336,5.106572
7.0017333,-6.6401224,9.190761,-1.0768303,-5.1510987,-5.2072415,-2.190925,-10.396228,23.374401,2.4865131,7.1918855,-12.544972
-0.16725314,-4.077582,0.8356589,0.94019824,0.9070585,3.866383,-5.290259,-4.101211,-0.010435261,-0.10472274,3.9932067,0.009289834
-0.123962715,-4.345347,-0.13823837,0.8701171,0.5185996,4.3780136,-4.02657,3.8731732,0.6815013,-0.273354,3.896812,0.57098454
-0.2743046,-1.5393578,-3.3289425,-3.9053218,-5.072006,-6.34622,-1.1137804,9.576574,0.0027752433,-1.159226,1.70683,3.2947912
16.760376,0.21413302,-0.00044672913,16.428968,0.78219634,20.888044,20.335768,-15.611609,-0.9510098,9.691985,-7.3016934,-3.4697254
-5.062653,10.762728,-0.000107127824,-0.79897016,5.2764673,-0.65106326,0.9197793,-2.668729,-1.6420736,-2.9763687,-10.433408,2.071055
-4.6699557,-4.6031384,-1.6756995,-0.47074184,3.1343403,1.6961426,-0.44172087,-3.2177124,-0.041666687,-3.3599188,8.19912,4.963213
0.93629044,-5.1207714,2.9804773,0.8304904,1.6779504,3.508166,-5.442366,-8.603275,-0.009559151,-0.009136088,5.2057223,-1.660431
-0.988649,-4.898194,0.55773115,-1.3127123,0.44775432,-4.141071,-4.4303913,1.5009639,0.9386545,0.46604815,4.4526815,0.21315423
0.31226957,-2.7269678,-1.791257,-4.2030225,-3.9670336,-10.457336,-4.255409,7.039375,0.005056931,-1.247933,2.2669973,2.4039557
-1.1707367,-2.1857696,-0.5997255,-0.7776643,-8.556068,-6.3375635,7.5334964,12.16282,-6.514641,-1.9643731,0.29377794,5.2520933
9.302089,11.257157,-0.0003943055,-2.9595041,8.446472,-10.108848,-7.79817,-8.337712,13.38959,11.98721,-13.261359,-18.355087
-3.4831233,7.131137,-7.727125e-05,0.06823925,3.6355531,1.3750367,0.079935804,-2.3948228,-1.8576531,-4.098603,-6.631093,0.7964076
0.11546571,-6.201647,-0.64144176,-0.71646345,-0.24996184,0.1395956,0.53147525,0.2632681,0.06286982,-0.12591942,-2.5672112,-2.661018
1.6611859,1.414003,-5.230625,-0.8651831,1.2757589,0.15243778,1.0509204,-0.43010458,-0.013914287,-0.004462839,1.1670071,1.2481835
-0.07990292,0.058410123,0.308507,0.7798793,-0.52427095,1.9718562,-0.9917271,-1.2562091,4.922778,-5.7245283,8.455774,1.6428455
0.20870148,-2.760473,1.2706372,0.16396761,0.35896885,2.0834236,-6.90541,-4.874506,0.0023654457,-0.5908916,1.8606571,0.82948506
-1.0801665,-3.179572,-0.46100125,0.5919756,0.105480835,4.345808,-4.4139752,1.852587,-0.012008855,-0.01793045,2.1003327,2.2675905
-0.97920465,-2.8067787,-1.5994748,-1.8914893,-1.4997438,-11.450303,-4.979363,8.306839,-0.00075954036,0.49710122,2.69864,1.7452244
-1.4981985,-2.526659,4.391729,0.78347754,-8.8923,-3.1045902,10.721831,13.316008,-2.2330992,-2.6221738,-0.31537917,6.047193
1.5860376,14.208197,-0.00032518525,0.055866584,4.503347,-1.5879916,-5.2850685,-7.4405613,10.993464,11.644568,-13.34274,-7.662713
-3.8993788,4.9991436,-2.222739,0.32933402,4.377808,0.7199817,-0.3685738,-2.7121344,-1.4108785,-3.911729,-6.0721436,1.6475192
-8.3434925,-5.067735,-12.418727,1.2090015,1.5600992,2.912476,2.8522568,-8.42182,13.0537815,-6.8707614,10.854003,17.998981
0.117294,-4.6046505,2.0596116,-0.3474768,2.4439049,2.12179,-7.3612795,-3.3748343,-0.016507993,0.8959336,4.315938,-1.2830733
-0.04407613,-3.5798295,-0.37589985,2.2193828,5.0487328,7.600214,-4.145208,3.7741895,0.83783686,-0.48978633,2.8834662,1.1630138
0.060339257,-2.390399,-2.31174,-4.0018296,-4.5157638,-5.1698446,-0.9289534,8.634823,0.0046037426,-1.2906089,1.5678449,2.9813635
2.7537239,-0.16826408,-0.0002779098,8.99232,-7.1923895,10.6221695,21.77073,4.2072024,-16.31186,-2.81527,-0.23643404,5.2494993
-3.1343231,14.429473,-0.00029024086,0.44065893,4.5797467,-0.43918318,-0.050613835,-2.3861701,-0.4866478,-1.2773805,-12.03739,0.9132982
-3.1395288,4.60771,-0.07214222,-0.046883177,3.3812995,1.6948361,-0.090349235,-2.6177897,-1.4556274,-3.7481933,-8.069329,2.8390472
4.3220496,-6.4108286,7.207644,0.69809926,3.560732,5.14916,0.9779209,-5.517192,-4.304184,2.3496501,6.4232416,-8.429808
-0.37754592,-4.4963083,1.239673,0.7551288,0.058327068,4.5071406,-4.3933935,-0.37520397,0.00023998274,0.73702466,4.501736,-1.1861242
-0.5421215,-3.562853,-0.5711493,-1.2440329,0.670359,-3.509993,-5.8642936,5.704008,0.58760554,0.04330857,3.2624702,0.98310006
0.03576041,-2.085221,-2.742331,-4.4818387,-4.4307313,-5.192222,-1.1412532,9.077055,-0.0002258702,-1.0551217,1.8846767,3.0437202
2.775187,2.6296628,1.1198858,9.59686,-4.4053097,6.3371425,18.878347,1.017165,-5.5209045,-1.6058191,-0.42631721,4.3727846
0.32849905,12.705344,-0.00032944744,0.08860343,4.9204364,-0.6530961,0.43701905,-2.4404702,-0.8605118,1.4109933,-13.589656,-4.413525
-3.6720421,7.334566,2.2381544e-05,0.62769186,3.3250167,1.9602946,-0.17566381,-2.5461674,-1.4035654,-4.3096848,-7.0204782,2.0173795
-7.361199,-8.43535,-0.8561632,0.027787905,1.5586319,3.1253269,0.45203194,-4.6396403,1.3121915,-2.3255389,13.339996,7.6176324
0.39194942,-4.8075476,2.6118236,-0.30807695,1.9761362,2.6505737,-6.882653,-6.410698,-0.008529343,1.3590608,5.3175406,-3.3855395
-0.29190946,-3.8777335,-0.18127093,3.5917678,0.58003306,7.869712,-4.5313034,2.8299956,0.04723628,-0.27797455,3.7567484,0.26105636
0.23947856,-2.545865,-1.9496492,-4.185993,-4.2762313,-4.8550982,-2.2444668,6.827941,0.002127199,-1.2320757,1.8513778,2.6968396
-0.98521245,-2.8822951,3.831552,0.98285824,-7.883373,-3.218944,9.961025,9.738876,-3.2286868,-2.2634048,-0.2084733,5.434981
1.2820927,13.184897,-0.00031077542,-0.27462018,5.9504404,-2.324982,-0.04777053,-2.9503329,0.13789482,2.8223498,-12.839669,-4.378291
