ancorasir/BennettWheelLegRL/experiment_data/2023-12-27_22-47-53/joint_position_env5.csv
Joint_1,Joint_2,Joint_3,Joint_4,Joint_5,Joint_6,Joint_7,Joint_8,Joint_9,Joint_10,Joint_11,Joint_12
0.24360718,-0.0,-0.0,-0.37286922,0.0,0.0,-0.40278003,-0.0,-0.0,0.29259324,-0.0,0.0
0.12050843,0.23708734,0.12918998,-0.019457562,-0.047102045,-0.2702083,-0.18309885,-0.18063644,0.09877129,0.14498548,-0.045777064,-0.20062777
0.39549497,0.51982486,0.36024767,-0.04161186,0.14750655,-0.359949,-0.30448237,-0.36840943,0.19126321,0.030741267,-0.33266795,-0.48313075
0.70033175,0.79368234,0.30375507,-0.012944756,0.30314085,-0.23011227,-0.30925027,-0.51482475,0.06985169,-0.053240236,-0.64507854,-0.5198941
0.3481456,0.6633714,0.0021632651,0.06720569,0.37121063,-0.123525426,-0.27956012,-0.8436975,0.23196639,-0.09831193,-0.27624807,-0.21643265
0.50944656,0.28598976,0.2830262,0.08736548,0.439258,-0.04565335,-0.8012461,-1.2093414,0.40000442,-0.07191065,0.12978047,-0.45085582
0.5049935,0.020964477,0.29174685,0.15795867,0.47315496,0.008665944,-1.0478965,-1.0675095,0.39994898,-0.06958264,0.42574614,-0.45906767
0.506693,-0.18919265,0.1644379,-0.12987332,0.18140748,-0.7511409,-1.3853189,-0.5047161,0.39994365,-0.123033054,0.63342714,-0.3206665
0.40183187,-0.31004432,0.1917204,-0.19939332,-0.362882,-1.0887519,-0.88350654,0.27398798,0.24769871,-0.2374213,0.67919374,0.044856276
0.96357864,0.17703693,0.40000015,0.10436331,-0.15887563,-0.5645268,-0.35715407,-0.130901,0.06536606,0.17673308,0.07421079,-0.8246752
0.68856287,0.827215,0.40000004,0.13027859,0.15799871,-0.570601,-0.3627163,-0.3384,0.024810633,0.07368893,-0.4878822,-0.67165226
0.37773597,0.79393435,0.08764336,0.17444399,0.3829745,-0.40079764,-0.34279257,-0.6370341,0.13830712,-0.12654774,-0.35598192,-0.08437303
0.4717712,0.4254691,0.30843416,0.15295133,0.45266247,-0.3058342,-0.7269317,-1.0513909,0.400002,-0.06921574,0.01868775,-0.39063305
0.46421096,0.028524777,0.38386756,0.14958373,0.46211484,-0.21055967,-1.1830055,-0.9428637,0.40000576,-0.055334583,0.41661426,-0.43544444
0.4574614,-0.22488749,0.2428955,-0.22101317,0.14649288,-0.8752156,-1.4433299,-0.34981608,0.39998975,-0.13381492,0.6079211,-0.22993766
0.38072893,-0.3314213,0.19288227,-0.25038302,-0.24282499,-1.1495922,-1.0007594,0.26779515,0.2805583,-0.2472284,0.64003575,0.07594018
0.9291467,0.21786672,0.40000018,0.058686964,-0.038005237,-0.55207676,-0.32832736,-0.18750599,0.043636058,0.32914916,-0.052696694,-0.7073992
0.6461207,0.94130874,0.3257452,0.062491775,0.28437164,-0.5035398,-0.32632482,-0.3978779,-0.018174566,0.027012637,-0.71437365,-0.517945
0.35995585,0.67607206,0.062738985,0.0956042,0.3794173,-0.42906633,-0.33482978,-0.7630789,0.2691777,-0.19291933,-0.28141865,-0.057110574
0.49027872,0.25021806,0.33958852,0.1322609,0.37960476,-0.351669,-0.83854324,-1.1641691,0.3999999,-0.126301,0.16167991,-0.37524363
0.45550585,-0.020121923,0.3141926,0.08328609,0.31019711,-0.43443868,-1.2141243,-0.8834149,0.39999655,-0.117905624,0.44070482,-0.36196244
0.4599899,-0.22148506,0.14326015,-0.2116973,0.08135009,-0.8834791,-1.3913891,-0.2513091,0.3999456,-0.18029982,0.6262269,-0.15056556
0.54511505,-0.3445087,0.4000002,-0.041069575,-0.3400462,-0.64638543,-0.6266962,0.23081969,0.017792622,-0.18645711,0.6446355,-0.12981562
0.86478573,0.47056428,0.40000007,0.03494158,-0.04301746,-0.4871445,-0.226012,-0.27150154,-0.0027930131,0.2930579,-0.3493012,-0.70606387
0.62422174,0.97211725,0.28432307,0.07820165,0.21386388,-0.44934472,-0.2555545,-0.43875584,-0.077804126,-0.022261223,-0.6919283,-0.49159127
0.3646146,0.6517829,0.101554684,0.07833263,0.29200545,-0.4264678,-0.35910696,-0.7807846,0.31431276,-0.15788098,-0.27685466,-0.10505553
0.47495216,0.28981107,0.3518786,0.06968579,0.40561947,-0.34492564,-0.8879754,-1.1307025,0.39999926,-0.10976421,0.0805826,-0.32151747
0.46884403,0.052083302,0.35687885,0.11298211,0.44290107,-0.20912984,-1.1810117,-1.0291681,0.39999717,-0.09829544,0.3415117,-0.35738137
0.47514716,-0.15578777,0.28684455,-0.0733146,0.26835117,-0.64802,-1.3990821,-0.600554,0.39996594,-0.12903836,0.53629994,-0.28302488
0.46830052,-0.27863798,0.108127885,-0.3313676,-0.082995035,-1.0631344,-1.3165108,-0.010807974,0.38801342,-0.21924554,0.6254541,-0.0712766
0.66749835,-0.31140307,0.4000002,0.0731116,-0.33589593,-0.35916138,-0.27023858,0.06220543,-0.08329244,-0.061650656,0.5587714,-0.34374163
0.8699592,0.34683487,0.40000007,0.079359844,-0.003348524,-0.527391,-0.28656024,-0.25456256,0.06371714,0.29088658,-0.14520176,-0.7301319
0.6562693,0.87589103,0.36062792,0.08668018,0.20453097,-0.46254236,-0.29280385,-0.4143888,-0.0015706761,0.07926015,-0.65494174,-0.5713478
0.44686154,0.8505592,0.052982274,0.09835148,0.35667658,-0.3169509,-0.28680578,-0.60002583,-0.010101416,-0.16187078,-0.49473476,-0.16611576
0.45999464,0.50960034,0.20685731,0.08418806,0.31895265,-0.4659676,-0.5249539,-0.9325128,0.40000388,-0.1646936,-0.08148619,-0.2226365
0.4856928,0.2556694,0.31926426,0.10950914,0.39723852,-0.2781966,-0.94074285,-1.151517,0.39999643,-0.123732276,0.18680634,-0.3409493
0.4647049,0.013576292,0.33750415,0.10036884,0.4191065,-0.34422502,-1.205333,-0.94003767,0.3935569,-0.09397277,0.4267924,-0.36082393
0.4576969,-0.16183145,0.24802333,-0.21682814,0.11843475,-0.90072465,-1.3890082,-0.36791757,0.3999827,-0.12472792,0.5844361,-0.25667256
0.42058384,-0.2744343,0.19684611,-0.29433376,-0.22874314,-1.1114972,-1.115331,0.22118817,0.2905569,-0.23162836,0.6245408,0.018775163
0.842871,0.046189502,0.4000002,0.059189204,-0.09895107,-0.47335044,-0.32996652,-0.16525182,0.071318455,0.28977415,0.19787347,-0.7008027
0.7141561,0.8278779,0.3786159,0.053128414,0.20930085,-0.47766325,-0.32500428,-0.35961702,0.02714613,0.14990857,-0.583971,-0.58065605
0.33654308,0.6738724,-0.018899776,0.08985227,0.35594535,-0.32656774,-0.33342913,-0.7505956,0.24387528,-0.16801657,-0.33844644,-0.1087986
0.51341546,0.324649,0.28527436,0.13658734,0.45402017,-0.2928737,-0.78396374,-1.0936191,0.39999893,-0.11611671,0.020647803,-0.3977306
0.5240151,0.01976671,0.29824758,0.18369505,0.51062095,-0.09096987,-1.1456934,-0.98743874,0.39999312,-0.12197568,0.3775557,-0.45003963
0.51150787,-0.12090015,0.17935458,0.071211934,0.47671604,-0.47122768,-1.3367538,-0.6492236,0.39995787,-0.16006453,0.5696174,-0.39364794
0.48512453,-0.24444939,-0.04764041,-0.29499906,-0.084771246,-1.1101289,-1.2425506,0.10882256,0.3984349,-0.30294535,0.659827,-0.102731586
0.8533615,-0.26128206,0.4000002,0.06943541,-0.19450496,-0.46195728,-0.2555527,-0.003479391,-0.03163852,-0.024277397,0.6015585,-0.6355308
0.8320285,0.60442835,0.40000004,0.121767096,0.1640276,-0.5321479,-0.35320094,-0.25521764,0.040683288,0.15948705,-0.33479977,-0.76981443
0.4457829,0.82080996,0.13572004,0.17697144,0.33288372,-0.33922064,-0.3695783,-0.5196019,0.07117652,-0.11968652,-0.42288664,-0.11450219
0.46485144,0.39269122,0.3135639,0.09400621,0.30079538,-0.44523397,-0.7196914,-0.97157025,0.40000275,-0.06352763,0.026655456,-0.3208573
0.4557076,0.10667248,0.3702332,0.09797912,0.3931433,-0.26858214,-1.1118971,-1.0287532,0.40000424,-0.062263694,0.28962216,-0.34238657
0.46664146,-0.13898934,0.32899612,-0.068543725,0.17750128,-0.66919965,-1.3875759,-0.607746,0.39998,-0.101466976,0.4864784,-0.2525589
0.43992165,-0.27866682,0.10808239,-0.3291393,-0.13462216,-1.1070886,-1.186948,0.17940748,0.35653824,-0.19724022,0.5886699,0.0055004978
0.7185827,-0.22588582,0.40000024,0.040309113,-0.19197835,-0.41764647,-0.07886586,-0.07396281,-0.11649949,0.20007451,0.53490293,-0.50394493
0.8522658,0.5859894,0.40000004,0.052344523,0.08846017,-0.47109342,-0.19049357,-0.38114315,0.1462479,0.28955406,-0.37866297,-0.72294974
0.5811119,0.8266329,0.19965118,0.06676031,0.28673786,-0.33612245,-0.19143759,-0.56658715,0.055081792,-0.09202687,-0.70219105,-0.49649176
0.4902882,0.37056825,0.25826076,0.116820715,0.44731733,-0.35055864,-0.7161048,-1.0733345,0.39999744,-0.11845621,0.11343358,-0.31190968
0.49614656,-0.0044339546,0.2630652,0.10390876,0.45034817,-0.3856181,-1.2744083,-0.8737138,0.40000036,-0.11964725,0.50100994,-0.3205729
0.4816187,-0.17967944,0.07434884,-0.32244405,0.0077108406,-1.023342,-1.3954166,-0.09950957,0.3999736,-0.20449357,0.6397429,-0.087783426
0.6093319,-0.3046419,0.4000002,0.0053460603,-0.2376037,-0.43856776,-0.31676942,0.033900578,-0.11986389,-0.054739863,0.64781946,-0.42834732
0.83795345,0.5103694,0.40000013,0.06572713,0.0777066,-0.5166101,-0.32684347,-0.26436928,-0.025205666,0.3076123,-0.31954798,-0.7067514
0.5993213,0.9024216,0.18988712,0.1036367,0.30366823,-0.39121914,-0.3568082,-0.46018925,-0.09351409,-0.084024794,-0.61044574,-0.42239624
0.48926777,0.5541477,0.14123528,0.110671684,0.3833479,-0.39400443,-0.4530424,-0.89251053,0.39999962,-0.15803993,-0.065117575,-0.31415406
0.5459503,0.23441197,0.2822589,0.16486685,0.45833585,-0.13820551,-0.91407967,-1.1649181,0.3921407,-0.1508968,0.2707714,-0.42175105
0.5183132,-0.01197529,0.26993343,0.14935996,0.43520737,-0.3202418,-1.2417246,-0.8526377,0.40007123,-0.1460982,0.5131497,-0.403219
0.5028414,-0.185483,0.110247806,-0.26270446,0.09808249,-1.0251205,-1.4184107,-0.23966645,0.39998052,-0.21062094,0.6550128,-0.20005782
0.5105116,-0.2973579,0.40000004,-0.17173083,-0.34016728,-0.9775063,-0.7790329,0.31916314,0.15353203,-0.32463762,0.6606513,0.11584718
0.899985,0.30985075,0.40000015,0.043850582,-0.006419725,-0.5371398,-0.27370292,-0.26894966,0.13686727,0.29018563,0.0423289,-0.8043846
0.6269889,0.8959963,0.26964644,0.05430101,0.28216314,-0.43682572,-0.26350853,-0.48414496,0.044540197,-0.0088737635,-0.69895977,-0.5314238
0.4369272,0.7572431,0.01717401,0.10535885,0.3390111,-0.34717572,-0.27121827,-0.70071954,0.11087215,-0.22424924,-0.37904435,-0.038958147
0.54395074,0.32646042,0.29778373,0.047598984,0.3342722,-0.41010332,-0.7301608,-1.0683799,0.3999963,-0.16011102,0.07078665,-0.36814716
0.52010727,0.06853284,0.31018102,0.066101976,0.42008516,-0.19313481,-1.100817,-1.0589545,0.3999947,-0.15284401,0.34177986,-0.38840184
0.5239709,-0.20091069,0.17658913,-0.090126544,0.20520487,-0.67824626,-1.3664348,-0.5276815,0.39995053,-0.21048534,0.58977234,-0.22403304
0.45742276,-0.3142431,0.0809488,-0.33205667,-0.20296551,-1.1998663,-1.0646726,0.26073828,0.33363143,-0.34414303,0.62731695,0.12256464
0.9322976,0.16207592,0.40000018,0.002542914,-0.07235385,-0.4881562,-0.1650255,-0.303056,0.12036298,0.35324836,0.08316714,-0.7470873
0.67441255,0.9019289,0.32339168,0.01071154,0.24017048,-0.42226264,-0.16986974,-0.5212703,0.021587519,0.030394495,-0.70228356,-0.5716066
0.3932465,0.67169094,0.07649483,0.017582115,0.38846654,-0.3657532,-0.24475801,-0.82549936,0.28559124,-0.26023152,-0.23154217,-0.036055367
0.4640737,0.31582242,0.30917346,0.024422245,0.4428033,-0.24878627,-0.887888,-1.1865399,0.40000433,-0.15940994,0.14744896,-0.30914354
0.44105715,0.03979715,0.30010593,0.06391775,0.40733936,-0.31963906,-1.2215677,-0.88769335,0.39999956,-0.15250301,0.42757267,-0.3134579
0.42514193,-0.16768178,0.15129678,-0.21779902,0.052885775,-0.8745934,-1.3706262,-0.21219864,0.39998865,-0.21992818,0.5896187,-0.11774819
0.46188372,-0.30691007,0.40000018,-0.13123941,-0.34292355,-0.7276626,-0.77784204,0.271086,0.050236635,-0.26265517,0.6119128,-0.07051089
0.8683946,0.3078862,0.40000015,0.0014287268,-0.017287528,-0.53137213,-0.18260945,-0.17604049,-0.03316034,0.32446375,-0.09620022,-0.74075663
0.5841219,0.9152627,0.24855748,0.03781782,0.26001728,-0.47486797,-0.21182483,-0.3620348,-0.09403022,0.012572913,-0.69661796,-0.48755577
0.37416837,0.5797444,0.12658828,0.06686048,0.31724617,-0.3773107,-0.21578549,-0.82052445,0.32770377,-0.22595027,-0.14424124,0.022608006
0.43562412,0.21776485,0.33009106,0.0071288426,0.32627937,-0.41922972,-0.9943475,-1.0579463,0.3999997,-0.09115003,0.26195577,-0.28936392
0.448357,-0.054401875,0.29530162,-0.07547524,0.28916252,-0.48495483,-1.3038732,-0.7442336,0.39999872,-0.11898489,0.5072438,-0.23312955
0.44652894,-0.2365974,0.09666793,-0.32469547,-0.030921683,-0.98543346,-1.3229926,-0.07991784,0.399968,-0.23118165,0.6232235,0.023379121
0.67697275,-0.32288995,0.4000002,0.00292757,-0.2198062,-0.32880843,-0.2223476,-0.027013402,-0.06453764,-0.07035082,0.66544735,-0.38139895
0.88740146,0.6207069,0.4000001,0.0550348,0.12537453,-0.46306995,-0.23150013,-0.3238909,-0.0869012,0.28453943,-0.27891806,-0.78514
0.45074576,0.84697723,0.07899528,0.13618597,0.31951982,-0.2861117,-0.23735055,-0.58661467,-0.09785725,-0.120614,-0.45844984,-0.16824684
0.48251462,0.4299917,0.24382745,0.07789117,0.3135027,-0.39218757,-0.63383746,-0.96629983,0.39999995,-0.14636199,0.060995717,-0.27723414
0.4766957,0.14043368,0.3127158,0.100586876,0.3760035,-0.25229168,-1.06084,-1.0669105,0.400024,-0.113316745,0.34829706,-0.32233238
0.48448014,-0.10737962,0.26473346,-0.07113572,0.26823673,-0.6851641,-1.3818582,-0.6447568,0.399949,-0.13154882,0.5648094,-0.2305905
0.44227004,-0.32255194,0.3483525,-0.30513382,-0.31618622,-1.0338959,-0.99929464,0.24502158,0.2009196,-0.26064733,0.6369278,0.05363957
0.94553703,0.2941561,0.40000013,0.039335907,-0.03788356,-0.5031875,-0.2621366,-0.22483812,-0.010104462,0.25394434,0.09155181,-0.8740387
0.5725683,0.9326525,0.20964563,0.07482779,0.24377523,-0.4074912,-0.27947426,-0.42821917,-0.086913675,-0.043781716,-0.6306467,-0.4213108
0.3786938,0.50032073,0.23560013,0.085267894,0.21693306,-0.47128904,-0.409781,-0.89092654,0.40000004,-0.10103552,-0.094858296,-0.22783794
0.41412768,0.16922049,0.3599216,0.10781623,0.35569763,-0.3136377,-1.0255538,-1.0467272,0.4000016,-0.07463322,0.23506711,-0.32168522
0.4079558,-0.09793958,0.27629486,0.013745638,0.31924954,-0.5769042,-1.3391355,-0.6921158,0.39995217,-0.09310605,0.5152803,-0.2532364
0.387147,-0.26614717,0.115433045,-0.35235068,-0.18238798,-1.1722136,-1.2118821,0.14152126,0.36686358,-0.21252638,0.6294229,0.030564876
0.82031304,-0.12752825,0.4000002,0.014830944,-0.31590676,-0.4153909,-0.26767984,-0.030117646,-0.012535794,0.24952729,0.4131078,-0.6846739
0.7349738,0.78115654,0.4,-0.006227262,0.08433916,-0.5012216,-0.28050277,-0.28565803,-0.0034723477,0.17601605,-0.56398165,-0.6695057
0.52888066,0.87470293,0.14344427,0.01774536,0.27292526,-0.41305536,-0.32036957,-0.451159,-0.041856155,-0.08873665,-0.6592315,-0.44816172
0.43341327,0.5708138,0.20628166,0.013997461,0.34538266,-0.4032975,-0.43104544,-0.8733618,0.4000348,-0.18642262,-0.103134796,-0.19756256
0.4619145,0.2954291,0.3415273,0.04432172,0.4038069,-0.25311887,-0.8821312,-1.1483991,0.39999866,-0.14165193,0.1808333,-0.33503902
0.43546346,0.072452396,0.335567,0.104576476,0.41628644,-0.20198765,-1.1373253,-0.9981378,0.3999987,-0.14098994,0.39504382,-0.31009635
0.41595528,-0.15786228,0.23606949,-0.16442133,0.12788597,-0.78319925,-1.4194602,-0.40351772,0.39999065,-0.17659132,0.58385974,-0.18887056
0.49610445,-0.2780286,0.40000027,-0.0071463054,-0.35522234,-0.5038327,-0.6054162,0.17974201,0.065388024,-0.18040326,0.63860923,-0.18781756
0.773366,0.7311955,0.40000004,0.04979995,0.15117052,-0.4964394,-0.2954039,-0.29951632,-0.044269983,0.16985336,-0.44783622,-0.66963387
0.32588652,0.75394017,-0.0023247167,0.0977312,0.30527648,-0.37470382,-0.30329543,-0.61009383,0.1207519,-0.2488924,-0.32511124,0.042064283
0.4216334,0.3515073,0.3155413,0.05969597,0.38823885,-0.35324207,-0.79140204,-1.0019277,0.40000582,-0.12759134,0.05948718,-0.3172673
0.42737806,0.024178542,0.36146596,0.08367079,0.39464563,-0.30019927,-1.1904366,-0.9448821,0.4000005,-0.13025475,0.36918446,-0.34931862
0.45933852,-0.20795809,0.3078404,-0.12425136,0.12905656,-0.64790136,-1.3879942,-0.48960397,0.39577416,-0.16061226,0.5633635,-0.24107061
0.4284962,-0.30766377,0.14215967,-0.28893596,-0.20404144,-1.0217427,-1.1952398,0.0984108,0.38572922,-0.22684336,0.64076376,-0.025483578
0.7830571,-0.21799955,0.40000027,-0.005077442,-0.17134722,-0.45688698,-0.12053662,-0.13518983,-0.08436157,0.14553948,0.53296006,-0.5686279
0.888919,0.5031568,0.40000013,0.0021942174,0.13530286,-0.5231093,-0.20789376,-0.36764047,0.04419854,0.35909095,-0.24949595,-0.7716571
0.5474113,0.8808726,0.11072723,0.030291596,0.33287597,-0.35383987,-0.21102537,-0.5501636,-0.045342736,-0.09781864,-0.62364423,-0.339643
0.45453295,0.4937442,0.17012128,0.06894381,0.21726084,-0.48833993,-0.49364364,-0.9273778,0.39998478,-0.1972523,0.026299352,-0.22617944
0.48956743,0.2075523,0.28465438,0.07890374,0.36369458,-0.35952023,-0.93115705,-1.1076217,0.39999783,-0.17825839,0.29622698,-0.29272783
0.46885663,-0.09370131,0.25893143,-0.014371589,0.16642082,-0.50010175,-1.2807034,-0.7202201,0.39996153,-0.1764605,0.54249376,-0.21178542
0.4287914,-0.25493005,0.062001582,-0.3590528,-0.08619147,-1.0484788,-1.2718412,0.023170931,0.39999336,-0.26954025,0.64707756,0.07140605
0.90951926,0.13401905,0.40000013,0.050311144,-0.11370708,-0.5262346,-0.15777159,-0.18654463,0.0076556196,0.24735859,0.1339584,-0.8005628
0.5772048,0.941661,0.22499616,0.08063076,0.18180555,-0.49501628,-0.16120532,-0.40665007,-0.032653634,0.0064166016,-0.6177828,-0.46302888
0.4067743,0.54511595,0.12917942,0.112999916,0.2938868,-0.41927505,-0.23676135,-0.8421515,0.34935805,-0.28188315,-0.113704376,-0.14436232
0.473509,0.27910855,0.28593794,0.09622055,0.31678143,-0.38047522,-0.7542967,-1.0896481,0.40000468,-0.23972225,0.16386235,-0.3116151
0.45367694,0.00036997593,0.30387667,0.105772145,0.36603597,-0.28256372,-1.1280735,-0.9921417,0.39421883,-0.22333866,0.42664462,-0.3228889
0.41646346,-0.23065251,0.13821883,-0.22483438,0.13351052,-0.9443916,-1.3732587,-0.23910472,0.3999656,-0.2566431,0.63602936,-0.15209985
0.42362666,-0.29616442,0.40000027,-0.1475751,-0.3629173,-0.72096777,-0.70548534,0.29196092,0.09477376,-0.2803946,0.67039144,-0.11590451
0.87250596,0.31304616,0.40000013,0.08261687,-0.021360137,-0.48878098,-0.28247473,-0.18831246,0.062331628,0.36728376,-0.13792191,-0.7489752
0.64658344,0.83457327,0.35806766,0.056030817,0.2338391,-0.45253146,-0.26813874,-0.38118958,0.038386397,0.09240195,-0.6787166,-0.56275463
0.42524242,0.5912431,0.098951995,0.078187115,0.39291465,-0.3446089,-0.32253593,-0.82444626,0.2921785,-0.21968101,-0.18062635,-0.11195598
0.49978524,0.20532794,0.3330529,0.07900634,0.42385602,-0.37019908,-0.95486736,-1.0738701,0.39999947,-0.13179037,0.21215355,-0.3746094
0.5017139,-0.099387854,0.3162954,-0.036276206,0.2209243,-0.5502437,-1.2890974,-0.7054369,0.39910817,-0.13998686,0.4986187,-0.33087564
0.46670204,-0.25178394,0.08305359,-0.30094838,-0.09370017,-0.9995069,-1.2940882,-0.0029002142,0.39998546,-0.22423615,0.6338047,-0.08781765
0.7419738,-0.3049106,0.40000024,-0.058355488,-0.31051973,-0.43652508,-0.23276009,-0.055853307,-0.033177443,0.08039481,0.5426676,-0.48143366
0.8009313,0.68590385,0.40000007,0.01350751,0.01878712,-0.5047325,-0.23262584,-0.33326712,-0.058620956,0.26247492,-0.5071736,-0.66865045
0.46452096,0.84845793,0.015037129,0.05567074,0.28300023,-0.41895834,-0.28616533,-0.5327745,-0.122492634,-0.14710288,-0.5153955,-0.26800102
0.4510592,0.46924686,0.24255231,0.028617335,0.3942642,-0.41852778,-0.66494375,-0.96554434,0.39999786,-0.21181507,0.08656919,-0.2979783
0.46676084,0.2234962,0.32087234,0.07096175,0.431866,-0.27427378,-0.9481907,-1.1600084,0.40000194,-0.215355,0.30715716,-0.32059434
0.43924502,-0.012598392,0.30781034,-0.0047848746,0.29732248,-0.5451982,-1.3102986,-0.76853365,0.3999656,-0.21378456,0.5020754,-0.26831114
0.44864702,-0.18076712,0.21219432,-0.23818307,0.11298698,-0.83240235,-1.3648905,-0.2565151,0.39995298,-0.2689019,0.60903054,-0.09417786
0.5400736,-0.26192868,0.40000018,0.003835744,-0.27202398,-0.40050402,-0.49748033,0.19456197,0.04324954,-0.27670923,0.6845292,-0.26752976
0.76762456,0.6457281,0.40000004,0.038146835,0.104623705,-0.4777102,-0.05697363,-0.33084685,0.09437331,0.31756407,-0.48996818,-0.7261279
0.5283836,0.8595132,0.17206696,0.075287975,0.3038191,-0.38318238,-0.093849145,-0.516988,0.06699765,-0.014937792,-0.70275706,-0.4855026
0.43273348,0.52340156,0.20397471,0.05959387,0.39911875,-0.30229387,-0.2842217,-0.927146,0.33048782,-0.25751016,0.012341513,-0.13023208
0.45259407,0.19882526,0.36610925,0.054490983,0.44420567,-0.26220876,-0.9954911,-1.1442589,0.3999992,-0.17656574,0.32195526,-0.26857668
0.3973194,-0.08231345,0.28891727,-0.06153352,0.24735491,-0.68274015,-1.3584725,-0.54316705,0.39998564,-0.18742931,0.5497776,-0.17807217
0.38687795,-0.1984263,0.11256228,-0.3818608,-0.072730035,-1.1031631,-1.2973492,0.086338975,0.3999899,-0.31667283,0.58615005,0.091094844
0.92810565,0.26433188,0.40000013,0.017187063,-0.05664686,-0.46089247,-0.14352876,-0.2581969,0.06029689,0.43419537,-0.03437491,-0.88673174
0.53211474,0.8818868,0.16174592,0.028543944,0.2532687,-0.40860662,-0.16207537,-0.48755777,0.022455378,-0.043611616,-0.71641064,-0.4684051
0.48789868,0.47627312,0.18406892,0.03103324,0.37066272,-0.40146318,-0.40599033,-0.9356972,0.40000024,-0.22698903,-0.042050704,-0.2404556
0.51859415,0.1566699,0.26949805,0.08327753,0.42788154,-0.1671233,-0.9622563,-1.1648278,0.40000176,-0.22925355,0.29005432,-0.3367399
0.4752277,-0.05477606,0.18271378,0.09978941,0.41523254,-0.3953066,-1.220136,-0.80555785,0.3999924,-0.24552402,0.507004,-0.27799538
0.4212674,-0.2238707,-0.04088864,-0.32566515,-0.051728427,-1.1874005,-1.2420696,0.123654306,0.3703562,-0.37281835,0.6095468,0.050317813
0.9928292,0.077726655,0.40000024,0.11340667,-0.11025307,-0.47520083,-0.3139207,-0.07432404,-0.088509925,0.19696449,0.25910747,-0.90987504
0.6822473,0.8911619,0.32934174,0.1413757,0.20086189,-0.4341475,-0.32739764,-0.318128,-0.08652913,0.051859487,-0.5430899,-0.55489624
0.327143,0.7364427,0.032486726,0.17305726,0.34520006,-0.278543,-0.30996048,-0.6534006,0.10741268,-0.15389551,-0.3098398,-0.08340318
0.462361,0.34923586,0.34215388,0.1327435,0.42925215,-0.337418,-0.82090116,-1.0618099,0.4000082,-0.07754284,0.09018106,-0.3627207
0.45401123,0.004518423,0.38509136,0.09909578,0.4276072,-0.397903,-1.2465758,-0.92820764,0.39997497,-0.07156372,0.4215395,-0.39441076
0.44452357,-0.21296152,0.22003135,-0.31686825,0.05210821,-0.9828446,-1.4306766,-0.15191092,0.37142575,-0.15191554,0.6027024,-0.19583856
0.6159024,-0.27491847,0.40000018,0.011876669,-0.29969314,-0.39496613,-0.3537048,0.008245338,0.057417262,0.06256448,0.5712285,-0.459676
0.7993752,0.64644897,0.40000007,-0.0030815261,0.14979674,-0.5405584,-0.31676164,-0.3333111,0.092134826,0.20342554,-0.46124128,-0.6359337
0.5217294,0.91772497,0.13285778,0.03025604,0.40042728,-0.37864453,-0.36208358,-0.5639222,0.014447732,-0.14004354,-0.58190024,-0.28842476
0.528879,0.46807313,0.26663178,0.039773554,0.42052415,-0.3246158,-0.59105694,-1.0320911,0.40000162,-0.21072605,-0.10039453,-0.33924907
0.5132859,0.1393483,0.33331734,0.13434598,0.4237415,-0.0022205943,-0.98668414,-1.1825879,0.39999947,-0.18058097,0.28310323,-0.46745017
0.4637528,-0.08907602,0.26370707,0.067859575,0.39640102,-0.41507253,-1.2911448,-0.7756092,0.39999926,-0.17204306,0.54897195,-0.4437968
0.44080773,-0.26860794,0.04153671,-0.29579136,-0.114085495,-1.1901152,-1.260198,0.08431493,0.3999947,-0.26053426,0.6769293,-0.15841353
0.94393426,0.031455673,0.40000015,0.08543231,-0.12286588,-0.5619098,-0.35270295,-0.1469596,0.09549448,0.2754907,0.263056,-0.79272735
0.68149203,0.8943626,0.34714037,0.09559654,0.26893276,-0.5177806,-0.3563457,-0.41622376,0.04522604,0.036012523,-0.63140386,-0.5584348
0.4258713,0.7171929,0.075559005,0.13201272,0.35379583,-0.44181922,-0.4006899,-0.7934573,0.3466232,-0.15509294,-0.2482939,-0.18963642
0.5323438,0.39050227,0.31936967,0.06549383,0.41759247,-0.4107886,-0.819486,-1.0557235,0.40000787,-0.12979291,0.07701257,-0.36559194
0.4814223,0.079100005,0.3205474,0.10975622,0.43219146,-0.2658434,-1.1686946,-0.9676671,0.39999244,-0.11820779,0.39852214,-0.37078372
0.45965472,-0.15627038,0.19507462,-0.14986858,0.172338,-0.7488512,-1.4033182,-0.44899148,0.399945,-0.16805653,0.5950034,-0.20476
0.45386288,-0.3302949,0.35556588,-0.19663645,-0.30023873,-1.0333573,-0.8501385,0.2803799,0.16195482,-0.32986772,0.6431179,0.17588031
0.8819219,0.24000864,0.40000013,0.038488615,-0.075341806,-0.5374739,-0.26713747,-0.24564914,0.07796312,0.31979787,0.025823021,-0.7349994
0.6565222,0.8723261,0.33931887,0.05900046,0.19753924,-0.45424613,-0.28204027,-0.45894563,0.024329795,0.034641467,-0.63728243,-0.5101024
0.39616895,0.68001866,0.013485768,0.080086716,0.37775737,-0.30198774,-0.28398713,-0.7645566,0.14738287,-0.24957538,-0.27006763,-0.09338884
0.50687337,0.3154573,0.31159732,0.08183722,0.4581007,-0.14606589,-0.8097186,-1.2215183,0.39437765,-0.12957524,0.12469554,-0.38300225
0.47825012,0.03793526,0.3298934,0.1367104,0.47881338,-0.090113156,-1.1279261,-1.031008,0.39998645,-0.092406794,0.43297312,-0.42770818
0.47746006,-0.15756314,0.19518434,-0.14958507,0.1860835,-0.7299809,-1.3992916,-0.43759513,0.39996034,-0.15745667,0.61556584,-0.27004695
0.46357143,-0.36073244,0.40000227,-0.15734395,-0.34567124,-0.87908846,-0.87269866,0.22992888,0.14388989,-0.265104,0.6596731,-0.02528346
0.93570113,0.020743104,0.40000024,0.04953646,-0.10163938,-0.5725059,-0.34283653,-0.10215261,0.0051637376,0.19296868,0.35662472,-0.8221349
0.81461823,0.7222438,0.40000004,0.0807184,0.1563739,-0.55045843,-0.3498843,-0.26395127,-0.03172666,0.13836786,-0.30837604,-0.76492274
0.5607246,0.9228844,0.19949804,0.11969058,0.32595703,-0.4117773,-0.35405716,-0.44833097,-0.075028166,-0.07033507,-0.59828633,-0.30003506
0.45667133,0.5882454,0.15305318,0.11087055,0.29348627,-0.44125566,-0.45569044,-0.8013646,0.39998463,-0.17286536,-0.14270711,-0.26378152
0.5012843,0.29740632,0.30481306,0.12525707,0.4128614,-0.27136338,-0.7999113,-1.1413232,0.40000433,-0.15619054,0.14841247,-0.37379065
0.48374873,0.07075454,0.31519654,0.16758691,0.41899294,-0.17110707,-1.047645,-1.0467118,0.39999253,-0.14837435,0.38047847,-0.38417697
0.46105328,-0.14171089,0.24004763,-0.013725192,0.20721814,-0.698577,-1.350044,-0.6021139,0.39995614,-0.16166054,0.5758577,-0.29749805
0.43468648,-0.2926135,0.14022073,-0.32069364,-0.23046052,-1.1606616,-1.1749395,0.15743507,0.34950826,-0.23695616,0.643597,-0.05595143
0.81172645,-0.13754603,0.40000015,0.058480483,-0.23737498,-0.40552992,-0.29871747,-0.049510933,0.005508455,0.18864532,0.41293928,-0.61619186
0.8341927,0.5323252,0.40000007,0.019037863,0.105020106,-0.5291026,-0.3377557,-0.2728824,0.06296713,0.2874654,-0.29798615,-0.7029858
0.5819565,0.9449846,0.2375379,0.020927278,0.32710922,-0.41079885,-0.3339325,-0.460585,-0.0014439785,-0.0028546124,-0.74942255,-0.47144973
0.35022697,0.6925901,0.0091852425,0.04582814,0.38837606,-0.319971,-0.3222761,-0.704125,0.14519805,-0.19759588,-0.36122727,7.8341196e-05
0.49813706,0.34984162,0.32955527,0.023515068,0.36121488,-0.39405996,-0.7634976,-1.072538,0.39999872,-0.10308777,-0.03440584,-0.31068087
0.48788738,0.023687087,0.3854071,0.041742846,0.41609654,-0.23556986,-1.177421,-1.0411502,0.36805046,-0.076640636,0.29942986,-0.3908479
0.48785242,-0.23342367,0.2981245,-0.07770341,0.22791657,-0.6856931,-1.3973856,-0.59976816,0.39994243,-0.10281137,0.549503,-0.3198335
0.42029577,-0.3636625,0.1186812,-0.29827785,-0.26469588,-1.1149285,-1.0651205,0.24967816,0.3145074,-0.22081363,0.6439852,-0.003124777
0.9101485,0.41478387,0.40000013,0.03697115,0.05001557,-0.5558328,-0.30593154,-0.24676919,0.005515108,0.23463768,-0.100776255,-0.78794765
0.5751142,0.9600076,0.18258812,0.09719233,0.3041654,-0.39803478,-0.33922693,-0.45600504,-0.087604225,-0.07361207,-0.5493483,-0.3044389
0.45007193,0.48229155,0.2669778,0.07877769,0.36016586,-0.4353604,-0.64999455,-0.9584613,0.39999676,-0.080088355,-0.046391677,-0.26624918
0.45666933,0.21184519,0.34484562,0.11483884,0.4169808,-0.30702218,-1.0528458,-1.1225624,0.3999891,-0.058523398,0.23455189,-0.3355598
0.47432172,-0.067560874,0.3272001,-0.03188649,0.172198,-0.5765898,-1.3200786,-0.6497829,0.3896551,-0.079675265,0.4913141,-0.2876959
0.44612175,-0.20558119,0.13192971,-0.2842122,-0.14757146,-1.0074363,-1.2367934,-0.026760997,0.40000072,-0.1340805,0.6347603,-0.09525425
0.65185225,-0.2532793,0.40000018,0.06250592,-0.3084889,-0.43107754,-0.28378633,0.044668287,-0.08420865,0.008034994,0.6493325,-0.4887297
0.84166723,0.50963926,0.40000007,0.09849682,-0.0028020956,-0.5236536,-0.31888673,-0.27533114,0.0759888,0.27447715,-0.29605073,-0.71985537
0.5651204,0.9119059,0.17669016,0.1019946,0.2872105,-0.44190946,-0.31953076,-0.48000148,-0.016912168,-0.034103204,-0.68886936,-0.40702933
0.41466457,0.6429357,0.05944667,0.022630235,0.27516755,-0.40675393,-0.27791932,-0.68111134,0.23623846,-0.17839912,-0.41617596,-0.60688245
0.5000385,0.47515094,0.056707636,-0.12751886,0.22471124,-0.40853465,-0.15756845,-0.7411279,0.39057407,-0.08312355,-0.74953425,-0.64964986
0.5069481,0.489128,-0.011497014,-0.18784302,0.34315428,-0.35123557,-0.0507927,-0.78713775,0.30076087,-0.056549035,-0.8259798,-0.6180297
0.5685561,0.38149717,0.13916306,-0.16649958,0.3515079,-0.22040059,-0.53646976,-1.1264852,0.40000585,-0.24770206,-0.08037254,-0.38345444
0.61222106,0.13775897,0.22557421,-0.07815491,0.34372652,0.059550725,-0.7834668,-1.2967236,0.39019722,-0.260214,0.23578034,-0.38860723
0.5255776,-0.056972675,0.14158495,-0.041970253,0.40655965,-0.28208357,-1.193741,-0.93687344,0.3999484,-0.21250609,0.4767536,-0.32988262
0.45856506,-0.21212228,-0.08048361,-0.2850143,0.09256633,-1.0173632,-1.3761489,-0.18470426,0.39996466,-0.26217556,0.61390156,-0.08937172
0.50370115,-0.36205137,0.4000001,-0.09188658,-0.36789075,-0.8841133,-0.66643584,0.2796386,0.04679421,-0.32577926,0.6112402,0.07703
0.92162925,0.36941406,0.40000013,0.061863378,0.0021535929,-0.52912563,-0.2927791,-0.23666395,-0.052328892,0.20697191,-0.07121765,-0.8226992
0.55695903,0.954166,0.16333485,0.11377958,0.28238875,-0.41646665,-0.32030022,-0.5084979,-0.06992597,-0.07547563,-0.4868002,-0.32655072
0.48460624,0.47633153,0.26273677,0.13820615,0.40878958,-0.36567748,-0.5826776,-0.97341615,0.3999954,-0.11577122,-0.0006952789,-0.36985987
0.49453777,0.18110715,0.35882014,0.17837007,0.46261498,-0.14083175,-0.98985404,-1.0939198,0.38218284,-0.094032116,0.31157124,-0.44660434
0.47800416,-0.10333127,0.31561434,0.033101004,0.3560641,-0.49522662,-1.3370367,-0.69664377,0.3999813,-0.10076514,0.5846072,-0.38049468
0.46043175,-0.27028504,0.12331043,-0.291638,-0.15593311,-1.164718,-1.2585614,0.058361147,0.3726853,-0.1928396,0.68866456,-0.10730149
0.8971513,-0.119473875,0.4000002,0.03619639,-0.2093798,-0.54570216,-0.3830769,-0.06455558,0.01211945,0.32271618,0.27424917,-0.6968627
0.78271735,0.6521812,0.40000007,0.037205033,0.11009464,-0.5683033,-0.39702845,-0.27797604,0.016804053,0.22062866,-0.44873998,-0.6487447
0.55568504,0.9081922,0.1690134,0.0765621,0.33586526,-0.39064947,-0.4113584,-0.500586,-0.05559016,-0.12047728,-0.5528112,-0.260934
0.50524515,0.41850248,0.2953954,0.06460229,0.43910894,-0.33196864,-0.6918018,-1.0377426,0.39997908,-0.065506235,-0.01576783,-0.36972824
0.487834,0.13922277,0.35069373,0.1007891,0.4730676,-0.22486718,-1.0975399,-1.0710171,0.39195865,-0.050269835,0.2789976,-0.429053
0.5010364,-0.12689325,0.29543573,-0.026578767,0.35413104,-0.5195261,-1.3620175,-0.7281867,0.38683072,-0.097575985,0.53115344,-0.36344248
0.48850688,-0.26626042,0.093532346,-0.3228502,-0.092792735,-1.0298241,-1.325862,-0.05718616,0.39998853,-0.1867185,0.65097034,-0.15526167
0.6765347,-0.3327615,0.4000002,0.035717756,-0.25851363,-0.3897696,-0.34672263,0.010612048,-0.03740574,-0.09926349,0.6865502,-0.44096553
0.91170114,0.43481517,0.40000013,0.00600215,0.10409859,-0.56997854,-0.30325827,-0.25990567,0.016348045,0.25590008,-0.1822141,-0.7805944
0.62844765,0.9631685,0.27526268,0.042595703,0.34351608,-0.42745957,-0.3169737,-0.44638386,-0.08514634,-0.02687448,-0.7148783,-0.47383597
0.42157343,0.643743,0.073741265,0.052016765,0.34885588,-0.40425345,-0.34943357,-0.7433815,0.19433032,-0.15859748,-0.2664701,-0.1501154
0.503293,0.2827509,0.275522,0.05751102,0.42976302,-0.30066806,-0.8670551,-1.111091,0.39999706,-0.11815676,0.11968299,-0.37977165
0.47872984,0.014316875,0.22597557,0.071885884,0.3767017,-0.34456158,-1.1712718,-0.89566034,0.40001976,-0.12912795,0.44330183,-0.40196776
0.5013731,-0.18520223,0.075523324,-0.22446667,0.0795161,-0.80268204,-1.3527498,-0.32788906,0.3999494,-0.20591517,0.63737446,-0.23284969
0.5953898,-0.41064638,0.4000002,0.0021349192,-0.3506405,-0.5215725,-0.56121534,0.17978258,-0.0041147936,-0.25274962,0.6994792,-0.21925268
0.9579312,0.18353318,0.40000015,0.11201549,-0.072743334,-0.55721664,-0.3801691,-0.18279883,0.037292313,0.2409942,0.04004703,-0.85295004
