ancorasir/BennettWheelLegRL/experiment_data/2023-12-27_22-47-53/joint_vel_env17.csv
Joint_1,Joint_2,Joint_3,Joint_4,Joint_5,Joint_6,Joint_7,Joint_8,Joint_9,Joint_10,Joint_11,Joint_12
0.0,0.0,0.0,0.0,0.0,0.0,0.0,0.0,0.0,0.0,0.0,0.0
-9.857685,15.237537,-14.68063,-12.56536,7.638893,-12.391263,5.836807,-0.14731684,3.641134,-0.54786515,-19.271318,-3.1424453
6.7541003,-5.797007,13.265164,0.18047172,0.4678113,0.30854303,1.1748333,0.37743905,-0.20031416,1.6323807,2.623138,0.50107735
-3.534961,5.346304,-15.927545,0.40966684,1.5760428,0.97035223,0.39129907,-1.162531,-0.80851007,1.402615,-1.7203255,-1.3576766
1.2597986,-1.4681308,1.127396,1.7136388,-0.4741932,2.6427598,-2.318712,-9.990846,-5.2324786,-5.2946305,11.628532,4.402306
1.793082,-2.7820635,0.2932898,2.495397,0.09334941,3.9024742,-2.3070245,-2.4410236,-0.018428981,-2.2018285,3.1068676,2.4390872
-0.33058277,-2.9903712,-0.73549354,1.348837,-0.32961965,-5.5242453,-2.921051,5.22599,-0.21081218,0.29694593,3.6345356,-0.052020796
-0.46395177,-1.4676862,-3.1429482,-3.7929754,-4.5265465,-0.5562223,-5.46735,4.8687115,0.021510985,-1.0881647,2.416106,1.8178546
-3.4055135,-2.9040124,12.840391,-1.4122456,-6.7661734,-4.0446134,5.4904294,11.143486,0.056083143,-1.8427905,0.26845333,4.6903615
8.837797,11.999046,-0.0003853992,-1.1340986,5.9235706,-2.4952874,0.5981265,-3.3184247,0.3490275,13.060522,-12.166134,-15.544748
-3.4941137,9.531971,-0.00016423356,0.1293247,3.6349363,1.2267585,0.079112604,-2.5119362,-0.80850244,-3.0370426,-11.260351,0.95197827
-5.8455167,-4.0183454,-5.01035,1.1878389,1.4639461,3.679551,1.9320148,-7.4346514,4.578368,-4.3721,9.173558,15.160296
0.85251963,-5.106998,3.2714388,-0.56000715,3.594244,1.2323608,-7.8966455,-4.7897644,-0.019435704,1.7579951,5.7098784,-4.0059414
-0.098538205,-3.4858704,-0.5845984,-0.09401718,2.654291,-9.478335,-3.2534678,4.457421,0.00036056922,0.035486586,3.8156555,0.13549662
0.24604629,-2.4593143,-2.4466088,-3.7740242,-6.416006,-4.299485,-0.97973573,6.925251,0.0007152925,-1.3883159,1.6447948,3.161289
0.17292526,-1.1168373,-3.8145325,2.4062748,-3.4175339,-2.6619658,9.9283285,9.129835,-0.30508292,-2.8058572,-0.25378156,5.629337
-0.89674985,13.82492,-0.0002935382,-0.7732971,4.9425726,-0.88166165,1.7947657,-1.6895363,-2.3506272,3.3387647,-12.620247,-6.0074387
-2.830754,3.2146654,-4.864085,0.35998508,3.1135094,1.8100419,0.0034968015,-2.0819166,-2.044417,-4.54184,-3.823975,1.4880816
4.866319,-5.1122227,7.4569626,1.1333286,-0.1957746,-4.221525,-2.639907,-11.038156,24.542467,-7.3387985,9.116663,25.487509
0.4234995,-4.449132,1.4647292,0.43909758,0.9232645,3.5246835,-6.0523963,-2.8719752,-0.01276765,-0.2200399,3.7756412,-0.26876226
0.028652791,-3.506307,-0.50224715,0.6939135,0.7063695,3.7339776,-2.515179,3.5998464,0.05905935,-0.30359882,3.0372844,0.98444426
-0.37903565,-1.5037373,-3.3949952,-4.3529854,-3.1740959,-4.3677154,-0.2585956,8.798335,0.0010459024,-1.3522127,1.3330259,3.5040998
0.4647894,-3.3894603,-10.689554,5.4468613,-5.4287906,-0.16514738,15.626277,4.9631658,-3.1290774,-2.0929687,-0.096628204,5.2795954
-0.8755471,11.076772,-0.00031260023,0.40925363,5.4292984,-1.1614114,0.18598375,-2.1316307,-1.4971778,1.5766058,-9.166371,-2.9076223
-4.5082636,8.7361555,0.25699288,0.10386415,4.2414837,0.991065,-0.2835279,-2.554247,-1.2225517,-4.2895937,-10.524218,4.638663
-7.1183987,-6.360261,-1.0827348,0.29315737,2.2909844,2.7635815,-0.8658551,-3.0926566,-0.529632,-3.8014693,10.421611,7.8112698
1.0235645,-5.186627,2.7497954,0.70623636,1.6051977,3.5199323,-8.65952,-6.5128717,-0.010423429,0.0847266,4.948105,-1.4590305
-0.13783628,-4.467314,0.44704083,1.5863184,-0.70751834,5.582638,-5.5693846,2.8552403,0.6147192,0.08188635,4.1141086,-0.026816204
-0.10845362,-3.6405141,-1.203529,-7.200013,-5.5797477,-7.3276715,-4.5668526,11.1586275,-0.002175557,-0.41759467,3.0613878,1.593293
-1.4670551,-1.4436498,-3.8337483,-2.1294913,-9.970986,-6.7343917,6.500777,12.783022,-0.27551782,-0.97406256,0.6696552,4.7288046
14.339141,6.604691,-0.0004042404,13.043504,5.713487,20.45206,-1.893419,-4.8615146,3.7587514,15.672063,-13.853752,-2.5825424
-2.3482566,13.244889,-0.00014152034,0.1308445,5.041267,0.093324125,-0.15668508,-3.0249307,-0.7743657,-5.8141503,-11.804872,0.8627195
-2.0724514,2.7640846,-1.4176311,0.6700328,2.961083,2.6830628,-0.7061769,-2.713512,-1.6901593,-5.257584,-0.34549627,2.406259
11.792564,-7.9791465,14.837793,-1.09006,-0.9629542,1.3641025,-5.366812,-4.96001,-0.887332,-0.7777719,6.3587823,-6.2776337
0.13294753,-4.9907064,1.9436432,0.9501076,0.34578228,4.623091,-7.3619742,-4.4948277,-0.007909117,0.07671255,5.144766,-1.7138364
-0.30865353,-4.0286474,-0.14467692,1.8428881,-0.6383606,5.674283,-5.993415,3.5816126,0.62262726,-0.20656846,4.058146,0.28336528
0.538474,-3.432149,-1.2100278,-2.5820777,-5.9475985,-2.2177315,-4.8601446,7.654217,0.00084737875,-1.1772898,2.7160285,1.967323
-0.4679473,-1.5406516,-3.6861093,-5.1690507,-8.099808,-7.681768,1.8589429,11.356631,0.009522335,-1.4291376,1.2123498,4.00634
9.623523,0.88418746,-0.00033267314,12.671973,-3.8549798,23.584846,23.830793,-4.30647,-17.793228,9.7460165,4.5232935,-29.361929
-2.552094,14.389707,-0.00024597195,-1.0585077,5.4947395,-1.6978168,1.7493984,-1.7570603,-2.2847905,0.09089974,-15.154068,0.15834016
-3.1943889,3.436633,-6.868553,1.4975854,2.9146476,2.2730997,-1.2527562,-2.4077957,-1.0791568,-5.180379,-1.4952002,5.959565
2.1223936,-5.8797145,4.6666393,-2.882348,-3.0965462,-3.7068572,-8.223491,-1.8436767,0.0016656327,0.48831415,5.4153533,-3.7111492
-0.009610906,-3.4686246,-0.23001353,0.99368125,1.687879,2.9129586,-3.2040389,-0.48521128,-0.010353311,-0.6077482,3.4561381,0.48951072
0.32054326,-3.411831,-0.8614808,-2.7934017,-3.5745893,-3.583073,-2.8604403,6.7511415,0.001364864,-0.5869596,2.4691403,2.2245839
0.107710294,-2.246366,-2.13268,-3.301169,-4.4928365,-5.194496,0.827865,9.84014,0.0036941376,-0.7119918,1.7297131,2.8782387
8.814644,2.2911882,-0.00040159258,-5.9628305,7.8074827,-9.409493,27.075104,-14.648796,-14.862266,15.966899,5.0694156,-34.886276
-2.7815049,8.630683,-0.00023944787,0.8644398,3.393797,0.4468853,-0.8294984,-2.1943157,-0.34386107,-2.2330372,-10.46886,0.8761461
-1.5212482,2.5821276,-1.0070522,-0.051828653,3.1717222,1.9166403,0.038991787,-2.2376552,-1.3603004,-4.026046,-3.3650706,1.341148
8.298259,-5.6821003,12.1630745,0.40647316,2.41435,4.7597294,0.019474689,-10.315822,16.557035,-8.010004,12.904589,12.697301
0.19249406,-4.0510526,1.5773398,-0.15585926,2.5874515,1.9372802,-8.0344305,-4.1253805,-0.0144551005,0.6355404,4.048968,-0.8342817
-0.61766666,-3.754388,-0.12140194,0.3181924,0.2180747,-3.4269915,-4.207099,3.8640008,-0.002582781,0.21497338,3.1307597,0.5365617
0.03669102,-2.6587765,-1.6709378,-2.5563512,-3.090252,-4.165067,-1.7891138,6.6953607,-0.00021399604,-0.75651574,1.8895878,2.5368578
-1.7654049,-2.5855296,2.6222692,3.5040705,-4.415134,1.3207009,10.648625,8.9860325,-4.1670623,-2.2936497,-0.07610903,5.1158953
8.0448885,11.686792,-0.0004210841,-3.4507425,9.392249,-9.577507,-0.8797653,-3.45549,1.7211273,9.749162,-11.289864,-15.105185
-4.5779347,11.263579,-4.0813994,0.9880557,2.4312196,2.5421648,-0.5074658,-2.2248044,-1.5484812,-5.198767,-12.009386,11.584085
-10.387868,-5.948748,-10.645214,1.1671891,3.6508455,6.0618076,1.6050498,-10.554574,18.960697,-7.5872436,6.2125626,23.19972
-0.44944566,-4.045818,0.050573986,-0.7212697,-1.2692951,-1.2797142,-4.3187375,3.000335,0.00081338896,-0.24499114,3.42265,0.814153
0.37709635,-2.5188339,-2.0645673,-4.2823243,-2.334499,-4.5728464,-0.045385037,10.634303,0.004051714,-1.1021748,1.678472,3.2661946
2.083591,2.1752365,-0.00022680179,8.825701,-2.729877,8.049368,17.619896,1.1927477,-2.9534445,-1.9331625,0.45100254,4.619346
0.4491846,13.051442,-0.00025826658,0.3540051,5.1476235,-0.9004598,-0.2761445,-2.9737742,-0.024489373,2.050795,-13.326028,1.5153753
-3.9201636,3.886737,-0.42498603,-0.027567316,2.771683,2.1231325,0.17185614,-2.3200965,-1.8930529,-5.1120543,-6.4911723,1.4503392
-7.0736294,-7.247447,-9.057433,0.43444827,0.05714169,-1.9687382,0.7924239,-5.0490746,5.0189486,-5.6067986,11.258416,9.128212
0.027992105,-4.3095713,1.6269469,0.26028842,1.2804314,3.4185934,-7.406207,-6.316635,-0.013480047,0.33102334,4.4112697,-0.9551134
-0.15439157,-3.931251,-0.056185115,1.5732104,-0.36637163,5.2416315,-5.102052,3.758701,-0.016916458,-0.14227705,3.4037263,0.95990974
0.008937204,-2.7022552,-1.7852441,-3.1895506,-3.6613495,-6.5299077,-3.371344,9.047869,0.00059885404,-0.67769384,2.1961894,2.5236979
-2.7388983,-3.606612,7.3281784,1.4072638,-9.081678,-5.314503,12.061921,10.570878,-4.6464334,-1.6787264,0.28096247,4.8885894
4.2911425,12.859585,-0.0003973291,-1.2347581,6.125273,-2.6489022,0.5499898,-3.168971,0.42947555,8.595093,-11.440143,-9.323308
-4.794926,5.8459373,-0.11788139,0.6390669,2.9490035,2.3456576,0.017287485,-2.153407,-1.6425017,-3.6310117,-5.0822845,2.8611376
-9.340502,-4.861132,-12.158095,0.4700033,-2.8146212,-3.3747382,1.3087097,-8.009837,16.218117,-7.21507,7.8417463,17.965145
0.933212,-4.9596076,2.6907806,0.19108872,2.0550604,2.6200893,-7.85906,-6.7401967,-0.007304633,0.24794242,4.6282725,-1.8139538
-0.8709177,-3.7785287,-0.5700323,0.19050199,-0.02300138,0.8711897,-4.79302,4.1443176,-0.00018238858,0.30019087,3.750043,0.40894428
-0.2348431,-2.3484037,-2.051411,-4.2024,-4.624767,-3.0630732,-4.6347785,6.151563,0.008562217,-0.8577326,2.0492156,2.3797243
-3.0093722,3.1176386,-4.177849,6.9677963,-3.9369345,5.94613,15.679019,5.947766,-4.1647844,-2.2777727,0.25542605,5.1369095
1.2571056,12.424916,-0.00034506735,0.44352686,4.524274,-0.7949646,-0.8697218,-3.2843244,1.0080869,2.8676522,-11.217555,-4.7243342
-3.0963953,4.279553,-1.0624655e-05,0.49265325,2.6891701,2.2352006,-0.46176046,-2.4060981,-1.2557762,-3.8880498,-4.879844,1.7084204
5.4135685,-6.1353936,9.7694,-2.225351,1.6040262,-3.7243116,1.7244844,-6.2874856,-2.1497803,7.472037,7.8517246,-16.251287
0.4140417,-4.4621873,1.3853877,0.2323024,2.7667506,2.2087202,-6.4817805,-2.8166687,-0.017416053,0.015700981,4.341227,-0.54813194
0.04890707,-4.0416346,-0.22964112,-1.5050266,-3.3676622,-5.879495,-3.8406634,6.231469,0.007538308,-0.4660932,2.840344,1.4006078
-0.37582126,-1.5660834,-3.1126037,-4.053066,-4.1451507,-4.2174406,2.0627518,10.644661,-1.1586039,-1.421757,0.9239839,3.9367983
9.484184,3.4973419,-0.00039087527,-6.305441,8.159817,-9.585149,26.365988,-14.971838,-10.371626,15.59593,-0.4693124,-35.55942
-3.0016541,13.573507,-0.00016313724,0.7383687,3.9379232,0.52400166,0.06344941,-2.1082845,-1.406065,-3.2219906,-11.845989,3.2113118
-1.8277935,-0.07006324,-1.6883044,0.8927158,2.845273,2.0314202,-1.0047368,-2.6421635,-0.7150693,-2.5182734,-2.1802197,2.106963
3.5450068,-5.0111217,5.687093,-0.8308512,-1.3859552,-6.6077676,-5.238883,-9.141126,19.914267,2.4725337,5.4936666,-8.03523
0.29180405,-3.6619473,0.32535946,0.84487784,1.2030238,3.276455,-3.661412,-1.1924976,-0.1048311,-0.48684046,3.4124165,0.19991632
0.6253936,-3.8258035,-0.5489281,-1.0296267,-2.12974,-5.021307,-3.3748908,7.685106,-0.5123962,-0.37359756,3.355821,1.1244764
-0.18788218,-1.0127984,-3.609563,-3.4305406,-6.504567,-4.3689313,2.9263573,10.406063,0.00012319884,-1.6727476,0.8952871,4.0140514
9.742524,10.721981,-0.00042924786,1.0283787,4.392903,-1.8848078,-3.4432383,-3.6001744,3.6607819,12.090825,-10.868664,-22.079138
-3.8392458,10.691759,-0.00011587338,0.19537497,3.855446,0.4687595,-0.15461999,-2.5071936,-0.67917264,-4.583438,-9.452588,0.77266216
-3.1627493,-2.3989294,-1.7119094,0.60484666,2.0995188,2.9244773,-0.73309493,-2.520442,-1.058689,-2.3243253,2.1198363,2.2105055
1.1330181,-5.413896,4.3637147,-2.2544856,5.255097,2.4718752,-8.041684,-3.4810555,-0.0113871675,2.3759463,5.8839097,-6.3650646
-0.82821566,-3.6896608,-0.21034847,1.331211,-0.3348389,5.207361,-4.3230987,-0.1979127,0.002902627,0.14820997,3.71808,0.50581336
0.007949,-3.8249538,-0.854835,-4.004172,-4.8398843,-4.917914,-4.7755456,9.446427,0.56983316,-0.22639444,3.460948,0.91873
-0.3456758,-1.1941847,-3.8396378,-4.36651,-6.51484,-5.2127895,2.5065272,11.713237,0.000619323,-1.8943981,0.5914211,4.700468
6.4044495,11.864958,-0.00031964516,-3.5742853,9.507924,-10.556401,-0.82428545,-3.9461539,2.2846088,11.125908,-20.273836,0.5673172
-3.5221834,3.6814508,-0.7309484,0.3536398,3.2888603,2.0201125,-0.09941392,-2.8663185,-0.94213575,-5.236577,-3.200936,2.4871812
-6.767109,-4.794781,-7.8995004,1.7537111,1.8753216,3.234465,1.2012371,-8.965766,14.451488,-7.333351,9.471343,18.610495
0.7744397,-4.250119,1.0242927,1.2977282,1.2829423,3.5483003,-4.7212386,-5.0907927,-0.012351638,-1.0593208,4.0202637,0.28677052
-0.77245003,-3.6612306,-0.79604936,-1.1714226,-2.789583,0.62370175,-6.7236276,5.6125436,0.0011570408,-0.031132322,3.1564183,1.4161589
0.060816374,-1.9747789,-3.0875154,-4.939359,-8.033588,-6.4535065,1.4421334,10.92788,0.0013869251,-1.5427867,1.3479365,3.7748249
12.283306,4.0116925,-0.00040292426,-3.0362322,9.529649,-10.307795,19.944157,-17.886663,-2.5509923,12.9539795,-11.498672,-4.007577
-1.6670734,11.059001,-0.00021698652,0.28086746,4.352553,0.37426835,-0.0044754366,-2.6340399,-1.0986357,-2.900707,-10.013481,-0.7250971
-4.4763265,-3.110538,-1.9145843,0.6892134,2.4065022,2.662177,-0.9712977,-2.861505,-0.54506606,-3.6901813,4.695675,5.8330326
2.6752322,-5.180106,5.2590914,0.3501492,-2.2921407,-3.8449373,-4.3806305,-8.26673,13.111154,2.0327213,5.4568477,-6.538276
0.114303745,-4.5108104,1.0163305,0.8994067,0.49854517,4.347207,-5.872856,-0.59673303,-0.009339727,-0.25472248,3.977488,0.14200987
-0.22423908,-3.9761906,-0.5485436,-2.050327,0.6813112,-7.311079,-3.909629,5.5383654,0.74582934,-0.32730874,3.1910553,1.0807106
-0.01782196,-1.9374143,-3.0086153,-4.6770983,-6.52497,-5.692482,-0.6634488,9.804042,0.007424185,-1.57913,1.4448156,3.4085715
7.3947463,-1.0511272,-0.0004301758,15.0826435,-4.4010563,17.54938,18.928205,-4.0869193,-6.461529,-0.87045014,-5.8703184,9.572816
-2.3769822,12.391223,-0.00017862968,0.038379014,4.699344,-0.21453083,0.022361644,-2.8608584,-0.7974114,-0.92422795,-12.549496,-0.5829273
-4.7118497,-6.4482665,-1.748197,0.072441235,2.1403365,2.7007482,-1.3369282,-3.3067741,-0.16039588,-4.6595645,9.238602,5.5902824
-0.043125883,-5.3585067,3.182934,-0.08629608,1.5524895,0.6894695,-7.141536,-5.297798,0.01444949,1.6687461,5.41363,-3.0313184
-0.49878445,-4.028957,-0.057031415,0.6865008,-0.18815547,3.7305236,-3.6254778,4.2682004,-0.047023937,-0.13666537,3.5725653,0.40279818
0.02747995,-2.8933218,-1.8509228,-7.0015035,-6.772506,-6.6549544,-2.959684,7.479855,-0.0009296825,-1.1454302,1.9094714,2.6907954
-1.2707562,-3.7002537,1.0673264,-0.35980925,-6.6536846,-3.0610595,7.244743,11.284925,0.10213398,-2.7327583,-0.052538395,5.5508695
13.511676,9.107118,-0.0004821592,-2.0871694,8.811366,-9.980511,-6.1066685,-5.652,8.549717,12.199692,-7.4489083,-27.113527
-4.1473107,13.662474,-0.00020321191,-0.21759148,3.839619,0.73479563,0.7865951,-2.3801332,-0.9419168,-0.9141696,-10.721806,2.071968
-3.3583987,0.68261766,-1.6619421,0.28872687,3.011233,2.2196777,-0.32608953,-2.9072726,-0.78097254,-5.287659,-1.6835924,4.522604
1.8561108,-5.6451077,4.4771576,-1.1665577,-3.265797,-3.4627185,-4.9670053,-2.1345098,0.0026977449,0.93158793,5.2712355,-3.2420607
-0.47285742,-4.0906816,0.22570121,0.4776472,1.1860983,3.6930084,-4.9164867,-0.17744675,-0.15313368,-0.23659924,3.5733387,0.9652997
0.3064153,-3.7439768,-0.7139975,-1.8136512,-5.089157,-3.5218449,-3.0963058,6.1345167,0.389298,-0.608632,3.0000968,1.5823028
-0.36706868,-1.7394153,-3.4083369,-3.3477342,-6.6135936,-4.8025575,3.4281874,9.364134,0.0009591142,-1.711634,0.859254,4.109814
13.665178,8.057875,-0.00041412003,-1.863676,8.419043,-10.408494,-5.1450667,-8.171252,12.587392,8.403444,-11.353751,-8.886593
-3.8660543,8.693253,-0.000119319186,0.8518144,3.0727115,1.8442926,-0.49886394,-2.1718373,-1.4994336,-1.6473186,-7.254121,1.585232
-6.925879,-8.047098,-2.2410254,-0.41176793,1.8211125,1.4383415,-0.9997795,-3.845257,0.4464066,7.7941804,7.5800195,-16.471493
0.40023538,-4.7054944,1.7084795,0.10491005,2.233298,2.5111234,-6.2169824,-5.0934258,-0.016897753,-0.20827807,4.6349297,-0.9596713
-0.13041732,-3.9207847,-0.19204842,0.7098994,-0.42769006,-2.6093118,-3.4754884,2.9113185,0.0043538287,-0.36770666,3.4855502,0.87891376
0.32062113,-3.307572,-1.5144335,-4.8831015,-3.4387243,-13.9689865,-2.7427313,9.496283,0.00023448397,-0.71395427,2.6497111,2.357534
-1.4680105,-1.0462565,-12.030353,3.5468695,-5.1082425,2.2136507,12.626603,7.7336245,-1.3832716,-2.1253533,-0.1203766,5.6304455
7.038199,10.650746,-0.00033722213,2.225896,5.0139637,-1.4440265,-3.6881447,-4.3464885,3.2807474,8.904682,-15.832071,-9.161058
-4.431628,6.587539,-9.24629e-05,0.007624127,3.48104,1.0351506,0.15249977,-2.43515,-1.2417133,-3.2557466,-8.570115,2.085055
-0.71983606,1.3404707,-1.4010788,0.101441674,2.78324,2.3824468,-0.1602758,-2.4896514,-1.719148,-3.6002116,-0.44480768,1.0628015
1.5739065,-4.29888,4.4270253,-0.4148145,3.7274334,-1.0705395,-5.0607266,-10.424145,24.46686,3.4911447,5.534438,-8.07404
-0.0999897,-3.7593753,0.5298279,1.2636359,-0.24487907,4.4265556,-2.498491,-2.0118935,-0.010937989,-0.42458987,3.4265072,0.01864715
-0.078908324,-4.141023,0.005659811,-1.7072622,1.6866117,-14.008196,-3.9228978,5.06719,-0.00061496196,-0.10969215,3.2626824,0.6733774
-0.49972534,-1.5214416,-3.1523917,-5.1207504,-6.050652,-10.91653,0.48013154,9.962676,0.0068716523,-0.989739,1.252394,3.662778
-1.8658332,3.1556387,2.2733898,8.424195,-4.2939506,4.7633533,16.016205,1.952874,-2.968629,-1.6295242,0.5497438,4.741219
-1.5610682,11.9039135,-0.0003221354,0.09172107,4.6288476,-0.10888742,0.53165436,-2.2836878,-1.2989124,-1.0626856,-10.991436,-0.59077644
-3.3298924,2.82199,-4.849966,0.7778057,2.2789977,2.8362386,-0.6302762,-2.4641755,-1.3095188,-2.8651106,0.15757445,6.748513
2.0191126,-6.2455177,5.227695,-1.1806084,1.9433281,-0.021135278,-7.780702,-3.9802613,-0.0048773317,1.2923696,5.851357,-5.034026
-0.29340753,-4.451545,0.93808323,0.7621794,0.19833618,4.4072185,-5.213106,-1.7536322,0.00036350638,0.1810878,4.6656866,-1.2440025
0.056000367,-3.8681452,-0.65560544,-2.1428645,-4.158997,-2.222976,-4.564679,5.933792,0.00063503766,-0.364137,3.817279,0.8226659
0.7864176,-2.4187367,-2.4256108,-3.9073222,-4.46704,-3.7081041,-0.8471871,8.152194,0.0038731205,-1.3469802,2.472078,2.6205235
-0.19604452,-1.1660707,-3.8756986,4.076563,-4.159327,-1.1233475,12.3093815,5.7240915,-1.1727085,-2.764999,-0.26963598,5.6297035
0.09136534,13.087031,-0.00029490405,0.26383212,5.1809206,-1.4878113,-0.09780961,-2.1687047,-0.9848044,2.1202335,-11.814741,-2.4712481
-3.599494,4.691438,-0.7581354,0.0797308,3.8566048,0.97076464,-0.06302855,-2.1543565,-1.9110771,-4.7139277,-6.918396,2.8251305
7.7134438,-6.5368237,10.588313,0.49689293,-4.190121,-1.5388508,-4.5444856,-1.8107762,-1.4681367,0.894289,5.485095,-7.0923414
-0.5391034,-3.8037302,0.30324772,0.79927236,0.6489337,3.9649162,-4.012434,-1.5445573,-0.007189,0.47851962,4.3128676,-0.8359283
0.11986072,-3.4751139,-1.0937396,-2.4367342,-3.9109557,-6.3884215,-2.5340216,4.710969,-0.00031914897,-0.73713005,2.6481712,2.045036
-0.08825008,-1.6316313,-3.0738468,-4.2111306,-6.1631203,-6.149329,1.6826193,10.850524,0.0030907798,-1.1887381,1.5142179,3.1285508
8.972586,13.655808,-0.00029935926,-0.545408,6.688233,-5.753392,-6.8250766,-7.6055393,11.996436,11.808161,-15.558243,-8.776945
-3.7940361,5.600501,-4.1086423e-05,0.56471574,3.1027954,1.5924139,-0.21045658,-2.5482407,-0.99009186,-3.4107616,-5.414244,2.2027454
3.4058437,-5.624194,7.606743,-3.2232785,-0.9688485,-1.4385998,1.4100469,-5.8774037,-1.9838276,5.270485,8.229194,-16.27001
0.3132911,-3.804973,0.5037593,1.7818142,-0.18652958,4.8514533,-4.17848,-0.9025274,-1.3852842,-0.28856432,4.1121163,-0.26823097
-0.23749678,-3.3544173,-0.8281576,-2.4571357,5.0459023,-17.677593,-5.776903,7.3512416,-1.3115583e-05,0.075567216,3.5833268,0.72507834
-0.24032298,-1.3793496,-4.1054683,-2.9013658,-9.166753,-6.8628807,3.5891714,10.425515,0.0016261945,-2.002277,0.43572646,5.020395
6.183138,13.4025345,-0.0003713987,-0.7856325,7.5350547,-3.678383,-4.204031,-7.69121,9.610325,9.886009,-11.3855915,-13.51836
-4.548524,7.267607,-2.2749573e-05,-0.21045277,3.6113482,1.4879073,0.541257,-2.571645,-1.6107669,-3.0412877,-11.9789,4.853329
-3.8210044,-2.9168365,-1.3313961,1.2682934,1.7171476,3.2430305,-1.5742636,-3.1319873,-0.037254088,-3.1346748,7.9789124,6.9174156
1.1688635,-4.943844,3.5494647,-0.24876869,2.4734268,2.1048489,-7.9303417,-5.1856027,-0.009112167,1.1604947,5.027412,-3.05031
-0.40903205,-3.965925,0.11600866,1.057804,0.032476634,1.7774926,-3.8266742,1.6808695,-0.006059368,0.008786633,3.456603,0.7014609
0.36192062,-2.3336878,-1.782169,-6.4617267,-5.2412148,-11.838702,-3.9482002,9.721727,0.0020422915,-1.1191063,2.0866165,2.1852343
-3.0627918,-2.6949866,9.384472,1.4724265,-6.5847077,-0.00064787443,11.223121,10.3712015,-5.465114,-1.8220975,-0.11108929,5.4715433
-0.18256699,10.659832,-0.00034941285,-0.16957298,5.7491975,-1.8150755,0.5854163,-2.5495093,-1.322537,1.0041239,-8.471596,-4.7370615
-4.0921803,5.119299,-1.7287115,-0.26594996,3.7244785,1.0125346,-0.024034135,-2.6322336,-1.0500691,-2.3989952,-9.427978,4.1329403
5.294062,-5.05501,7.5662737,0.9903975,3.171221,3.4931014,2.6822164,-9.956123,17.822243,-8.142398,9.494263,20.794363
0.43752617,-4.865925,2.167052,0.12017675,1.4323139,3.1251338,-8.482431,-2.8672976,-0.033526406,0.31122255,4.709184,-1.8643528
0.03924942,-3.7319064,-0.689871,1.6329021,0.09433447,4.8260975,-1.817504,3.3706229,0.002918072,-0.786251,3.1517003,1.6082844
-0.20273358,-2.008866,-2.8186672,-5.3313913,-6.0492344,-5.9603553,-1.3816855,8.923178,0.004462325,-0.99108374,2.058924,2.6631935
3.888312,0.79447085,-0.0040492937,7.786283,-9.910593,49.06524,21.445961,2.2263284,-23.459,6.884378,9.815222,-46.238205
-5.3371086,12.58397,-0.00016859657,-0.5553395,4.4539123,-0.4208787,1.0973467,-2.1748703,-1.72814,-3.8740883,-11.498396,5.7599273
-3.3391874,-0.7857846,-7.750525,0.60848206,3.214897,1.9594306,-1.0579214,-2.732203,-0.76099455,-3.7189543,5.1238737,7.725734
2.4292789,-5.5378203,5.2642403,-0.7806456,1.0557489,0.48406562,-6.980715,-3.2148113,0.019616127,1.9173194,5.716863,-5.932269
-0.34112293,-4.101881,0.18137889,1.3694794,-0.3735143,5.061916,-2.5383904,0.9774669,0.41339406,-0.4488054,3.4709585,0.70669496
0.23748037,-3.028768,-1.3928574,-4.072795,-3.2002573,-5.847664,-3.725627,8.29765,0.0016690909,-0.9130125,2.2679975,2.5234532
-1.3521589,-4.1145525,5.2082353,1.3534635,-5.1533737,-0.79131365,8.861185,10.30894,-2.3999152,-2.1668854,0.36872494,4.9208903
2.8126445,12.117223,-0.00038099563,-0.08046061,5.100545,-1.7093508,-0.70980835,-2.8383222,0.6811327,6.769416,-13.061964,-6.823791
-3.1531668,7.238573,-0.26716328,0.76425296,2.9810166,2.2184877,-0.07323176,-2.04731,-2.151179,-6.221829,-8.403779,3.1716125
-7.536791,-9.539238,-1.4230176,-1.6338402,-0.12761931,-0.7382462,-0.38445354,-2.516313,-1.0666746,6.68707,5.2411714,-10.286787
0.37932193,-4.2377586,1.3256172,0.8267279,1.4927155,3.213889,-6.07899,-5.059421,-0.014086319,-0.12730227,4.284608,-0.8823193
-0.048669524,-3.5103414,-0.5498427,-1.5439854,1.068262,-3.398273,-5.0148654,4.28788,-0.0012510808,-0.3657056,3.4968367,0.872408
-0.21192938,-2.638249,-2.2638016,-4.088308,-4.6102495,-4.0864844,-0.88717735,8.155884,0.0025306724,-0.6239054,2.2278845,2.806811
-0.75804555,-0.865648,-3.7706542,1.2721559,-4.9441233,-2.7782543,9.449781,7.9214993,-0.5301276,-1.8041217,0.33585444,4.2830324
11.702102,13.01854,-0.00036333204,1.0429184,5.33599,-2.6142952,-6.9921894,-7.127216,10.565408,11.236337,-14.22048,-11.993556
-5.638873,8.303979,-0.00012700446,0.40172505,3.77146,0.47480977,0.03656029,-1.9752136,-1.5722938,-2.8180444,-11.720552,4.675172
-2.1088705,0.89223915,-1.8224741,0.5359592,3.0180361,1.8523116,-1.0515449,-2.2746809,-1.0586994,-3.3008194,-0.74368,3.5752988
-8.355155,-9.260698,2.3495548,-0.82040024,-0.5477985,-0.68518615,5.0331097,-2.8660393,-5.9009523,-4.950659,11.146329,5.568476
1.278166,-4.7787943,2.694625,0.30121255,2.0636463,2.4554024,-7.208955,-8.638125,-0.014131105,-0.13963431,4.4797363,-1.8450123
-0.59319067,-3.2592728,-0.25404492,1.0075607,0.023399688,4.3537974,-6.1225886,1.0973771,-0.009872368,-0.03035304,3.6145453,0.1806153
-0.8617714,-2.7024987,-1.4886389,-1.6280199,1.4191482,-13.152625,-3.607221,5.4634786,-0.00014159002,0.1963916,3.0112815,1.2970812
0.026067745,-2.4662068,-2.30123,-7.076336,-8.664938,-9.173217,-2.5551176,10.73403,0.0006041556,-1.3653264,1.4180789,3.4046056
-0.5889142,-2.3177893,-3.3352425,2.5905256,-5.6618547,-1.9800204,12.709723,9.628386,-2.344986,-2.263279,0.01437784,5.460196
6.9459643,11.99851,-0.00037033332,-2.3408148,9.302985,-10.224984,-1.2605661,-3.6723323,1.5784203,9.108953,-12.867727,-8.143582
-5.015807,10.402645,-9.5682306e-05,0.33705246,3.9803464,1.0400585,0.26190007,-2.2746046,-1.71847,-3.7054775,-11.092108,2.9474359
-4.015236,-0.8398174,-1.7571939,0.8078664,2.6376035,2.5517833,-1.1162986,-2.6751971,-0.64988947,-2.893423,3.7560697,6.389737
3.4098847,-6.1963105,6.6001105,-0.25883567,3.0231445,1.7181605,-2.8594105,-8.454155,16.075998,1.7080296,5.8105454,-6.2453704
0.027324282,-3.8887024,0.5475506,1.6194229,-0.37125766,4.930774,-4.997383,-0.77764577,0.062429804,-0.05072324,4.124535,-0.4214812
-0.4052572,-3.4245727,-0.73925465,-3.042205,0.4431428,-12.590666,-4.1771917,4.384832,0.00034373906,-0.006359555,3.2867289,1.0053096
-0.052012704,-1.817713,-3.1461117,-3.4382854,-5.04336,-5.034739,0.7523756,9.982175,0.0049324296,-1.4595058,1.2608672,3.880518
6.715632,10.2669935,-0.0004114544,0.073946014,5.64089,-2.2705488,-5.7193155,-7.9508476,10.429368,10.639805,-14.109414,-8.852498
-3.8641064,8.47263,-3.8603088e-05,0.10097173,4.061376,1.2170211,0.44504276,-2.1986358,-2.2625508,-5.3458705,-8.329929,1.0467691
-3.1796675,-4.8584266,-0.47041255,1.2303864,1.5784179,3.2293987,-1.5235803,-2.8163333,-0.6621406,-1.6736041,10.494368,6.1271176
1.1070521,-4.6945534,3.6998658,-0.50422275,2.4794865,1.6749904,-9.256871,-5.1984644,0.0049792016,1.4275869,4.750778,-3.4414835
-1.453064,-3.7175217,-0.39573538,0.6756065,0.09666276,4.5833454,-3.060269,1.9198802,0.24457407,0.7546869,3.7320673,0.100259185
0.12509514,-2.9265635,-1.4917907,-4.0883765,-2.4314504,-10.379708,-4.0423675,9.428944,-0.00031278515,-1.064796,2.0629647,2.3889139
-1.430131,-2.0982766,-1.3560846,-1.0599084,-10.011907,-2.521569,5.5216875,11.40114,-2.5521553,-2.0473287,0.20607358,5.095694
11.989767,9.468788,-0.0004450532,-3.1475842,9.249552,-11.497033,-5.252145,-6.318445,8.122003,11.221892,-9.717254,-19.927872
-3.8628187,8.119724,-2.5708498e-05,0.3528218,3.5787106,1.4321307,-0.12315969,-2.540963,-1.899506,-5.2069936,-8.060308,1.7016379
-1.4298244,-2.5074291,-1.7889951,2.9552844,-0.5108621,3.247915,3.2302964,-7.734984,-3.2836561,-2.654489,5.9572883,2.5305767
1.8117596,-3.1717122,2.384614,0.65474176,2.3653653,0.47635606,-8.858692,-1.6082394,0.0021076202,0.40094522,3.8170462,-3.6592493
-0.11791062,-3.715055,0.37808558,0.99332863,0.42770293,3.9938672,-5.8846803,2.5774775,-0.0069632353,-0.25122854,3.5985944,0.11284172
-0.24058247,-3.247992,-0.92152166,-5.0697064,5.141466,-25.422466,-4.7276926,7.4730897,0.00046586292,-0.09409295,2.7350602,1.6875795
-0.37216112,-1.5092838,-3.4990485,-3.671515,-7.224327,-6.363026,2.2332017,11.011546,-0.004756489,-2.2000728,0.2205537,5.1253953
11.538469,10.278126,-0.00042127643,-0.05857092,5.6813765,-3.4460955,-3.3547833,-4.3908396,4.0709457,12.269146,-11.284109,-19.419798
-5.1014047,8.488695,-6.0510298e-05,0.0434604,3.9718323,1.2956634,0.43682247,-2.4242702,-1.6209852,-5.018569,-7.8383374,3.1817331
-2.2195687,-3.3351314,-1.5175412,1.2308743,2.0769718,3.3125374,-1.0352005,-2.652267,-0.9034658,-3.2534015,8.13089,4.8968816
1.4841647,-5.55741,3.537105,0.14680952,2.8095157,2.3415518,-7.2530103,-6.902733,-0.009348358,-0.30096936,5.0391154,-1.6703589
-0.0660358,-4.189456,0.21518537,0.8004584,0.5707184,4.286,-5.1663857,3.3659663,-0.0014801808,-0.18499207,3.7849977,0.58368224
-0.22064011,-2.1996307,-2.3252356,-5.1441417,-3.5395563,-9.026782,-2.7760007,10.341006,0.00040326756,-0.69805145,2.0133975,2.8564963
-0.4652046,-1.1387532,-3.8961477,0.12078441,-6.576927,-4.6482787,8.322472,9.117523,0.67535293,-2.4652016,-0.18431309,5.4792085
1.706547,12.569317,-0.000330468,-0.44050035,4.7866797,-1.334072,-0.12824121,-3.2778807,0.88935995,4.3877535,-13.131401,-6.0625305
-4.198346,4.8954506,-4.3628325,-0.31897992,4.188213,0.81993544,0.3627494,-2.429365,-1.7001001,-5.477901,-5.7866063,2.0721538
-4.758453,-4.708506,-6.3383236,0.89094627,1.3468573,3.1796396,-1.2305679,-2.741389,-0.49025643,-4.584301,9.663946,7.281557
0.5789596,-4.7104616,3.5165503,-1.3981428,1.1642021,-2.4290006,-9.795966,-4.255396,0.0009876098,1.8559602,5.009785,-4.5938897
-0.7891064,-3.162714,-0.44144255,0.8505595,-0.1190288,4.168525,-3.0038517,2.459842,0.39142475,0.26410756,3.1495574,0.27936542
0.49773836,-3.3362572,-1.1046764,-3.8520708,-3.982278,-4.455529,-2.250232,9.0213585,0.00045153918,-0.87260264,2.1747584,2.3233676
-3.0481405,-3.9242122,9.292612,-1.2413132,-6.3015146,-5.3694134,6.5689464,11.425243,-6.0287223,-2.217082,0.20101811,4.985472
7.354823,9.6403,-0.00044692913,0.8954328,4.8571677,-1.9464241,-2.2619712,-3.575681,2.34141,13.106776,-10.805635,-11.111132
-5.7739153,9.162673,0.13540123,0.4231734,3.4269776,1.0176305,-0.23268348,-2.055405,-1.4091125,-5.6268005,-11.890909,4.321939
-5.563351,-1.3560427,-11.46666,0.30786243,2.61788,2.2591057,-0.39528513,-2.5237143,-0.86515707,-4.0899024,5.748587,7.9624524
2.0512493,-4.872619,4.4875903,-0.13862628,3.5718503,3.874725,-7.721052,-3.983084,0.18412118,1.9679632,5.4032593,-5.8112707
-0.13948558,-4.117571,0.6648273,0.6162441,0.5205713,3.8386073,-3.0502548,0.32010314,-0.006515937,0.28808329,3.7980137,-0.030171406
-0.29973283,-2.728707,-1.4297112,1.2999183,-0.6166363,5.461456,-2.8528104,4.840845,0.43172872,-0.17682077,3.0899603,1.0742787
0.0008768318,-1.6761441,-3.4316862,-2.9696767,-5.840452,-6.1005144,2.0224965,10.436194,-0.0029664338,-1.8215005,0.955014,4.263064
9.54758,7.6486073,-0.00044438173,-2.4259002,9.134839,-9.915805,-3.0937095,-4.765367,3.5729399,11.141123,-13.528815,-10.012789
-4.241318,11.833042,-9.079471e-05,0.520946,3.5522916,1.5799664,-0.4497094,-2.433719,-1.2689506,-4.1789737,-8.903285,2.8952618
-6.9553313,-8.438399,-2.4487214,2.1264575,-0.3457333,0.08631875,-0.569448,-10.116709,18.538982,6.9084773,7.5927105,-16.956068
