ancorasir/BennettWheelLegRL/experiment_data/2023-12-27_22-47-53/joint_position_env6.csv
Joint_1,Joint_2,Joint_3,Joint_4,Joint_5,Joint_6,Joint_7,Joint_8,Joint_9,Joint_10,Joint_11,Joint_12
0.25892138,-0.0,-0.0,-0.22484376,0.0,0.0,-0.43363118,-0.0,-0.0,0.273377,-0.0,0.0
0.25016046,0.40675348,0.0055358033,0.17530708,0.11457266,-0.0107460525,0.06588371,-0.12132093,-0.13130301,0.097873114,-0.6435522,-0.5435753
0.08975193,0.33543006,0.08540733,0.104812816,0.15945704,-0.12068192,0.01593073,-0.22116882,0.3025031,-0.05925836,-0.71793574,-0.3453138
0.35741344,0.109803826,0.40000007,0.14642777,0.2892328,-0.19027025,0.005555702,-0.28304276,0.3831004,-0.1110517,-0.21281035,-0.668689
0.7778683,0.46993738,0.40000004,0.24172284,0.35140488,-0.071420625,-0.014922746,-0.3687321,0.27994448,0.1386341,-0.5370093,-0.775107
0.27234787,0.61698914,-0.03379785,0.37154412,0.38328424,0.019316345,-0.068538226,-0.9643379,0.25319305,0.021966044,-0.30940586,-0.26527095
0.4431928,0.35015234,0.20779064,0.41970327,0.5028342,-0.0036203002,-0.5259339,-1.2102977,0.40000755,0.02175348,-0.02756391,-0.44696566
0.47218806,0.0041442635,0.26764727,0.6380116,0.49545857,0.3644704,-0.8761751,-1.0494677,0.40000165,0.010327982,0.36908683,-0.51017785
0.47885248,-0.18495542,0.11946525,0.21850346,0.5486376,-0.47494724,-1.3152257,-0.543041,0.39997816,-0.067239724,0.5963515,-0.40073228
0.40619048,-0.23178099,-0.18776466,-0.32299381,-0.07773088,-1.1999605,-1.2123547,0.136251,0.3999471,-0.24550924,0.61267143,-0.06470292
0.73725754,-0.22835602,0.4000002,0.11862291,-0.32694194,-0.37315848,-0.16404286,-0.07511095,-0.06733379,0.06943196,0.55659854,-0.5609105
0.78271914,0.72813267,0.4,0.07515983,0.08478161,-0.5122971,-0.20540757,-0.3487182,0.007343075,0.09620199,-0.47153932,-0.673324
0.48710364,0.87924314,0.11599855,0.12373578,0.2949567,-0.4027632,-0.26709306,-0.5342966,-0.046862457,-0.15426646,-0.5490906,-0.26709217
0.48833555,0.36665067,0.29193145,0.023373164,0.31911853,-0.46764034,-0.7190184,-0.9813404,0.40000454,-0.18393436,0.030671028,-0.3327426
0.4762515,0.05241934,0.3013825,0.095966116,0.3637663,-0.27377385,-1.078234,-1.0434456,0.3999957,-0.19161515,0.3580957,-0.353774
0.46431127,-0.1486058,0.21459171,-0.09786923,0.21851149,-0.78380233,-1.3455389,-0.5178196,0.39995104,-0.20998189,0.5495011,-0.24797657
0.42554596,-0.27472723,0.2836882,-0.1969366,-0.23262045,-1.0434412,-0.931051,0.2574687,0.23637278,-0.35734487,0.6178001,0.11074088
0.8906919,0.23627608,0.40000013,0.06447939,-0.011169942,-0.5268276,-0.2856968,-0.19378333,0.027707292,0.39186788,-0.0411596,-0.7294283
0.70564824,0.85209346,0.32884073,0.052773997,0.28134236,-0.48552063,-0.28595155,-0.39761996,-0.006832619,0.07663764,-0.6709044,-0.59581506
0.426222,0.6831366,-0.0061824657,0.086547896,0.39557776,-0.30279964,-0.32021457,-0.68998,0.075894505,-0.30590612,-0.32335433,-0.026869215
0.49152565,0.35245338,0.27399018,0.034956522,0.42917708,-0.36167482,-0.76861817,-1.0896151,0.4000008,-0.18167572,0.07322875,-0.28415218
0.46694714,0.07624556,0.2798442,0.07789675,0.41010177,-0.27455863,-1.1183578,-1.0291939,0.3999998,-0.17042735,0.36139587,-0.32658523
0.47299123,-0.14160688,0.2085929,-0.107329436,0.30177763,-0.7177097,-1.3971947,-0.5411622,0.39999488,-0.21281584,0.5413926,-0.21944764
0.4652066,-0.28216016,0.10608583,-0.27928436,-0.148344,-1.0787196,-1.1464703,0.14409564,0.33293772,-0.32457873,0.62878114,0.043765996
0.86275524,-0.12995367,0.40000018,0.012675903,-0.18691778,-0.5230978,-0.17158435,-0.17460364,0.0079053,0.059347123,0.34431896,-0.70872015
0.75958896,0.78162277,0.40000004,0.049157653,0.119403765,-0.5575835,-0.2123945,-0.37723947,0.031626187,0.077683166,-0.49486873,-0.6737509
0.5172409,0.86456996,0.11382101,0.11684466,0.32610464,-0.43057343,-0.25625864,-0.5636131,-0.034428883,-0.14509267,-0.56069547,-0.28062868
0.45061943,0.53719807,0.16257721,0.10282004,0.30434424,-0.43556294,-0.37416556,-0.88794535,0.3985992,-0.17644735,-0.095394656,-0.22660744
0.48579597,0.27320594,0.27769426,0.13336492,0.39247033,-0.2507662,-0.85184133,-1.1513317,0.39999795,-0.15424702,0.17825602,-0.3405184
0.47983748,0.040135227,0.2807546,0.17734675,0.43597302,-0.120124154,-1.132624,-1.0020288,0.39621797,-0.14252937,0.42150348,-0.33536586
0.45936415,-0.13721734,0.20030707,-0.03668261,0.3314308,-0.5996675,-1.3629339,-0.6245341,0.399947,-0.14679019,0.59799725,-0.26250014
0.41029277,-0.23970732,0.05428329,-0.34722406,-0.11098823,-1.1879551,-1.2335654,0.0955739,0.36458856,-0.22620575,0.6598114,-0.027819302
0.82623917,-0.22705585,0.4000002,0.12029659,-0.351436,-0.35629278,-0.2592994,0.007965595,-0.13917425,0.06524214,0.57681584,-0.6203383
0.90589565,0.5145227,0.4000001,0.121198125,-0.026659504,-0.5251656,-0.4032959,-0.24840142,0.032903064,0.20212883,-0.14724158,-0.867918
0.6246455,0.9534403,0.28435856,0.11818009,0.23651843,-0.4879488,-0.40113783,-0.41552618,-0.04122139,-0.022043424,-0.59222174,-0.4468356
0.42353448,0.6729856,0.12020742,0.07384128,0.23859206,-0.52281815,-0.42901406,-0.71920544,0.29348254,-0.11234523,-0.26353455,-0.22448725
0.4903591,0.38900366,0.28750017,0.10107515,0.31195903,-0.41941622,-0.7194833,-0.9931909,0.4000038,-0.112737045,0.026941523,-0.3566414
0.44751444,0.1369728,0.3112412,0.12127883,0.35755754,-0.30373895,-1.0843784,-1.0502204,0.39998537,-0.09115449,0.2901714,-0.37665722
0.43744582,-0.0698725,0.26068324,0.02060691,0.31111124,-0.5488256,-1.2873768,-0.7281025,0.39995706,-0.0965933,0.50431097,-0.32238927
0.43222147,-0.21091338,0.09209471,-0.32381716,-0.045862976,-1.0749432,-1.3131052,-0.06561908,0.40000245,-0.17451541,0.613929,-0.10631392
0.72105193,-0.27348185,0.40000024,0.022457449,-0.33184674,-0.3449276,-0.15699011,-0.032300256,-0.18083973,0.079699226,0.57798773,-0.5355555
0.7658124,0.78742087,0.40000004,0.015398916,0.09957363,-0.44602016,-0.294786,-0.36966565,-0.027291901,0.20240267,-0.48184893,-0.6831349
0.48395818,0.86163324,0.0874124,0.037682973,0.33105394,-0.343631,-0.32514283,-0.5382741,-0.11617917,-0.12180586,-0.5744311,-0.2775225
0.4934823,0.46316805,0.2511606,0.050378516,0.3951354,-0.27709755,-0.62648064,-1.0203773,0.3999983,-0.16452864,-0.061957702,-0.30225894
0.49908164,0.17180371,0.35257712,0.08394889,0.4407431,-0.05483961,-0.9837385,-1.166801,0.37755814,-0.13515921,0.232757,-0.3969375
0.48586863,-0.12157097,0.29280135,0.063805215,0.43178877,-0.4136603,-1.3050025,-0.7899484,0.3999653,-0.13985032,0.5471106,-0.3676593
0.4655087,-0.2511203,0.09164067,-0.24339846,0.08245518,-1.1307213,-1.3456919,-0.09916441,0.3999781,-0.2071394,0.67811906,-0.1748424
0.84217227,-0.2551786,0.40000024,0.061267402,-0.3178285,-0.4227015,-0.37680933,0.040967304,-0.04844965,0.20311625,0.49606228,-0.65809786
0.79552585,0.6658965,0.40000004,0.04719357,0.12772095,-0.5624337,-0.4370822,-0.24246514,0.017153986,0.19662249,-0.45858973,-0.70614004
0.531913,0.90483314,0.17087327,0.054749098,0.36806518,-0.39401168,-0.42770875,-0.475008,-0.023097327,-0.10974826,-0.5567714,-0.17232996
0.46554992,0.56295955,0.23370555,0.031227415,0.34492108,-0.4788993,-0.5487263,-0.79099977,0.40000194,-0.07055505,-0.12989582,-0.2948556
0.47978032,0.27425802,0.33684155,0.08963108,0.42241767,-0.23613243,-0.9622608,-1.1521087,0.37226135,-0.067490585,0.16875376,-0.3596274
0.47399044,-0.031566523,0.32426384,0.09171605,0.41607323,-0.35982123,-1.2563831,-0.83892125,0.39998162,-0.08964204,0.45477623,-0.3299585
0.45712537,-0.19359812,0.19399235,-0.25305372,0.060571272,-0.94152373,-1.3928238,-0.26579854,0.39996132,-0.14370637,0.5830502,-0.16794018
0.39894432,-0.2848558,0.40000135,-0.15434738,-0.39138305,-0.85280144,-0.7719565,0.26161754,0.11174298,-0.22304769,0.6663674,-0.1258767
0.90510786,0.27879962,0.40000013,0.07795244,-0.13007179,-0.49033567,-0.28413546,-0.23645735,0.10656678,0.31016198,-0.02884675,-0.78152514
0.4786424,0.8239304,0.117994614,0.110656664,0.2907252,-0.35853434,-0.2991817,-0.5737116,-0.015923843,-0.107536905,-0.48844057,-0.23106909
0.50937456,0.33966133,0.31291324,0.15123457,0.4285605,-0.29461634,-0.77993476,-1.1398634,0.38500893,-0.09282689,0.1302452,-0.34651253
0.47744945,0.014026763,0.3352493,0.11664294,0.43988025,-0.27572504,-1.2066298,-0.93810004,0.39999062,-0.052665364,0.46796116,-0.37762928
0.48146507,-0.1787064,0.23358768,-0.22854002,0.13180174,-0.8891972,-1.4174962,-0.34419474,0.39530298,-0.10609128,0.62448364,-0.24566723
0.4574928,-0.330646,0.40000013,-0.16527277,-0.41793254,-0.86278164,-0.71208215,0.25634557,0.09755106,-0.19388358,0.61927146,0.012317096
0.932852,0.3816576,0.40000013,0.008058811,-0.018717997,-0.51763946,-0.30633992,-0.23785213,0.0342039,0.24166837,-0.049998607,-0.8233999
0.6290185,0.9423605,0.27542716,0.00968052,0.26556814,-0.4452338,-0.3174582,-0.44838873,-0.021325411,-0.02024876,-0.67142546,-0.5525031
0.40095216,0.68247885,0.067556344,0.034901444,0.35883707,-0.38733503,-0.35682845,-0.7411527,0.18912764,-0.14358574,-0.32474488,-0.1174584
0.5281279,0.31496736,0.34917203,-0.0054157395,0.32655418,-0.4737472,-0.82099277,-1.0114833,0.40000388,-0.0909511,0.03340537,-0.3693016
0.52501714,-0.0052027395,0.3700212,0.016056063,0.29992875,-0.4676323,-1.1599871,-0.9675836,0.39107388,-0.109964445,0.34465384,-0.3788971
0.5210477,-0.2173931,0.26664317,-0.1432622,0.1355455,-0.83119303,-1.37826,-0.44752386,0.3999414,-0.13731414,0.54933345,-0.26425144
0.46161282,-0.33892742,0.16498311,-0.2558815,-0.19181228,-0.9988929,-1.0493426,0.22915201,0.2845774,-0.25521135,0.6248184,0.03796891
0.9290533,0.16053735,0.40000013,0.016521877,-0.045897197,-0.57269955,-0.27243292,-0.1945454,0.006365934,0.23545474,0.07803219,-0.7573783
0.7274541,0.751422,0.35574457,0.06721798,0.15810084,-0.51571155,-0.3095061,-0.34229356,-0.032095987,0.117290735,-0.5468378,-0.5944197
0.36724722,0.7266231,-0.03894473,0.12489659,0.3306162,-0.3935111,-0.34050217,-0.6783526,0.15132178,-0.25960854,-0.31676015,0.08332617
0.51735747,0.38224617,0.2677547,0.09854742,0.41531935,-0.41439477,-0.7781697,-1.0356987,0.4000003,-0.122031085,0.07666551,-0.3341269
0.5128269,0.04413483,0.29144526,0.14996785,0.5083202,-0.10823964,-1.1671077,-0.99542165,0.39351594,-0.110346295,0.4360053,-0.3611758
0.4883187,-0.12862405,0.16781288,0.045544308,0.4546732,-0.41852042,-1.331887,-0.58850574,0.40000132,-0.14517362,0.6164874,-0.266084
0.39353067,-0.27855608,0.11718562,-0.3035521,-0.25753424,-1.1686691,-0.9921542,0.31160268,0.2809795,-0.30082732,0.637645,0.09259876
0.92396843,0.31215438,0.40000015,0.077015884,-0.045186035,-0.5412875,-0.292968,-0.15199766,0.056033213,0.28186038,-0.05699979,-0.79215777
0.58189684,0.93743145,0.26749954,0.08237571,0.26405677,-0.48842505,-0.31208852,-0.38764325,0.027289147,0.02028322,-0.6857416,-0.48027062
0.41318965,0.61496454,0.15718879,0.12939091,0.3695621,-0.41458416,-0.37999466,-0.78562087,0.34002355,-0.16143681,-0.21013995,-0.17665215
0.4466447,0.25750548,0.3263757,0.17610227,0.46836555,-0.15330993,-0.9601997,-1.1330948,0.4000042,-0.1021603,0.17150159,-0.34653166
0.43892512,-0.045360528,0.30704963,0.20065989,0.48028058,-0.21323627,-1.2348578,-0.82233787,0.39984778,-0.09521584,0.48645288,-0.33694562
0.44028386,-0.18278123,0.18448575,-0.17330858,0.14943983,-0.87403595,-1.3849264,-0.3288769,0.39993674,-0.15451157,0.61282754,-0.21662498
0.42195088,-0.2981799,0.3705521,-0.17324051,-0.37352473,-0.99528986,-0.8356273,0.2298497,0.15616032,-0.2602159,0.6486672,0.07806188
0.9220451,0.31562516,0.40000015,0.010143118,-0.048076246,-0.52320075,-0.33515134,-0.2712032,-0.027537335,0.30344018,0.031121567,-0.777002
0.61008173,0.9373913,0.19075884,0.04088564,0.2398449,-0.4159287,-0.32693636,-0.44965506,-0.15406509,-0.05096279,-0.6530934,-0.4124193
0.46616247,0.51844734,0.20978063,0.035534106,0.3035311,-0.4686137,-0.4420451,-0.8574868,0.39795324,-0.16598937,-0.16797373,-0.28146645
0.513841,0.15783119,0.32761234,0.11734178,0.40150252,-0.17445455,-0.96716595,-1.1472518,0.40000057,-0.17281674,0.21174502,-0.38952595
0.467368,-0.12453197,0.25563616,0.015582031,0.3434421,-0.5406145,-1.3268228,-0.7432015,0.39996365,-0.156522,0.5170884,-0.34626555
0.44289547,-0.25753525,0.053616367,-0.3110081,0.01400804,-1.0769025,-1.363465,-0.0012805326,0.39994684,-0.23738223,0.62391114,-0.11962247
0.8118629,-0.09353365,0.4000002,0.08004844,-0.19105092,-0.4445882,-0.3037366,-0.05642052,-0.010220027,0.20570621,0.3695132,-0.61971164
0.7162668,0.8032512,0.40000004,0.098749146,0.1465102,-0.46847397,-0.3449052,-0.28927106,-0.026108341,0.13817482,-0.53225595,-0.6132093
0.3647061,0.8257483,0.03376608,0.12810834,0.290613,-0.38093826,-0.3228312,-0.5944486,0.11196211,-0.21883939,-0.39419058,0.08218805
0.4660962,0.37142903,0.2839858,0.054214455,0.2882066,-0.4883006,-0.72435206,-0.9754504,0.4000045,-0.108370595,0.04482566,-0.36463103
0.45576727,0.09042065,0.30620787,0.05770904,0.3412497,-0.36562228,-1.1101658,-1.0275172,0.3999964,-0.116478436,0.33486056,-0.3847942
0.48373985,-0.19873647,0.21187758,-0.12489208,0.17363788,-0.74799323,-1.3602343,-0.46272212,0.39992207,-0.18878236,0.5741767,-0.23650075
0.5473434,-0.40942964,0.40000015,-0.09144224,-0.31750667,-0.7124679,-0.71215683,0.251578,0.045181505,-0.24481176,0.6489012,-0.17589097
0.8962085,0.41024804,0.40000007,0.04859405,0.005999131,-0.5342081,-0.3323741,-0.21316625,-0.00046649235,0.2967157,-0.23588486,-0.7499327
0.55724573,0.9462995,0.19893347,0.06392651,0.32067093,-0.44847366,-0.33382317,-0.420875,-0.08935989,-0.04719363,-0.6648569,-0.33445546
0.44871077,0.5437099,0.18895951,0.072418086,0.3788906,-0.4320489,-0.49305844,-0.8802412,0.40000314,-0.15900381,-0.1502875,-0.21919566
0.49061793,0.17692064,0.31548983,0.16806026,0.43557152,-0.16009219,-1.0229568,-1.1121839,0.40000167,-0.13052464,0.24719983,-0.363066
0.48626345,-0.120767176,0.26000258,-0.016721372,0.27329347,-0.56172264,-1.3451079,-0.69101,0.39994922,-0.14744523,0.53159666,-0.28829983
0.47722283,-0.25327855,0.07632591,-0.29892993,-0.06884411,-1.1119885,-1.3311759,-0.0138099035,0.39999086,-0.23364405,0.6261072,-0.049726125
0.85028404,0.046863083,0.40000015,-0.017487403,-0.13868926,-0.51234454,-0.22193973,-0.21810986,0.08231467,0.2613368,0.120074,-0.7190681
0.7535523,0.7004034,0.40000007,-0.011231729,0.09619702,-0.5187973,-0.22484608,-0.3611691,0.03429203,0.21211883,-0.52506053,-0.60718524
0.5188872,0.88647026,0.14436609,0.0525237,0.32319912,-0.3740515,-0.28070605,-0.55475754,-0.049531385,-0.071716286,-0.65383613,-0.35085213
0.42681113,0.5611218,0.18643685,0.046929214,0.35543486,-0.3869097,-0.41950595,-0.835924,0.39998472,-0.20330809,-0.08219196,-0.23136358
0.46658218,0.28652507,0.3372491,0.052590214,0.44723696,-0.2858574,-0.9057135,-1.106934,0.39380208,-0.17071217,0.18613876,-0.35598987
0.44510415,0.006476925,0.33522666,0.061598863,0.4357088,-0.34154826,-1.2346025,-0.9125487,0.39999598,-0.17060657,0.45501933,-0.35315078
0.4644148,-0.24087203,0.20645162,-0.2613257,0.0719873,-0.9240674,-1.3952274,-0.19224495,0.3999592,-0.24893473,0.6310945,-0.15206131
0.9216579,-0.018728947,0.40000018,0.01837088,-0.063337475,-0.49705252,-0.28175718,-0.15933914,0.026304143,0.29098296,0.25168058,-0.7589866
0.72847116,0.79604936,0.35727406,0.02307752,0.24896134,-0.4461365,-0.28404883,-0.38443086,-0.00842015,0.11221435,-0.62108475,-0.54371125
0.39641035,0.74119234,0.04795539,0.06056839,0.37857807,-0.25884646,-0.24715033,-0.6977219,0.07762921,-0.19362831,-0.38035983,-0.01056666
0.48112476,0.31043136,0.32811123,0.015200548,0.39987162,-0.37851965,-0.8303144,-1.0967875,0.40000108,-0.07407675,0.08372592,-0.31828582
0.49307644,0.043323733,0.3626584,0.07521036,0.41245896,-0.2705963,-1.1511343,-1.0247077,0.36688522,-0.070873946,0.3539048,-0.3698414
0.494467,-0.174777,0.31095687,-0.06263841,0.30177447,-0.6085637,-1.3376719,-0.68906665,0.39996114,-0.085559994,0.5538723,-0.31728983
0.4645508,-0.27540433,0.11777942,-0.31899473,-0.053439595,-1.1329632,-1.2787176,-0.0076226583,0.39169392,-0.15350384,0.6389175,-0.10703586
0.75387543,-0.31283563,0.4000002,0.0789988,-0.41848484,-0.3493532,-0.3456966,0.052183792,-0.048823934,0.060266256,0.5336024,-0.5104805
0.8220791,0.5935393,0.4000001,0.057296664,0.059699606,-0.5132485,-0.37206092,-0.24901249,0.0047643757,0.21962757,-0.32291937,-0.75596
0.51505256,0.9437692,0.16071619,0.07651699,0.29963517,-0.35732248,-0.37034675,-0.45359147,-0.09468713,-0.053757675,-0.6408142,-0.2715763
0.4395536,0.5514359,0.23709159,0.05445337,0.29947045,-0.4517051,-0.48139736,-0.79843885,0.40000162,-0.1396426,-0.1963005,-0.23211554
0.46073177,0.19094665,0.3819796,0.0898799,0.4106754,-0.20458114,-1.02414,-1.1122799,0.40000084,-0.09255798,0.18562251,-0.39385533
0.41975433,-0.123816095,0.3533227,0.04747357,0.39487886,-0.37959135,-1.2839334,-0.78988504,0.39238495,-0.087020546,0.48074585,-0.365339
0.38141984,-0.29577848,0.13467027,-0.27489126,-0.059881195,-1.0911807,-1.3136898,-0.0073298104,0.39999855,-0.15933466,0.6313263,-0.14718713
0.7433531,-0.16168027,0.40000027,0.06817161,-0.1662765,-0.55760515,-0.34011695,-0.06911961,0.029852211,0.24312502,0.4139144,-0.53655076
0.7436661,0.6814911,0.40000007,0.07288278,0.17258288,-0.5693694,-0.38655302,-0.32557264,0.082050964,0.22723223,-0.4958086,-0.5773857
0.6111061,0.95617056,0.24524038,0.092385806,0.35072798,-0.42340323,-0.38909963,-0.4913992,0.0043484746,-0.080460995,-0.6285723,-0.28613335
0.5008085,0.5231629,0.17743064,0.07062608,0.29865038,-0.5138429,-0.5066903,-0.81987906,0.4000416,-0.13552295,-0.16442233,-0.31014904
0.5371026,0.17046693,0.2762834,0.13568583,0.42870638,-0.23639067,-0.97459996,-1.0854211,0.39999872,-0.13372964,0.24563502,-0.44060916
0.4993931,-0.029717555,0.21674857,0.069558375,0.35152817,-0.48863274,-1.230732,-0.84978694,0.39999905,-0.1286865,0.48310855,-0.40666497
0.4933456,-0.20213929,0.0338638,-0.22475979,-0.002508854,-0.8137113,-1.3424438,-0.304235,0.3999687,-0.20231763,0.6448949,-0.20092915
0.43271357,-0.31501788,0.19585958,-0.1641503,-0.34749216,-0.96948195,-0.81962484,0.25641698,0.20934771,-0.3260689,0.6609121,0.082453266
0.97859454,0.3305673,0.4000001,0.14625278,-0.07078847,-0.51924807,-0.36394492,-0.15470068,-0.039026335,0.22275236,0.03755341,-0.899556
0.6322727,0.904672,0.31985503,0.16124412,0.20846006,-0.4576554,-0.3710119,-0.37485397,-0.084218025,-0.0019754327,-0.6133303,-0.5320255
0.45577237,0.5683583,0.21153584,0.14237005,0.3395407,-0.40307298,-0.47264108,-0.84747374,0.40006724,-0.09765296,-0.16339086,-0.2172126
0.49327534,0.18382116,0.39348808,0.14822671,0.4747399,-0.20894797,-1.0057606,-1.1364552,0.38476455,-0.03522088,0.22996907,-0.38046223
0.48293775,-0.05120365,0.3591371,0.028269697,0.31621233,-0.46807143,-1.2925394,-0.822121,0.39524722,-0.05068765,0.4627946,-0.35803616
0.50025034,-0.23901972,0.18047406,-0.26471937,0.0015067244,-0.9323099,-1.3746693,-0.18421048,0.39884263,-0.13214317,0.63269687,-0.14231844
0.60519665,-0.3162791,0.40000018,0.073475,-0.3345002,-0.36569688,-0.4455281,0.0842909,-0.015659492,-0.08815242,0.692906,-0.32803783
0.8741597,0.5025277,0.40000007,0.041880302,0.09907458,-0.5832799,-0.31642374,-0.3029485,0.055099744,0.22955397,-0.20514329,-0.74071896
0.6818072,0.94763863,0.32725817,0.05658517,0.31621784,-0.50356555,-0.30749527,-0.4399731,-0.03435335,-0.004516952,-0.6236099,-0.54769
0.38067392,0.653204,0.009626703,0.07309157,0.33627206,-0.43696454,-0.3185061,-0.8438501,0.25802642,-0.16008443,-0.23792322,-0.11857344
0.53709555,0.34346217,0.2923806,0.059561033,0.36579543,-0.41398674,-0.7462797,-1.0602192,0.40000224,-0.1004349,0.072826885,-0.3440944
0.5373076,0.04597304,0.30858454,0.09550284,0.3741617,-0.31562737,-1.1372557,-1.0041018,0.4000134,-0.095884085,0.3995195,-0.39325878
0.5343503,-0.176183,0.16129513,-0.20918041,0.14139998,-0.94977885,-1.4138008,-0.37534592,0.39997762,-0.14834006,0.6187858,-0.22769581
0.47249907,-0.28851485,0.31765357,-0.17292915,-0.30675066,-1.0874808,-0.88975793,0.2153421,0.20126659,-0.2741174,0.6509706,0.08289208
0.8660724,0.3943559,0.40000015,0.07020845,-0.034045625,-0.558548,-0.40804935,-0.25509453,0.08456905,0.28354114,-0.16375896,-0.7722701
0.68166316,0.94811726,0.32753482,0.06745982,0.26123184,-0.4740072,-0.39893806,-0.45954722,-0.026934797,-0.026381552,-0.6844304,-0.5470236
0.5064536,0.52112794,0.20221417,0.117047705,0.3886609,-0.37200317,-0.5072353,-0.9169869,0.39999595,-0.14998221,-0.12127843,-0.28309628
0.53266835,0.21683487,0.3241388,0.16919997,0.45031357,-0.110260114,-0.9160706,-1.1793795,0.39742467,-0.114756964,0.20965995,-0.40371776
0.49825168,-0.12147837,0.27709174,-0.057339806,0.26090628,-0.6911463,-1.3555143,-0.6240827,0.39923424,-0.10337625,0.55781,-0.37392712
0.4374266,-0.3140692,0.16953403,-0.24580978,-0.2429236,-1.1998656,-1.0507134,0.24055788,0.3145111,-0.24265637,0.657441,-0.005655614
0.88224167,0.26106563,0.40000013,0.054851938,-0.0115277,-0.5738174,-0.35371312,-0.19368075,0.055521253,0.27562153,0.021779101,-0.7367051
0.5836636,0.92913914,0.21277314,0.10556672,0.29875338,-0.45204726,-0.39149603,-0.43767497,-0.013691224,-0.05779561,-0.5852395,-0.3689197
0.4444506,0.565613,0.20284829,0.12012358,0.32762977,-0.42163637,-0.44654015,-0.86877555,0.39999965,-0.1200459,-0.16105567,-0.26409888
0.46146238,0.14908873,0.3616078,0.13472745,0.4225158,-0.314401,-1.1094323,-1.07833,0.39997703,-0.06317257,0.2846644,-0.413718
0.49540475,-0.15356383,0.3161748,-0.0841876,0.28091037,-0.65961695,-1.4139824,-0.5858991,0.39994717,-0.10681687,0.55790704,-0.31602153
0.4966206,-0.29219612,0.056759246,-0.27796713,-0.13851424,-1.0439167,-1.1876553,0.093011305,0.36042795,-0.23676972,0.6605965,-0.002122895
0.91845095,-0.29175812,0.40000024,0.09715442,-0.2964634,-0.33851635,-0.2809668,-0.043122772,-0.016983708,0.09344041,0.54783165,-0.6977218
0.8460581,0.63720894,0.4000001,0.07002344,0.12431082,-0.5179432,-0.31288695,-0.2694242,0.0050305706,0.22877191,-0.34181783,-0.7660085
0.56062704,0.8658156,0.17617014,0.111727595,0.33779687,-0.33513653,-0.36121464,-0.5197442,-0.038183942,-0.097333506,-0.59556115,-0.36479473
0.48711944,0.44112763,0.24428636,0.096499085,0.41440162,-0.3905063,-0.60798955,-0.93266326,0.39997968,-0.13662864,0.012987082,-0.35300657
0.50407916,0.10065537,0.3147982,0.16216479,0.46515042,-0.13282862,-1.0582749,-1.0888276,0.40000358,-0.13803674,0.36802393,-0.4111212
0.48003185,-0.15716115,0.20824608,-0.077973664,0.2696198,-0.70319957,-1.3655123,-0.5706159,0.39997804,-0.18212357,0.59467334,-0.2848548
0.4136373,-0.30316502,0.27092522,-0.25407976,-0.30985552,-1.0195415,-0.995126,0.25950816,0.19543324,-0.30044118,0.66615266,0.055919494
0.8798128,0.23951954,0.40000015,0.0034558645,-0.040622395,-0.53605056,-0.26117238,-0.2898132,0.064643696,0.4205975,0.020250726,-0.7570171
0.6685448,0.90716404,0.30466706,0.009503959,0.23726845,-0.46175537,-0.24536605,-0.46659756,-0.038693104,0.047850683,-0.7081191,-0.5503733
0.42748687,0.65958,0.033150077,0.014745457,0.34039545,-0.4078105,-0.26780537,-0.73135626,0.08008504,-0.3188933,-0.27840745,0.021931117
0.53594637,0.30977654,0.28898484,0.034914315,0.4423309,-0.3983818,-0.8269045,-1.1267215,0.40000924,-0.2199842,0.09145927,-0.2837618
0.5043511,0.0010028883,0.27505094,0.109741956,0.4403235,-0.19949777,-1.1526529,-0.9468771,0.3999948,-0.20644052,0.409894,-0.30027664
0.46301004,-0.22237745,0.08172129,-0.21619727,0.14097418,-0.9722291,-1.4077357,-0.26145217,0.39994842,-0.24980937,0.6198853,-0.10970558
0.81095475,-0.3659985,0.4000002,0.05140108,-0.28731105,-0.43072447,-0.21165588,0.028855925,-0.17535365,-0.0431904,0.5864177,-0.5248487
0.9272674,0.40995517,0.4000001,0.0906065,0.021213401,-0.5261247,-0.34789443,-0.208756,0.0010789993,0.2175783,-0.15138863,-0.80806285
0.55598086,0.94973546,0.13869987,0.11354725,0.31583142,-0.42325416,-0.37387234,-0.436159,-0.070210345,-0.086844265,-0.5519593,-0.28825822
0.4988503,0.5063283,0.25344563,0.09944055,0.4046318,-0.4110178,-0.60946417,-0.955877,0.4000021,-0.16667262,-0.02401852,-0.30095515
0.490248,0.15823655,0.35040691,0.15899716,0.45172805,-0.09128188,-1.0519693,-1.1121521,0.39612907,-0.12646809,0.34137422,-0.3948248
0.48552474,-0.12744863,0.30745915,-0.06840134,0.23276044,-0.6335583,-1.3718643,-0.6493602,0.39998448,-0.15285653,0.5743937,-0.29444653
0.4444438,-0.29708254,0.16526489,-0.29822797,-0.23071451,-1.116841,-1.164138,0.15830931,0.32641295,-0.26439393,0.6594468,0.02313938
0.9529709,-0.080509715,0.40000018,0.09314527,-0.17221314,-0.49948683,-0.33240396,-0.1713154,0.0479319,0.17391093,0.3024385,-0.82007605
0.75686693,0.8053804,0.40000004,0.11718459,0.14396788,-0.48042798,-0.31641248,-0.35081795,-0.052541327,0.120477825,-0.5582567,-0.6678188
0.39896426,0.85001725,0.06929601,0.1746024,0.30989107,-0.33542728,-0.3191978,-0.60553205,0.06831317,-0.1346913,-0.42385283,-0.008390382
0.40440658,0.39672315,0.304897,0.06314018,0.19369845,-0.5102816,-0.6927497,-0.82723343,0.40001222,-0.04330238,0.04048756,-0.29882297
0.42588887,0.081628084,0.36166614,0.069292486,0.32200223,-0.38345253,-1.1332954,-0.9213646,0.40002114,-0.049872987,0.34434214,-0.32853895
0.4382416,-0.1139319,0.31549186,-0.07547778,0.15341657,-0.64277226,-1.3233176,-0.63557047,0.39996845,-0.08438511,0.5086555,-0.25035235
0.43206123,-0.25039887,0.15698886,-0.3005784,-0.061886348,-0.9744913,-1.2940704,-0.12631151,0.39999878,-0.15084845,0.6141742,-0.06072326
0.44487876,-0.2809142,0.40000027,-0.089651816,-0.37415612,-0.67020476,-0.6394015,0.22928564,0.10045991,-0.21886764,0.6380853,-0.012695153
0.87924635,0.23898543,0.40000013,0.09088944,-0.12109573,-0.52309626,-0.26644439,-0.20993699,0.13277976,0.36212268,-0.00835876,-0.7435914
0.6526154,0.76147753,0.3791701,0.08414923,0.1395177,-0.51841414,-0.24044515,-0.36973512,0.07524855,0.16009861,-0.63713926,-0.51857084
0.54461586,0.7981541,0.19728951,0.11354631,0.28420237,-0.39528075,-0.27314198,-0.5263673,0.02380806,-0.08580056,-0.6817451,-0.4052166
0.43295267,0.57683825,0.15883176,0.09256854,0.30356973,-0.4359626,-0.2972826,-0.82877904,0.3043767,-0.20113291,-0.09734259,-0.099510126
0.48421666,0.28945515,0.35452425,0.064423665,0.37356284,-0.36474,-0.86103237,-1.0920411,0.40000933,-0.107494816,0.19323042,-0.28435618
0.47220862,0.030796299,0.40510058,0.009240834,0.35724372,-0.39258125,-1.2317435,-0.98619086,0.4000984,-0.06980744,0.4223892,-0.3053976
0.48781928,-0.17340955,0.35327584,-0.16832845,0.22261833,-0.81644446,-1.4364555,-0.52827847,0.39999908,-0.099709466,0.5741885,-0.19862036
0.46279347,-0.30424008,0.17747264,-0.33868808,-0.20706265,-1.1952269,-1.1816286,0.1727054,0.30074725,-0.17308342,0.64609694,0.037809033
0.82588476,-0.22106624,0.40000018,-0.0321684,-0.21902907,-0.50575495,-0.28332266,-0.115605146,0.04673956,0.18787998,0.41985714,-0.5576164
0.8215548,0.67315644,0.40000007,-0.047082238,0.10556349,-0.5603912,-0.27528542,-0.301697,0.013099,0.19702196,-0.41323072,-0.664394
0.5881563,0.9264703,0.16494259,-0.0025486005,0.33450395,-0.41200003,-0.32206804,-0.50129014,-0.072042406,-0.09126198,-0.72305113,-0.4500285
0.5042351,0.5745101,0.16622308,0.016473634,0.36764795,-0.49127886,-0.36059606,-0.8365968,0.35940388,-0.22611219,-0.14438096,-0.16308141
0.543004,0.2391712,0.32989332,0.029707719,0.3872729,-0.34686658,-0.92369634,-1.1350762,0.3999985,-0.1688275,0.19727023,-0.33112165
0.4826995,-0.082287624,0.23789701,-0.037097957,0.2829373,-0.5037371,-1.3069112,-0.6835132,0.39999223,-0.16108014,0.532621,-0.2710748
0.4944692,-0.27534553,0.06905988,-0.29651147,-0.11433142,-1.1507726,-1.1976564,0.12317804,0.39998183,-0.29252005,0.63406914,0.038472123
0.91437066,-0.009803914,0.40000018,0.036153883,-0.04447721,-0.5102638,-0.30952328,-0.11096339,0.028467901,0.35232767,0.25326213,-0.7386767
0.75388116,0.6957231,0.40000004,0.024811396,0.2127357,-0.4707573,-0.29403505,-0.29826424,-0.005457029,0.22392833,-0.58899426,-0.626387
0.53761643,0.8604289,0.16660647,0.063420884,0.36965796,-0.25363296,-0.3203182,-0.5127969,-0.049851466,-0.037384003,-0.6716402,-0.36433002
0.48987496,0.47370428,0.23576921,0.028056895,0.32550263,-0.5601027,-0.5631199,-0.91152495,0.39997306,-0.16450866,-0.07222961,-0.16730177
0.506112,0.17160554,0.34675896,0.057291202,0.35143158,-0.38310695,-0.9932566,-1.0638729,0.3756386,-0.12680271,0.2132722,-0.2560357
0.47577405,-0.06720636,0.3089465,-0.043639693,0.243532,-0.57268363,-1.2812661,-0.7196318,0.39665246,-0.11478051,0.4414447,-0.24116977
0.4457248,-0.2308809,0.09651582,-0.32128847,-0.08040228,-1.050581,-1.3077071,-0.024854196,0.39996925,-0.19895342,0.57008094,0.011707681
0.72360635,-0.25262105,0.4000002,0.043889605,-0.15947682,-0.30989075,-0.2822032,-0.044927053,-0.05006106,-0.006887148,0.5873878,-0.6057223
0.7779063,0.5043825,0.3880787,-0.019532857,0.04898971,-0.52874815,-0.20478566,-0.24779133,0.054893523,0.30127698,-0.5477185,-0.7759197
0.44343558,0.61629784,0.08314664,-0.016209478,0.28584602,-0.5482745,-0.25566137,-0.4692312,0.11723759,0.021488981,-0.7557127,-0.5367063
0.52685034,0.5169885,0.12837073,0.006094219,0.39250666,-0.39152792,-0.26017612,-0.62219423,0.11342812,-0.16504587,-0.5650559,-0.493876
0.54093605,0.46626163,0.117970474,0.056851957,0.40985668,-0.19813454,-0.35340443,-0.9201222,0.36951944,-0.34890878,-0.034027528,-0.27225307
0.55863565,0.17125115,0.24527222,0.08642568,0.4425279,0.082234204,-0.8407004,-1.241231,0.38784623,-0.28072572,0.29840812,-0.41427794
0.52325547,-0.07160678,0.17884958,0.09422169,0.5076905,-0.22496875,-1.2003715,-0.8819293,0.39996877,-0.2566513,0.5956412,-0.389561
0.49163765,-0.18730731,-0.022113465,-0.20296428,0.25774056,-0.94157535,-1.4312551,-0.30213207,0.39999792,-0.33607274,0.6910281,-0.17395093
0.66078097,-0.30311388,0.40000024,0.047339637,-0.30437186,-0.39240775,-0.32657453,0.16277133,-0.091538824,-0.20529732,0.7409988,-0.42367643
0.87846786,0.5321826,0.40000013,0.07476926,0.101477124,-0.5329198,-0.30642417,-0.18821496,0.0064989915,0.20799783,-0.17377837,-0.83365613
0.53700805,0.86965716,0.1665994,0.13425338,0.3168576,-0.3468235,-0.34549445,-0.4591091,0.001879105,-0.10252989,-0.52026147,-0.26695013
0.47187778,0.44695047,0.24491446,0.1327657,0.35841393,-0.41457766,-0.48363483,-0.9385309,0.39998877,-0.096497945,-0.082742654,-0.3195934
0.4940694,0.054470323,0.36646518,0.110707015,0.42597944,-0.3289766,-1.128831,-1.0418355,0.3999848,-0.059052106,0.32603288,-0.42753017
0.50598824,-0.20334736,0.28171995,-0.14625008,0.14548373,-0.7642392,-1.396823,-0.4832082,0.39550245,-0.09702471,0.56900585,-0.31916544
0.48813462,-0.36550677,0.17304857,-0.23897582,-0.21952918,-1.012674,-1.0469908,0.19876455,0.32793006,-0.21431686,0.6642724,-0.014392568
0.8738013,-0.026366798,0.40000015,0.006268298,-0.1469113,-0.56302005,-0.31658134,-0.2146807,0.08741542,0.2043641,0.18643863,-0.7364784
0.7331706,0.85148484,0.37770566,0.020957768,0.17765096,-0.57058823,-0.318147,-0.39800397,0.0115386145,0.0901507,-0.57805127,-0.6177841
0.43281052,0.67093104,0.07570685,0.0755054,0.397687,-0.37635648,-0.32402998,-0.714964,0.106312014,-0.26186758,-0.2597607,-0.068856195
0.5403856,0.3493312,0.32332298,0.05431453,0.41499302,-0.4079752,-0.74707466,-1.1046251,0.39325944,-0.17519826,0.0854457,-0.370026
0.5251483,0.023404846,0.37002787,0.08586332,0.39454347,-0.32537106,-1.1601189,-1.0295198,0.40005228,-0.15648364,0.4065372,-0.40381733
0.5332209,-0.23246484,0.28475583,-0.14333408,0.22700256,-0.7516134,-1.4192226,-0.50902474,0.390264,-0.18722314,0.6189529,-0.26854378
0.49758953,-0.3650316,0.2278378,-0.26367393,-0.1590236,-1.1528169,-1.1149093,0.20708637,0.31925705,-0.29126647,0.6801567,0.02030677
0.967656,-0.0598863,0.4000002,0.047607448,-0.16164604,-0.55434895,-0.34700203,-0.11205771,0.076525986,0.17758512,0.26905087,-0.7498698
0.69623905,0.84293526,0.36662692,0.0885376,0.18697229,-0.5184264,-0.3528817,-0.3390653,0.015596529,0.04753189,-0.5427909,-0.58346975
0.43699047,0.80725366,0.12193676,0.13672526,0.32000682,-0.33854252,-0.36262503,-0.5494758,0.05189994,-0.16577251,-0.39121398,-0.07587537
0.47259417,0.3563954,0.3148955,0.122814156,0.3369145,-0.44028112,-0.7911121,-0.9449872,0.40000296,-0.076156236,0.063227326,-0.3222268
0.45879605,0.035139948,0.33976367,0.090417184,0.3695232,-0.3896397,-1.197611,-0.92282486,0.35821068,-0.06594927,0.38412917,-0.33684093
0.4914153,-0.19315076,0.23514609,-0.15177844,0.09521421,-0.74558586,-1.3483557,-0.40568835,0.39444163,-0.11391338,0.5966341,-0.1959532
0.49834973,-0.35403216,0.4000023,-0.16797562,-0.35431018,-0.8379691,-0.7914244,0.27132928,0.14193866,-0.19789508,0.6430491,-0.055156626
0.91567355,0.18142284,0.40000018,0.019444609,-0.09755002,-0.5484002,-0.26630178,-0.25795802,0.10096372,0.2914178,0.049499933,-0.7563168
