ancorasir/BennettWheelLegRL/experiment_data/2023-12-27_22-47-53/joint_position_env19.csv
Joint_1,Joint_2,Joint_3,Joint_4,Joint_5,Joint_6,Joint_7,Joint_8,Joint_9,Joint_10,Joint_11,Joint_12
0.32654083,-0.0,-0.0,-0.4407645,0.0,0.0,-0.25025287,-0.0,-0.0,0.34894446,-0.0,0.0
0.44081238,0.45861682,0.28141358,0.072173074,-0.014825204,-0.21116807,-0.14451894,-0.13634112,-0.015333424,0.009145913,-0.23843722,-0.5214784
0.35135186,0.60822845,0.07150642,0.17274283,0.18756306,0.06639812,-0.082537994,-0.42926124,0.14493367,-0.08856138,-0.41237974,-0.16576974
0.34948313,0.1715472,0.18232064,0.2268321,0.36021698,-0.04570212,-0.42616448,-0.8778467,0.40000787,-0.05114753,-0.0057674567,-0.48867467
0.41320685,-0.071300335,0.18896894,0.3144716,0.44911057,0.159925,-0.86642075,-1.0083053,0.37675726,-0.0787195,0.32454598,-0.5350462
0.44195628,-0.23837054,0.0052550575,0.16593447,0.5242755,-0.20003483,-1.2481192,-0.6439506,0.3999772,-0.17289326,0.57599694,-0.4285576
0.40409267,-0.26374656,-0.26051012,-0.26667315,0.032197263,-1.0608128,-1.330857,0.01724758,0.4000021,-0.30499905,0.6444476,-0.1972124
0.69805676,-0.33124352,0.40000024,0.048677422,-0.40314245,-0.3100535,-0.25604254,0.04277216,-0.014548986,-0.15051457,0.7127317,-0.47252417
0.91862184,0.48291805,0.4000001,0.107514195,0.0139307,-0.47207898,-0.23124649,-0.3093764,0.026442833,0.20720038,-0.063981794,-0.8915175
0.578881,0.92008775,0.19045594,0.1541011,0.24888237,-0.36541757,-0.26267594,-0.49149156,-0.064126864,-0.07820328,-0.5799951,-0.3807974
0.42873487,0.5696924,0.1488684,0.15497386,0.25147647,-0.45156825,-0.3376036,-0.8787783,0.3906383,-0.1610002,-0.079552606,-0.22287087
0.49629948,0.23293424,0.31822136,0.17190844,0.43788657,-0.2916284,-0.9502437,-1.088473,0.3916437,-0.13141866,0.25921696,-0.3368322
0.46282154,0.024230836,0.2792488,0.18258522,0.40650964,-0.16885,-1.1383849,-0.87091815,0.39998126,-0.12905848,0.46936956,-0.30663544
0.4542391,-0.20854618,0.102693886,-0.3057407,0.04732385,-0.9762323,-1.3744284,-0.16486146,0.39861962,-0.21094418,0.63537186,-0.051554866
0.8182849,-0.10409143,0.40000018,0.005038076,-0.122536846,-0.47689086,-0.27100664,-0.07856497,0.0028778997,0.2245086,0.3256335,-0.60061336
0.7816007,0.7154471,0.40000007,-0.0010171041,0.18953644,-0.49556583,-0.28690585,-0.28862995,0.007613839,0.21470201,-0.5041654,-0.6683171
0.41227883,0.7768363,0.056200255,0.085072406,0.3685994,-0.27157804,-0.32311016,-0.569671,0.022850908,-0.17614163,-0.43540618,-0.114298835
0.4784321,0.3427827,0.29182795,0.10484549,0.40070632,-0.28260392,-0.7104197,-1.087942,0.39999378,-0.13017085,0.021392465,-0.35906908
0.4817775,0.022343485,0.342265,0.12324068,0.46091616,-0.15517882,-1.118804,-1.0517528,0.38778132,-0.11124095,0.36229315,-0.4198224
0.49628016,-0.2309167,0.20450881,-0.15596053,0.20794867,-0.76191586,-1.403591,-0.43043265,0.39995727,-0.17198813,0.61471826,-0.28615674
0.40043584,-0.30292544,0.27124178,-0.19391675,-0.26804692,-1.0555435,-0.95246965,0.2650249,0.22993079,-0.26357153,0.6713212,0.0038095224
0.9319399,0.22619927,0.40000015,0.038953297,-0.016288523,-0.5493596,-0.3829981,-0.22320946,0.06949485,0.32997325,-0.023858868,-0.79228574
0.69315594,0.87310004,0.3990662,0.0423496,0.22363256,-0.47955057,-0.37333962,-0.39723065,0.0030220118,0.079489276,-0.6333923,-0.5868402
0.42395574,0.778496,0.045765333,0.06695917,0.35370156,-0.34123552,-0.38528195,-0.68149656,0.12885135,-0.1878216,-0.381447,-0.07617472
0.53003395,0.43288913,0.28315085,0.06696712,0.44858974,-0.3473172,-0.7029292,-1.0342788,0.40000108,-0.124425426,-0.036972404,-0.36529708
0.53118205,0.13076846,0.344047,0.14188962,0.45176074,-0.12178962,-1.0632013,-1.1131072,0.39999676,-0.11030222,0.3052862,-0.46484584
0.53316295,-0.098919824,0.28192708,-0.0353598,0.34020323,-0.55488276,-1.3449285,-0.6898281,0.38372105,-0.13362768,0.5499211,-0.39106548
0.5211015,-0.23864226,0.12852187,-0.29152256,-0.01193982,-0.95956033,-1.3383105,-0.12730473,0.39999923,-0.20218976,0.64461195,-0.18264852
0.5905137,-0.30680403,0.4000002,-0.018666152,-0.3016648,-0.55830085,-0.64039356,0.16226198,0.115217745,-0.17655183,0.6011602,-0.25247306
0.92676276,0.24952428,0.40000013,0.027207248,0.01777805,-0.5642612,-0.3514258,-0.18771572,0.0839584,0.25789335,0.021809619,-0.7685961
0.7228856,0.82550734,0.38043186,0.031658504,0.24418625,-0.5021509,-0.3489361,-0.3618629,0.049198277,0.06423706,-0.5933816,-0.6279016
0.52714336,0.90242094,0.10290065,0.05620037,0.37969315,-0.32612783,-0.34038877,-0.5566166,0.035018373,-0.16068302,-0.5618714,-0.18309507
0.4689055,0.5187198,0.22890328,0.040867213,0.32352194,-0.45844197,-0.55186176,-0.9016311,0.40000263,-0.15010218,-0.13344404,-0.25954753
0.48258474,0.24796009,0.33573076,0.059581842,0.40649828,-0.26743594,-0.94740874,-1.0814412,0.39999926,-0.12173124,0.14958864,-0.3840401
0.47668085,0.021084724,0.32425612,0.11477785,0.40300527,-0.14540985,-1.1440026,-0.93133754,0.39999908,-0.13379042,0.38319346,-0.36992458
0.46148983,-0.15599743,0.23879611,-0.09986149,0.21442075,-0.7284888,-1.3848565,-0.49795368,0.39995733,-0.1565342,0.54434025,-0.26258498
0.41615796,-0.24805221,0.037327792,-0.30869466,-0.10395072,-1.1694344,-1.2402036,0.08766018,0.3757146,-0.23557729,0.61207294,-0.026667073
0.68026775,-0.2601712,0.40000024,0.15781926,-0.3168104,-0.30523187,-0.17455201,-0.03246515,-0.067446075,0.065095715,0.5830526,-0.4642366
0.8820185,0.45137107,0.4000001,0.12551793,0.06514396,-0.5220818,-0.25102186,-0.297089,0.09111186,0.2647871,-0.18629551,-0.7692148
0.62444216,0.9069601,0.251542,0.1353903,0.29672286,-0.4285985,-0.25482526,-0.4769016,0.0078206705,-0.0099949725,-0.65562516,-0.49126285
0.4108379,0.57596976,0.1625362,0.14072573,0.3293397,-0.36383706,-0.30663773,-0.87079954,0.3673889,-0.13360268,-0.13449138,-0.19259189
0.4618478,0.13222939,0.3712996,0.07160622,0.4097632,-0.34477937,-1.0876596,-1.0905297,0.40002248,-0.07060453,0.3001591,-0.34903246
0.45331013,-0.07987592,0.31719083,-0.018377556,0.35374033,-0.4508159,-1.2963518,-0.7764354,0.39999923,-0.094459206,0.49375185,-0.2798742
0.4442068,-0.24298744,0.13295254,-0.2731227,-0.018741371,-1.003794,-1.3458525,-0.1468477,0.39996943,-0.17941579,0.616979,-0.061225876
0.6008732,-0.41628456,0.40000018,-0.02548678,-0.42110825,-0.6321948,-0.5418394,0.23670068,-0.080690876,-0.19438495,0.6866958,-0.2495268
0.9161786,0.41785282,0.4000001,0.13244493,-0.056430254,-0.5255851,-0.25484872,-0.21579891,0.026401812,0.23411033,-0.10042444,-0.8303382
0.6116092,0.89181215,0.2791215,0.14048976,0.20259511,-0.49173692,-0.26587772,-0.39799014,-0.026481198,0.025443265,-0.6280158,-0.47852787
0.40063345,0.5613455,0.16048762,0.09885812,0.31229123,-0.4758429,-0.32844326,-0.7485361,0.22584824,-0.21095318,-0.16946907,-0.1229525
0.45442235,0.19038595,0.36160737,0.03368386,0.34480205,-0.38386825,-0.90056515,-1.0811335,0.40000227,-0.14184284,0.19416948,-0.33268616
0.41823468,-0.07532094,0.3032439,-0.024427062,0.26280457,-0.46772885,-1.2557204,-0.7822474,0.39999983,-0.1427819,0.45954195,-0.29373226
0.43410817,-0.23683807,0.1607875,-0.24391083,-0.0014882638,-0.94895977,-1.3418183,-0.15744898,0.39996243,-0.21339895,0.59362817,-0.11788796
0.61146337,-0.43299422,0.40000024,0.0770577,-0.35400093,-0.3380652,-0.45141023,0.10615028,-0.067204915,-0.15658793,0.60752666,-0.19282843
0.8964256,0.41088718,0.40000013,0.10114573,-0.02688412,-0.4796958,-0.33171004,-0.2341233,0.0032504683,0.31308806,-0.17450261,-0.77315485
0.6429862,0.9454088,0.2783954,0.08797877,0.2188996,-0.4481605,-0.32212967,-0.3941816,-0.073842496,0.019538078,-0.6589589,-0.4867274
0.38424215,0.6929837,0.07858154,0.08430658,0.33453587,-0.4115525,-0.35174128,-0.74129665,0.30803895,-0.16395923,-0.2351619,-0.15464249
0.46132064,0.3777198,0.2993262,0.08624564,0.42681208,-0.2677497,-0.8038555,-1.11981,0.3966879,-0.10192718,0.10031762,-0.3626096
0.43306145,-0.09675283,0.28867736,0.027972914,0.306264,-0.49045324,-1.3018279,-0.71896356,0.3999486,-0.1179642,0.5357332,-0.30302328
0.41919228,-0.33369526,0.37551647,-0.17797549,-0.36256507,-1.0176299,-0.8115164,0.25739574,0.1518825,-0.2588389,0.6595246,0.096103296
0.8811063,0.31621167,0.40000015,0.050020397,-0.07293669,-0.5672178,-0.3694251,-0.14860278,0.026875917,0.30016968,-0.121179655,-0.7292655
0.6386524,0.8716891,0.34505972,0.060748044,0.19222528,-0.52216166,-0.3886652,-0.3507656,-0.012476,0.092113905,-0.62893385,-0.51485115
0.3370156,0.73885864,0.009052446,0.06487551,0.39425695,-0.33811164,-0.3851107,-0.6181269,0.09899929,-0.14702184,-0.33560473,-0.13288419
0.46056908,0.3546215,0.30958128,0.096939445,0.46197176,-0.19207624,-0.837137,-1.1349027,0.4000029,-0.070013806,0.07749195,-0.424092
0.46602315,0.03319748,0.36821818,0.15732627,0.46701548,0.013600627,-1.1197779,-1.0620315,0.39757532,-0.06907457,0.40043357,-0.46452168
0.4848793,-0.18871321,0.28314772,-0.116496176,0.3066097,-0.6700518,-1.4080086,-0.59815544,0.39999712,-0.10899617,0.6213808,-0.36962798
0.44525027,-0.3118464,0.11568505,-0.34230632,-0.23336965,-1.177601,-1.1688058,0.20946826,0.36898422,-0.2090686,0.6809207,-0.09563216
0.90867186,0.030152665,0.4000002,0.058386747,-0.17524447,-0.5213975,-0.41920286,-0.13297287,0.03863387,0.28146553,0.18466085,-0.73889166
0.7414145,0.7868312,0.40000004,0.038174327,0.1248733,-0.5342166,-0.4032988,-0.32237968,-0.003972865,0.15777288,-0.53390723,-0.62956005
0.54008484,0.8803501,0.13593964,0.06525449,0.35663405,-0.36797255,-0.41301203,-0.53691494,-0.07018312,-0.15336499,-0.49553072,-0.17594986
0.51892585,0.40626457,0.30859032,0.015603908,0.40241396,-0.40581802,-0.7440689,-0.9900456,0.39999834,-0.093084134,-0.03745512,-0.3945303
0.5262221,0.13602771,0.36943647,0.055145357,0.45181528,-0.21455769,-1.0552964,-1.087067,0.39999974,-0.09779639,0.25152653,-0.4649185
0.51666456,-0.13720061,0.30424342,-0.007860663,0.42733496,-0.472578,-1.3468204,-0.7613141,0.39946914,-0.11929831,0.5510724,-0.43477133
0.50430876,-0.27826545,0.1158409,-0.27035877,0.097287126,-0.9834475,-1.3920745,-0.15586159,0.39997923,-0.18770874,0.6878611,-0.25018024
0.7980121,-0.18094485,0.40000024,-0.040826317,-0.30060056,-0.43716836,-0.13119309,-0.097606935,0.023913998,0.17982511,0.41778362,-0.5553208
0.797842,0.66353273,0.4000001,-0.010575103,0.042673834,-0.4745907,-0.2069862,-0.3766336,0.12354091,0.22987695,-0.39970824,-0.7013672
0.5843887,0.9183433,0.14703263,0.021391124,0.32764035,-0.3509596,-0.24333875,-0.5993721,0.00727402,-0.12098592,-0.6119587,-0.35996273
0.4904746,0.45388737,0.24323533,0.047586963,0.39260182,-0.3989859,-0.59567213,-0.983747,0.39996716,-0.18998106,0.070485786,-0.31628427
0.4974498,0.14970596,0.33589178,0.09424187,0.4366036,-0.16488615,-1.0266659,-1.1278418,0.4000009,-0.16192466,0.36940575,-0.37457314
0.46361887,-0.12919018,0.27739227,-0.105893865,0.37748605,-0.65652215,-1.3747059,-0.6007158,0.39995787,-0.16900384,0.6004239,-0.2771913
0.3815093,-0.27993247,0.26749113,-0.26962203,-0.22261304,-1.1385554,-1.0335246,0.2312587,0.24699476,-0.28817633,0.6567811,0.07133122
0.93291265,0.21668217,0.40000015,0.083110906,-0.030130941,-0.5305801,-0.33657068,-0.18542421,0.065022044,0.2570608,0.021626044,-0.80983055
0.7495914,0.8526172,0.3555555,0.089639746,0.20821352,-0.47725874,-0.3315716,-0.3584938,0.010693731,0.091628686,-0.58326733,-0.6385312
0.3631331,0.78907835,0.018936994,0.12643486,0.35188046,-0.3845315,-0.30880073,-0.61592245,0.08167052,-0.20660143,-0.32879198,-0.06481972
0.47182453,0.38140947,0.27365014,0.10493894,0.40611386,-0.35047126,-0.73272544,-1.0696887,0.40000123,-0.1475993,0.071429364,-0.3660415
0.46169025,0.053291596,0.309411,0.076665066,0.37202373,-0.37949625,-1.2121515,-0.9491134,0.39997762,-0.14535087,0.40162006,-0.38527036
0.48386815,-0.21673332,0.2124193,-0.17323291,0.11144049,-0.66135097,-1.3574969,-0.38402024,0.3999422,-0.21214315,0.5951848,-0.18790188
0.4712568,-0.3596889,0.4000003,-0.15243578,-0.30131483,-0.82353127,-0.8007395,0.2495942,0.17644009,-0.3612813,0.63415784,0.16508621
0.95363253,0.31831753,0.40000013,0.04046081,-0.04326424,-0.5110185,-0.2005836,-0.28040224,0.046757378,0.33975333,-0.008998042,-0.8480483
0.66593856,0.8939522,0.3563518,0.06282238,0.17445654,-0.45440373,-0.18274157,-0.43440777,-0.0356307,0.063261405,-0.66375506,-0.56823856
0.36654955,0.6283639,0.07321189,0.12427463,0.32836837,-0.337885,-0.19233724,-0.7461925,0.09384276,-0.25926718,-0.20469101,-0.020170435
0.48982292,0.24885975,0.3675586,0.11774842,0.45214397,-0.21286911,-0.89487195,-1.1731716,0.3999991,-0.15317632,0.17926927,-0.31187508
0.456853,-0.029180072,0.37152588,0.10102496,0.43866643,-0.2736306,-1.1922473,-0.8732124,0.39999998,-0.11356013,0.4594434,-0.34041184
0.4356064,-0.19764589,0.20535289,-0.26300684,0.14246188,-0.98018694,-1.4082581,-0.24739967,0.40000048,-0.17669846,0.6063446,-0.15683989
0.5181444,-0.33578426,0.40000018,-0.026453342,-0.35896385,-0.69196546,-0.6318746,0.2163241,0.04224258,-0.18120694,0.62705547,-0.087946184
0.80086756,0.59883463,0.40000004,0.026714304,0.07764383,-0.53732055,-0.21495222,-0.32042858,0.112338856,0.24639864,-0.40627122,-0.6431496
0.4520202,0.8105044,0.062899105,0.09024788,0.36717066,-0.3606612,-0.24977918,-0.60613966,0.034604777,-0.17777833,-0.48303083,-0.22466119
0.4856258,0.38982084,0.29619768,0.06494535,0.36018407,-0.50599074,-0.69545245,-0.99466676,0.39992636,-0.17929843,0.090240195,-0.31350073
0.47834244,0.069800854,0.344474,0.08320549,0.43392265,-0.269669,-1.1208113,-1.0409586,0.3940819,-0.17058563,0.40199813,-0.369227
0.4599914,-0.13301809,0.22311114,-0.105866686,0.22120783,-0.72732806,-1.3502156,-0.5236431,0.3999824,-0.20541312,0.60518557,-0.25307226
0.505437,-0.35081545,0.40000013,-0.15658045,-0.31032243,-0.76052487,-0.85327774,0.22907093,0.14616437,-0.32055065,0.6592145,0.03629286
0.95819145,0.32138142,0.40000015,0.03712111,0.06604744,-0.5498455,-0.33424878,-0.310632,0.037200313,0.2589825,0.03449488,-0.8600829
0.68759775,0.9568849,0.3187972,0.06786302,0.28145975,-0.45619017,-0.3269242,-0.44753194,-0.07943164,-0.01591741,-0.6081905,-0.53801423
0.43731073,0.5945639,0.17764291,0.052153654,0.18597333,-0.498143,-0.5225609,-0.80847156,0.39998785,-0.08064447,-0.115372926,-0.26775223
0.4798893,0.32900915,0.3181728,0.05892829,0.34404156,-0.39064443,-0.8735198,-1.0376978,0.39999884,-0.07361408,0.14171737,-0.3469271
0.46435463,0.036408767,0.32037413,0.049742326,0.38366315,-0.35487142,-1.2422923,-0.89756143,0.40001276,-0.080326796,0.42033297,-0.31164747
0.48036328,-0.15628259,0.228082,-0.16743872,0.18766175,-0.779177,-1.3964549,-0.4505326,0.39995936,-0.13805617,0.5751631,-0.18147637
0.45229456,-0.27486727,0.12220864,-0.32325011,-0.15757993,-1.1252422,-1.1944985,0.16077009,0.3548076,-0.23904234,0.63064367,0.05994784
0.96919024,-0.038977493,0.4000002,0.034022685,-0.13612092,-0.4804543,-0.32024714,-0.16353805,0.0040030465,0.23711793,0.30919972,-0.80987865
0.7319306,0.80981284,0.36271313,0.055752907,0.18021384,-0.44836357,-0.31794667,-0.35617304,-0.080611825,0.09990666,-0.61110044,-0.6346758
0.41806367,0.5883417,0.13977118,0.05853955,0.33514917,-0.40692014,-0.37336814,-0.758517,0.32687882,-0.2287451,-0.17612799,-0.12735477
0.48380953,0.23462278,0.32935834,0.07630771,0.38850045,-0.20679785,-0.8997346,-1.1435971,0.39996836,-0.18114695,0.18021478,-0.35482025
0.45937893,-0.053166,0.31892896,0.02606721,0.29412994,-0.4155329,-1.2338219,-0.85052973,0.3925355,-0.17754577,0.44860253,-0.32769322
0.47486335,-0.27698755,0.18075976,-0.24782287,-0.07038962,-0.96515924,-1.3039839,-0.12772125,0.39887327,-0.22585055,0.6275102,-0.1247986
0.6188936,-0.35613686,0.40000018,0.060989898,-0.35024515,-0.27150834,-0.38429582,0.06621156,-0.045241963,-0.11697739,0.668702,-0.38692912
0.89269716,0.38640466,0.40000013,-0.00455561,0.01957082,-0.5272459,-0.27079412,-0.3246223,0.07586459,0.25807226,-0.06399352,-0.7496609
0.69347817,0.9356482,0.338332,0.018966846,0.24157803,-0.4589447,-0.2550337,-0.44780573,-0.045908652,0.048413977,-0.68125963,-0.62300545
0.3986279,0.7820163,0.029477723,0.09224073,0.36065435,-0.26871625,-0.26912147,-0.66139936,0.0016115683,-0.19987294,-0.40426302,-0.054077853
0.4725303,0.39608395,0.26547214,0.06882068,0.4152521,-0.25749397,-0.7058301,-1.1493956,0.40000194,-0.12117706,0.018095696,-0.27680466
0.47193295,0.08698587,0.30668333,0.13880429,0.4043375,-0.2802535,-1.0741616,-1.0276862,0.39997852,-0.10784783,0.3358671,-0.32344258
0.45436335,-0.12589173,0.21690978,-0.19672102,0.1248831,-0.84745365,-1.3619888,-0.40377203,0.39995173,-0.13886888,0.52490544,-0.21283437
0.4725473,-0.32305834,0.40000013,-0.10622495,-0.40849876,-0.76858836,-0.71390444,0.24633904,0.05949387,-0.19105718,0.56175774,-0.021616682
0.8629965,0.41891706,0.40000015,0.0051961606,0.010038681,-0.5012439,-0.30392218,-0.23237251,0.004679982,0.30023837,-0.21362211,-0.6987384
0.5298851,0.9421878,0.1531238,0.034202766,0.29932937,-0.39659077,-0.34031618,-0.452613,-0.08676103,-0.09398357,-0.63724476,-0.35732508
0.45700762,0.5117742,0.21895881,0.058370158,0.39024016,-0.32312545,-0.50603163,-0.92794746,0.39999288,-0.15337211,-0.12441292,-0.3002442
0.47399056,0.18305857,0.3194261,0.14864829,0.43917042,-0.0069047688,-0.97317433,-1.1847988,0.39999488,-0.12457887,0.24665968,-0.41607672
0.47251657,-0.030189686,0.29788095,0.15355897,0.47727647,-0.23194961,-1.2314708,-0.8867867,0.3999515,-0.1155126,0.4923516,-0.413519
0.49954158,-0.2076152,0.16399543,-0.24350879,0.13411239,-0.98995626,-1.4139961,-0.21169515,0.3999896,-0.19357982,0.64378166,-0.23793916
0.7175347,-0.26715636,0.40000024,0.06571449,-0.24852611,-0.40664187,-0.23863977,-0.049582914,-0.08474149,0.05819656,0.58847326,-0.51389164
0.8854966,0.44063002,0.40000013,0.05365758,0.06542563,-0.5612038,-0.38703597,-0.30134118,0.10502504,0.3053777,-0.1914046,-0.79945725
0.6916693,0.94908446,0.3019557,0.06316302,0.3207034,-0.46260148,-0.3872275,-0.4827046,0.0017176871,-0.037280258,-0.6237086,-0.46721226
0.38443133,0.72278106,0.0647966,0.07396033,0.31917074,-0.42265955,-0.43356198,-0.75832653,0.26539257,-0.13082924,-0.27254626,-0.15869375
0.5236095,0.2848136,0.36849853,0.060348205,0.4042532,-0.38051513,-0.9604385,-1.0769106,0.40001428,-0.10284193,0.15810145,-0.38381398
0.489981,-0.0155392615,0.36345223,-0.03305303,0.1873107,-0.56747496,-1.3116176,-0.7851953,0.39997324,-0.10097339,0.43778467,-0.35150596
0.5069077,-0.22984995,0.23398428,-0.16486385,0.19976516,-0.78296137,-1.3181134,-0.28886345,0.3999704,-0.17542794,0.59904295,-0.16026624
0.5047262,-0.36193264,0.40000156,-0.15179646,-0.22969727,-0.91377443,-0.78777695,0.26465723,0.14507903,-0.33940664,0.61868787,0.09450048
1.0046227,0.20237148,0.40000018,0.07014749,-0.045157827,-0.5248926,-0.22142021,-0.30676773,0.06507602,0.21368146,0.23943394,-0.9673284
0.6818535,0.89201355,0.3882267,0.10853656,0.20966125,-0.44196826,-0.20036076,-0.49010682,-0.04324717,0.02314043,-0.58923745,-0.6346823
0.39054972,0.61267984,0.10226358,0.09349866,0.33347377,-0.4099196,-0.19869444,-0.8387674,0.23384258,-0.1988318,-0.15481499,-0.037162032
0.46082744,0.25850078,0.32416406,0.02966624,0.33647698,-0.40761098,-0.96297985,-1.0334543,0.40000162,-0.08167111,0.22945225,-0.3071626
0.45391157,0.035446152,0.32582337,0.03842477,0.35133773,-0.39875233,-1.2257419,-0.8971314,0.4000004,-0.089253835,0.42506284,-0.2848253
0.47138682,-0.16557716,0.24095705,-0.20084317,0.15901507,-0.80966336,-1.4290007,-0.4434333,0.39996642,-0.14204,0.5774643,-0.14741285
0.45013583,-0.2908337,0.13777088,-0.32076347,-0.23252322,-1.1763221,-1.0886636,0.21625528,0.31710207,-0.2582751,0.62069404,0.11325259
0.93660045,0.18149617,0.40000015,-0.020601833,-0.115555085,-0.49678367,-0.21004811,-0.17770217,0.014783976,0.24823879,0.24095361,-0.8658783
0.6895051,0.9090336,0.33667904,0.0026619488,0.20782283,-0.4645893,-0.20829876,-0.41333434,-0.005855657,0.028273072,-0.6088823,-0.62571114
0.39606062,0.7022874,0.008284842,0.04115329,0.37517765,-0.3185173,-0.28041613,-0.6120118,-0.024228156,-0.2399507,-0.3835585,-0.2839144
0.48464713,0.36233228,0.28910023,-0.0019375812,0.3749375,-0.30706713,-0.6708045,-1.1065769,0.39999768,-0.23772003,0.10850459,-0.30010855
0.46468577,0.061397627,0.32848158,0.0663151,0.39065325,-0.15380761,-1.0620769,-1.0357708,0.39998844,-0.1958132,0.42229775,-0.34049377
0.43038335,-0.20936614,0.16014577,-0.3048542,0.04734332,-1.0001241,-1.381654,-0.17664385,0.39997143,-0.2619468,0.616441,-0.09472179
0.5568972,-0.33334735,0.4000002,0.08086723,-0.28679898,-0.4487895,-0.57322645,0.18517166,0.018831484,-0.21409261,0.64255184,-0.18525699
0.8238001,0.64049476,0.40000007,0.05317167,0.22772671,-0.53676635,-0.3011882,-0.3118531,0.059124257,0.26991317,-0.452505,-0.663089
0.49201038,0.820096,0.13857879,0.13291563,0.4052738,-0.2591049,-0.3468984,-0.5977869,0.019084271,-0.14113235,-0.4541915,-0.1795625
0.49695364,0.2876961,0.35199785,0.09922554,0.44903168,-0.3155637,-0.8698074,-1.1408373,0.3982846,-0.07688441,0.073795736,-0.34847185
0.4771416,-0.04896095,0.3373835,0.018727968,0.41107586,-0.48034617,-1.2930092,-0.8579761,0.3999909,-0.07592791,0.42719948,-0.3736664
0.48772648,-0.2205054,0.17267191,-0.25256518,0.12614991,-0.81924266,-1.3992225,-0.30395287,0.38670915,-0.15123984,0.6048101,-0.21287186
0.6175663,-0.3157388,0.4000002,0.00372233,-0.3006228,-0.44541058,-0.37833416,0.06537175,-0.004216902,-0.115426734,0.67704844,-0.38403383
0.83983546,0.6173755,0.40000007,0.036468513,0.067463145,-0.5465003,-0.2634129,-0.3439301,0.055858962,0.23767284,-0.3162798,-0.7179787
0.55129844,0.91711515,0.1490781,0.08957148,0.31656286,-0.41182107,-0.28316098,-0.55200547,-0.045176253,-0.101588815,-0.5809822,-0.33748543
0.47184706,0.55310494,0.17854877,0.060110614,0.36415753,-0.37470958,-0.47609115,-0.9701786,0.40001452,-0.14143787,-0.11107949,-0.24229369
0.5104383,0.20349051,0.34750974,0.0800326,0.44342086,-0.24341373,-1.0098487,-1.148533,0.3973208,-0.09180679,0.2427382,-0.3915229
0.48955974,-0.08655763,0.31004542,-0.026973825,0.30925354,-0.52326596,-1.3325038,-0.7485862,0.3999386,-0.10082059,0.51249117,-0.32842222
0.46518114,-0.2221689,0.06341742,-0.29670668,-0.023876937,-0.9945211,-1.3378854,-0.083041094,0.39999455,-0.18945868,0.6530435,-0.07823969
0.8067027,-0.18969713,0.40000024,0.07349625,-0.30342394,-0.49328235,-0.2805364,0.014610538,-0.06479134,0.061397195,0.4877607,-0.6061248
0.7054832,0.7568706,0.4,0.08851159,0.0747642,-0.5862255,-0.33297533,-0.22610079,-0.008789376,0.16791587,-0.5319505,-0.5626661
0.4520357,0.86028296,0.1058557,0.14566807,0.3254055,-0.43856585,-0.34482452,-0.49529573,-0.0042211274,-0.150636,-0.45425385,-0.14546482
0.45180997,0.44491345,0.24951449,0.13936216,0.41239938,-0.30922937,-0.65135074,-1.0552818,0.4000006,-0.12294241,-0.009047031,-0.31679317
0.44665694,0.1252419,0.32326278,0.19617611,0.41346002,-0.25409865,-1.0578122,-1.0443735,0.39997342,-0.09338032,0.32946637,-0.39948148
0.46849602,-0.10974346,0.28091636,-0.060260605,0.21484844,-0.7322521,-1.3893995,-0.5849337,0.39362717,-0.122084625,0.54880565,-0.3183565
0.46233335,-0.28475654,0.07479793,-0.27103177,-0.14915024,-1.1322592,-1.0893339,0.21005256,0.3418521,-0.24643053,0.6426913,0.0042411084
0.9178791,0.14619622,0.40000013,0.026213072,0.029446108,-0.57130593,-0.35194463,-0.16029735,-0.009206777,0.30698037,0.106870286,-0.76670116
0.61702484,0.92923474,0.21394841,0.06844532,0.322023,-0.41836342,-0.37448344,-0.39819607,-0.098243184,-0.052851565,-0.58936924,-0.421651
0.44540313,0.5276166,0.21236446,0.030996857,0.29459134,-0.4082934,-0.4981138,-0.89977,0.40000477,-0.11263323,-0.12952137,-0.2889399
0.48301613,0.22212309,0.34156185,0.06943443,0.380541,-0.20863983,-0.9137205,-1.112756,0.40000135,-0.1026194,0.18118906,-0.40355206
0.48457125,-0.109910116,0.31585407,-0.070529096,0.16849688,-0.5821339,-1.3285805,-0.69007516,0.39263988,-0.11957348,0.5020748,-0.3504744
0.463209,-0.2835367,0.097288765,-0.29159242,-0.18695255,-1.0307068,-1.2438023,0.023927692,0.39999217,-0.19645374,0.6555731,-0.08379993
0.9077244,-0.044722125,0.40000018,0.06639883,-0.31202984,-0.44267824,-0.26126605,-0.12373258,0.048393458,0.21331482,0.22589312,-0.7731053
0.7007158,0.7606122,0.38013297,0.071039535,0.03717176,-0.5024455,-0.2543455,-0.33712152,-0.0032308267,0.13915375,-0.59061384,-0.6089135
0.39620507,0.74833447,0.020861413,0.112639226,0.28954303,-0.39465553,-0.30439353,-0.60538995,0.0076926937,-0.21206057,-0.39120468,-0.19158949
0.47661728,0.41611886,0.29501325,0.06833175,0.41465378,-0.3973365,-0.7058998,-1.0161395,0.39999628,-0.2016476,0.05655887,-0.27349493
0.47606328,0.112963304,0.35498902,0.13545023,0.44739804,-0.19225487,-1.0516472,-1.1080949,0.37343398,-0.17050354,0.37250775,-0.34034276
0.46209383,-0.12066122,0.28556022,-0.05262713,0.25185353,-0.7262809,-1.3469995,-0.59267884,0.39996567,-0.1931965,0.5707387,-0.24027057
0.39289716,-0.2981502,0.2196587,-0.31964758,-0.26836333,-1.1999545,-1.087117,0.25838134,0.316358,-0.30875745,0.63572323,0.08773336
0.9010389,0.14063784,0.40000018,0.012340668,-0.11509891,-0.51386386,-0.20458975,-0.26560023,0.15735659,0.31772962,0.10321629,-0.7278068
0.76264817,0.7639867,0.3675826,0.023723193,0.12446838,-0.49953616,-0.18771204,-0.40460783,0.0774053,0.18290916,-0.5631218,-0.6211631
0.5452345,0.8861009,0.14393994,0.07058754,0.30511913,-0.3726751,-0.22752249,-0.5677617,-0.0044576963,-0.12096847,-0.6757772,-0.44148353
0.44767857,0.5880067,0.12191204,0.025212673,0.26454893,-0.47408667,-0.23726626,-0.8370779,0.28438455,-0.17145509,-0.14731513,-0.13917343
0.526587,0.2918664,0.31809673,-0.006905323,0.31104022,-0.5044481,-0.82487196,-1.0409713,0.40000808,-0.11454637,0.14979915,-0.33092582
0.52798307,0.073163144,0.32028097,0.041651048,0.36943123,-0.31017357,-1.0593809,-1.0485828,0.38089132,-0.14498797,0.3470251,-0.32016483
0.50569487,-0.103176035,0.2705328,0.02510183,0.30543032,-0.5803708,-1.2771646,-0.7496702,0.3999985,-0.14516638,0.5104715,-0.27028596
0.47466415,-0.24437712,0.100408204,-0.3096908,-0.011397398,-1.0232852,-1.320481,-0.08534369,0.40000156,-0.20172894,0.6116434,-0.05303248
0.6134718,-0.3541331,0.4000002,0.025795363,-0.398695,-0.44718334,-0.49502414,0.16917843,0.039655365,-0.19366224,0.6453168,-0.2277863
0.94477147,0.25265428,0.40000015,0.06361878,-0.03508714,-0.5165515,-0.23352079,-0.3245011,0.12572478,0.29146132,0.0949387,-0.83306426
0.73717403,0.84169406,0.36706167,0.052327164,0.21069345,-0.48462224,-0.21030194,-0.47349995,0.042748313,0.07402092,-0.5880609,-0.609231
0.41651648,0.7989399,0.013931713,0.11165736,0.3430321,-0.29278338,-0.21229054,-0.6551778,-0.00013402906,-0.19364001,-0.41987455,-0.15030567
0.4365207,0.5118865,0.18288587,0.0824342,0.28790075,-0.4657806,-0.51173574,-0.9197559,0.39999968,-0.16478707,-0.055128828,-0.1959353
0.4675578,0.22811075,0.3052927,0.10509556,0.348622,-0.33714485,-0.9691243,-1.1118271,0.3999849,-0.1282589,0.227799,-0.30480415
0.45894602,-0.06949953,0.29547423,0.020230059,0.33751357,-0.4802468,-1.2992665,-0.80415785,0.39994824,-0.11168583,0.50785863,-0.27217048
0.4632404,-0.23574023,0.1373358,-0.33480003,-0.005094632,-0.98406243,-1.3650092,-0.08246794,0.4000001,-0.18480907,0.6362747,-0.07778938
0.84786606,-0.24006012,0.4000002,0.095526196,-0.35369682,-0.39812604,-0.25181907,0.015822137,-0.032492038,0.09312515,0.49820805,-0.6099119
0.6496098,0.84902924,0.35103905,0.09727468,0.15374617,-0.48205936,-0.29066464,-0.32882524,0.009441391,0.069944575,-0.61557716,-0.5804322
0.39547843,0.7233724,0.023345355,0.11304431,0.3908873,-0.30088785,-0.29241276,-0.626585,0.028792161,-0.24021277,-0.36939856,-0.11259994
0.4807762,0.33352622,0.29356185,0.035508323,0.39292052,-0.32488343,-0.76514435,-1.0755672,0.39999563,-0.14532767,0.07849697,-0.34650087
0.48452505,0.06654516,0.3242093,0.08292451,0.42750993,-0.12820831,-1.0870496,-1.0544626,0.39776802,-0.14931017,0.34880567,-0.38197532
0.47319368,-0.1568739,0.22745945,-0.062035933,0.2985078,-0.53942615,-1.3778938,-0.63246685,0.39998692,-0.17583156,0.5735367,-0.2943044
0.412296,-0.2887434,0.122319475,-0.28530946,-0.17802504,-1.1080846,-1.139031,0.19395268,0.31938857,-0.28604418,0.6380173,0.014000096
0.89674,0.06509976,0.40000015,0.005253176,-0.16809021,-0.48271003,-0.29495212,-0.1540688,0.012769429,0.21351317,0.16338997,-0.78102005
0.67579776,0.8820851,0.3505026,0.014946048,0.14376603,-0.48930362,-0.3051434,-0.34667122,-0.034377232,0.059134573,-0.6059226,-0.6194168
0.34384668,0.6910529,0.07224144,0.033303548,0.32677197,-0.48460576,-0.33804742,-0.7163848,0.3101097,-0.17510451,-0.29637343,-0.06827672
0.48154905,0.45605397,0.23466654,0.13347217,0.28841868,-0.5046596,-0.5236184,-1.0512843,0.4000042,-0.29932287,-0.18990533,-0.16625127
0.4391762,0.11339623,0.3313144,0.2746064,0.2519771,-0.32553822,-0.6801202,-0.97530675,0.40000167,-0.21952502,0.27550122,-0.28635782
0.37938836,-0.07632638,0.21109915,0.27531874,0.36200422,-0.15451102,-1.1142478,-0.72882843,0.39999473,-0.25951257,0.43520108,-0.15708365
0.3554187,-0.20101973,0.025527194,-0.15688848,0.24030916,-0.86942905,-1.3473494,-0.16525194,0.39998433,-0.35014915,0.5285698,0.04469075
0.6392279,-0.29146072,0.4000002,0.059885673,-0.21151529,-0.31687814,-0.36750746,0.14033587,-0.03953535,-0.26001874,0.65837234,-0.34462407
0.8431485,0.6790489,0.40000004,0.063455425,0.042618047,-0.368673,-0.041221973,-0.33802375,0.026200319,0.28438935,-0.43151346,-0.8537688
0.40607858,0.7836576,0.037153,0.1211946,0.28412393,-0.2732187,-0.11888206,-0.57082945,0.0065947175,-0.09318429,-0.57689923,-0.36739516
0.38458535,0.49307027,0.20761651,0.08238625,0.3533193,-0.3315582,-0.40498552,-0.94163316,0.40005097,-0.15911737,0.029494787,-0.23840958
0.45335105,0.16570488,0.35420662,0.08074745,0.4554575,-0.24783154,-1.0012326,-1.0944215,0.3714241,-0.15397802,0.32647803,-0.31358114
0.44101286,-0.08528107,0.295947,-0.0046549784,0.40113834,-0.45543593,-1.2919285,-0.7078252,0.39995492,-0.17218529,0.5549715,-0.25388473
0.43916878,-0.23276319,0.08182493,-0.3605239,-0.020642068,-1.1737978,-1.2486787,0.109882966,0.3698787,-0.31246528,0.6232434,0.052985054
0.83523667,-0.19226527,0.4000002,0.09624594,-0.18877552,-0.466243,-0.23300111,-0.077417515,0.0028313242,0.16917256,0.45731175,-0.6552572
0.73518604,0.7166224,0.40000007,0.090612695,0.13530047,-0.47684753,-0.272446,-0.3401319,0.069927864,0.18326661,-0.54504925,-0.6174681
0.47645652,0.863858,0.082553305,0.11765777,0.3203243,-0.29362425,-0.3010689,-0.56496674,0.01532365,-0.14135596,-0.5154487,-0.15498321
0.46105903,0.39968795,0.3014813,0.07145132,0.32585323,-0.4362735,-0.7280211,-0.9945208,0.40000248,-0.083220474,0.061710034,-0.293022
0.46164775,0.10860123,0.3755419,0.058793124,0.33444044,-0.35935843,-1.1048433,-1.0406436,0.40000066,-0.07606088,0.31404454,-0.30482072
0.44769594,-0.17803092,0.3267551,-0.15850022,0.11949634,-0.76594925,-1.3704938,-0.4760089,0.3900223,-0.07947279,0.54125285,-0.19803683
0.49904144,-0.34668505,0.40000013,-0.10905587,-0.3153558,-0.9016495,-0.7583227,0.21704671,0.11506162,-0.176457,0.56687725,0.025136909
0.9169794,0.2519984,0.40000013,0.0042352546,-0.012586492,-0.5284216,-0.29615864,-0.3283726,0.09811074,0.31285775,-0.024740191,-0.72088444
0.68406546,0.95548815,0.33369017,0.025090959,0.27998832,-0.44238696,-0.2958632,-0.51042205,-0.0346019,0.032730956,-0.66296816,-0.52383894
0.4314918,0.6843307,0.07376448,0.08065837,0.33337602,-0.41153738,-0.367491,-0.8724811,0.27433136,-0.14016421,-0.18068288,-0.146295
0.5259492,0.35254467,0.3034734,0.09834252,0.43398124,-0.26540837,-0.8472546,-1.1489787,0.39999875,-0.081963934,0.16511339,-0.35855588
0.49413976,0.08342248,0.33094445,0.06444385,0.40364006,-0.3857753,-1.2135956,-1.012214,0.40000013,-0.052945644,0.4311161,-0.36517707
0.50273615,-0.18814512,0.23046356,-0.22502333,0.03201815,-0.8352279,-1.3808454,-0.3489347,0.3999996,-0.11039633,0.6282825,-0.17326069
0.4414222,-0.2890795,0.20810029,-0.24088341,-0.23995176,-1.1031663,-0.95353377,0.23260622,0.23869893,-0.22356284,0.65571845,0.10391457
0.89421266,0.21565992,0.40000015,0.07203091,-0.06721543,-0.59087217,-0.2953413,-0.26825935,0.10995535,0.31973666,-0.070663124,-0.7311437
0.6589548,0.9323298,0.33670545,0.106152706,0.24088743,-0.53551406,-0.3080855,-0.4524946,-0.012333185,0.009218585,-0.70470166,-0.5298324
0.4533366,0.65724754,0.067196704,0.1044172,0.30988032,-0.44948667,-0.34384105,-0.81900585,0.28192326,-0.19917092,-0.19119382,-0.18904856
0.5412175,0.2765899,0.30581853,0.0627996,0.38174117,-0.3587175,-0.841539,-1.1459057,0.39718294,-0.15399353,0.19191086,-0.36455572
0.49796012,0.016209016,0.31989044,0.062014498,0.42079183,-0.23428063,-1.1757535,-1.0199757,0.38557985,-0.120632894,0.44334966,-0.372155
