ancorasir/BennettWheelLegRL/experiment_data/2024-02-05_04-39-04/joint_torque_env0.csv
Joint_1,Joint_2,Joint_3,Joint_4,Joint_5,Joint_6,Joint_7,Joint_8,Joint_9,Joint_10,Joint_11,Joint_12,Joint_13,Joint_14,Joint_15,Joint_16
0.0,0.0,0.0,0.0,0.0,0.0,0.0,0.0,0.0,0.0,0.0,0.0,0.0,0.0,0.0,0.0
0.05291003,-0.7346989,1.8578837,-2.041525e-06,-0.8561905,0.9300304,1.8625212,0.0056606187,0.22072583,-0.10224696,0.050682135,0.005329243,0.33515215,0.7998819,1.9012858,0.0039581154
-1.0032456,2.8286042,-0.8701594,-4.020171,3.0538719,-3.6420722,-4.942158,5.0,3.4205384,3.201416,-3.0089545,5.794019,-4.786193,-2.394134,-2.3615682,-5.0
-0.59125227,0.7417259,-4.2885447,-10.0,4.168406,-5.0,-2.317038,-0.179497,3.0212245,4.0199637,-3.0200214,-6.879117,-3.587023,-2.0021513,-0.3920657,-5.0
-0.41557258,2.727977,-1.9991946,1.6074318,2.823068,-3.939307,0.6383305,-1.5506215,2.484595,4.1795793,-1.7850368,-4.645524,-2.6021438,-3.064578,-2.1309967,-4.1891284
-1.7934217,5.0,-1.7527119,-6.184981,2.700995,-2.1862311,-1.6649734,-5.0,3.047383,-0.48185778,-2.054498,10.0,-1.486352,-2.1336365,-1.4449472,-5.0
-3.6755242,3.476612,-1.4580696,-0.076488756,2.3828611,0.51466525,0.84507775,5.0,3.5182261,-0.4457003,-2.339404,4.0654063,0.99430543,-2.0831666,-0.801829,2.2771416
-2.4507596,1.9351948,-0.995715,10.0,1.916002,2.0994604,0.21922356,5.0,2.8153405,-1.9902279,-1.0114497,10.0,-0.7316657,-0.43998456,-0.39216012,5.0
-1.7263747,2.5893025,-1.0451422,-3.624701,2.8845263,-1.2506876,-1.2871528,-2.4131107,3.782873,-1.1592481,-2.9071226,1.3646469,-0.37228572,-1.6548142,-0.023542866,-0.2760201
-0.5456705,0.76646554,2.217233,6.3870087,2.2961063,-1.8213087,-1.6192374,-5.0,3.655693,3.198104,-2.063697,-7.442402,-2.278226,-2.7556732,-0.49206996,-5.0
-0.60480297,1.8944598,-1.1981235,-1.5629314,3.6174505,-2.0285807,0.0012795329,-2.6447132,2.092687,1.1421238,-5.0,-10.0,-0.2262991,-0.7546909,0.031354368,-0.20362473
0.461452,-1.29669,-0.031177312,7.580431,2.0412393,0.4076512,1.6279292,5.0,3.0428064,2.814392,-3.3338256,-0.9341593,-0.8810581,-0.63659006,-0.16629942,3.222187
-2.0433366,0.93873876,-0.44632888,10.0,2.5260925,-1.2968581,-1.0014231,4.2739506,4.5937777,0.35604453,-1.5153503,3.639101,-1.4077489,-2.2880945,-1.6549069,0.3132768
-0.40026546,0.7906284,1.3750094,5.33289,3.3640916,-1.3169029,-1.9097893,-5.0,2.954628,-0.084215105,-3.9539587,-10.0,-0.8073727,-1.3667554,-2.4607074,-2.8717039
-0.82939106,2.8754094,-1.8818617,-10.0,2.4626405,-2.455327,-2.0239353,-4.3909397,2.4620793,2.1402388,0.09949899,1.9139843,-2.0941598,-2.380097,-0.7151438,1.0514085
-2.1557176,1.746928,-2.1446207,-5.6133995,2.8331802,-1.2138733,-0.12953174,-4.560396,3.8857043,5.0,-2.742776,-0.8384149,-1.1894702,0.006751895,-0.28744787,5.0
-2.4583304,0.61136484,-2.7097347,-5.810846,2.808692,-1.8615391,-1.1987993,0.036331058,3.814478,4.653036,-1.5008881,-7.978196,-0.5630464,0.62165993,-0.15707499,5.0
-1.1566538,-0.32542217,-0.79941595,-1.665854,1.6109855,-0.8194389,-0.8072208,1.4333096,4.659574,4.917882,-2.9516253,-10.0,-1.3062388,-1.1545663,-2.4002974,3.8442626
0.9232863,-2.5300503,1.2280902,10.0,2.8792899,-1.0671766,-1.0082736,-0.0442791,2.4969523,3.1346269,-0.5141629,9.130859,-2.818298,1.0316033,-0.29075438,-5.0
-1.7399557,1.3609871,-2.3654566,-1.2600187,3.013005,-2.435045,-0.93764544,-5.0,4.00211,4.596261,-1.3548695,-0.9010718,-0.49715745,-0.12717414,1.9357862,2.2477455
-1.7155392,1.8333368,-1.6931231,1.2847416,2.533625,-2.868162,-0.7145028,-2.8176959,4.8243093,5.0,-3.9198766,-8.9970665,-0.87106323,-0.7342273,-1.0484316,-5.0
-0.7937646,0.9868251,-0.18403697,-10.0,3.823442,-4.0643272,-1.3102996,-5.0,2.6788428,5.0,-2.9629493,-10.0,-2.0584555,-0.5115808,1.007643,4.4743156
-1.9020734,-2.1165733,-3.6216705,-10.0,2.0644515,-0.8245661,-0.023067832,-4.453292,2.9898434,4.5912266,-3.7775936,-9.181702,0.18916953,-0.77700776,-2.459149,0.3567914
-1.8106561,1.6464804,-3.6976867,-6.823064,1.4537699,0.4290359,-0.006091535,5.0,4.41512,4.0757008,-2.1477873,-2.14813,-0.003233552,-0.21643904,-0.010313302,-3.104693
-0.064914465,-1.092993,1.9667745,10.0,2.4655182,-1.9633689,0.932895,-5.0,2.9483383,2.4175484,-2.4930286,-5.6409855,-1.5956249,-0.6498624,-2.8621244,1.9369421
-0.36350212,2.7188694,0.11915898,2.7571108,2.6327717,-0.047193766,0.32927048,-5.0,3.9533162,0.15157413,-1.4331721,10.0,-1.6679506,-0.9233096,-1.3394899,-3.253603
-3.1122406,0.7855217,-0.053744435,1.1190089,2.8851771,-0.41022098,-1.1152034,-5.0,0.47234344,-0.5075425,1.8368243,10.0,-1.3469293,-1.21719,-3.6119952,-5.0
-0.23067105,-0.25771093,2.4536402,10.0,3.1043925,-0.55397993,0.061192274,5.0,2.7784367,1.6048806,-4.870047,-10.0,-1.4182602,0.39507324,1.2507136,5.0
-1.7731721,1.2336859,-2.5055816,-5.3135977,3.0122724,0.2945537,0.12340453,5.0,4.9837346,2.959043,-2.7440524,-10.0,-2.1438532,-1.5909113,-2.5455272,-0.08690126
-1.3780292,-0.1453234,-1.4714314,0.6010622,2.942366,-1.1760008,-2.2058573,-3.979939,1.5620142,-1.1449856,-1.8966911,10.0,0.6028172,0.8755784,3.2378435,5.0
-2.7818606,3.3400674,-0.8625901,7.037744,3.235268,-0.680359,-2.3674905,-5.0,3.938248,0.35144985,-2.8829255,10.0,-0.5713866,0.13999844,3.9355545,4.4296174
-0.50551033,-0.8524251,1.6288929,10.0,3.3859706,0.7962311,-0.118780375,5.0,1.8980799,-0.9067974,-1.1005352,9.742644,0.4392027,0.03492403,-1.4795084,5.0
-2.9028814,2.0907218,-3.7728176,-3.3921251,3.979363,-0.6009001,0.4682055,-0.6018721,2.8452208,1.5078913,-2.3763602,-3.1333115,0.23197293,0.3571619,2.2346735,-1.5336602
-1.7541403,3.5188951,-2.2100031,-6.642314,3.3617015,-1.7332911,-1.9181155,0.48209858,2.021705,-1.6956856,0.8073187,10.0,0.10041791,-1.066148,-0.46196687,-5.0
-1.2358713,0.6226853,-0.26251686,1.0649369,2.5505583,0.4656815,0.8100486,5.0,1.0985363,-1.9650834,1.4235077,10.0,-1.196623,-2.0594058,-0.25087553,-3.4389257
-0.9265669,2.753563,-2.3033152,-10.0,3.14052,-2.5013514,-1.8664215,-5.0,2.7007709,0.3103683,-2.8648021,8.858526,-1.8842317,0.30712807,1.1067657,1.0396948
-0.18521988,-0.6177407,1.4768689,10.0,3.2428827,0.9131242,-1.8878874,3.0834658,2.8013823,-0.06849766,-2.1320167,10.0,-2.319456,-1.1508758,-3.3313856,-5.0
0.69910926,0.9176943,2.6133044,4.406652,1.8246992,0.6524618,0.7120452,5.0,3.46696,2.3389237,-3.8377318,-10.0,-1.3838958,-1.7774911,-2.3194778,0.7651294
-1.4296465,1.4535744,-2.3707685,-10.0,3.1801467,-2.9410486,-0.5870754,-2.2422826,3.1119976,0.5598475,-2.1831126,-5.4581313,-2.5357285,-2.1250951,-0.7210108,5.0
0.6594953,-0.4790715,3.2511654,4.7136335,2.0881414,-1.3050102,-2.5241992,5.0,4.27972,4.062692,-2.3646746,-1.8385077,-1.0528005,-0.41216767,-2.2803457,-5.0
0.7584081,1.589428,-1.2858777,0.6511286,4.0523877,-2.2447,-1.7993731,5.0,1.1984451,-0.29182935,-0.5900588,2.568222,-2.6994407,-3.1430092,-3.4570146,-5.0
-1.0668348,-1.5565306,-1.5729681,-10.0,3.982615,0.14286673,0.81081295,5.0,3.3942764,1.3276149,-2.587017,-4.4947557,-1.9719062,-2.29533,-1.5437877,-5.0
-2.290242,2.1162982,-2.0961392,7.7044034,3.1537032,0.8066753,-0.021701276,5.0,2.8564076,-1.5543104,-1.756372,-6.855873,-1.2218881,-1.3965638,-2.9611473,-4.693266
-2.7871408,1.1013362,-1.7650007,10.0,3.3752785,1.32723,0.9465693,5.0,2.927865,-0.10327613,-5.0,-10.0,-0.93129843,0.5654765,1.1734854,0.7263776
-0.90531766,0.993351,0.4525441,0.19646133,3.7799323,-2.0550027,-0.5527877,-0.85599995,3.2146986,-2.744123,-0.52144617,10.0,-1.0334673,-1.5502017,-3.3146431,-4.73823
-0.60356164,0.30035087,-1.3259553,10.0,4.706481,-1.2233896,-1.3270302,-5.0,2.2410326,1.0427148,-1.9731337,-7.3143415,-0.63305926,-2.0435228,-1.1138461,-0.41595888
-3.7210565,3.6087515,-0.82128376,-6.065866,1.5611116,-0.90777135,-1.9675839,-3.8724732,4.3324337,1.3073559,-5.0,-10.0,-1.4371994,-2.0513625,-0.601246,0.6684865
-1.511142,-0.8635348,1.739077,6.242145,4.2944565,-1.1025462,-2.0340877,5.0,1.8689933,1.7641333,-5.0,-10.0,-2.5254579,-2.1339822,-2.1264272,1.2605134
-0.29418895,1.1562493,-0.073475,10.0,3.410601,-2.2884707,-0.13622159,-1.7852641,3.088985,1.8073064,-3.2585032,-10.0,-0.6599257,-2.4237895,-2.9906006,5.0
-0.9717913,3.120161,-1.7688668,-2.5939069,3.7095299,-1.0788753,-0.7194734,-5.0,2.7554584,0.98453313,-3.7195683,-7.2101326,0.6098896,-1.667817,-1.546517,0.3527729
-1.524765,1.0259743,1.5577621,3.4829354,4.4241095,-0.4962524,-0.56712216,-5.0,3.2276058,1.7595814,-3.4150045,-10.0,-1.5304556,-3.1308572,-1.1561114,-1.5514208
-2.7546844,3.1936374,-3.4118543,2.6527233,2.9535468,2.457994,1.391461,5.0,1.8516096,-1.9945168,-1.2934175,10.0,0.687297,-2.071143,-3.045994,-4.657506
-2.5944176,1.8447351,-0.3935915,0.019531257,2.7650607,1.2258427,-1.2734448,5.0,4.3920336,-1.1303216,-2.4378154,2.381608,-0.1906369,0.04872763,-0.176409,5.0
-1.2595491,3.3367834,-1.3910987,-0.82276416,3.294458,-1.4301004,-1.5543878,-2.1311162,1.7987456,-2.2518084,-1.8250362,3.7136698,-0.7541359,-2.5417767,-1.0046062,0.5555123
-2.9206278,2.539265,-3.3858185,-2.3052716,3.5496924,-2.1010456,-0.9093274,-3.8804424,2.7979777,-2.08772,-2.131689,-7.647379,-0.5936073,-1.3490336,-0.53299576,-0.46663153
-1.5265678,2.6884797,-1.4735975,-10.0,5.0,-1.8811508,-1.1403915,-4.6384544,0.8462366,-2.6178188,-0.37465787,10.0,0.4652432,0.15351605,1.0321321,5.0
-1.5142088,5.0,0.056483746,-0.29396975,3.6165235,1.4700356,0.63246566,3.581709,4.0706515,1.1793131,-4.0854154,-4.8605456,0.31861418,0.18849874,3.0398197,1.964928
-3.6008482,2.6030765,-2.9198227,-3.295359,0.98715436,1.4487598,0.9155167,5.0,4.286867,2.7611861,-5.0,-6.1427855,0.15421298,1.2021911,0.22876191,5.0
-1.1394824,-0.55256295,1.068797,1.6668444,3.3466258,0.5468485,-0.6254672,-2.9579787,3.8650424,0.9095403,-3.0701582,9.8564,-1.0746634,-1.5433393,-0.45925966,-0.4194639
-1.0666014,1.0061547,-2.5739555,-8.110862,1.6322776,0.5719825,0.36070222,-5.0,4.4078617,3.769105,-4.462865,-10.0,-0.31635803,-1.063757,-2.6050525,-2.7089484
-2.4954581,4.5592823,-1.6757556,-0.29740688,2.0948815,1.4422121,1.7412286,5.0,4.372105,0.09022665,-1.7226558,10.0,-0.21316153,-0.3509413,-0.7684299,3.7698839
-1.1503012,4.141286,-3.2921753,-1.907202,1.7514966,1.0778084,-1.9286586,5.0,3.9918609,2.2652311,-3.1606755,-8.654734,1.2528968,-3.3383658,-4.488529,-3.2172396
-2.2558937,1.027071,-3.4777756,-3.8888648,0.48191786,1.6781018,1.2078004,5.0,4.577613,4.288932,-3.880579,-10.0,-0.020476818,-1.557452,-1.943322,0.89311934
-1.1602472,2.5482345,-2.6109824,-4.7657065,2.966116,1.2050471,-0.1909683,5.0,3.2480028,-0.52384186,-0.30878043,10.0,1.0351312,0.6979778,2.8614726,4.3974094
-0.51387763,-0.56140935,-1.9031911,10.0,5.0,-1.2687366,-2.0120146,-4.158436,1.4025204,1.2626253,-4.110281,-10.0,-0.35040796,0.32933718,1.6203129,2.5949943
-3.0208535,4.120506,-1.7976044,-4.01061,1.8888078,-1.1215857,-1.6802557,5.0,3.5621793,-1.2739303,-3.6248329,7.193632,-0.8630089,-1.8927804,-2.2481337,-5.0
-1.257756,0.9779514,1.1812013,0.07107029,1.7651033,0.8084723,1.0022407,5.0,5.0,2.711518,-4.051083,-4.659179,0.4051057,0.60040784,0.081558764,5.0
-0.47186756,2.017442,-1.2225889,-1.749966,2.5401013,-0.65140474,-3.0576367,-5.0,3.2687788,0.5994458,-2.359358,10.0,-0.035171896,0.7135146,0.3679502,2.0508373
-1.3726264,0.42117786,0.40669337,10.0,2.6625955,-1.4780668,0.854761,5.0,4.3893557,3.479084,-2.9455385,2.6071033,-1.8688102,2.1522253,1.3790308,5.0
-1.2733314,-0.07370424,1.1793861,10.0,2.801234,-2.2285972,-1.6604466,-0.5605085,4.6941915,3.9626622,-2.6714857,0.0517537,-0.97586346,0.012928143,1.7280843,5.0
-1.1976942,-0.44111824,2.69238,10.0,2.231289,-1.0826274,-0.30237406,-0.13049053,4.0826674,5.0,-1.8225012,-9.477571,-2.8593493,-0.47549623,-1.6570685,5.0
-2.005792,1.2059373,-3.347128,-5.163966,0.9870627,0.6830293,0.48531926,5.0,5.0,5.0,-2.7736828,-4.1254597,-0.21789712,-1.3606882,0.87121797,-2.4926217
-2.4202101,-0.9046416,-2.3720932,-10.0,2.0108864,-0.3722922,0.083997846,5.0,5.0,5.0,-2.5888038,-6.600568,-2.185572,-1.0624508,1.3526946,3.8567476
-1.831902,0.8216965,-2.611126,-8.100873,-0.015472114,-1.6606843,-0.25047386,-1.2760775,5.0,5.0,-0.4226026,1.6516337,-2.609533,-0.6778685,0.2305422,5.0
-3.5921583,0.3201344,-3.7742102,-0.04007685,1.6645209,-0.14785631,0.86225706,-0.38327906,4.782105,5.0,-1.8020394,10.0,-1.1008364,0.40256852,-0.017600864,5.0
0.8414266,-0.72946835,2.438881,6.807339,2.3545637,-0.2896217,-1.3254185,1.3981893,5.0,5.0,-2.0963833,10.0,-2.3491216,-0.93999255,-0.6919595,-4.062752
1.267338,-1.1402019,2.5263553,4.7315598,1.3417023,-2.3736696,0.08044249,-3.0691428,3.378017,5.0,-1.9718919,-8.532077,-1.3156072,0.460455,-3.1077251,-5.0
-1.9479117,-2.0301008,-0.7958685,-9.572777,1.5773855,-3.0598621,-1.7939079,2.0348105,4.138527,5.0,-1.9787562,-2.25648,-3.3264987,-0.3923362,-0.40652823,0.1057055
-2.920443,0.7030536,-3.8397534,-2.1544435,2.9865332,-1.2686121,-1.2813313,-5.0,5.0,5.0,-0.89059293,-8.135126,-0.32085907,1.9923469,0.93722975,5.0
-0.55296314,-0.25947115,-1.9651489,-10.0,2.1658351,-1.8494188,-0.6821791,3.9693549,4.222307,5.0,-3.2707517,-7.9349575,0.9925499,1.1999726,0.39094675,5.0
-1.5769434,1.6903789,-1.2902428,2.9655547,2.990287,-2.381174,-0.90274155,-5.0,3.7655075,2.1615443,-2.4502225,4.680645,-2.0234277,1.6980785,0.9176434,4.80678
-0.12195167,2.4853168,-2.6444433,-10.0,3.4221063,-2.136898,-1.773762,-5.0,3.6556094,3.4847429,-3.248359,-10.0,-1.9478934,-2.6314054,-2.1060317,1.0965792
-0.517791,-0.6582855,-2.7544281,-10.0,4.3962483,-1.3457844,0.81338984,-2.591744,1.6775086,0.3238368,-0.22149348,10.0,-0.68465316,-0.37538934,-1.2926621,-0.2134466
-3.0614905,1.7865844,-4.7215347,-3.2572982,3.3030047,1.1932211,-0.62774825,5.0,3.3998096,1.9723895,-5.0,-10.0,0.9925936,1.2376512,3.3413286,5.0
-1.9465401,1.8912132,-0.061269224,2.6115637,3.5418794,1.6997569,-0.92942446,5.0,3.3448484,-2.1799262,0.7386571,10.0,-0.25776398,-0.7729981,-2.774868,-4.2481594
-2.4781325,1.5586263,0.061737537,6.0435324,1.736262,1.9065508,-0.66726524,-2.7251272,4.7118535,1.6228969,-4.0132027,-10.0,0.37229562,0.9645324,1.4790152,3.761108
-1.2810334,-0.4856025,-2.325811,10.0,1.9943316,-0.35340378,-1.7660782,5.0,1.5307808,1.8597643,-3.6509764,-8.612229,1.263361,0.5706006,2.3120737,-0.018852841
-0.9764818,1.9141977,1.6797794,2.5330894,2.6506658,-0.60242426,0.3847258,5.0,3.9447932,2.2355518,-3.6336842,-3.5365534,-0.1834665,-1.3709915,-2.9202757,5.0
0.0898273,1.6144481,-0.90683365,-10.0,2.5254571,-3.0532985,-0.1565551,-1.6740859,2.2001302,2.223844,-3.602648,-10.0,-0.009545594,-0.2333667,2.4930255,5.0
0.6945215,0.30324018,-0.35753006,1.1951356,4.441736,-2.093546,-0.3550341,-5.0,0.7554691,-2.1700878,1.0636816,10.0,-1.5285538,-3.7900915,-3.3210282,-1.0414107
-2.5317187,3.6360197,-0.57814556,3.4968894,3.4255824,1.5584317,1.3398857,5.0,4.2352695,-1.1612825,-2.149811,10.0,0.4211709,0.549146,2.1741097,5.0
-1.5438379,2.7149389,-2.4869788,-10.0,2.6812618,1.0060809,-0.32152832,5.0,3.622117,0.80175376,-2.5589652,10.0,-0.028938785,-1.5750817,-1.3488345,5.0
-1.1812583,-1.194674,-2.3188376,10.0,3.362172,2.6542861,1.021069,5.0,0.87152886,-0.61843956,0.7090938,10.0,-0.9595665,-2.0307536,-2.977405,-5.0
-2.9934683,1.6436011,-1.2816608,10.0,2.1255941,-1.3906467,0.52604216,-4.764767,5.0,2.8883595,-3.6642146,-10.0,-2.1878014,-1.1694347,0.511255,5.0
-0.1484586,1.6325161,0.2165097,-10.0,2.4667666,-1.7981558,-0.33784667,-4.9739404,3.3193862,-0.020444393,-0.773366,10.0,-0.98614216,0.32343853,-0.4571252,4.185613
-4.752511,3.2645702,-2.6003542,-1.5698148,1.6450638,0.22068727,-2.093265,-5.0,5.0,1.1556203,-2.3525946,7.173891,-0.016642213,0.6479279,-0.08849937,-5.0
-2.0853386,-0.30051994,-1.4880826,4.675497,2.600214,0.029322803,0.4105292,5.0,4.1166534,2.6312494,-5.0,-10.0,-0.70906955,1.2706693,1.8014373,5.0
-1.5879103,3.7828426,-1.0342014,-2.6430259,3.177363,-1.866087,-0.1270222,-5.0,2.6042657,2.0481267,-2.5393085,0.5550859,-0.9129487,-1.9273704,-1.9313734,-2.9709947
-1.5096155,2.1200447,-1.5353981,5.5097094,5.0,-1.9348946,-2.0811372,-5.0,2.2102306,1.6826952,-5.0,-10.0,-1.1086621,-1.990567,-1.1335275,-3.499912
-2.7536972,2.0955217,-3.2458415,-6.6940794,1.1792226,1.3823798,0.70245063,5.0,3.651627,1.4408531,-5.0,-10.0,-0.30466592,-1.5645553,-0.9674328,0.6849036
-1.4511154,-0.7401926,-0.0408386,10.0,2.7304168,2.2582285,-0.8428254,5.0,3.812187,3.165018,-2.5881891,-8.10055,1.2843823,0.3777462,2.4522862,5.0
-2.3120732,1.8430067,-2.5306494,-1.085485,1.1626816,1.1444559,0.81526935,5.0,3.0055969,2.187446,-4.288068,-10.0,0.8080317,0.40332612,1.7758517,3.317913
-2.324254,2.8851156,-2.314982,-3.6927865,2.2977295,-0.5007894,0.08378881,5.0,2.7900586,3.4370148,-4.1997538,-5.302143,-0.095825195,0.51158285,0.9246019,3.764655
-0.96757936,-1.5988499,-1.9275769,-10.0,3.5604813,-0.9821503,-0.7356162,-2.285644,0.27114213,1.7679496,-2.456045,10.0,-0.7842224,-0.15775502,-2.001506,-2.2846906
-1.9542292,1.2154739,-2.4308157,1.9845219,3.4829478,-2.2095056,0.26751298,-5.0,2.7503653,-0.8313265,-1.1564689,10.0,-1.4022572,-0.83499575,-0.46925426,4.1895313
-0.89790326,2.0365582,-0.26756185,-10.0,2.5681286,0.7345538,-1.134777,5.0,1.675318,-2.2900436,-0.9033072,-10.0,1.2048724,0.43927184,1.3842659,5.0
-1.1886615,0.35754243,-0.6355514,10.0,1.9664433,0.5282314,-0.35714874,-0.59597075,1.0720458,-1.1173872,-0.56283665,10.0,0.6097834,0.32333386,1.7434775,2.9861856
-2.0376382,1.145318,0.19346848,-6.3034754,1.9575369,0.98123753,-1.4634656,-5.0,5.0,3.228619,-3.8513436,-7.6155257,-0.8775897,-2.1205673,-0.92557704,0.8356534
-0.2143983,-0.8897437,-1.449995,2.7104764,3.4499936,-1.9804256,-1.3206635,-5.0,2.8493152,-0.032521605,-1.8823776,10.0,-1.9295125,-2.9716353,-1.0027449,-1.9571689
-0.31597847,-1.6233522,-0.14798859,10.0,2.2985826,1.6365696,0.61632013,5.0,3.8389397,2.5707428,-3.2845688,-4.6607237,-0.5323483,-1.6810074,-1.8316236,-0.07748158
-3.6532788,2.9040225,-2.2510102,10.0,1.6723115,1.5574932,1.9604142,5.0,4.6849556,2.3111353,-3.0768127,-1.0052915,-0.47681022,-2.5133219,-0.5499399,-5.0
-2.5345304,3.4869056,-0.7446271,-3.5299582,1.7288198,-0.67472255,1.3195976,-5.0,4.8564487,-0.57245064,-2.2568488,6.3431273,-0.41999415,-1.7871317,-0.52264243,3.251066
0.34578454,-0.36906075,0.97982,10.0,4.0145135,-2.0200186,-0.54380625,-5.0,1.7139231,-2.027977,-0.84701085,4.9837494,-1.0509398,-1.9312587,-3.1683655,0.27165443
-0.40348577,-0.076315165,0.9659635,7.8948584,3.4475906,-0.1047287,-0.57152355,5.0,2.3192239,-0.69646055,-0.70174146,10.0,-1.6912582,-1.5972693,-0.9443996,1.9820092
-3.2687564,4.5509005,-2.4461231,-6.8170156,1.6864362,0.43944335,-0.39395982,5.0,2.2950232,-1.890505,-0.8229302,10.0,-0.2808151,-2.3246377,-0.8864832,-4.812814
0.11537111,0.8727958,3.443093,10.0,1.9494517,-1.2752942,1.1835158,-0.17506588,3.9628084,2.020858,-3.4469619,-2.7366464,-1.6300422,-3.451654,1.062508,-0.79544187
-3.1186314,1.5689592,-1.6124583,-0.7840821,1.4812629,3.1472385,1.7299157,1.8221235,3.3929012,3.4891884,-5.0,-10.0,-0.19526738,-2.0825913,-0.1616269,-2.649012
-1.6332914,1.00366,1.2332329,0.3425684,3.4641137,-1.3382977,0.034895673,-5.0,4.587427,1.4826715,-5.0,-7.9238143,-0.66326404,-2.6092021,-1.8396533,-0.4519902
-2.2787066,2.1462517,-0.9163333,-3.4945474,3.6428006,-1.07127,-0.80996996,-5.0,3.718834,-0.9280779,-2.3679605,8.856147,0.89705145,0.74028516,3.4905329,5.0
-1.3337806,3.0216312,-1.9417843,-5.066198,3.1222086,-0.5916718,0.73235226,5.0,4.070258,-1.1300938,-0.46956754,10.0,-0.31583184,-1.6080782,-1.0622895,3.761883
0.26535857,-0.49610728,1.8770001,0.3292694,2.0917325,-2.9601393,-0.33998665,-1.6864982,3.4001646,2.6318588,-2.3246768,2.2435668,-1.9560716,-1.0863311,-0.95054656,5.0
-0.2901645,-0.027107358,-1.1122313,1.4183505,3.3272634,-1.3427334,0.13539618,-5.0,1.7146069,-1.0483005,-2.4327521,10.0,-0.34394342,-0.594573,0.6628965,0.26689613
-1.052556,1.4027183,0.21177042,-10.0,3.2476456,0.04175371,-0.599713,5.0,2.60264,-1.7424678,-3.0876665,7.252586,-0.83923423,1.5961003,-0.22388452,-0.3207767
-3.5436554,1.9901724,-1.6638839,10.0,2.7991815,-1.201143,-1.0990715,-5.0,2.3457885,1.1031439,-3.2935436,2.357039,-1.3403851,-0.20000105,2.1903396,5.0
-0.5511019,-1.3449057,0.7732169,10.0,4.3019476,-2.1770933,-0.6685489,-5.0,1.9008094,2.0328472,-4.0510235,-8.882942,-1.9289582,-1.3620031,-2.241232,-0.8551965
-3.1525688,0.539581,-1.7632756,10.0,2.9782887,-1.4242139,-0.8346428,-4.561511,2.6754017,2.3121853,-2.24503,-3.9354117,1.10395,1.8768455,1.0042822,5.0
-0.7581589,1.9816062,-2.6798255,-10.0,3.3079967,-0.17808807,-2.1260285,-5.0,2.4895904,1.1056744,-1.8671236,10.0,-2.2493062,-2.4061098,-0.99502695,-5.0
-4.235121,3.43447,-3.0115776,-1.3688769,3.7077653,-1.2422066,0.0520761,-5.0,3.8911724,3.143012,-2.9439363,-3.4644454,-1.2597558,0.31192207,0.79811186,5.0
0.29906726,2.7378955,-2.239805,-10.0,4.1193457,-2.1669157,-3.0040135,1.2170639,1.8151393,-0.9964673,-0.8260651,10.0,-1.9549757,-2.5894592,-1.963589,-3.0019643
-1.0146687,1.8273578,-1.2222636,-6.5979476,4.28969,1.5360167,0.5414851,0.6908655,2.6383183,1.7059262,-3.305485,-10.0,-0.4644099,-2.161498,-3.1694455,-5.0
-1.6368881,0.11945468,0.86395204,0.35509026,1.9793489,1.2936553,1.2535443,5.0,4.1851463,2.574957,-2.917914,-7.0715275,-0.50837386,-2.3324385,-0.80361724,-5.0
-1.5916045,-0.5164542,-2.037259,10.0,3.9348679,1.0463296,1.3928113,5.0,2.572205,-2.2617044,-1.6221522,-10.0,-0.665393,-1.9677243,-0.5497947,5.0
-0.63645387,1.364974,-3.095899,-4.949862,1.312095,-0.62054765,-0.99358165,-1.0602063,5.0,0.8018085,-2.4962473,10.0,-1.8082275,-1.452038,-0.5641469,-5.0
-0.76246935,1.8039768,-2.927989,-3.0025158,3.3249078,-1.4778769,-2.1775036,-2.8745432,3.512139,3.1415503,-1.4886625,-10.0,-0.13893586,-1.9331552,-2.5507724,-1.6437737
-1.5072205,-0.85011107,0.10853386,10.0,3.7895408,0.75957215,-1.4608793,5.0,3.2202415,-1.1802759,2.3025122,10.0,-1.1014925,-1.6306252,-1.2819986,5.0
-2.3623788,1.5325019,-0.4198171,-2.1064067,1.3151987,1.8618882,-0.1743077,-5.0,4.391227,2.8370848,-3.785104,-7.4035926,0.042851806,-0.6621047,0.4860006,-5.0
-1.1575963,2.4018626,-2.456808,-10.0,2.7308373,-2.1920414,-1.1435899,0.6800208,2.3444538,1.8356022,-5.0,-10.0,-1.5858207,-2.7734814,-0.7982651,-2.3880675
-1.4162765,-1.1504384,-2.0620933,10.0,3.484753,1.9602869,2.916516,5.0,3.5142827,3.4400945,-3.3633902,-7.977318,0.21217418,0.1827538,2.152185,5.0
-2.2953587,0.5580875,-2.5761578,10.0,3.0784323,0.9867791,0.7161678,5.0,3.1608558,0.6281912,-5.0,-10.0,0.9193678,-0.1904397,3.1085439,3.931974
-1.1039343,1.9673941,-1.5891631,-10.0,2.1528232,-0.40834814,-1.3954059,5.0,2.745973,0.37590063,-4.7775636,-2.2303228,-1.1993245,-1.5422924,-2.7986906,5.0
-2.520655,2.3783588,-2.7562008,-7.662204,1.4916462,1.3084021,1.0625536,5.0,2.6491575,-1.2971019,0.70206404,10.0,-1.1613967,-1.3417337,0.3504902,-5.0
-2.8553631,3.4972243,-1.1396601,-4.7278657,1.6505222,1.337289,-0.19054973,-5.0,3.845632,-0.56590194,-1.9010344,10.0,-1.0993052,-2.2113187,-1.0764695,1.6119046
-0.9746138,2.7846448,-2.5419567,-10.0,3.372669,-2.4294028,-1.3432972,-4.002186,2.8835313,0.2401362,-3.6041503,10.0,-2.42453,-0.7454144,-0.21978295,5.0
-0.64639056,2.484622,-3.8890529,-10.0,3.9717033,-0.34017166,0.45449793,-1.1115164,2.2169929,-0.69925535,-3.6362505,-10.0,-0.17876315,-2.0182538,-2.3437445,-5.0
-1.6706882,1.1625315,1.4761184,1.0413829,1.1323154,0.8469801,0.07051736,-5.0,5.0,4.0949135,-2.3757112,1.4122858,0.42089438,-1.1418418,1.2031016,-5.0
-0.15007019,-0.73903614,1.0339177,-5.1577373,2.78905,-2.5854907,-1.0037891,-2.3319674,3.3709202,3.854562,-1.152518,-4.3442874,-0.24886747,0.02211225,1.7676985,4.9710836
-0.45999885,1.672282,-2.854541,-10.0,1.1072725,-0.24003875,-0.29339987,-2.508052,3.417367,3.0473154,-2.7377117,10.0,-1.0098884,-1.6093161,0.111714095,1.2176983
-2.148178,-2.8404171,-0.776262,10.0,1.7555695,1.5224171,0.3344123,5.0,3.762697,4.972541,-1.09339,-5.325982,-1.1040409,1.476384,1.8059349,5.0
-1.7947911,0.960477,-3.3855891,-3.3385646,3.465172,-1.6474123,-2.024663,-5.0,4.88085,5.0,-0.9589156,-6.638476,-2.3813152,-0.17973918,-3.4071412,-5.0
-1.2792237,1.6278799,0.033431113,-3.2731764,1.2705536,-2.0481234,-1.1068227,-1.1819341,4.8062553,4.1559424,-1.591408,0.88491243,-2.687762,-1.8848108,-0.19505715,5.0
-0.90581083,1.1279129,-2.1980565,0.18158472,2.851598,-1.8497602,-1.0929307,0.26507288,3.9911938,4.3409147,-3.6950512,-10.0,0.77073574,0.7651056,2.7338636,3.1439803
-0.7211927,-2.1069233,-2.421492,5.458338,1.3788865,-0.20938796,-0.716432,5.0,2.553666,2.8116524,-4.306087,-9.437452,1.0368214,0.7079762,2.4788227,5.0
-1.8151865,-0.8305177,-1.5693929,-7.9856224,3.1817605,0.45354277,0.048642755,5.0,3.7774193,-0.63559824,-0.7200936,7.510789,-1.4078,0.4369638,-0.6151588,5.0
0.04357043,-0.3637969,-1.2953976,10.0,3.1737535,-2.8553243,-1.5730869,1.7953918,1.8009084,1.52427,-4.394781,-10.0,-0.4662267,1.6448286,-0.26866603,5.0
-0.31200522,-1.2028801,2.1306758,10.0,1.59173,-0.9843954,0.08358684,5.0,4.0211015,2.6522527,-3.8555622,-10.0,-1.1272545,-2.2195592,-2.1740031,0.88222545
-2.628504,-0.54472625,-0.09929913,10.0,2.7022393,0.87407124,0.5150957,5.0,2.9474978,-1.4081297,-1.5491666,10.0,-1.9789581,-2.767978,0.31903768,-2.532258
-2.641467,1.8326298,-1.6624925,10.0,2.329945,-1.5794361,-2.9215558,-0.6186789,3.2015405,-1.0981876,0.9243531,10.0,-1.7522647,-1.6552733,-0.4819195,0.4769593
-4.647574,2.8588874,-3.5550551,6.846712,1.5747727,-0.14768028,-0.13936496,-2.1960092,3.3357658,1.153234,-4.4439583,-3.6716034,1.2096226,-1.4515238,-1.9569938,-0.07524203
-1.0805781,1.2992756,-1.3746583,2.077112,3.4581127,-2.2613091,-0.8738236,-5.0,2.4680133,-1.3228626,-2.2991219,8.045983,-1.6072652,-2.7504342,-1.7564611,-0.24184
-2.755998,2.5685563,0.67852795,-0.06270802,2.515679,1.564958,-3.016891,-5.0,2.910098,-0.9166442,-0.6933519,1.287033,0.87133455,-1.0009115,-1.7967496,-0.04831793
-0.33395195,2.1584096,1.8168466,4.81682,2.9464946,1.3339702,0.5619,5.0,3.836844,0.32965177,-3.227225,5.173299,0.97309625,0.05366409,1.5340393,0.30804193
-5.0,3.3546257,-1.9461591,2.6734211,0.9805863,0.29128212,-0.11474687,1.5353707,5.0,0.559091,-2.7923918,8.329592,-0.6229953,-2.6609282,0.08689237,-5.0
0.4204439,-0.74259615,2.5052927,10.0,4.2754745,-1.9048873,1.4452703,-4.858829,2.1609325,1.1176138,-4.5631313,-8.824742,-0.6783768,-1.2941906,1.1360059,0.8195744
-0.90118575,2.1471043,0.58511925,-0.71264553,3.695744,-1.3586104,1.5599235,-4.018732,2.209923,-3.1530294,-0.24936461,10.0,-0.8337714,-1.2061687,-2.685782,-4.135509
-1.733932,4.351744,-1.2910599,1.3105712,1.6037772,1.4548693,1.5540776,5.0,4.4109335,1.4389138,-4.2314377,-10.0,0.58710706,0.6265353,1.1019838,5.0
-3.303852,2.7935996,-3.2849135,-9.248743,2.5046563,-1.059936,-1.7609973,-4.958951,2.358261,-0.8500825,-0.51599836,-10.0,0.90345144,-0.84165347,0.29112095,5.0
-3.5399137,1.3200597,-2.458157,-10.0,1.7681109,-1.234137,-1.595516,-5.0,4.378482,1.3353764,-5.0,-8.789324,0.20615482,0.12290084,1.0543789,5.0
-3.587769,3.6244287,-0.8612119,-3.4759085,2.2928376,1.4186567,1.002412,5.0,4.5058775,-0.68681693,-2.5900164,10.0,-1.1434932,-1.5682867,-0.9642167,-1.535748
-1.2593893,2.0281405,-3.063778,-6.459155,1.4192086,-0.8710283,-0.4025185,-5.0,2.6459618,0.0662297,-3.7077663,0.6857991,-0.4086444,-2.449154,-0.4554651,2.9481435
-3.475186,1.5667695,-2.4940314,-4.4066043,2.2279816,0.33927703,-1.1673042,-5.0,2.127603,-0.46053398,-2.3294184,-10.0,0.11664629,-0.31594878,0.7898854,-5.0
-3.2367592,-0.42925948,-2.9989927,-1.3179541,2.3822978,2.693257,-0.034938335,5.0,4.3754225,0.88778484,-2.0066233,5.6057606,-1.7978773,-1.9918942,-3.1803246,1.7679741
-1.2920519,1.1280049,-2.4281025,-4.5359364,1.8963969,0.68224216,2.1939626,1.1938019,4.6181564,4.356023,-2.4511075,-1.364398,-0.35132188,-2.5073931,-0.60020906,1.6056846
-1.1370842,1.561852,-1.589588,-3.869968,3.7457285,1.9357393,0.09939605,5.0,2.9950943,0.5618627,-0.7181895,10.0,0.7585399,-0.31045318,2.0002935,4.300763
-0.48521483,-1.3871641,1.9892893,7.8889046,1.8365389,-1.9250219,-0.2722965,-5.0,3.827397,3.6403847,-2.2773478,-4.105952,-4.239663,-2.2609472,0.6114379,-2.5503373
-0.19512701,-1.6304797,0.024008334,-1.6283137,2.6082726,-1.4147296,-2.467835,-2.6735275,2.443303,1.3617551,-1.9452477,10.0,-1.9691067,-1.8015027,-1.7127833,-3.9854085
1.1252998,-0.79533935,2.97945,7.6054273,3.1051831,-2.2681515,-2.0958776,-1.4162332,2.3504333,5.0,-1.502595,-3.3354888,-2.0772057,-1.7281654,-1.485847,0.23067397
1.1962202,-0.29247797,1.2717179,3.8470218,3.5456223,-0.95620775,-2.024341,-5.0,1.35462,5.0,-2.2358322,-5.8542852,-0.26641783,-1.8405455,-2.9579806,-4.7518816
-3.0139992,-0.34318066,-1.383163,1.9927175,0.8527705,-0.6815607,0.6566841,5.0,4.9207597,5.0,-1.2027166,-3.1422071,-1.9307342,-1.6298931,-0.9456909,1.6140856
0.43063647,-0.3894486,1.009752,-0.29969484,2.4350445,-2.0568378,-0.62703013,-4.9994526,2.7670186,4.6803155,-1.3634657,10.0,-1.3616443,-1.3293267,-1.9288137,2.2024963
-0.80575925,0.6500279,-3.2488165,-5.558758,2.514566,0.24326849,-0.37153894,-5.0,4.9684143,4.680306,-2.049457,10.0,-1.9941163,-1.4143629,0.12468329,-5.0
0.20083731,-1.4566716,2.4693327,4.825083,1.8048847,-3.1594143,-1.3398966,0.13603494,3.485289,5.0,0.32255852,-10.0,-3.38802,-0.8400819,-1.3007576,5.0
-0.07057732,0.32984972,-0.053045332,-9.360295,2.0286386,-1.8840324,-1.3950343,0.6935402,3.5375493,5.0,-2.0409172,-5.491775,-1.9460144,-0.9850717,-2.5888014,1.6315422
-1.665385,-2.084763,-0.3524866,10.0,2.7494023,-1.4475155,-0.63159966,2.7601657,2.687584,5.0,-1.5473557,10.0,-3.108778,-0.91762865,-2.0174565,-5.0
0.66547716,-0.047894716,2.5858247,7.6351433,4.600402,-4.100499,-0.83004797,-3.3265164,2.1935372,4.3228626,-0.26846087,10.0,-2.6666613,-0.74745274,-2.297757,5.0
-1.0961095,1.6207627,-1.7347996,0.23703837,2.4913647,-3.4767833,-1.3910275,5.0,3.3067129,5.0,-2.1053724,4.107669,-4.8944516,-2.1841,-0.79315156,-5.0
1.1742953,-0.9105226,3.5983284,4.8190107,0.8842274,-2.6396787,1.1266923,-0.172555,3.9724183,5.0,-2.025554,10.0,-4.9688873,-0.8827288,0.36529887,2.9322896
-2.0452332,2.3651037,-1.394463,-5.236494,3.5748239,-2.918933,-1.8838251,-3.2709684,4.38423,5.0,-2.0499325,10.0,-2.0824285,-1.2919778,0.10410142,-5.0
-1.1145813,0.86915624,-1.8341446,0.20861195,2.6361744,-1.7471015,0.061347514,0.7179347,3.5404885,5.0,-2.9503045,4.770042,-3.6377676,-0.7016454,1.4707556,-5.0
-0.8443891,0.9103354,-1.2155901,-10.0,3.9115093,-2.5311944,-2.560859,-3.800885,3.2023203,5.0,-1.542497,1.7795826,-2.2103026,0.42709577,-1.5846934,-1.9980652
-0.4605133,1.4253138,-2.3900015,-7.321921,3.6285937,-3.6818404,-1.5250309,-0.7884606,3.144575,5.0,-1.080421,8.712946,-2.7734022,-0.90963024,-0.9037378,-2.2568564
-1.9194744,1.6725264,-2.6671886,-10.0,2.5271735,-1.8548584,-1.1106218,5.0,3.952281,5.0,-1.1332483,4.9656963,-2.2640445,1.4317657,1.3762138,5.0
-3.797392,-0.30851507,-4.5225477,-2.4134712,1.9371691,0.7369014,-0.5582214,5.0,4.060578,5.0,-2.607143,2.1675744,-0.46182072,2.5855448,1.4472808,5.0
-0.8932411,-1.5739157,-1.2367206,7.5904436,3.8073125,-2.5697966,-0.9286413,-3.8861673,2.8788996,5.0,-1.2328583,-2.6953347,-1.24338,0.5083755,0.13921724,0.0150618255
0.49930716,-1.9131958,2.0945253,10.0,0.99550325,0.08246863,0.11108559,0.78571415,4.4435067,5.0,-1.6902926,-10.0,-2.0018103,1.0403671,0.033761024,-2.1003308
-0.6692625,-1.7510478,-1.3995134,1.3454008,4.1173086,-1.2178427,-1.1902627,-0.16497475,2.9187064,5.0,-0.34429348,-0.4786554,-1.1423614,-1.5645642,-1.5541387,-1.7594525
1.4060705,-1.953037,2.6268067,5.4418573,3.6921194,-2.8371701,-1.5187118,-2.055479,3.0741954,5.0,-0.6897932,-6.975847,-3.2704551,-0.8817719,-1.4519026,-2.7193832
0.80414236,-0.9223162,2.3716006,4.540269,2.3249984,-1.8935618,-0.4531538,0.38697627,3.7614224,5.0,-1.299055,2.9048235,-1.561943,2.3097827,0.56700593,0.6451235
-3.0568466,0.41655713,-4.187071,-5.3036175,1.3371123,-0.047676265,-0.44135332,5.0,4.433987,5.0,-2.7481613,7.321174,0.3689289,2.3377702,2.0333326,5.0
-0.9955425,0.7156818,-1.8593444,0.16586675,2.6546998,-3.8309479,-1.2254986,-1.1265792,3.1969123,5.0,-2.0885842,0.41459763,-1.4671475,-0.30067247,0.97966063,-0.12867267
-0.2525069,1.3735745,-2.7974272,-4.753859,3.5754433,-2.3815744,-1.446419,-1.1237226,2.215728,5.0,-1.9959407,0.9472912,-2.4233577,-2.5164084,-2.4616804,1.9696116
-0.2561196,0.57453656,-2.8426297,-4.4071474,2.0788674,-1.8595518,-0.70832133,1.8240874,4.3821497,4.6266947,-3.538309,10.0,-0.7731739,-0.24301276,2.0429895,2.0601244
-1.4818774,0.27158824,-2.7090745,-10.0,0.8342459,-0.4520738,-0.06691247,-5.0,3.0262058,5.0,-3.014846,-10.0,0.88770175,2.8197546,0.81351924,5.0
-1.5867152,1.5860299,-1.0848079,-7.8994465,4.2485437,-0.96769613,-1.1620227,-0.2550881,3.5859673,5.0,-1.5468173,10.0,-3.2651737,-1.3427942,-0.6244995,-5.0
0.5624365,-0.7371831,1.0251377,0.27637184,2.553065,-1.9635571,-1.5616155,3.5983136,4.6630454,5.0,0.33319664,10.0,-2.3929114,-0.7647476,-2.645247,-4.743423
-0.14124161,-1.9842124,-0.67526805,2.5687613,2.9505234,-2.4514353,-1.163031,-1.8260856,3.1695724,4.076627,0.2650221,10.0,-4.1874647,1.6701748,-2.1653821,-5.0
0.4843397,-1.181629,2.4935403,5.084598,2.281505,-2.99377,-1.648185,-5.0,3.9458392,4.739402,-0.39113605,10.0,-2.4430022,1.6437019,0.9856869,5.0
0.9458304,-1.0901353,1.0745196,3.6301093,2.458372,-2.1925647,0.38949716,-1.4378654,2.7294855,5.0,-2.4002955,-7.0490994,-2.473984,-0.88192534,-1.16804,-5.0
-0.3832841,0.010329485,-2.5086393,-1.5834868,2.5080955,-3.9785604,-2.4597936,-1.3879588,3.0284142,5.0,-0.48633522,-1.1229793,-2.5153823,-0.08320567,-1.5249201,2.2029
-2.1621456,1.3075162,-2.799178,-9.875338,2.7357628,0.54771304,-0.25095022,5.0,3.8711963,5.0,-1.9833065,10.0,-0.7147345,-1.6484677,-2.5421903,-5.0
-2.563615,0.95858765,-0.6769142,-4.456344,1.4490092,1.7855318,-0.16572201,5.0,5.0,5.0,-1.839402,6.472853,-2.359603,-0.15240824,-0.1912899,5.0
-0.9347986,1.2441397,-0.34672916,-5.898746,3.883394,-2.2596197,-1.2535532,-3.7516851,3.2457197,5.0,-0.9966682,3.0569248,-2.2474008,1.0358819,0.7893477,-5.0
-1.50135,0.62182856,-2.7228804,-8.579492,2.336648,-2.5919821,-1.1388942,5.0,3.9746888,5.0,-1.3365418,0.23266897,-2.6668053,0.8726029,0.71142304,5.0
1.1940423,-0.13392356,-0.4975629,4.187706,3.2237906,-2.9198742,-0.97861755,5.0,1.5261304,5.0,-4.4741826,-3.821994,-2.3929932,-0.3644122,-3.112742,4.7709036
0.7482299,-0.70907223,-0.03328508,-3.155632,3.798368,-2.8399196,-0.97024494,-5.0,1.1074877,5.0,-0.09338522,0.4561587,-0.8109127,1.4794767,0.48966128,5.0
-0.027575701,-1.270407,0.63540053,10.0,4.499324,-2.35627,-0.15823172,-4.529279,3.3571203,5.0,-0.89849794,6.348453,-1.6663777,1.7941955,0.77295697,5.0
0.07257718,-1.5596755,0.32826853,6.711548,1.3545529,-2.0342667,-0.32647142,-2.5212162,1.6896114,5.0,-1.6330904,-3.1390927,-1.6544571,0.3343035,-2.112128,5.0
-2.7515812,0.49566674,-3.3813977,-5.391417,1.9755756,-2.3707867,-0.97349834,-2.9568431,5.0,5.0,-1.4680705,-3.7730567,-1.1248472,2.2876077,2.6458554,-5.0
1.0403361,-3.1619234,3.027061,10.0,4.511436,-2.8615031,-2.2318592,5.0,1.7287908,5.0,-1.288357,8.07321,-2.069642,-1.6976237,-1.8829377,-3.7012208
-2.299508,-0.55658656,-1.1394744,-5.563924,2.373141,0.2445876,1.4489958,-5.0,4.337519,5.0,-1.5663186,-5.551635,-3.0069327,-1.049375,-2.2566156,-0.29664654
-2.057386,0.25624442,-1.2869267,8.993509,1.9673576,-0.6348131,-0.9303001,5.0,4.357517,5.0,-2.1453934,-6.0600076,-0.98756003,0.9293568,0.60041165,-0.6302595
0.20389605,-2.697085,2.5249307,10.0,3.550397,-1.0793858,0.8658526,0.36090147,2.9298244,5.0,-1.46879,-1.1295093,-0.2089895,1.4630902,3.134375,5.0
-2.2240977,0.9415586,-4.1783905,-3.1473575,3.0878983,-2.006275,-1.5495677,-0.004070878,4.957761,4.026613,-2.5723145,10.0,-0.737535,1.6739719,2.1204119,5.0
-2.3970244,1.1330383,-2.6297202,-0.15525986,2.3019054,-0.9190566,-1.7266898,4.4149776,3.836354,5.0,-1.3672788,-4.8849225,-2.204915,0.197925,0.21484204,5.0
-1.1413555,-1.133209,-0.95268965,2.7325563,2.4594488,-0.21101224,-0.5444232,5.0,4.0453124,4.3506866,-0.5418279,10.0,-2.4333699,-1.4521964,-1.7384417,1.609283
-1.7282182,0.9396052,0.69765776,1.0478802,2.2105827,-1.2079968,-0.07343137,-5.0,3.9215896,4.2923136,0.71531993,0.8010955,-0.534063,-1.3232055,-0.49920112,-1.8092724
-1.5970095,-1.1376508,-1.5816628,-10.0,2.679464,-0.836988,-0.43364856,-5.0,4.6324897,5.0,-2.6176999,-0.457609,-1.5974903,-1.8694108,-0.94910973,-5.0
-1.9622637,0.8098409,-3.620376,-2.7918072,3.621694,-1.3827908,-0.10748559,-3.408678,4.163935,5.0,-1.131492,0.50599456,-0.014184058,-1.2091333,1.5197225,-5.0
0.28195405,-1.6206518,1.2547927,10.0,3.1269732,-0.7810496,-1.622482,-0.26874173,3.7687635,4.4616594,-1.2405195,-5.9420485,-1.3605559,-1.0552728,-3.018434,2.1485689
-0.4096279,-2.3143687,1.496002,10.0,2.6361315,-1.2963481,-0.39019665,-1.0696058,3.649647,5.0,-2.3799722,-5.1524405,-1.8152672,0.42264107,-1.0492543,5.0
-0.1520406,-2.085678,1.1867954,10.0,1.2058718,-1.3991631,-0.6948253,5.0,3.8154306,3.695036,-1.4386747,3.0919924,-3.2023773,1.3856876,-1.6694092,-5.0
-0.801785,0.94472766,-3.8104053,-2.600381,3.7850342,-3.6121516,-1.8188249,-5.0,2.0566013,2.9739714,-1.7347187,9.208216,-0.8883613,-1.4077545,-1.8908556,-0.011559388
-1.2802564,-1.0997138,-1.5225796,-10.0,3.7506669,-0.94802684,-2.794114,5.0,3.1543527,5.0,-1.9737773,1.0528494,-1.4145737,-0.7116299,-1.6426673,-0.8582313
-0.086568385,-0.08140898,-3.378391,-8.139606,3.6460667,-4.4526,-2.4779682,2.486623,2.0269113,5.0,-1.1807685,-1.9920466,-2.429699,-2.0767262,-2.1970246,5.0
-1.5458535,1.4312906,-2.0980992,7.7635584,2.6308947,-1.4717469,-2.4130087,-1.3048203,3.6874352,3.6498196,-1.0615914,10.0,-1.0538547,-1.126321,-0.7949549,-5.0
0.037666142,-0.3146345,0.2675237,-9.748919,3.3704324,-2.6551232,-2.1359034,-3.818643,2.5595002,5.0,-1.844948,0.033724144,-0.94126505,0.16016862,-1.6745576,-1.2051606
-2.3127553,1.5945427,-0.737383,-3.9280627,3.2207735,0.58259654,-3.0320282,-5.0,5.0,4.640887,-3.3454483,10.0,-1.8876032,-0.4199981,0.26496798,-0.7522708
-1.1639664,-1.1242788,-0.031025082,4.857581,2.758482,-2.0738583,0.23116401,-2.848837,3.6971831,5.0,-0.7633657,10.0,-2.8908377,1.0282359,0.057117194,-5.0
-0.15390682,1.2622635,-3.8589237,-5.132176,3.3442032,-2.5607374,-2.0812273,-5.0,2.1548386,5.0,0.02809009,3.1539483,-1.7762326,-1.7271789,-2.3443584,-5.0
-0.7568914,1.6882627,-1.3050174,-5.678314,3.2049413,-2.3201423,-1.8349074,1.3543508,4.5335455,5.0,-1.7650737,0.5459892,-1.5442908,-1.0852778,-0.1870633,-4.51579
-2.1024644,-1.7249227,-0.32195753,10.0,2.2672787,-0.05370152,-0.53933585,5.0,4.417388,5.0,-1.5166581,-1.052289,-0.7968186,0.03906107,0.53156286,-3.7742083
-0.46809164,1.4699085,-2.8380804,-5.1940813,3.3378978,-4.839252,-2.2524276,0.1421819,3.3304734,5.0,-1.6317599,-5.682475,-2.9161859,-0.54461735,-2.4525027,5.0
