ancorasir/BennettWheelLegRL/experiment_data/2024-02-05_04-39-04/joint_position_env0.csv
Joint_1,Joint_2,Joint_3,Joint_4,Joint_5,Joint_6,Joint_7,Joint_8,Joint_9,Joint_10,Joint_11,Joint_12,Joint_13,Joint_14,Joint_15,Joint_16
0.26624665,-0.0,-0.0,0.0,-0.20982598,0.0,0.0,0.0,-0.20358562,-0.0,-0.0,0.0,0.28083286,0.0,0.0,0.0
0.2402212,-0.0065228203,0.008700673,-8.2577344e-08,-0.2080846,0.0012556562,0.009429263,1.758244e-05,-0.19982725,-0.0003521065,-0.0026413694,-7.294838e-05,0.25288054,0.0032767863,0.00732538,5.7432226e-05
0.22948195,0.03859831,0.1341098,0.10215769,-0.31112468,0.18323343,0.10482532,-0.05551391,-0.17526498,-0.12170979,0.14366668,0.2053485,0.31419125,0.071019836,-0.029948985,-0.0644026
0.26648843,-0.004783927,0.14379726,-0.26729375,-0.34492055,0.26304007,0.02776674,-0.16102405,-0.18696368,-0.08535493,0.109853484,-0.074229695,0.31029615,0.08229021,-0.092679046,-0.07945006
0.32366365,-0.13753165,0.20438257,0.032192517,-0.31212133,0.21396975,-0.12997423,-0.08912735,-0.25818893,-0.08578605,0.17359832,-0.0210235,0.29417002,0.11516636,-0.081650026,-0.061565474
0.3583256,-0.14466521,0.15979567,-0.03312278,-0.25697488,0.12679529,-0.155766,-0.033685144,-0.30365676,-0.06940534,0.2565159,0.20947975,0.24781454,0.11365271,-0.15191235,-0.05088938
0.38191894,-0.11676106,0.132453,0.033425294,-0.28336772,0.10924368,-0.14991863,0.056970842,-0.28172392,-0.044142276,0.21466766,0.018892067,0.24354559,0.105096206,-0.16724484,-0.009460622
0.35082123,-0.09285432,0.12133701,0.15394686,-0.2887646,0.07039791,-0.1697676,0.013985124,-0.25646293,0.019702932,0.21984793,0.05853258,0.24956565,0.09961215,-0.1906587,0.12140156
0.3743107,-0.017756952,0.1569458,-0.025927322,-0.2832261,0.01644558,-0.14875425,-0.114091404,-0.26353666,-0.000833348,0.23002732,0.0385458,0.23010236,0.084607735,-0.15574977,-0.031010093
0.35592073,-0.037575904,0.1509038,0.1831448,-0.29407072,0.016099624,-0.12085945,-0.062471855,-0.27134287,-0.045555476,0.23036093,-0.062253214,0.25718576,0.109304205,-0.1324007,-0.1455698
0.33054075,-0.00871699,0.13463008,-0.07201997,-0.31596127,0.052230727,-0.14965034,-0.073379286,-0.22062948,0.002099842,0.23881438,-0.02338713,0.2633554,0.09295374,-0.1884771,-0.019079302
0.34435448,-0.0035440628,0.11376849,-0.12841778,-0.3251565,0.04525239,-0.16011317,-0.054473214,-0.25269455,-0.0812267,0.24149795,-0.21550532,0.28299895,0.094525084,-0.16174953,-0.06135535
0.41050476,-0.07039851,0.19801353,0.14779353,-0.31693906,0.07166486,-0.10082663,0.042749945,-0.28036502,-0.08939636,0.23096909,0.14010064,0.23599581,0.10172233,-0.15089656,-0.011032814
0.39196694,-0.11659173,0.12436091,0.14978518,-0.28297076,0.044138078,-0.11387833,-0.15096968,-0.27330124,-0.0510469,0.20390701,-0.3855957,0.22426103,0.09855933,-0.15600663,-0.06723101
0.3128842,-0.024980012,0.055446237,-0.12656862,-0.29821253,0.06310795,-0.16283964,-0.17764494,-0.26507312,-0.142057,0.23821674,-0.15686566,0.29532135,0.13720793,-0.13884315,-0.013195575
0.33281747,0.015802976,0.10504294,-0.051459998,-0.2961549,0.05471306,-0.13758813,-0.06104264,-0.2888332,-0.22222807,0.20582896,-0.06801285,0.28492793,0.11033527,-0.1413401,-0.051084127
0.32476968,0.04414499,0.08404738,0.013125042,-0.33429006,0.077156976,-0.09705479,-0.057190645,-0.2682403,-0.20187718,0.16642483,-0.11829209,0.31113157,0.09469218,-0.14489092,-0.095122255
0.3154114,0.06679268,0.1270201,-0.12682553,-0.3036607,0.06727069,-0.13097861,0.033983715,-0.2647664,-0.22542049,0.11401009,-0.20340978,0.29583052,0.09489782,-0.13652669,-0.036168046
0.30646273,0.05020075,0.10226904,-0.30323347,-0.28001666,0.07397922,-0.1258756,-0.032860495,-0.28402677,-0.23682588,0.16493624,-0.0076924437,0.29102397,0.044485632,-0.14775029,-0.27179122
0.33555484,0.008595174,0.16124748,-0.0011072824,-0.290016,0.09805106,-0.11057856,-0.10924577,-0.29300994,-0.20826922,0.15672667,-0.18128596,0.28554934,0.08817506,-0.12831113,0.1494018
0.36131647,-0.03220197,0.14415385,0.029842211,-0.306991,0.122437365,-0.12633395,-0.044521287,-0.28692934,-0.19484942,0.1308807,-0.20351885,0.2731921,0.052689407,-0.16598056,-0.11549626
0.33966488,-0.0014942263,0.098337755,0.21996771,-0.3492058,0.15188444,-0.09841807,-0.011391385,-0.2728782,-0.20588239,0.23551577,0.2043601,0.3273903,0.0719719,-0.19698267,-0.05142767
0.34561652,0.053998865,0.112903275,-0.3597895,-0.3093347,0.108830616,-0.16638055,-0.05878642,-0.28227332,-0.15524548,0.1416181,-0.2649115,0.2942204,0.06727601,-0.1735446,0.01261693
0.34582955,0.0045500468,0.11301099,-0.16214551,-0.3037598,0.058338907,-0.15118453,0.052721046,-0.31066486,-0.14468013,0.16903725,-0.23361494,0.29404643,0.041061807,-0.16698697,-0.1451999
0.35499847,0.013365347,0.13656455,-0.12549157,-0.31084272,0.04931421,-0.14171937,-0.1145059,-0.28673655,-0.096773155,0.16185418,-0.12143455,0.27833337,0.068357185,-0.14044571,-0.012469043
0.35780382,-0.030204266,0.11938626,0.04169119,-0.2933277,0.004482367,-0.16972452,-0.3233044,-0.28531015,-0.10864409,0.18270503,0.10570314,0.24979115,0.03952085,-0.20611668,-0.14755157
0.3572971,-0.007440245,0.113609724,0.055791516,-0.32417682,0.055050094,-0.121401,-0.10062508,-0.25217417,-0.041207965,0.18577439,0.1996868,0.24755108,0.056745965,-0.19478416,-0.10734496
0.3351544,-0.006602944,0.13611203,0.2224914,-0.3494052,0.08114581,-0.12603185,0.015070145,-0.23630741,-0.05499992,0.23694965,0.11286473,0.30770954,0.094544806,-0.13584541,-0.07992005
0.34326848,0.0031812305,0.13467889,0.122803904,-0.2993542,0.05329282,-0.16615269,-0.034938414,-0.28666264,-0.072233275,0.24090043,0.055569727,0.29601505,0.10972419,-0.12750918,0.017341057
0.33389515,-0.020635331,0.12756757,0.038916,-0.2856834,0.029258989,-0.15760994,-0.063969195,-0.26266384,-0.058103252,0.25322646,0.13996899,0.26829207,0.096189335,-0.13983518,0.03310441
0.36246073,-0.05481382,0.1398494,0.14998865,-0.28995225,0.038820773,-0.13997492,-0.19549558,-0.25437617,-0.09396871,0.23829038,0.056282952,0.26372108,0.07258729,-0.12437041,0.08945744
0.3498756,-0.0383705,0.14345695,-0.07850313,-0.32098755,0.07519816,-0.11481747,-0.031506527,-0.22512703,-0.04847076,0.22586943,0.18319678,0.26395297,0.092862755,-0.109660536,-0.06970319
0.35908264,-0.03177137,0.14497069,0.06862825,-0.32329667,0.09193227,-0.1420557,-0.023760634,-0.20439553,-0.012348288,0.17867623,-0.08745995,0.27992624,0.07242141,-0.17660852,0.024869803
0.38805932,-0.02658762,0.17049071,-0.0663783,-0.29725987,0.057942767,-0.1397565,-0.1200123,-0.25583524,-0.005324994,0.23865108,0.3016558,0.2289621,0.052699722,-0.17775418,-0.1065261
0.3583139,-0.060776338,0.11875139,0.002308642,-0.31053263,0.057092298,-0.12890041,-0.028823396,-0.24890327,0.004763203,0.23510168,0.10113497,0.25851354,0.07170202,-0.11863067,-0.03592905
0.32251695,-0.020698037,0.0789423,-0.13872863,-0.334487,0.05788345,-0.13449132,-0.08711329,-0.23435335,-0.07090249,0.24605785,0.041169345,0.2958422,0.11702876,-0.12484104,-0.10601378
0.37373313,-0.029663684,0.14380847,0.051957097,-0.32752684,0.046128307,-0.12419834,0.0031855209,-0.27685693,-0.083377555,0.25716323,0.2453576,0.27858117,0.111643024,-0.16445115,-0.1390062
0.36960313,-0.07350363,0.10051586,0.1346199,-0.30438134,0.07367751,-0.14564012,0.03806315,-0.28075317,-0.03274291,0.2196826,0.086953126,0.2837195,0.102034956,-0.15731066,0.01757588
0.32792163,-0.016154755,0.06427428,-0.11772765,-0.3014266,0.080101244,-0.14548226,-0.071022265,-0.2760046,-0.031512585,0.17660405,-0.45395085,0.29349676,0.10119764,-0.11394146,-0.18479031
0.2924972,-0.0035188487,0.099776976,0.12305898,-0.27034324,0.07548006,-0.14056025,-0.088957004,-0.28928337,-0.14096764,0.20710605,-0.099744655,0.2946455,0.09004154,-0.1506828,-0.23632678
0.30848938,0.033139523,0.09189547,-0.10422529,-0.346954,0.16147012,-0.120358884,0.023658354,-0.21980458,-0.06414984,0.18950854,0.046866473,0.34118864,0.12409359,-0.19534981,-0.12530959
0.3045629,0.07909201,0.09641673,-0.45501995,-0.3567026,0.113718405,-0.15547037,0.036320176,-0.2329073,-0.026195493,0.19394407,-0.012781794,0.32465768,0.10647993,-0.17484304,-0.06186543
0.37667778,-0.049415126,0.17976461,0.08640812,-0.33997688,0.060764812,-0.14116888,0.053128768,-0.25078303,0.029629169,0.17578243,-0.1473234,0.26901248,0.09029359,-0.22305484,-0.09574498
0.38804477,-0.06475719,0.16858561,0.1618168,-0.33297408,0.0740615,-0.13652834,0.058052905,-0.23479064,0.07532448,0.20243016,0.0057197176,0.2580637,0.08756984,-0.17671265,-0.016634006
0.40090588,-0.04256414,0.15626937,0.026964512,-0.32681602,0.05923684,-0.13828723,-0.06958007,-0.26337296,0.022689117,0.18024708,0.0142585095,0.24086583,0.07606095,-0.21555656,-0.08608336
0.3853067,-0.06250239,0.1509661,0.008085182,-0.3208274,0.040096004,-0.15167746,-0.014503438,-0.26754025,0.053413395,0.19993706,-0.15089792,0.25858322,0.10954936,-0.15763809,-0.02664554
0.35402098,-0.03244411,0.109303415,-0.016881578,-0.29740298,-0.014978734,-0.17744054,-0.1993708,-0.27869433,-0.0010782183,0.23017858,0.0075062853,0.2685686,0.10115038,-0.13592753,-0.021523548
0.3362311,0.018526025,0.09415048,-0.08973557,-0.3186307,0.009108287,-0.12158225,-0.2092996,-0.25659385,-0.04188117,0.2350709,0.15555876,0.28641096,0.087767966,-0.1380617,-0.049544435
0.3666039,-0.07348488,0.12892012,-0.032470696,-0.32553732,0.062651634,-0.13646483,-0.03437836,-0.24838507,-0.011017706,0.21684015,0.25391635,0.25778452,0.12181783,-0.15993293,-0.012993174
0.38758606,-0.09297071,0.12399596,-0.10581286,-0.33151603,0.056764152,-0.16908658,-0.031955075,-0.25998726,0.060069833,0.23602009,-0.12628998,0.27776426,0.15182105,-0.160142,0.01474543
0.37459826,-0.070191376,0.101133935,-0.10981111,-0.3551858,0.054489024,-0.13553584,0.09629918,-0.28018507,-0.005706486,0.2639592,0.099299364,0.31222698,0.16927402,-0.121184774,-0.015278716
0.4316291,-0.074137874,0.13117166,-0.04980284,-0.30971777,0.007966221,-0.1420663,0.16968694,-0.30093962,0.026186304,0.26826105,0.06495956,0.26575947,0.12995444,-0.19578972,-0.07725985
0.41721404,-0.073510565,0.09579112,0.007364238,-0.30918917,0.018545097,-0.11714921,0.045961108,-0.31297347,-0.014882417,0.25082237,0.07713017,0.25903228,0.09263643,-0.17915624,-0.048398416
0.38410193,-0.030104548,0.16607587,0.05262977,-0.32014987,-0.0022919243,-0.13712305,-0.0940378,-0.25700855,0.008164355,0.23427324,0.038914014,0.26135814,0.10773541,-0.17367893,-0.025196314
0.40121505,-0.06023634,0.15661107,0.098488644,-0.32253537,0.03672831,-0.11656177,-0.010203835,-0.26642835,0.0007201844,0.23778218,-0.045855235,0.24724877,0.10181765,-0.1864958,-0.0025670556
0.3991936,-0.07205719,0.11856726,-0.19176082,-0.37498766,0.056140002,-0.13549042,-0.0051587736,-0.227129,0.024546582,0.24546114,0.11504038,0.28781945,0.09862878,-0.1936628,0.121629775
0.47280774,-0.15435617,0.20766489,0.0036130794,-0.32808656,0.0012016699,-0.17220068,0.021727905,-0.26910296,0.0031833525,0.26318973,0.012895576,0.22110541,0.06200661,-0.2263904,0.01750102
0.42402902,-0.06303242,0.11024797,-0.05991871,-0.290257,0.039823513,-0.1615424,0.031299897,-0.28831846,-0.06520779,0.2949614,-0.14951752,0.23815256,0.058867987,-0.15873586,0.10807771
0.34764853,0.00032614847,0.089165874,0.0018846627,-0.29867956,0.02508525,-0.16113403,-0.19466618,-0.26102358,-0.11714537,0.28472432,0.0044553448,0.26816034,0.08424493,-0.13867286,-0.056078177
0.38417014,0.00024884564,0.1615239,0.13442557,-0.28473398,0.03140057,-0.15624994,-0.070306145,-0.28491935,-0.12480263,0.2444178,0.15276222,0.24437067,0.08369348,-0.14312057,0.02584054
0.38583395,-0.076611444,0.16131489,0.01890767,-0.28486544,0.041583214,-0.15490478,-0.00084339787,-0.30105466,-0.10660828,0.2648363,0.2034539,0.24501085,0.11676548,-0.13675867,0.015929725
0.39907473,-0.049184408,0.1328133,-0.14160694,-0.29123026,0.040664285,-0.14133084,-0.044317145,-0.29683042,-0.087815695,0.2214585,-0.1512897,0.2585708,0.14304516,-0.14578722,-0.04024829
0.36777678,0.01968376,0.17539161,-0.049501605,-0.31591934,0.024394684,-0.11609516,-0.038707778,-0.3043014,-0.10142275,0.2733896,-0.030447556,0.2816393,0.13831253,-0.14884706,-0.045367833
0.4048619,-0.037549708,0.18428598,-0.084140085,-0.300853,0.026239587,-0.12903175,0.00216474,-0.30750328,-0.060726333,0.18942797,-0.21878415,0.24921349,0.094020195,-0.15311044,0.16592574
0.41564012,-0.048899893,0.1810339,0.086434945,-0.33473253,0.027106626,-0.12347579,0.013420984,-0.25604287,0.016717661,0.18073413,-0.05748569,0.23920019,0.08196988,-0.1730448,0.119161434
0.43955007,-0.09170518,0.17619829,0.12567821,-0.2977507,-0.011981351,-0.13060123,-0.14706215,-0.2869322,0.018269937,0.25929517,0.035853542,0.22106814,0.08593075,-0.20260526,0.12498283
0.4057384,-0.069132745,0.1046845,-0.012571848,-0.28140232,0.05433076,-0.15568829,0.03331023,-0.30987126,-0.03274102,0.26876616,-0.06654778,0.24502844,0.08266594,-0.17525248,0.10695453
0.36484724,-0.028830767,0.0843062,0.0173295,-0.28410152,0.05796318,-0.15348491,-0.07993312,-0.28985393,-0.057079975,0.2560677,-0.12219525,0.2630967,0.057458162,-0.19954002,-0.05822993
0.40197432,-0.040510047,0.15332763,0.18306136,-0.28402454,0.07141186,-0.1453005,0.036518693,-0.30990106,-0.15694885,0.25993535,-0.12260666,0.25436208,0.024097458,-0.15420866,-0.122830145
0.38062865,-0.025803052,0.10862629,-0.08986418,-0.282054,0.08614051,-0.16017441,-0.109804004,-0.30924022,-0.17786847,0.2266869,-0.076209836,0.2561884,0.044903327,-0.16348399,0.0014374491
0.34917602,-0.02148081,0.1431979,0.2458228,-0.29587787,0.08073982,-0.1901535,0.012456032,-0.30438963,-0.22364475,0.21577871,-0.28611028,0.30255082,0.095470175,-0.11506781,0.099612966
0.3379737,0.030443817,0.11161234,-0.060829382,-0.2851284,0.06909741,-0.15031436,-0.021716045,-0.30769542,-0.29453364,0.21939307,-0.2052502,0.2986735,0.081912704,-0.15026854,-0.10560014
0.34139305,0.041268405,0.11541851,-0.032021686,-0.284372,0.065287836,-0.1360832,-0.057650894,-0.30858934,-0.34551165,0.20323706,-0.08244181,0.30379742,0.098044395,-0.14406066,-0.0332449
0.32903308,0.047727644,0.10118101,-0.10526055,-0.2696803,0.07465134,-0.15167359,-0.18992579,-0.30594796,-0.37537643,0.17346178,-0.10966162,0.32234064,0.095374845,-0.11190231,-0.0034955742
0.34591663,0.023160575,0.17873292,0.1429033,-0.2555674,0.073713325,-0.14862916,-0.0461119,-0.32251933,-0.39939076,0.14663032,-0.17978334,0.3047625,0.09003356,-0.10203698,0.030966755
0.34016684,-0.0048056943,0.120410874,0.079276234,-0.22534019,0.075865835,-0.1355291,-0.0033502278,-0.3487629,-0.38161603,0.19547193,-0.07003791,0.32571256,0.062512666,-0.0918313,-0.051463407
0.3250875,0.050600346,0.106659964,0.08461901,-0.23699738,0.09756641,-0.1353081,-0.046933006,-0.3059171,-0.34990507,0.15807308,-0.25224277,0.32532254,0.033057876,-0.14926986,-0.28699923
0.31690678,0.08595246,0.12051625,-0.12980151,-0.25817877,0.114569165,-0.12898216,-0.059081886,-0.3043274,-0.36154887,0.1612841,-0.21621348,0.32847562,0.037322972,-0.12846246,-0.050759077
0.31937,0.051634785,0.1256409,0.040021524,-0.26576316,0.08360039,-0.13276517,-0.052265793,-0.30313095,-0.3005432,0.12222959,-0.22762185,0.3085895,0.042031806,-0.1152381,-0.017920643
0.32416055,0.044215277,0.13336632,-0.08750311,-0.26939785,0.08565394,-0.12576497,-0.023051072,-0.3107068,-0.27960154,0.14845735,0.043075144,0.2861099,0.047303863,-0.15684174,-0.22418697
0.35033137,-5.1650553e-05,0.122777,0.058032047,-0.29910538,0.08280809,-0.11926046,-0.05539148,-0.31840733,-0.20965134,0.2173928,0.17830743,0.2996758,0.0670546,-0.17373857,0.018315762
0.35724184,0.015520627,0.124950364,-0.22527573,-0.32244363,0.044721026,-0.11100044,-0.075032584,-0.3144226,-0.15389515,0.23626332,0.11013954,0.30202267,0.09875744,-0.20788287,0.011851281
0.3875997,0.0023820465,0.16561098,-0.32132652,-0.3129165,0.03771153,-0.1551906,-0.082510866,-0.31310305,-0.10562778,0.24525099,0.23441304,0.27776194,0.058672067,-0.15146916,-0.011631422
0.41180396,-0.03954468,0.15293379,0.0010238226,-0.340887,0.048333183,-0.12001558,0.14302246,-0.28410888,-0.044301104,0.18886496,0.012561294,0.26289675,0.072903454,-0.17235065,0.09838877
0.41467765,-0.042226117,0.1492197,0.043105897,-0.30469632,0.028375927,-0.1372294,0.14465372,-0.29449606,-0.020684326,0.21619745,0.19209567,0.23705527,0.05115204,-0.20348471,-0.08219077
0.3834488,-0.05182834,0.10945556,0.09094464,-0.29409802,-0.0017392534,-0.1499756,-0.07327754,-0.28304777,0.009888691,0.24854814,-0.057514306,0.25846153,0.07924962,-0.1658146,0.09535224
0.39087018,-0.0035068875,0.13992152,-0.23354277,-0.2799448,0.053479165,-0.14574778,-0.14460479,-0.29993066,-0.046045747,0.2353458,0.054586947,0.24418405,0.053799935,-0.17646472,-0.0049566957
0.35759947,-0.079441875,0.09760752,0.17567307,-0.3115522,0.12296712,-0.17756271,0.047162563,-0.26971206,-0.0019056578,0.24609882,-0.06541334,0.28633955,0.07683399,-0.16960326,-0.011085221
0.3356389,-0.023363456,0.07108162,-0.27222648,-0.2980197,0.10870001,-0.17107451,-0.039129492,-0.2636096,-0.013864225,0.23871885,0.030830737,0.2880954,0.09258275,-0.17682406,-0.057656545
0.35514805,-0.026499905,0.10498817,0.027637266,-0.30897573,0.053530704,-0.19264233,-0.017154763,-0.2680702,0.00091195345,0.26976758,0.18924588,0.29467532,0.14510211,-0.15912555,-0.03404268
0.39623985,-0.11375473,0.13375387,0.025499325,-0.29591015,0.08049312,-0.17474134,0.092567414,-0.29409567,-0.010713283,0.2873857,0.06652402,0.26246104,0.094075836,-0.18777533,0.009242718
0.3484625,-0.02411179,0.09523123,-0.1868001,-0.31160492,0.05431152,-0.15960881,0.032757875,-0.28458312,-0.09183723,0.27413464,0.051984895,0.29192182,0.16332303,-0.15734081,0.035971723
0.34553918,-0.009008813,0.16280645,0.06518816,-0.30723938,0.05823603,-0.17675926,0.038489603,-0.25599486,-0.061267152,0.27042982,0.19906355,0.27619243,0.13919118,-0.19132236,-0.13571063
0.34534696,-0.04899104,0.14318822,0.16050579,-0.29639208,0.034702126,-0.15064809,-0.10118536,-0.27284664,-0.052031703,0.27630687,0.045818947,0.2733501,0.13483869,-0.15346189,-0.010338053
0.37500635,-0.029601669,0.1293576,-0.082916886,-0.26222223,0.04355523,-0.13610609,-0.12493057,-0.30131945,-0.08140807,0.27032974,0.16171917,0.24022107,0.10919528,-0.15774563,0.022896437
0.41531542,-0.035649776,0.18275908,-0.019494506,-0.2806201,0.035873566,-0.11311944,-0.29966697,-0.33014354,-0.11659111,0.24681509,0.06000611,0.2239153,0.056884564,-0.18477637,-0.19733833
0.39769256,-0.06975917,0.14860305,0.06710062,-0.31079555,0.102105655,-0.12300105,0.021495977,-0.29986185,-0.080032796,0.23154494,0.12810344,0.2610011,0.08188865,-0.14570378,-0.049908012
0.38948298,-0.08524572,0.11585715,0.0005572813,-0.32141027,0.076728806,-0.15128349,-0.052147795,-0.27946997,-0.058854163,0.20699902,-0.16708654,0.26455703,0.08361175,-0.16118638,-0.06815326
0.3869531,-0.07438928,0.12727997,-0.000856514,-0.3731861,0.08144693,-0.14813408,-0.006472529,-0.24012183,-0.011380294,0.23551987,0.013756718,0.29163957,0.0874536,-0.19000007,-0.0820995
0.3945802,-0.04852725,0.1411288,-0.08650617,-0.35077795,0.03541254,-0.14521663,0.011925885,-0.26753587,-0.0054198997,0.23843223,-0.06778658,0.28048635,0.10305017,-0.18242733,0.020209052
0.40694746,-0.03754084,0.12701441,0.061732136,-0.31110168,0.06758148,-0.13643403,0.048309725,-0.30586204,-0.030195028,0.24149512,-0.116490394,0.2761608,0.107634574,-0.1879743,0.1215938
0.34432834,-0.012155199,0.08844672,-0.03925638,-0.3317963,0.09546703,-0.17544298,-0.044702712,-0.2556539,-0.016689412,0.27024227,0.121477805,0.31649473,0.087008744,-0.18693152,-0.11772575
0.30536672,-0.0022693647,0.033678677,-0.09533151,-0.34220052,0.120478645,-0.14982373,0.06248036,-0.23446327,-0.07627456,0.2756687,-0.040073413,0.34153208,0.091103554,-0.15701573,0.04820937
0.32082334,0.045318957,0.09257268,-0.2632887,-0.3328119,0.10097484,-0.14903294,-0.058437154,-0.2270125,-0.08314967,0.23567775,0.09451546,0.30665794,0.0642831,-0.17202811,-0.09470806
0.39180776,-0.04800482,0.15870579,0.056371525,-0.32059038,0.07667489,-0.16774336,-0.0009930758,-0.25794932,-0.017694285,0.24157242,0.35329026,0.25743073,0.076485105,-0.1369001,0.0497343
0.34917033,-0.019678328,0.07688349,-0.12935169,-0.32229364,0.038596798,-0.14763547,0.16485588,-0.21716729,0.06695334,0.17659384,-0.5637135,0.2700083,0.0975934,-0.16744748,-0.07982417
0.37972495,-0.026946282,0.13580135,0.19893248,-0.2808955,0.014917689,-0.16149275,-0.094968125,-0.28219855,-0.027669128,0.26230642,0.10785084,0.25390187,0.09421546,-0.16434085,0.1771943
0.3744847,-0.02827543,0.11433502,-0.114520326,-0.28948957,0.026165653,-0.15823354,-0.21778649,-0.31643745,-0.059746847,0.28611505,0.018419394,0.27418205,0.114511125,-0.15556093,-0.036087908
0.37508088,0.0040956554,0.13523374,0.006822865,-0.29666075,0.028922224,-0.15620102,-0.0066689216,-0.32372898,-0.08732732,0.28717992,0.06166097,0.2788152,0.15617758,-0.14779463,-0.01824428
0.3572488,0.03156152,0.14754105,-0.036766246,-0.34638235,0.030349111,-0.1440202,0.016542297,-0.25693375,-0.05737264,0.22022276,-0.15031101,0.29322654,0.13345642,-0.18852885,-0.010328101
0.38574493,-0.049296472,0.18178052,0.056032237,-0.32072228,0.03257657,-0.15587485,0.011008824,-0.25746515,-0.04832595,0.23222876,-0.030127583,0.23958811,0.0833119,-0.23242007,-0.08293705
0.3803186,-0.07521064,0.14652805,-0.03108044,-0.26943994,0.024557445,-0.1843981,-0.057988428,-0.2904364,-0.026343308,0.24914606,0.1878177,0.23243803,0.102314495,-0.16224724,0.04430112
0.3985532,-0.05879841,0.13864252,-0.11868025,-0.29468873,0.05567936,-0.14205822,-0.050011165,-0.26879174,0.017493384,0.21870714,-0.30095512,0.2615889,0.08910552,-0.158609,0.018712195
0.38558862,-0.06393579,0.13594559,0.15988399,-0.301859,0.07029199,-0.13489017,-0.004909504,-0.28088814,-0.056819845,0.2645479,0.18456705,0.2614889,0.11800259,-0.13734747,0.026471274
0.34833717,-0.058317944,0.09876814,-0.01361336,-0.31912234,0.06258184,-0.14978336,0.058918014,-0.23322846,-0.019953221,0.23371573,0.022174057,0.26008123,0.104598224,-0.17181426,-0.11398608
0.3298701,-0.054448143,0.11094361,0.2687836,-0.28307605,0.052535806,-0.18928124,-0.026835684,-0.2545845,-0.045510836,0.2529946,-0.16337858,0.27122033,0.15550792,-0.15025514,-0.05079025
0.3160995,-0.054877315,0.078030944,0.025065124,-0.29579782,0.03640323,-0.14252564,-0.1329859,-0.26489794,-0.046931393,0.26530015,-0.16597727,0.2800283,0.16224778,-0.14762728,-0.1189031
0.31670353,-0.050344154,0.089887045,0.0058388193,-0.31323966,0.06615015,-0.18725647,-0.031679653,-0.24469432,-0.013357908,0.26725015,-0.042789176,0.29775354,0.1306519,-0.16258715,-0.006737802
0.3355644,-0.009659591,0.1052075,-0.13242987,-0.25957102,0.052275788,-0.19218428,-0.032935083,-0.26102948,-0.0179923,0.2750541,0.15918918,0.2601414,0.1017937,-0.15280494,-0.11977483
0.3860149,-0.039462257,0.16546585,-0.06832814,-0.27126193,0.08316354,-0.16807386,0.041144267,-0.30234504,-0.029466119,0.23370922,0.12552981,0.2391555,0.11396979,-0.1316449,0.07389355
0.36120835,-0.037772927,0.1412898,-0.14452203,-0.29010874,0.06891759,-0.15997633,-0.047430195,-0.2756147,-0.056911446,0.22959116,-0.15563267,0.27177897,0.11425705,-0.13281476,0.22254556
0.37473914,-0.060912486,0.15230656,0.028254109,-0.2861013,0.06144605,-0.1742169,-0.042292703,-0.25376233,0.00094279676,0.24534295,-0.0023424432,0.26285502,0.08080846,-0.16514514,0.034701355
0.3287933,-0.00016295289,0.11070117,0.061213315,-0.3318503,0.08163748,-0.13518544,0.025418764,-0.20852892,-0.01684971,0.257055,0.0072842767,0.28483182,0.047913417,-0.15914828,-0.08806329
0.33889228,-0.019637488,0.12538297,-0.22610056,-0.29116327,0.039675843,-0.15750322,-0.1805953,-0.22345881,-0.08474098,0.2321997,-0.055879455,0.24622303,0.0692492,-0.12566611,0.16500722
0.35194185,0.0041419743,0.18433352,0.06630375,-0.3407833,0.07861777,-0.13763985,-0.058106333,-0.19482455,-0.032245617,0.22469759,-0.07852559,0.24741197,0.0956232,-0.15211408,-0.14453231
0.37240767,-0.0071609323,0.1556268,0.062009037,-0.3049734,0.055849615,-0.14668472,0.008845842,-0.23657249,-0.09820693,0.22803766,-0.04354272,0.22072329,0.04640565,-0.18992028,-0.13313885
0.31573284,0.0048808083,0.1026655,-0.1731902,-0.31908995,0.041752487,-0.1533456,-0.18036717,-0.2247506,-0.13264379,0.2361587,0.0871322,0.27291608,0.072710894,-0.121707685,-0.099647634
0.34462002,-0.046433814,0.14378954,0.11731101,-0.3313266,0.0760606,-0.13043232,0.0179967,-0.22532849,-0.078537665,0.20601635,0.025887074,0.2665978,0.07151147,-0.15489274,-0.14767084
0.32841086,-0.041018166,0.085726164,-0.17419738,-0.3281538,0.08921537,-0.13823892,-0.039614663,-0.22768395,-0.039628953,0.23365667,0.11183945,0.2951809,0.10056371,-0.14568359,-0.013258367
0.30618703,-0.050690643,0.10849168,0.104266144,-0.3305914,0.07948593,-0.16689584,-0.06595821,-0.21404456,-0.020557445,0.23588252,0.12707473,0.3062108,0.11604924,-0.12627175,-0.0041040396
0.316121,0.0034389761,0.106257655,0.016239986,-0.30018085,0.09267282,-0.16984518,0.08786154,-0.26013684,-0.021787725,0.24050829,-0.07230866,0.29383454,0.12561771,-0.14547849,-0.10003592
0.32791847,-0.006403525,0.14804846,0.14891525,-0.30983925,0.09056059,-0.20111081,0.06319902,-0.21831876,0.020276086,0.19238813,-0.4403924,0.28356233,0.1618378,-0.17360589,0.0013131816
0.3329721,0.01889496,0.14489792,0.1448206,-0.26595327,0.029950246,-0.16401838,-0.024955843,-0.3063365,-0.10861855,0.24861416,-0.08603824,0.25696713,0.13197428,-0.13541852,-0.019683229
0.3859057,-0.04230579,0.17490506,-0.11674766,-0.2798606,0.038998008,-0.09729478,-0.010692247,-0.30290073,-0.05522117,0.20951344,-0.04390891,0.23158316,0.11908634,-0.19270767,-0.021108098
0.3881142,-0.041159634,0.17779022,-0.27832627,-0.29531822,0.06411041,-0.10717489,0.14836921,-0.3054158,-0.06176126,0.21071997,0.07690504,0.25434816,0.14402345,-0.13001451,0.10367924
0.34978196,-0.03175996,0.119001836,0.053185992,-0.25615788,0.025501775,-0.13551755,0.1302504,-0.29861102,-0.06240358,0.25126383,0.07680356,0.2339467,0.10522254,-0.18325557,-0.13557258
0.29298204,-0.011393882,0.046681944,-0.17862563,-0.30585527,0.07200506,-0.11744759,-0.046917226,-0.23997346,-0.036805853,0.26615438,-0.004133886,0.30413893,0.12418944,-0.16962464,-0.076616175
0.31319964,0.007466444,0.1526437,0.08385201,-0.31372264,0.08979587,-0.15169513,0.06888326,-0.25294966,-0.08806712,0.24184617,-0.03597425,0.30452102,0.13736737,-0.15565717,-0.012598361
0.37037048,-0.0808938,0.1975172,0.093720496,-0.29379085,0.07838832,-0.17947564,0.04122751,-0.24046898,0.014298437,0.2455162,-0.108466715,0.24352194,0.10555788,-0.18847899,0.14599617
0.35579342,-0.06296334,0.119979486,-0.21367027,-0.3055832,0.0885931,-0.16509596,0.030470796,-0.20907666,0.026337845,0.22825114,-0.1396834,0.28255218,0.08652403,-0.17020361,-0.011949488
0.35909104,-0.030545352,0.14561701,0.038340855,-0.2984301,0.033564392,-0.12380505,-0.04334188,-0.2582184,-0.027896732,0.28454456,0.050110854,0.25868553,0.09356047,-0.14065646,-0.12964863
0.3673273,-0.017392522,0.13899751,0.0050245575,-0.27221757,-0.0094428435,-0.14663538,-0.38618565,-0.2751885,-0.057342112,0.28335518,0.13791658,0.2294554,0.11794735,-0.14499043,-0.08666895
0.32817626,-0.039838053,0.11073061,0.17416935,-0.32583058,0.076214306,-0.11365159,0.003919618,-0.23936959,-0.06835324,0.27586225,-0.08732883,0.2864287,0.1263241,-0.1309052,-0.09805342
0.33214742,-0.030434756,0.13870762,0.08245711,-0.3056522,0.06474935,-0.16976775,-0.036370743,-0.23639679,-0.08153086,0.26134878,0.056487914,0.2730727,0.13915642,-0.16244246,0.15514694
0.36813197,-0.053049747,0.1458397,0.1001118,-0.2567284,0.025063148,-0.20428163,-0.2773004,-0.2981052,-0.14677897,0.22715649,-0.15586105,0.22866121,0.08809236,-0.155077,-0.0941835
0.3525637,0.004222868,0.115530156,-0.26665276,-0.2849969,0.076839045,-0.13652425,0.003217279,-0.2914285,-0.14845456,0.18682194,-0.21351047,0.27579525,0.108449906,-0.15000756,0.17550643
0.31503183,0.026471125,0.0901837,-0.15565254,-0.28938064,0.036703657,-0.15886728,-0.19528343,-0.29139432,-0.21106948,0.2007419,-0.14728422,0.2978891,0.1123648,-0.1460847,0.04105622
0.31556293,0.09218707,0.11615089,-0.41610056,-0.29560304,0.059829872,-0.13793792,-0.23053569,-0.2769737,-0.2253841,0.14436737,-0.124699764,0.28133556,0.051824957,-0.14358328,-0.1741626
0.33807868,-0.018641198,0.1678165,0.071636274,-0.28495705,0.07961959,-0.12699106,0.028983826,-0.29556307,-0.20449522,0.1377552,-0.19226572,0.2789978,0.08802254,-0.106605135,-0.15690355
0.31580314,-0.006006943,0.11743179,0.02377938,-0.2523037,0.062301163,-0.15373084,-0.06883842,-0.31008628,-0.23218961,0.179366,-0.09504715,0.283889,0.100647636,-0.11755708,-0.057476353
0.29400796,0.049606584,0.11638117,0.022602187,-0.2781512,0.08741208,-0.1285182,-0.04360763,-0.2683429,-0.18186538,0.1770007,-0.06648237,0.29150483,0.0835693,-0.1619775,0.044524603
0.33480212,0.015121292,0.17353484,0.052218072,-0.27825233,0.073899746,-0.10836667,-0.14662567,-0.2624181,-0.11979647,0.15053566,-0.1691163,0.24716589,0.07089351,-0.1417352,0.040020354
0.31371477,0.034122746,0.15531692,-0.30579326,-0.31020093,0.10751443,-0.123209365,0.018043881,-0.24818887,-0.05948567,0.21176,0.20851594,0.27536228,0.07816253,-0.14225218,0.00805967
0.36328837,-0.04157758,0.18319684,0.04520443,-0.32817948,0.13548917,-0.10025824,0.005044482,-0.24567807,-0.029821886,0.21000272,0.003724371,0.2709984,0.052456226,-0.15053126,-0.2946197
0.3545389,0.0027548717,0.12729427,-0.35719076,-0.29437053,0.054749597,-0.15662602,-0.28366682,-0.27923006,-0.047870383,0.25851002,0.12993911,0.27380592,0.11234502,-0.11183849,-0.024899835
0.3772298,-0.07029105,0.16304429,-0.23744775,-0.31038073,0.06720433,-0.13059688,0.024449114,-0.27186927,-0.0586969,0.23101251,0.066796884,0.25571638,0.10382333,-0.15515637,-0.1361529
0.37806517,-0.09494954,0.15844148,0.18380015,-0.2829062,0.03961631,-0.12629704,-0.045272663,-0.28554493,-0.031493552,0.27370387,0.19569133,0.24140616,0.11176496,-0.1530706,-0.059514377
0.40146056,-0.09757692,0.19405575,0.028697915,-0.29025736,0.040679526,-0.13982998,-0.17481685,-0.2874849,0.0043231747,0.20497783,-0.10992488,0.2256302,0.08874559,-0.15936603,-0.05288905
0.3969423,-0.09811351,0.1574677,0.0432523,-0.31176078,0.0566761,-0.17532709,-0.039273407,-0.29857865,-0.022152714,0.2285518,0.02811265,0.26436862,0.14500996,-0.1301753,0.011791488
0.43191183,-0.11999141,0.13983089,-0.026443014,-0.25990736,0.0028746892,-0.16313012,-0.23257776,-0.30304155,0.050026253,0.1957785,-0.106604375,0.19541651,0.08126095,-0.17396213,0.009562827
0.404169,-0.12670964,0.12522398,0.1425197,-0.27940735,0.041831065,-0.14832844,0.0074475855,-0.29022497,-0.011288891,0.1984871,-0.05261601,0.22390726,0.089466214,-0.16908489,0.008227391
0.39583373,-0.075196564,0.09689499,0.104287766,-0.25777563,0.060941964,-0.16389142,0.020619087,-0.3147545,-0.036747895,0.23667625,0.109332725,0.23834375,0.114159435,-0.15496768,-0.0028174447
0.363039,-0.031697944,0.10556564,-0.22972764,-0.28935003,0.069058165,-0.17132817,-0.08609304,-0.25811356,0.004613703,0.19830231,-0.14056864,0.24852759,0.10841783,-0.16251619,0.072817445
0.38286865,-0.08361156,0.13417466,-0.16444826,-0.28739575,0.03562704,-0.18014044,-0.11358507,-0.2571481,0.040682077,0.19031607,-0.25036985,0.2245544,0.07758887,-0.19033785,-0.10163611
0.43328738,-0.12345203,0.15640664,0.038532164,-0.29245242,0.0031576909,-0.108755164,-0.054253157,-0.30241504,0.029245477,0.24750546,0.046800703,0.22639625,0.09961171,-0.13758297,-0.111444525
0.41447857,-0.07503045,0.12603532,-0.12579773,-0.2960249,-0.01453981,-0.1332766,-0.12102864,-0.2837806,0.063450225,0.23592791,-0.20026094,0.2374459,0.145985,-0.13750535,0.09467236
0.4223081,-0.069713846,0.1427265,-0.1921003,-0.28065735,0.0051973397,-0.15697066,-0.0886081,-0.2904241,0.014063069,0.24850227,-0.062182967,0.22407839,0.08935,-0.15094624,0.28674093
0.41221443,-0.065699466,0.15739955,0.080243535,-0.31112802,0.039841484,-0.1521159,-0.057894364,-0.28021368,-0.018078264,0.25828636,0.0053055934,0.24421392,0.08488622,-0.16791874,-0.027589275
0.39213702,-0.045926016,0.1451544,-0.10095294,-0.2926516,0.010206063,-0.12983459,-0.117150605,-0.29642332,-0.06374621,0.24761678,-0.13556466,0.24946873,0.13564372,-0.1252719,0.030285904
0.39457628,-0.07082476,0.13452713,-0.07369261,-0.30975956,0.035104115,-0.1136503,-0.18884099,-0.27127245,0.009913455,0.21387431,-0.5759314,0.24050128,0.09736057,-0.18997034,-0.09645244
0.37914452,-0.0034122292,0.15029515,-0.1236036,-0.2773078,-0.012355819,-0.16808052,-0.6270967,-0.31091458,-0.12268882,0.2564539,-0.15732457,0.2584001,0.100608416,-0.15588266,-0.05697521
0.3301736,0.018369189,0.096776925,-0.16212988,-0.32075572,0.05946506,-0.15653177,-0.1255945,-0.26149935,-0.14980437,0.19671413,-0.16169041,0.28588268,0.16604954,-0.14406754,0.039735172
0.3228314,0.026983606,0.13550991,-0.08056501,-0.3235832,0.048590787,-0.15285856,0.05972244,-0.2638116,-0.11966853,0.24019124,0.24481645,0.29110348,0.1629956,-0.14256608,0.10949864
0.31252596,0.011498381,0.10917294,-0.31886655,-0.3161424,0.048122186,-0.13735265,0.056883324,-0.25094494,-0.14292726,0.1986523,-0.20770621,0.28759995,0.11552611,-0.16853236,0.0003076185
0.3049166,0.03302611,0.12156348,-0.011417634,-0.29920974,0.025154524,-0.10510701,-0.036043603,-0.26108512,-0.1718028,0.19730364,-0.40442228,0.2850549,0.11107404,-0.16196296,0.023382945
0.3048784,0.034138363,0.09449031,-0.21425931,-0.30778766,0.083730966,-0.113823555,0.030063137,-0.24756584,-0.24670109,0.19746801,-0.167585,0.30648825,0.08186416,-0.13518873,0.0064287493
0.35231256,0.041204013,0.12623294,0.12098055,-0.29274487,0.06626065,-0.14669858,-0.12723014,-0.27616003,-0.30233377,0.2006556,-0.28307465,0.2924688,0.09358113,-0.17169558,-0.19298401
0.34265205,0.06250069,0.16547823,0.114546165,-0.2926511,0.06339635,-0.13004543,0.07344373,-0.2943218,-0.32539126,0.16078512,-0.18247402,0.2841601,0.08094944,-0.115345195,-0.06871658
0.33580104,0.053025477,0.12327762,-0.013637296,-0.28473887,0.072855,-0.13469367,-0.015965058,-0.2773383,-0.30007064,0.1468159,-0.15318468,0.2893403,0.06769261,-0.13101819,-0.056006383
0.32357392,0.07092689,0.15098676,0.008394469,-0.2724985,0.058589462,-0.15111357,-0.23613293,-0.2973758,-0.3394447,0.18408316,-0.11498751,0.2954226,0.085700065,-0.12929638,-0.110731095
0.32058153,0.038245916,0.15157467,0.12984863,-0.2817807,0.09871741,-0.102480106,-0.033349555,-0.27681714,-0.32707587,0.13563865,-0.28579703,0.3200373,0.10306605,-0.104779616,-0.07138958
0.32328707,-0.004169701,0.10390963,0.010417315,-0.2652664,0.088641904,-0.09955379,-0.08289202,-0.3022684,-0.34527218,0.17106558,-0.12610854,0.30432907,0.07758727,-0.11184822,-0.04386636
0.3040229,0.005337567,0.14490418,0.20701997,-0.29141727,0.12270138,-0.11038466,-0.07338534,-0.26590034,-0.36221626,0.16769238,-0.11424625,0.32356828,0.06044342,-0.13781351,-0.09350084
0.2844701,-0.010654567,0.100298986,0.13408773,-0.2911093,0.15352227,-0.13320923,-0.11792311,-0.22784947,-0.3134573,0.13216306,-0.2615978,0.3364673,0.021925565,-0.110079,-0.025050944
0.28934786,0.045923784,0.112615004,0.03646998,-0.34807435,0.22081023,-0.09033019,-0.02963999,-0.20087211,-0.35005343,0.19894172,-0.03995479,0.40976986,0.07771859,-0.11770417,-0.07219269
0.30662102,0.01107839,0.13226566,0.16575602,-0.30378124,0.14118779,-0.13253753,-0.09114893,-0.26603943,-0.3902523,0.18711297,-0.19232337,0.34639668,0.096574955,-0.12986504,0.037809893
0.3191591,0.01694671,0.121204026,-0.053270236,-0.30541632,0.12960629,-0.13870528,-0.07099733,-0.27183175,-0.4239957,0.20283382,-0.17363738,0.3474656,0.06739878,-0.1608022,-0.06412807
0.33986038,0.030457947,0.1352108,0.03789167,-0.35129905,0.14348756,-0.11175336,-0.09079208,-0.24883902,-0.3695549,0.19624971,-0.1602852,0.37313306,0.08746003,-0.19660002,-0.0026209117
0.31275335,0.036571383,0.06742147,-0.11646846,-0.32929868,0.11945582,-0.15787406,-0.11542957,-0.27025604,-0.3738783,0.17790323,-0.18479529,0.35266322,0.06352265,-0.20421651,-0.04293044
0.32216108,0.040311757,0.12782447,0.104155846,-0.32289842,0.13505581,-0.12719414,-0.041488815,-0.27026117,-0.38182762,0.1508613,-0.095443755,0.34380156,0.039613586,-0.13339287,-0.027221637
0.30249575,0.040767744,0.108368695,0.17826039,-0.35516557,0.13731033,-0.08346304,-0.083616585,-0.24340142,-0.30051923,0.11573144,-0.16301186,0.35172775,0.052839894,-0.17446327,-0.06790119
0.33654743,0.027527682,0.14660203,0.03658708,-0.30362695,0.13599017,-0.112410165,-0.0564541,-0.2872519,-0.32940775,0.14548153,-0.119502656,0.31140023,0.027059615,-0.13994305,-0.09652338
0.35165408,0.020681834,0.14769459,0.018806057,-0.31233653,0.11648245,-0.1060797,-0.06557294,-0.28113517,-0.29200077,0.13214126,-0.26302096,0.28436807,0.033881366,-0.17547911,-0.041023128
0.33459312,0.05931762,0.14190835,0.14424235,-0.27159747,0.061537445,-0.14871117,-0.13505745,-0.29779726,-0.33046344,0.16797428,-0.2553342,0.2932392,0.025779389,-0.14528118,-0.21662694
0.3125824,0.08077676,0.1501936,0.06113685,-0.25710428,0.082602784,-0.14927395,-0.039623834,-0.29359367,-0.36702842,0.15720868,-0.13552183,0.30259162,0.07143163,-0.13266549,-0.09056877
0.30702293,0.040591635,0.14903766,0.11460473,-0.28368035,0.12806298,-0.1094056,-0.05709983,-0.26553535,-0.3108595,0.15307532,-0.2903638,0.32005352,0.059555497,-0.14303096,-0.08974293
0.32134113,0.013750903,0.14576507,0.13322307,-0.26859018,0.10730165,-0.12290276,-0.054849125,-0.28186908,-0.3274941,0.16002469,-0.11361035,0.30226174,0.039883014,-0.13562241,-0.1959895
0.3167279,0.061795056,0.15377015,0.08609694,-0.29025993,0.10765672,-0.10665494,-0.028130103,-0.28070647,-0.3375185,0.18733871,-0.06761877,0.30686316,0.05341296,-0.13782433,0.0039217444
0.3063107,0.027654553,0.13354881,0.04593023,-0.29842713,0.14012267,-0.115379766,-0.016283274,-0.251446,-0.3313563,0.17307849,-0.13654906,0.30375072,0.040683083,-0.1626093,-0.03262725
0.2662773,0.042510316,0.07581279,-0.11221183,-0.31425995,0.14704658,-0.12014655,-0.045133084,-0.22576141,-0.3446075,0.17383201,-0.103915855,0.35827637,0.10172379,-0.14692025,-0.063884914
0.29638827,0.045596145,0.10849058,-0.18678403,-0.29915997,0.1210802,-0.12406474,0.014620494,-0.2694887,-0.3705278,0.20440315,-0.15795459,0.3401907,0.120470956,-0.1452346,0.104450576
0.3369799,0.028420253,0.15085147,0.0049246144,-0.2818663,0.10714523,-0.14833805,-0.09895317,-0.28872102,-0.4002615,0.19550148,-0.02021456,0.30098692,0.01931257,-0.17392929,-0.45824972
0.29937077,0.02072029,0.12552042,0.20372654,-0.3484976,0.15441896,-0.121612415,-0.07208242,-0.24420719,-0.34210217,0.16882372,-0.11454234,0.36348417,0.08718263,-0.15667315,0.0225192
0.34158793,0.044764854,0.152573,0.010904748,-0.26289734,0.1119072,-0.13549241,0.019262686,-0.2987254,-0.37004018,0.1479721,-0.074396335,0.289252,0.058516122,-0.16238247,-0.09442926
0.32683185,0.03195532,0.15017185,0.08767838,-0.25610274,0.13142587,-0.10850791,-0.10511279,-0.31343973,-0.32085866,0.18825959,-0.19599889,0.29858196,0.026375998,-0.13061331,-0.2376469
0.3148805,0.020293554,0.167614,0.1538501,-0.27730787,0.12671833,-0.13590355,-0.17893018,-0.2707716,-0.32239997,0.1319154,-0.2178279,0.3062169,0.047244903,-0.1011278,0.15801914
0.30796176,0.013681651,0.13368243,0.15980093,-0.276996,0.14466111,-0.13528463,-0.08807339,-0.2564433,-0.3469027,0.15073009,-0.27451578,0.3175999,0.049580477,-0.122553915,-0.10644562
0.30243343,0.06425768,0.12366021,-0.09179769,-0.26974672,0.120462686,-0.14401077,-0.008496675,-0.2609989,-0.35189858,0.15831855,-0.17778936,0.3213306,0.07666723,-0.117469326,-0.20458911
0.317551,0.057273064,0.13759592,-0.10892435,-0.29185727,0.10055604,-0.11312083,-0.08360063,-0.27115628,-0.36185873,0.16246879,-0.15313466,0.2942221,0.08132881,-0.17166513,-0.20389996
0.3032603,0.03815211,0.13374497,0.038865842,-0.2981225,0.078725524,-0.11675947,-0.15483892,-0.27668643,-0.35397372,0.16527237,-0.09737838,0.32483295,0.085817665,-0.1404572,-0.04155095
0.33344442,0.05252793,0.12260439,-0.033356108,-0.28626058,0.099616826,-0.11200219,-0.1385123,-0.27813682,-0.38033327,0.15175125,-0.089187264,0.29570735,0.020568907,-0.19013472,-0.36172006
0.29357648,0.043007825,0.10852412,-0.10284797,-0.33351833,0.17606558,-0.09822721,0.019168003,-0.22841652,-0.35724157,0.15838958,-0.13378634,0.3493845,0.07329838,-0.12723298,-0.007998667
0.34044686,0.018078981,0.13449731,0.039649073,-0.32278335,0.1540312,-0.10296595,-0.014215947,-0.24263553,-0.3872059,0.17118572,-0.118544854,0.35553834,0.060416717,-0.12483148,0.024615567
0.31658956,0.04045798,0.110977076,-0.25016448,-0.3218192,0.11383317,-0.09508645,-0.12920427,-0.24319063,-0.36020306,0.16072632,-0.18312953,0.32266855,0.052249845,-0.11799966,-0.036512353
0.32858092,0.024792397,0.13450679,0.163016,-0.29605943,0.122464366,-0.14335573,-0.029034385,-0.25940382,-0.37995458,0.16189554,-0.01515568,0.3060029,0.036916677,-0.14816481,-0.06311356
0.31603393,0.04664268,0.11978935,-0.1375778,-0.2762607,0.09653615,-0.16178215,0.015054794,-0.25978407,-0.3493949,0.1496187,-0.17529279,0.29777107,0.017342454,-0.15333962,-0.16964275
0.34280768,0.079431996,0.16556758,0.07742091,-0.2557983,0.078345746,-0.13317214,-0.13783488,-0.3017894,-0.3656526,0.17571224,-0.18268365,0.27151114,0.009049272,-0.16095364,-0.21494208
0.32142997,0.05748696,0.1634114,-0.05557879,-0.3502012,0.20615116,-0.080472656,0.009824771,-0.23359692,-0.32081917,0.14378464,-0.024669113,0.3187385,0.05361382,-0.19656329,-0.21863903
0.32325757,0.034086816,0.14783396,0.055599567,-0.2799913,0.12621702,-0.16903588,-0.0861849,-0.28256884,-0.3695879,0.17271495,-0.1450231,0.32025948,0.045444544,-0.11430536,-0.11291433
0.31557283,0.013463398,0.12494714,0.08191092,-0.29085293,0.13165078,-0.1426896,0.049670678,-0.27637333,-0.31657708,0.16363145,-0.1360723,0.308194,0.06812873,-0.13830902,-0.08263414
0.33743525,0.0130876005,0.15249392,0.1764379,-0.2481739,0.08744626,-0.16162978,-0.10319088,-0.28964323,-0.33665335,0.16813157,-0.1805446,0.2756541,0.041737135,-0.1351557,-0.058852114
0.33355212,0.03453226,0.15522058,0.01899751,-0.2612079,0.08434748,-0.112322874,-0.0783916,-0.29565838,-0.3450066,0.17796731,-0.1636887,0.2754734,0.04726707,-0.15343721,-0.17948492
0.33469155,0.046864796,0.1392547,0.05008163,-0.3248546,0.11662214,-0.09095895,-0.030150428,-0.23839414,-0.29760388,0.1793418,-0.1160873,0.33917987,0.07853081,-0.15654765,-0.020196857
0.3341053,0.0074395137,0.14325583,0.04637776,-0.27866516,0.09277052,-0.12055416,-0.13728508,-0.2996938,-0.30126643,0.20866418,-0.21582152,0.28298524,0.071239345,-0.15716983,-0.025317097
0.32476312,-0.0064498787,0.13078968,0.027009396,-0.29251346,0.09042339,-0.13532305,-0.072207466,-0.28808594,-0.26256356,0.17744239,-0.15534762,0.29559183,0.069492385,-0.15897894,-0.07662836
0.35856798,0.027031261,0.14931564,-0.22745979,-0.26276478,0.04648448,-0.13882917,-0.047648605,-0.32636303,-0.29136005,0.18445237,-0.13722679,0.2671529,0.065675355,-0.16482905,-0.16457008
0.35718325,0.037619654,0.12397545,-0.10204155,-0.2755027,0.046453115,-0.13461146,-0.065658785,-0.32761797,-0.28287512,0.171101,-0.20188583,0.28524023,0.09630264,-0.168193,-0.04609578
0.32798487,0.026625518,0.15127596,0.23576474,-0.2958316,0.08774696,-0.121452875,0.008505352,-0.28629556,-0.23480122,0.13654098,-0.31669405,0.30398694,0.07237676,-0.15933026,-0.026779003
0.28798035,0.08216913,0.12229603,-0.10114224,-0.28549054,0.09307171,-0.12393098,-0.14329131,-0.25827742,-0.24541256,0.14521365,-0.11437989,0.29835695,0.055077016,-0.12717766,-0.0749989
0.3124203,0.038674317,0.15694006,0.14317039,-0.28834367,0.12148021,-0.10481502,0.0088846,-0.27141303,-0.27376956,0.14258538,-0.08537343,0.28496534,0.034941897,-0.1343699,-0.27384904
0.32420123,0.012691639,0.13476726,-0.09850696,-0.29431707,0.13888595,-0.11178377,-0.12813565,-0.26414192,-0.27250454,0.14661992,-0.16529591,0.29437274,0.08789033,-0.12324588,0.001682396
0.3249628,0.028183995,0.13191907,-0.200593,-0.30378997,0.110272974,-0.11151086,-0.18032257,-0.27750286,-0.3072864,0.16767032,-0.12504378,0.3062145,0.08586412,-0.1113164,-0.051457502
0.31293675,0.052878384,0.12749563,-0.15272221,-0.32713622,0.15007232,-0.103015795,-0.040691774,-0.24568413,-0.31646144,0.1277465,-0.13735364,0.32420525,0.09124996,-0.10941136,-0.09841978
0.34123224,-0.0010493904,0.15972877,0.045335818,-0.27216718,0.08865991,-0.13647601,-0.069860406,-0.28511,-0.31690198,0.15401012,-0.18137239,0.2881142,0.07842691,-0.1336419,-0.13577044
0.3251651,0.018312307,0.06330018,-0.31263837,-0.27276286,0.09622598,-0.102847435,-0.03845006,-0.2941954,-0.33419746,0.18998629,-0.1328008,0.2990173,0.066594295,-0.14408633,-0.100589626
0.34026498,0.013838427,0.124277554,0.13237074,-0.2625894,0.08104252,-0.13145,-0.059390042,-0.28463885,-0.35046378,0.18227738,-0.2742692,0.2861704,0.04656566,-0.16538732,-0.016742611
0.31801122,0.031872656,0.14359324,0.15800099,-0.25665703,0.080247805,-0.14242342,-0.07469367,-0.2892763,-0.37424788,0.21556574,-0.26007962,0.29415056,0.011664643,-0.14096244,-0.22673073
0.3282004,0.05310098,0.12465569,-0.15147474,-0.26636916,0.085018754,-0.11615936,-0.07308945,-0.27619442,-0.36588782,0.16577579,-0.15223607,0.2953725,0.06548737,-0.1407815,-0.09842811
0.33286238,0.031472396,0.15480585,0.105540276,-0.28202334,0.068136714,-0.096263096,-0.06672408,-0.300781,-0.34422582,0.19120298,-0.15216805,0.2830862,0.057764582,-0.16763411,0.16826612
0.3288001,0.061977778,0.11851667,-0.032062255,-0.26457748,0.0908385,-0.12722127,-0.09746527,-0.28124532,-0.32436624,0.1663488,-0.11641439,0.2691958,0.028489873,-0.16258973,0.029211307
0.30033803,0.046040144,0.08669419,-0.037274208,-0.29613897,0.12002187,-0.09877709,-0.060976416,-0.2441689,-0.32339227,0.17183106,-0.24224772,0.31313396,0.03086072,-0.13305289,-0.12714235
