ancorasir/BennettWheelLegRL/experiment_data/2023-12-27_22-40-32/joint_vel_env1.csv
Joint_1,Joint_2,Joint_3,Joint_4,Joint_5,Joint_6,Joint_7,Joint_8,Joint_9,Joint_10,Joint_11,Joint_12
-0.073376596,0.04200858,-0.098143995,0.033069476,-0.061837994,0.052794874,0.1294859,0.26033407,-0.42417514,-0.03600568,-0.25604516,0.32279164
0.0,0.0,0.0,0.0,0.0,0.0,0.0,0.0,0.0,0.0,0.0,0.0
-1.5816299,-0.18100618,0.3347331,-0.29939184,-0.095968336,0.08896694,-1.4165289,0.16677195,-0.22107485,0.38148955,-0.11202388,0.24076971
-0.93569285,10.423328,6.261203,9.701199,-1.5763327,3.7337787,11.012898,-3.4512599,-8.37781,-6.0888658,-14.085288,-14.734125
-0.7024107,9.755321,4.40102,-5.5027843,4.8068123,-6.705561,2.0820246,-0.9895574,2.4060879,0.85186416,-18.51703,-3.2939878
0.025343195,2.4706671,2.4881053,-1.8077081,2.844679,-2.940877,-0.025751032,-1.3453985,2.0729449,-0.42888197,-2.9440544,2.4122481
0.49202076,-2.6502771,0.52304536,0.5495554,1.9408472,-0.7186259,-0.9443761,-1.3877326,1.3741913,-1.4237403,6.8858085,4.1081305
-0.2377664,-3.2421901,0.97454304,1.341667,1.5035496,0.31346807,-1.2394364,-1.6460547,1.3007288,-2.2498238,7.0065465,1.2486483
-0.38346374,-2.704065,0.70994294,0.8656672,1.903693,0.32317996,-0.8771679,-1.9048498,0.962046,-2.4560704,7.5747185,2.4837284
-1.5858408,-3.2460637,1.0901139,0.29778254,1.8294914,0.4796109,-0.6179313,-2.1729882,0.9004618,-3.633807,6.511118,2.1781487
2.8217373,-3.2272377,3.039179,1.2916852,1.2855072,1.2270322,-2.0763323,-2.6393828,0.6257967,-0.15290482,3.531955,-4.2489853
3.1316514,-3.4956048,2.8381975,1.8679038,1.0904119,1.8132919,2.7550316,-7.547403,-0.84455436,-1.2962668,3.4257212,-2.323254
1.3117009,-2.7792642,1.3806497,0.9565626,1.1245912,1.8545623,-4.518388,-5.277359,0.9791893,-0.10509179,3.6261575,-2.5354586
1.452166,-3.1725385,0.36157113,2.068306,1.1356175,3.3512661,-6.315716,-5.646667,-0.016277887,-1.2380416,4.013038,0.5071082
1.0898465,-3.024626,-0.4504539,2.8249493,0.6258813,4.696365,-3.039315,-1.8969617,-0.016930912,-1.1497602,3.9306245,1.5873779
-0.3237785,-2.9423163,-1.1490011,2.4583316,0.046429895,5.90062,-1.6197872,1.4788722,0.2820574,0.08465316,4.3503914,0.5418258
-0.709308,-3.2396767,-1.2812144,2.0032473,-0.08785467,6.1623874,-4.692766,4.071028,-0.013083722,0.35777962,4.697153,0.11674751
-0.20394404,-2.1513145,-2.3906064,4.6874533,-1.8947383,7.9118047,-3.9874802,4.2586226,-0.010493152,-0.6308348,3.3919547,1.1837244
0.1425522,-1.3695431,-3.2345822,5.981504,-3.451698,8.800806,-6.698241,5.1993127,0.006996668,-1.832875,2.255108,2.005322
-1.2257637,-0.74617815,-3.9834723,-4.6284194,-7.2020726,4.9685707,-6.0132318,6.49113,0.0028461595,-1.2861077,1.8119227,2.1576703
-0.72831684,-0.7808162,-4.2091103,-9.082626,-11.04607,-6.384475,-4.004815,9.492109,0.0062739607,-1.7972884,1.3083954,2.9296358
-2.5592115,0.14276022,-1.4687867,-3.8597763,-5.8898034,-7.5028906,1.8369344,10.731453,0.019329753,-2.8137186,-0.6121891,6.1977844
-2.5866349,0.49142864,-6.870083,-1.3983982,-5.905162,-0.00047090603,6.493205,8.491245,0.0001237595,-2.5081203,-0.6578866,6.334583
-3.971776,-5.6434264,-4.64215,4.1507487,-6.3937216,0.34104407,14.908255,3.3776057,-1.6582168,-1.1790556,-0.1661426,5.3224454
16.029453,0.97910714,-0.00041205098,16.376078,-3.0405724,19.171717,19.750723,-8.724117,-4.435986,7.817525,-4.756749,6.6941347
4.318842,11.118705,-0.00045383978,0.13026723,8.134942,-7.7428303,-3.1729693,-3.4816837,2.2505312,5.035134,-8.985064,-7.339899
-4.8485208,11.27455,-0.00023616134,0.1613276,4.7160325,0.24522233,0.50895107,-2.623696,-1.5265608,-2.154094,-10.298442,0.8124226
-4.9523773,6.136042,-0.050223917,0.90646726,3.1574428,2.0880404,-1.2687678,-3.453182,0.00792262,-4.3321385,-4.7604175,6.5869207
-7.103801,-5.6271524,-2.7506754,-0.61230403,3.2051797,1.9096787,0.23990312,-4.451081,0.6682882,-3.9551117,7.9377003,6.0175657
9.84233,-8.674464,11.628723,-0.08904362,-4.671773,-3.6658738,-2.8781948,-5.1358886,0.7597565,-3.0946932,6.6699085,-5.6716514
2.5523703,-6.6634665,5.824277,-2.3646934,-3.298329,-3.5797846,-3.314909,0.11992368,0.0036495053,0.49480993,5.694465,-3.332251
0.8009215,-5.1001897,2.2756178,2.0321459e-05,4.126702,0.96967655,-7.8420124,-6.7989335,-0.010970881,-0.47366685,4.4297276,-0.22045091
0.4291095,-4.181931,0.42125604,1.2499522,1.395718,3.5744145,-3.17167,-4.5631537,-0.7151634,-1.2516358,3.244283,1.0882689
-0.678752,-3.8371224,-0.3671874,-2.857981,-2.9444537,-1.4804938,-5.3437495,4.0774603,0.0029893306,0.4546602,3.9075644,0.30278122
0.058568686,-3.7669694,-0.5599832,-0.48140505,0.8278266,0.6330265,-4.0133276,4.109691,0.01510846,-0.089052975,3.6487856,1.1494948
-0.11392217,-3.0011349,-1.7014261,-3.67924,-2.6911805,-3.498881,-2.3056574,7.294134,2.0797132e-05,-0.4050281,2.6036916,2.2699978
-0.21876183,-2.358674,-2.3613827,-3.577777,-3.8900173,-4.279963,-2.2837415,7.8662024,0.0017633536,-0.6592452,2.1503634,2.5959618
-0.15917361,-2.1156301,-2.8208542,-3.0222254,-4.8898444,-5.377058,0.2993483,8.279133,0.31760898,-1.11736,1.6083434,3.2655547
-0.29726994,-1.3727696,-3.8437142,1.1591035,-4.5670066,-3.1547325,9.099526,7.2024193,-0.008179231,-2.3935475,0.08554721,5.1614494
-1.5361964,4.6621647,2.5450773,8.805908,-1.6533555,4.998674,18.046858,0.75028735,-3.2366467,-2.472538,0.07912065,5.3070893
6.344208,7.3995643,-0.00041807676,0.09078622,5.074673,-1.9766805,-1.4398247,-3.7979834,1.6004673,13.376766,-12.206244,-6.343579
-0.8980901,10.981748,-0.00030122208,0.21265107,4.0963745,0.35879618,0.081771806,-2.5440354,-0.870135,-1.2021067,-9.614147,-2.0092537
-3.3511925,9.221185,-9.31642e-05,0.16278058,2.7147799,2.0914538,0.43682685,-2.1228426,-1.812976,-4.243068,-8.283232,1.1155974
-2.0993185,2.1077368,-1.056722,0.605055,2.4284394,2.7807853,-0.28574225,-2.473042,-1.3495345,-4.130424,-2.624511,0.74839365
-2.772896,-5.527103,-1.873763,1.0283977,2.3011217,2.899771,-0.98061323,-3.7139564,0.008325078,-3.8784957,8.200317,5.226599
0.118645415,-4.5732956,4.7598047,-2.9909155,3.209893,0.44688767,-0.7687393,-1.1651596,-2.1258519,8.97322,8.106059,-17.33247
0.7174195,-4.845494,2.847549,0.5763943,3.0112097,-3.1948953,-8.318348,-6.7726827,0.0024648823,1.1240854,5.218624,-3.0278978
0.16498421,-3.5976615,0.28460568,1.263611,0.33272073,4.1175265,-2.6462915,-2.3928113,-0.093138345,-0.588525,3.610694,0.2862737
-0.46992928,-3.4529278,-0.4955948,1.9685067,-1.2096984,5.6897793,-1.5937222,3.846229,0.86394054,-0.31185082,3.2484,0.6990744
-0.083289444,-3.525264,-0.93522006,-2.9713023,-5.982153,-0.99420553,-5.6950235,5.9222703,-0.0004104412,-0.59184265,3.089796,1.2258278
0.10907884,-3.338593,-1.67838,-5.253041,-4.8807206,-5.4581556,-2.4318526,8.182126,-0.00028652797,-0.71743655,2.5403214,2.4411697
-0.7164691,-0.9442009,-3.831299,-1.2297343,-6.0892725,-5.4915404,3.1639361,10.725268,0.0025325767,-1.3698405,1.0038188,3.8029919
-1.0328956,-1.4888856,-3.6701314,2.8789248,-4.3953667,-2.2214956,12.628595,5.40632,-0.98712385,-2.3206577,-0.12101698,5.6816216
14.126338,4.2824287,-0.0004025551,-1.907597,9.190746,-10.003213,17.656261,-18.678041,1.4948637,11.107853,-8.8920555,-8.27608
-1.3570366,12.165367,-0.00030034065,0.40197447,4.7204833,-0.82262814,-0.29051378,-2.3877282,-0.7422439,0.17372039,-11.645319,-1.9021205
-3.9180698,8.735973,-3.306311e-05,0.54669124,3.5789118,1.0177723,-0.5608773,-2.4340715,-1.4623284,-5.529333,-9.857423,1.8001058
-3.268686,0.67745394,-1.3169813,0.59051436,3.0185618,1.8739674,-0.8991282,-2.5885441,-0.9591141,-2.7869406,-0.24254337,3.323499
-5.7362413,-6.116483,-0.7796916,0.2550462,2.2406044,2.3005102,-1.2531745,-3.0313685,-0.09471971,-3.3727372,9.466325,5.96921
2.5509722,-5.5027857,4.952284,0.06978149,2.6261408,1.6387842,-2.702073,-2.7873945,1.6452091,1.3211031,5.2460375,-5.389781
-0.03448479,-4.164409,1.4010785,0.77984375,0.94615555,3.725502,-5.6149936,-7.023588,-0.005813323,0.40837768,4.4077106,-1.0628215
-0.6982782,-4.0367703,0.48123646,0.87761325,-0.10471531,4.916617,-4.195661,0.12354716,-0.0051659713,0.498184,4.0074105,-0.15051895
-0.59687626,-4.1799426,0.46262476,0.8649785,-0.0910475,4.9461374,-4.980448,4.1037946,0.0048385262,0.53633595,3.906833,-0.08884972
-0.35245827,-3.546154,-0.560793,-1.7007288,-5.0501966,2.626684,-3.1344035,5.5519896,0.00040149654,-0.26978216,2.9737978,0.5883055
0.20796165,-2.8108783,-1.6300424,-5.0951567,-3.0306175,-6.4520745,-3.695421,9.183538,0.0069719898,-0.9421779,2.0157084,2.753365
-0.43875343,-1.7267376,-3.207261,-3.106156,-6.010883,-5.960774,1.9470564,8.39086,0.0071415175,-1.2118286,1.2165393,3.8558803
0.001496613,-1.5787183,-3.9562447,0.28040412,-6.6319995,-0.008681972,8.1969185,10.479539,-0.004118154,-2.5725973,-0.05647847,5.9597783
-2.196879,5.4326,1.9500626,6.3860807,-7.4195194,2.1601217,16.86432,3.1639988,-3.4675257,-1.672471,0.38438466,4.9839406
7.719674,8.208241,-0.00041860517,-0.04117644,5.5300417,-3.8844643,-3.3675556,-4.616185,4.1078167,12.232439,-14.602563,-9.53928
0.0786131,13.517572,-0.0002238917,-0.520044,5.555135,-2.2536235,-0.18720692,-3.1753955,0.68129313,2.2533119,-15.748396,4.451199
-3.6581657,10.764027,-0.0001764516,-1.1823139,5.245367,-0.91999984,0.7828641,-3.095466,-0.2677243,-3.9707556,-7.93035,1.4641752
-3.4506118,4.053386,-1.8437942e-05,-0.46702582,3.8660238,0.9677758,0.09651241,-2.7669716,-0.6075476,-2.4150484,-5.5074735,1.8290819
-1.5216982,1.1659383,-1.6477555,-0.33420262,4.007746,1.4523553,0.17597945,-2.6351824,-1.4157572,-4.878058,-1.7167267,1.301454
-0.4423944,-1.6966766,-1.2155248,0.39190423,1.8158242,3.0927243,-0.5630226,-2.4742281,-1.2541087,-2.6005104,2.001262,1.7477553
-5.483811,-1.6733294,-10.041072,0.19165754,1.1939348,3.555365,0.0024049208,-2.1691372,-1.192684,-4.408704,9.941501,11.645997
3.4705935,-5.8987937,8.49187,-2.2993813,3.2987375,0.8269921,4.3753405,-1.9736022,-8.997514,7.519915,7.771123,-16.246407
-0.09713727,-5.2258444,2.9632258,0.22851628,1.1041006,-0.17824483,-9.32926,-5.317821,0.016439945,1.8393186,5.564821,-3.0471833
0.056893334,-4.102523,1.0536591,0.21333441,1.857342,2.817971,-6.745514,-3.7481043,-1.3599524,-0.11216882,4.185439,-0.5396377
-0.50021005,-3.7607145,-0.12530012,0.68340474,0.7531043,3.9195528,-2.5039158,1.0427227,0.5059387,-0.18095568,3.662652,0.59205866
-0.79761994,-3.448179,-0.99760747,2.3871362,1.7491922,8.791107,-3.2939346,3.0109706,0.65489095,-0.017587613,3.423401,0.9032213
-0.25167108,-3.1626215,-1.4266063,-2.4556,-4.5546274,-2.073599,-3.650814,4.9587617,0.00081325695,-0.44090998,2.7869341,1.5955521
0.4500343,-2.9669003,-1.7573615,-2.6379166,-5.293272,-4.9897904,-2.3393972,7.088004,0.01079265,-1.1346929,2.1481555,2.6874485
-0.4838462,-1.281414,-3.5822902,-2.9684842,-5.574556,-5.653636,1.0620773,10.809349,0.015840773,-1.1891203,1.2187374,3.8336833
-0.5333866,-0.94765586,-4.192575,-2.0096903,-7.0598235,-5.120213,3.5413895,10.288639,0.010938839,-1.9229251,0.6123359,4.473049
0.5183871,4.6745305,1.787208,9.8501005,-2.730168,6.1504316,19.813566,-0.76980084,-4.5024395,-0.8973614,0.016214225,2.173128
14.455004,0.5632978,-0.00042931898,-4.9674253,8.217711,-8.805155,25.52706,-15.070146,-4.2708893,12.643511,-7.408714,-1.3944381
1.4862181,9.9227,-0.0003907656,-0.22054555,5.7686434,-2.0415359,-0.020004548,-2.8727636,-0.38542265,1.9091723,-10.363676,-5.746854
-2.192866,10.961905,-0.0002833762,0.43928814,3.8636558,0.42462045,0.044539865,-2.2274318,-1.2788354,-1.5653801,-10.146757,-0.6014221
-4.3914146,8.026474,-4.049272e-05,-0.39120272,4.039647,1.0024691,0.75991344,-2.3032157,-1.9951111,-3.7887003,-9.108215,1.658542
-4.40696,5.640057,-9.276338,0.1694488,3.6302273,1.4814076,0.060208626,-2.2257247,-1.7968282,-4.8872347,-7.5590277,10.595479
-3.5319283,-1.8879082,-0.40514493,1.056088,2.1771634,2.740537,-1.1350188,-2.6896794,-0.2964199,-2.567497,5.9878626,6.6210604
-7.255316,-9.126022,0.3838222,1.0296621,1.430052,3.3523636,-1.1442118,-2.9253032,-0.17573594,-5.0404735,13.095603,7.6020026
2.078872,-5.5894856,5.0797567,-0.96634555,-1.9348654,-1.6130308,-6.046082,-4.4255137,0.45167896,1.7493418,5.501669,-5.208127
0.4015898,-5.125284,3.1266203,-1.0587935,4.368297,1.2670035,-8.260038,-6.211566,0.029438749,1.6819755,5.5770907,-3.4816537
-0.16806176,-3.9842765,0.89619476,0.7001191,0.96052593,3.6433609,-6.528566,-2.237394,-0.0075611155,0.62713575,4.4589105,-1.336081
-0.49721518,-3.7020385,0.06461008,0.8399682,-0.05232392,4.45459,-3.3421674,-0.34348443,0.12770724,0.14714628,3.9700794,-0.5998499
0.08048746,-4.400275,0.51085293,0.45916057,0.08362496,3.6805527,-4.4387302,2.6367946,0.003844141,-0.38820744,3.6899598,0.22725333
0.5442947,-3.4087462,-0.5910437,2.306468,0.6275077,4.543354,-3.8053837,5.4548793,-0.08420278,-0.6561517,3.168132,0.56647
0.16757941,-2.574093,-1.74582,-6.608359,-3.93957,-6.546479,-4.291815,9.135979,0.0048297783,-0.8149365,2.482697,1.9884456
0.2915912,-1.9707386,-2.8721244,-5.2190857,-5.373527,-4.8320007,-0.8826817,8.36168,0.010463422,-1.8420874,1.3910892,3.657584
-0.7404228,-1.129937,-3.9362688,-2.1079915,-8.423558,-5.0986204,4.714124,11.351929,0.0049245516,-1.9024565,0.25804713,5.161348
-0.2963618,-1.1376126,-4.0804186,2.8078377,-5.539159,-2.2411437,8.538133,8.990838,0.32642725,-2.6436408,-0.17293227,5.851864
4.2621784,3.792932,-0.0006333686,10.0537815,-8.150175,50.036304,24.86001,-6.668501,-13.376639,11.663768,9.971667,-50.075974
6.341118,8.096261,-0.00041770726,0.5864092,4.516199,-0.9673189,-6.3053417,-7.6993155,11.135467,11.9935,-11.809767,-7.995252
-0.6306997,12.643516,-0.00030442234,0.83842,3.870751,1.0295471,-0.036606982,-2.6040359,-0.6971617,-0.45275795,-9.475024,-1.0763078
-3.0345628,10.042085,-0.00021820149,0.25505435,3.638521,1.4206133,0.2976856,-2.613013,-1.2886328,-4.0932255,-9.640297,0.61901665
-3.7416034,4.7184815,-0.6109134,0.12245855,3.1450715,1.9535398,-0.17762902,-2.7828684,-1.2098203,-3.989972,-6.188723,1.0697309
-2.2226946,0.024128554,-1.7883375,0.31444407,2.7902238,2.236099,-0.85705394,-3.0152268,-0.8606452,-3.374494,-0.7477058,3.6063316
-3.2013998,-3.6019902,-1.6789137,0.51033425,2.424599,2.6499126,-1.1212904,-3.0667028,-0.6664816,-2.804146,6.2664747,5.395529
-10.573133,-4.972304,-16.189758,0.2749204,1.3607732,-6.280187,-2.8464308,-11.651725,27.414724,-7.330595,8.085305,29.415882
1.5825989,-5.371004,4.441828,-0.50207436,2.2310405,2.2923706,-6.371587,-4.5306487,-0.07150565,2.3503761,5.7771974,-5.8173976
-0.5012555,-4.5363684,1.5177984,0.5514034,0.33095866,4.4216905,-4.228823,-3.8455317,-0.0047430582,1.0078349,4.8203325,-1.7845101
-0.3661628,-4.3483005,0.8010872,1.5393317,-0.35642934,5.507539,-6.271102,-0.35345381,-1.291279,0.44655603,4.4668746,-0.5146986
-0.2071945,-4.038055,-0.11343685,-0.07734719,0.6859982,-10.61202,-2.7261093,2.2059045,0.7160051,0.21566805,4.087019,0.2684971
-0.3229689,-3.4251032,-1.1539937,-1.990858,-2.6590838,-7.6702013,-3.4289439,6.857252,-0.02831465,-0.067798555,3.331494,0.6210476
-0.25271413,-1.9959137,-2.619872,-6.0238495,-7.9621525,-7.467698,-3.325416,8.191329,0.004179146,-1.2455176,1.780484,2.5674317
-1.2124466,-1.1275316,-3.9439478,-3.4001057,-7.483947,-6.8093624,1.6759511,11.834506,-0.0019515897,-1.4916471,0.33639634,4.7623215
-3.535377,5.709108,-0.1518019,7.8242054,-3.769945,3.3658135,15.639935,2.6972203,-2.9812934,-1.4327893,0.23887283,4.9452963
10.080934,7.578402,-0.00040804705,-2.4244192,9.299279,-10.125439,-2.9980783,-4.545891,3.5540757,10.802662,-13.984611,-9.827871
-1.2667335,10.697316,-0.00025994313,-0.6979659,5.290735,-0.8808593,0.3568905,-3.1540163,0.12572435,-1.0589163,-11.056259,-1.2165003
-2.9186075,6.8497586,-0.000107735774,0.2714654,3.4765387,1.7492282,0.081464574,-2.742881,-1.0548227,-5.00477,-7.85549,0.3339414
-1.3432167,1.2289213,-1.3052306,0.5876092,2.0151076,3.2604702,-0.17814444,-2.603151,-1.5693161,-3.480036,-3.492896,1.5924135
-3.379911,-3.6755977,-1.4430231,1.4524767,0.7627224,4.256661,-1.0105754,-2.608906,-0.8936668,-2.3893588,9.121864,5.8042173
9.125699,-8.330746,13.888255,-3.0922277,-5.6432657,-5.117367,-2.750746,-3.8811698,-0.7665388,4.4687986,8.204492,-14.211272
-0.5229716,-5.280098,2.7539833,-2.9038122,7.7861843,-2.9704468,-6.036592,-3.8544896,-0.037915375,2.609771,5.909155,-3.0261052
-0.2843573,-3.661776,-0.047131054,0.7606322,1.6683168,3.030438,-3.8139317,-0.5525251,0.26730305,-0.26988825,3.7354057,0.24094927
-0.952225,-3.386214,-1.024134,-0.7796679,-2.4379725,-0.45736414,-5.0064306,2.9109833,0.00018936675,0.12167916,3.4740791,1.002412
-0.5464776,-3.5077498,-1.1892213,-1.5322741,-2.591707,-1.4034563,-4.2303257,3.8944497,0.0055252956,0.113459975,3.791025,0.91762763
0.4714059,-3.3492525,-1.573668,-2.9768102,-3.8429492,-1.5850391,-0.5646451,8.266114,0.0013587107,-0.8595243,2.7993941,2.2014105
0.31599954,-2.1006603,-2.9146602,-2.3786776,-4.184518,-2.8467348,0.5785644,5.891039,0.00022724003,-1.6069325,1.4336377,3.6227467
-0.36750686,-0.55178154,-4.8223953,-1.1311263,-2.9277422,-5.075571,5.7744894,9.688739,0.0040656356,-2.7454257,-0.11076924,5.8395367
7.168349,-14.962014,50.07351,4.502579,-12.69565,32.127483,18.216232,7.117441,-30.325024,4.0726905,8.545914,-37.833546
12.578718,6.9410963,-0.0003972607,-2.0187101,8.478899,-10.698547,-4.699601,-5.617365,8.213886,12.480398,-10.195,-8.035852
3.409613,10.733442,-0.00041204126,-1.1792103,8.339921,-8.34699,-1.9164249,-3.3969865,1.8376398,5.1024604,-9.153331,-6.819758
-2.6135182,9.9051895,-0.00026280235,0.4279068,4.3294706,0.5527732,0.59131795,-2.148533,-1.7103598,-1.8708655,-8.81358,-0.96519667
-4.546023,8.576793,-5.010944e-05,0.8908806,2.4673843,2.524805,-0.440695,-2.3616495,-1.2107164,-3.881317,-9.362047,1.5527488
-4.2008123,-1.0921919,-2.3207417,0.39393756,2.9675372,2.3575315,-0.30733138,-2.6334713,-1.5027652,-3.8771746,1.2476134,5.584681
-7.5325933,-9.164071,-0.96488297,-0.4451636,1.6563653,1.1734495,3.2274983,-5.078701,-6.831794,-3.8086293,14.231639,4.906754
1.4735157,-5.5647745,4.4165626,1.0255222,-1.6239903,-1.6943465,-7.1939588,-3.1822672,0.002204791,2.1216009,5.691691,-5.0325766
0.68105066,-3.6268907,0.5735454,1.5763918,1.1810693,3.45227,-3.981997,-3.4884732,-0.011915465,-0.61350805,3.8213477,-0.33217672
-1.3146255,-3.7619815,-0.33347455,-0.77523756,0.31642833,1.4338412,-5.128478,1.8448521,0.5609393,0.70253956,3.8949769,-0.1930672
-0.50508416,-3.7398844,-0.907116,-1.8862709,-0.090888456,-2.431372,-3.2967281,4.8663306,-0.0008028427,-0.1925767,3.2158237,1.2477142
-0.29974562,-2.4966874,-2.2012675,-4.784181,-4.4096656,-5.0014877,-3.2341723,7.1391125,0.0025801943,-0.6410268,2.5348425,1.9192293
-0.31079352,-1.41968,-3.5369399,-3.683182,-5.3486905,-4.4974065,1.2973925,9.993185,0.001215909,-2.0204027,0.68096465,4.4000063
-0.54795814,-1.1896504,-3.8885481,1.1955696,-3.4317102,-3.5840926,10.106784,8.744792,-0.44373614,-2.528381,-0.039622463,5.501669
14.236117,0.24908665,-0.00039290596,-5.0114603,7.976965,-8.209315,25.72052,-17.17064,-7.4920664,13.972912,-2.3223226,-9.71395
0.44564915,9.791645,-0.00035400916,0.7787688,4.317186,-0.109090984,-0.68601835,-2.969167,0.43991396,3.9099808,-10.272992,-6.7410436
-4.430235,9.595845,-0.00014801053,-0.16366108,3.5343156,0.9772867,0.44077957,-2.443466,-1.0844958,-2.917057,-12.007259,1.6425295
-4.446692,4.6399603,-1.229957,0.47304216,2.6774437,2.1075773,-0.47521204,-2.6893473,-0.90695125,-5.6703124,-5.269268,4.246761
-5.083085,-5.182285,-1.4209232,0.9486022,1.4218898,3.3710973,-0.8342013,-2.8554988,-0.35525662,-3.0383627,6.0692472,4.839392
2.023273,-5.2331643,9.167619,-3.5238435,6.7715006,8.609781,5.94697,-4.641711,-1.3369784,10.937639,8.450587,-18.259737
2.7849872,-5.3745832,4.8334064,-1.0364645,-1.4410622,-2.3020318,-9.670309,-4.117023,1.7361518,2.989918,7.417686,-9.978365
-0.6121873,-5.4154744,2.1519501,-0.16014986,-2.3148286,-0.3467225,-8.057836,-3.4129598,0.0044469098,1.4339964,5.057674,-1.2932773
-0.12077166,-3.3956547,-0.37539035,1.2328887,0.3750198,3.9947555,-2.4424593,1.793701,-0.012854135,-0.31395978,3.0037162,0.7242454
0.09593573,-4.2137246,-0.35744154,-3.1589565,-4.6796036,-3.6698487,-5.6463833,5.990613,-0.0005614719,-0.34860078,3.0646927,1.3969243
0.8820728,-3.257759,-1.335516,-3.7581198,-3.8046904,-5.639447,-1.5538192,10.398113,6.789237e-05,-1.2520531,1.9309354,2.9465983
-0.5367442,-1.6788388,-3.0962925,-2.207436,-5.895682,-5.0419636,5.6664524,10.151387,0.19215885,-1.3849695,0.7035253,4.248488
4.152352,0.236036,-0.00022771611,11.139518,-4.189457,9.305944,19.497583,-3.8694205,-3.172241,-3.890515,2.7361944,6.007643
9.765357,8.569752,-0.0004418051,0.30622333,5.788337,-2.8838117,-2.0352297,-3.705135,1.7617899,8.844438,-8.842872,-16.484993
0.3162938,10.658978,-0.00035622105,-0.3706401,6.061306,-1.9532613,0.4916697,-2.6202934,-1.1961204,1.7970439,-9.4704895,-4.305218
-4.7990365,9.698936,-0.00017088855,-0.29098848,3.6397157,0.9619251,0.79290533,-1.976923,-1.7804832,-2.041728,-9.779421,1.7815633
-3.4456992,4.233686,-0.92785203,0.122629285,2.9929743,2.166141,0.29284215,-2.0982802,-1.9984734,-3.8387656,-5.0281806,3.8029928
-3.4637866,-2.9675608,-1.7477802,0.6938726,1.7121398,3.356397,-0.4028954,-2.0909503,-1.6134627,-3.153486,4.4338894,5.144812
4.3183513,-7.0146837,8.081836,-0.27173927,-2.7884579,-4.1795945,0.57241166,-2.4624557,-6.0215425,4.880802,8.005307,-14.230111
2.1147385,-6.368368,5.464606,-0.9623799,4.4324913,-0.6783643,-4.6614127,-1.4977069,-0.006895881,1.3627762,5.909765,-4.6189337
0.4095262,-4.3090835,1.3856258,0.79809886,1.5191929,3.3642862,-5.182971,-7.0303297,-0.015606975,-0.35875344,4.2814393,-0.44549012
-0.68989515,-3.8369737,0.1268538,0.9277729,-0.412997,4.8560977,-3.8241131,0.5607028,0.48387966,0.12021902,3.6882868,-0.08196263
-0.40983486,-4.157925,0.10294774,-2.1364107,-5.6862197,-1.8357792,-4.7792854,4.9237466,0.00058553554,0.20756438,3.6114953,0.1254296
-0.49048066,-2.9316485,-1.6419775,-4.422214,-1.8165354,-4.7999535,-3.353927,8.612628,-4.5607798e-05,0.09887737,3.0373178,1.7946234
0.11543773,-2.7738683,-2.2646682,-2.7333744,-4.5388045,-4.253126,0.6503292,9.402692,0.18890321,-1.082988,1.755251,3.3359592
-0.94972813,-0.9439286,-4.1443677,-0.2121635,-4.256757,-2.40769,6.283803,8.84526,0.5211441,-1.6041043,0.41429764,4.9191003
8.504798,0.89333785,-0.00022983347,11.090567,-6.039891,9.302671,19.480547,-6.1565995,-3.3874357,0.9478202,-6.760697,6.0145845
3.27106,13.057733,-0.00036682904,-4.3309536,9.5186405,-10.381854,2.0691924,-2.1571631,-1.6884136,6.9094625,-11.15684,-9.602972
-3.76777,12.163193,-0.00019363439,0.5280471,3.7284107,0.5681787,0.25589746,-1.7750759,-1.6440048,-2.1091704,-10.5128765,1.4333043
-4.3308916,4.5136843,-0.741013,1.0014706,2.9423962,1.8982096,-0.9159431,-2.4522486,-1.3086935,-5.4884615,-6.220518,3.0456793
-3.9113853,-3.4332595,-1.5259861,1.4235122,2.5464616,2.4166472,-1.7435083,-2.823579,-0.5364474,-3.1826148,5.257365,3.6973696
2.656996,-5.3960586,5.77951,-0.5319759,2.9620996,1.2700005,2.7648308,-4.7873483,-2.802883,6.340497,8.157282,-15.440192
2.0119777,-5.7007117,5.053659,-0.98332125,-2.7052271,-2.4749637,-6.630455,-4.293314,0.0027925866,1.5662007,5.651337,-5.0306377
-0.5468447,-4.78749,1.9476861,-1.0980248,2.2847538,2.3099554,-7.410022,-4.4163213,-0.03481573,1.1766522,4.7276325,-1.7204138
0.33505505,-3.6106238,0.10999915,2.128343,-0.34718573,4.7916346,-1.0542003,1.475573,-0.061292484,-0.7742931,3.112668,1.0591186
-0.21145862,-3.5254986,-0.6687109,0.33113992,0.5314051,2.1646743,-4.6298957,5.4203324,-0.032180768,-0.10386449,3.2381353,1.2137316
0.52184814,-3.6555846,-1.0255804,-3.7449014,-5.791995,-3.929423,-3.8084078,5.732201,-0.00054414314,-0.8168044,2.7371118,2.0188715
0.41613603,-2.2368617,-2.5098183,-3.9028597,-3.8947272,-5.5038342,-0.24342413,9.505187,0.0014726766,-1.4815726,1.4178231,3.4848971
-0.031414475,-0.9846702,-3.9540832,-1.0234815,-4.2988725,-4.5815783,7.0622816,10.499532,0.4477471,-2.535625,-0.016933441,5.4747963
-2.6834886,-2.0750053,9.090505,5.639189,-5.8715854,0.91828585,16.97609,3.4089322,-3.3205304,-2.6014507,-0.27404594,5.6424456
9.370454,7.6362834,-0.00041541562,-1.6933303,8.394718,-10.111558,-8.390638,-7.8473635,12.828501,12.122488,-12.903367,-7.191511
-2.5314403,11.131372,-0.00024285284,-0.05816447,5.6709075,-1.5510155,0.109985694,-2.9004807,-0.07704942,0.31278622,-8.828495,-0.8059288
-3.0298135,7.483924,-0.00010846346,-0.30177826,4.0396366,0.6928206,0.3892356,-2.574562,-1.254496,-3.7288747,-9.890006,1.0428195
-1.4471548,4.713272,-0.3202551,0.07781434,3.5862768,1.7920219,0.072775036,-2.5367258,-1.5454332,-3.4915895,-3.8509796,-0.45702925
-1.6113374,1.0798653,-1.295914,0.38489604,2.7660196,2.417277,-0.22827181,-2.381396,-1.5307362,-3.7295096,-1.5432374,1.0991437
-2.434238,-3.4635909,-1.04399,0.13025394,1.7412823,2.9825947,-0.307474,-2.5445015,-0.94910496,-3.872586,6.5999703,3.5282059
1.763754,-5.281134,5.522414,-0.96940845,-4.698309,-3.8846629,-4.2525945,-2.6481376,-4.190105,5.6585674,7.422818,-12.668381
0.6300262,-4.67359,2.694401,-0.1322285,1.9068999,2.4887245,-6.1143703,-5.0287547,-0.012195343,0.98726255,4.9238834,-2.8288138
0.28942674,-4.442977,1.5891064,0.6369511,1.0685087,3.5787022,-4.5208635,-3.317094,-0.0083739795,0.08118965,4.3404593,-0.8201872
-0.15893798,-3.7475846,0.032218266,1.250201,0.2973222,4.4379153,-3.310983,1.4155436,0.31872237,0.011294305,3.9712372,0.064585835
0.534855,-3.602187,-0.44406417,1.770104,-0.1900959,4.5814767,-4.044917,3.971462,0.058487177,-0.664287,3.5226483,0.33398512
0.034855127,-2.7061462,-1.6501428,-3.4462993,-3.4369235,-3.489095,-3.7407963,7.4194474,0.002592261,-0.83642906,2.173149,2.1924894
-0.04304286,-1.9764947,-2.940394,-6.20249,-7.7576776,-6.8995733,-0.8716137,10.090664,-0.0051653422,-1.6096278,0.9894483,4.0448613
-0.16226867,-1.1586047,-4.163723,-1.0573146,-7.446086,-5.239397,6.3584547,10.176424,-0.0029649148,-2.6343799,-0.21810833,6.151793
12.6747,-0.7780779,-0.00032887253,18.556414,-0.43633184,17.772255,22.615248,-11.005354,-3.284998,7.267602,-6.1975527,10.103289
1.3080981,11.125781,-0.00038676005,-0.61787325,5.902863,-2.5456724,-0.61219174,-3.758897,1.4797354,4.145886,-14.399543,-5.532666
-3.894674,10.976031,-0.00019852383,-0.79489183,4.526843,-0.11603478,0.4874794,-2.9556518,-0.40815789,-2.2252655,-9.916109,1.4791242
-4.2899084,4.849167,-0.4711559,-0.14729352,3.261238,1.9476242,0.10228653,-2.8952978,-1.1335279,-5.065916,-2.3428254,3.0050037
-1.6327605,-1.53687,-1.4162842,0.7258108,2.2811627,2.9411602,-1.2956289,-3.264722,-0.3483774,-2.392421,5.5579357,4.1762047
5.849477,-6.484997,8.93515,1.7662429,1.8189317,-2.4428911,-2.7485054,-4.457166,-0.009680092,4.80652,7.9127355,-14.4732685
0.6198776,-4.9983063,3.3456352,0.41519973,1.2155229,-2.9595616,-6.2023582,-6.433839,0.0017427704,1.5553758,5.49739,-3.1734228
-0.32629883,-4.359388,1.2122794,1.0239046,-0.39734343,4.9793677,-4.1345553,-2.9328892,-0.011904911,0.041359793,4.1452765,-0.2355581
-0.7347272,-4.9116836,0.8808032,0.20489636,-0.51990664,2.5541084,-3.256965,2.6979804,-0.0035163732,0.3384778,3.83583,0.43014175
-0.21584405,-3.7059972,-0.57209456,-3.045401,-5.6770234,-2.4271479,-5.334075,4.180942,-0.00097432255,-0.38922796,3.0538983,1.2468827
0.32706642,-2.8913107,-1.8692123,-2.8480759,-2.9216652,-3.8492835,-1.6832623,6.6096635,0.3286731,-0.98120356,2.381568,2.585847
-0.029599277,-1.9752654,-3.3779898,-4.0553026,-5.542956,-5.006891,1.6322118,10.424781,0.0083114505,-1.6686357,1.1519694,4.335191
0.21720234,-1.8046174,-3.7278023,1.6724709,-6.193358,-3.1835635,8.955377,9.845249,0.29028466,-2.5763404,0.060716733,5.797604
12.030557,1.2245269,-0.00042156107,-5.614109,9.286323,-9.714308,25.034555,-14.742493,-5.7627645,13.258192,-5.7509446,-4.1129303
-0.2535963,9.091002,-0.00037036638,0.3744793,5.1080337,-0.7494223,-0.41502497,-2.8055642,0.072463885,3.2524889,-10.944783,-3.9752417
-2.2679353,10.173298,-0.00020690923,0.469021,3.2449634,1.7948024,0.13460764,-2.2872162,-1.066138,-2.6266384,-8.035037,0.19074205
-3.414378,9.290482,-7.254633e-05,0.4057194,3.0616643,2.2644966,0.3933939,-2.1350205,-1.7530166,-4.3354306,-8.092688,1.1791327
-2.6451662,0.6479819,-1.7371742,0.4176127,2.105859,2.9855406,-0.043786332,-2.2257617,-1.9701073,-4.953286,-3.6250327,3.0802395
-6.743659,-7.343687,1.1819339,1.0737349,-1.7387309,0.024245067,-1.087075,-1.9811976,-2.8834858,-4.8568525,14.048682,4.582653
1.2884864,-6.2475286,4.929576,-1.4808933,4.359301,-1.3575888,-5.703761,-0.96314776,0.0007092422,1.7477746,5.695333,-3.630371
-0.118902214,-4.2396417,1.0826129,-0.048673153,2.625378,2.1686993,-5.315785,-5.37708,-0.016698942,-0.09492575,3.8974073,-0.2215549
-0.59024876,-3.1956153,-0.6219201,1.2530161,-0.24127945,4.55693,-1.8838379,0.5853657,-0.012644631,-0.64183444,2.7440178,1.0418992
-0.9380414,-3.2545562,-0.96706223,-1.3539498,-2.126445,-1.7483182,-4.6222754,4.408738,0.0012454363,0.20472926,3.0611289,1.0760485
0.3006872,-3.7000184,-0.9661057,-3.4682791,-3.538898,-4.9971743,-3.9326644,7.7053466,-4.65957e-05,-0.8046294,2.4287586,2.370458
-0.059301887,-1.8493638,-2.8584936,-3.4248447,-1.95921,-4.664154,0.9450175,9.864371,0.00055640936,-1.5712118,1.0934324,3.94767
-0.6838514,-1.1531811,-3.8051884,1.9182975,-3.164616,-1.6913276,9.31445,7.544614,-0.99632984,-1.9808484,0.23517479,5.1615434
13.341976,-2.1218543,-0.00041761517,-5.139606,8.004232,-8.457079,25.627079,-14.948033,-6.4350147,13.37707,-5.1183696,1.0626264
1.3504503,9.16282,-0.00033040694,-0.027366173,4.957175,-1.381984,-0.5762884,-3.1444345,0.60320127,3.7759888,-11.172642,-6.0335813
-4.0472918,12.700939,-0.00011479447,-0.18691272,4.478564,0.15739347,0.5970845,-2.3535643,-1.5012887,-3.7130904,-11.167615,0.84523654
-3.8374045,3.6535878,-0.7889995,-0.38934946,3.9118798,1.0414895,0.054019652,-2.5777879,-1.1369367,-2.5759711,-6.5384846,1.398062
-1.9332666,-2.503388,-1.4499148,0.36948022,2.3264112,2.6875594,-0.58675665,-2.679479,-0.8050225,-3.6312954,3.0990267,1.8459448
-5.7176013,-9.838517,-0.00058757886,0.34798306,1.4882395,3.0322425,1.521735,-5.873749,1.8627546,-4.766837,12.423174,6.247841
0.95281965,-4.8798475,4.092388,-1.4304346,-4.126341,-2.4135492,-8.900471,-3.648644,1.7062986,2.7874675,5.7510285,-6.872645
0.06098157,-4.404318,1.6052629,0.024083853,1.3611627,3.1460829,-6.149192,-4.9141293,-0.011652404,0.38304484,4.073726,-0.74906
-0.17020744,-3.6438355,0.078353,1.1702551,0.73347026,-1.9585422,-3.14564,1.8381284,0.34222758,0.26865363,3.8793514,-0.28211203
-0.5833937,-3.2608423,-0.8644389,0.77310884,-0.24470687,4.306154,-2.9432282,2.5979922,0.1323992,-0.058705658,3.1826713,0.35110036
-0.42572325,-2.0662055,-2.241214,-0.8556407,-3.7876601,-2.3714774,-2.4012997,7.0873985,0.003144444,-0.6138939,2.399429,1.5471562
-0.22822843,-1.6033403,-3.259589,-4.542306,-3.6796968,-6.4193935,-1.0324054,9.550099,0.011925182,-1.5644011,1.1801212,3.7291732
-0.36126757,-1.3129705,-4.19573,-2.0650136,-7.4339523,-4.144161,5.9581437,10.926251,0.005844309,-2.6908686,-0.1964153,5.854723
8.8066225,2.7448506,-0.00028965017,12.144582,-4.1853237,8.7858715,21.119968,-5.6658273,-3.900136,1.3216097,-8.557854,7.4260616
4.1886096,13.853233,-0.00033035054,-0.6882416,6.0235777,-2.8633466,0.2490536,-3.1393526,0.12895192,6.924082,-12.795423,-9.820545
-5.1549826,10.552558,-0.00012573,0.5187747,3.7853968,0.5596243,0.3151795,-1.8813614,-2.0625474,-1.9557714,-9.888485,1.1394056
-2.9282324,5.728227,0.17114325,1.0382721,3.2601073,1.7951474,-1.0439732,-2.533144,-1.1558266,-1.234614,-5.8498945,1.4181162
-3.761744,-3.249232,-2.0320122,0.8666219,2.87232,2.154265,-1.3378259,-2.6161842,-0.8828189,-2.4930282,6.1324687,7.425679
8.159713,-7.1981874,13.698994,-2.7292528,-2.4832926,-2.6579297,2.958397,-4.4271755,-3.2138448,6.017337,7.402725,-15.174947
0.6758377,-4.979738,3.081792,-0.7146809,3.2959676,1.0264415,-7.927075,-5.06787,-0.00905996,1.2843438,5.1087804,-3.4989073
-0.47231674,-4.2185407,0.73348117,-0.34973526,2.374658,2.4584675,-6.9183555,-3.26494,-0.019564334,0.556678,4.527797,-0.8111169
-0.3601682,-4.17102,0.24879631,0.057929337,1.5888133,3.2216477,-5.403268,0.07456843,-0.014304956,0.0069458075,3.9251494,0.25743058
-0.53563243,-3.6643736,-0.6317789,0.042601816,-0.70618016,2.0972402,-1.5770234,4.100527,-0.00030152407,-0.34853688,2.9770286,0.8462568
0.22193398,-2.6418316,-1.962368,-3.7926695,-3.103649,-6.070758,-4.476561,7.9610667,0.0008456595,-1.1836255,2.1210651,2.6931393
-0.17648262,-2.111808,-3.1843293,-5.666633,-5.348689,-5.220396,-0.28240457,9.026196,-0.0030187946,-1.7432547,1.048327,4.2615495
-0.68502575,-1.904261,-3.6034088,-2.7760246,-7.704981,-5.223208,3.567972,10.477862,0.0012752484,-1.8265778,0.58182,4.8192716
4.066368,-6.576461,2.1682758,6.5401077,-3.4928334,1.6074063,14.329273,5.1556325,-2.2056096,-2.7095754,-0.18338707,5.9237714
9.737602,7.197807,-0.00043719134,-1.5997322,8.273885,-8.948891,-3.5700707,-4.0567703,3.8054585,10.872496,-11.025133,-12.361182
-3.5262475,13.329241,-0.00029799162,0.2299971,4.204204,0.3504452,0.3035943,-2.5310361,-0.430375,0.044871874,-9.997686,-0.72672325
-5.505404,10.033631,-6.218591e-05,0.086676784,3.2782211,1.9144092,0.6376954,-2.3697226,-1.6038195,-4.1666017,-9.098299,2.7454188
-3.3089817,0.60444236,-1.90653,1.1121638,2.4147308,3.0376942,-0.7929591,-2.9060383,-0.5405106,-2.3503494,4.6542883,7.8864093
-5.3712053,-9.323228,-0.28223377,0.739448,3.1676054,-3.0107095,3.3728542,-5.5341206,-5.8537087,2.4895682,6.993554,-9.747077
1.6963683,-5.9286633,4.5825534,-1.2831445,5.378242,-0.49738872,-8.390234,-4.4068875,-0.018475708,1.526193,6.2477016,-4.604119
-0.14783128,-4.345513,1.0590734,0.13179961,1.9286026,2.917505,-5.3568435,-5.675278,-0.015085874,0.31167585,4.724697,-1.0363578
-0.50365996,-4.058165,-0.039142594,0.08315027,0.5054748,-0.041089173,-3.529995,1.5162613,-0.0039833025,0.13726147,4.1768823,-0.06455229
0.37992492,-3.5501962,-0.66685164,0.73864794,2.5243366,2.7379842,-3.6906023,5.770655,-0.057114337,-0.73851186,2.687042,1.9443209
0.15232646,-2.4227757,-2.26448,-5.016238,-5.3285174,-6.1781983,-2.226029,7.8483934,-0.0016230475,-1.192655,2.084936,2.8097053
-1.0294273,-1.0097986,-3.8587928,-3.1050546,-7.43345,-4.9613214,2.9056885,10.883742,0.362158,-1.3846498,0.8122453,4.0042562
-2.4606218,-1.7056464,9.647458,4.2290816,-5.289035,-0.09238967,12.509272,5.6744857,-1.4666132,-2.4677193,0.021041363,5.128692
11.479907,7.759598,-0.00045667996,0.59546524,7.4622397,-8.166764,-7.901932,-5.686764,8.272652,8.737305,-12.415018,-7.5201592
-0.45563635,9.839546,-0.00030322844,0.120387375,4.660315,-0.4607878,0.12745018,-2.6114497,-0.21702771,1.1740685,-10.415578,-1.2908674
-3.6411242,9.157538,-0.00012029646,-0.13424507,3.7374256,0.7820767,0.43076926,-2.2631328,-1.4492989,-4.7483206,-8.489905,1.2188205
-1.8879925,3.8113313,-1.0181141,0.15650888,3.2172153,1.9218313,-0.063907415,-2.4808974,-1.4295226,-4.4721193,-1.5125189,0.44502178
-2.5685923,-4.262264,-1.8891724,0.39415833,1.550321,3.1363378,-0.69568795,-2.7061632,-0.54510003,-2.613099,5.8110294,4.275836
3.2252011,-5.947749,6.657079,1.1944333,-0.057727814,1.9153819,0.79018176,-3.7228112,-2.343762,3.8325453,6.94829,-11.032992
1.3203268,-4.9743342,3.1289992,0.49428764,1.2853316,3.1992807,-5.996374,-7.838036,-0.010753302,0.0924523,4.690662,-2.3630676
-0.7754099,-4.164739,0.66519654,0.39768696,0.6563804,4.2366643,-4.128812,-0.5875764,-0.005336879,0.6826741,4.490782,-0.6664792
0.010610167,-4.187484,0.19167897,1.7602102,-0.6202483,5.468311,-4.391523,3.2086983,0.9008392,-0.05530153,4.2859054,-0.4748447
0.15102372,-3.4683347,-0.93719435,-2.8899398,-4.7353587,-2.2795775,-5.3308473,5.5174613,-7.4653653e-06,-0.81973714,2.7947302,1.7225535
-0.6552216,-2.8033514,-1.9721863,-4.95783,-4.435466,-5.603615,-1.7426234,8.171465,0.002390081,-0.34673405,2.7785938,1.8750476
-0.11033176,-2.2149594,-2.9198766,-2.7357616,-6.4574747,-4.648153,1.0155865,8.716452,0.0023321016,-1.5027404,1.2966323,3.917269
-0.43197477,-1.5463445,-4.2714243,-0.79599404,-6.393797,0.0062525272,7.5760164,9.892421,0.3756714,-2.5382142,-0.10791719,6.0355916
12.68542,-1.9647673,-0.000362853,15.171504,0.02242868,17.953144,19.963234,-11.652711,-4.06039,7.2929063,-7.6779075,5.5477476
2.1040344,8.731911,-0.00041153887,0.47475427,5.246573,-2.0835817,-1.6544571,-2.99824,0.8229069,4.1743064,-10.960005,-5.4453254
-2.510668,11.846081,-0.0002278423,0.20651637,4.335787,0.67139447,0.45047814,-2.329696,-2.0543122,-2.4968228,-9.252423,-0.5620216
-4.2423105,7.106917,0.3653497,0.48652998,2.081963,2.8935034,-0.21736874,-2.2151463,-1.8839277,-4.4369373,-3.1707215,4.2189355
-4.4045706,-3.2234433,-2.4864318,0.24529837,1.7669613,3.2655315,0.19179067,-3.1222022,-0.7222395,-3.7001646,7.163864,6.4780617
-5.0299287,-8.816151,-1.2761132,1.8627645,1.6279647,1.1355939,4.362124,-6.19499,-4.7400007,2.5001292,6.4993196,-8.617509
4.3583884,-7.0125775,7.6878853,0.795421,6.555627,3.5992808,-2.9142444,-4.0145555,0.8258043,0.89633006,6.5679164,-5.352394
0.9817096,-5.776586,4.4072976,-0.6822264,4.078021,3.7265892,-6.1253376,-4.166088,0.03270555,1.826283,6.255344,-3.7770095
1.2426269,-5.1479616,2.9381049,1.1651564,1.1124012,4.0302186,-4.853463,-6.640772,-0.009998493,-0.017226597,5.346337,-1.799442
-0.42698723,-4.626462,1.4716642,1.0009629,0.07606809,4.9277883,-4.3234353,-3.3364944,-0.0052127913,0.60427314,4.865607,-0.901021
-0.67112213,-4.5687356,0.8426927,0.9391842,-0.00323195,4.962052,-6.0525727,1.2645292,0.0026525743,0.61048526,4.8472075,-0.7730586
-0.48571497,-4.307345,0.2211237,1.1173222,-0.19703202,5.0098815,-6.1431046,3.003048,-0.0010459088,0.023939826,4.1563425,0.20098719
0.009450585,-4.1731863,-0.16335678,0.18299127,0.2718072,4.290456,-5.112345,4.2790847,0.0283938,-0.6040108,3.4468234,1.4033134
-0.07321201,-3.396768,-1.109768,-3.1650674,-3.0179899,-3.2733028,-3.5116339,6.571303,0.0007026526,-0.7137155,2.888194,2.0067544
0.44191837,-3.518143,-1.2641792,-4.813006,-4.4855347,-4.597033,-3.0786479,7.036929,-0.00036994444,-1.2912352,2.355333,2.9095483
0.17499372,-2.8562357,-1.9422005,-4.530526,-4.9512253,-4.097485,-2.2856526,7.282396,-0.00025119487,-1.0774974,2.0423381,3.1340249
0.35502255,-2.547336,-2.5390592,-2.4253736,-6.233994,-4.648521,2.4602354,9.258364,0.53473,-1.7434418,1.0090551,4.3696012
-0.65155387,-1.6354568,-3.2521179,6.1240897,-2.0618055,3.5837593,13.751521,5.540426,-1.8655117,-2.1449268,0.08087145,5.132688
9.5213,5.1786103,-0.00043773535,-2.234569,8.668913,-9.44429,-2.0629206,-5.5098166,5.0960803,9.552489,-12.459999,-7.312224
0.5396909,12.266257,-0.0003675802,-0.11810476,5.8502946,-0.7973898,0.60913944,-2.6869054,-1.0193084,1.9254483,-7.870138,-3.5874372
-4.2074857,10.9552965,-9.04154e-05,0.4856251,3.6729565,1.6443964,0.26847854,-2.20302,-1.6622598,-4.3777018,-9.829647,1.2047135
-2.572436,2.0401008,-1.255601,0.940956,2.4445243,2.9698362,-0.24335018,-2.1472402,-1.6308407,-3.435159,-1.1336774,3.25036
-5.012462,-5.2936068,-1.295035,0.3829377,1.6345519,3.4666936,0.79013294,-2.9465191,-0.9875495,-2.887451,10.811355,6.6793914
2.2755897,-5.7890472,4.9498734,-1.6026312,-2.912701,-4.1261687,-2.0928311,-2.6695602,-0.28104025,1.3925798,5.9446898,-4.9920044
0.38261393,-4.822399,1.8521806,0.6322761,1.290389,3.8313432,-6.292689,-5.727239,-0.01436957,0.17141373,5.5349784,-2.2523775
0.026253205,-4.8266025,0.72798973,0.7218199,0.61694634,2.4588652,-3.5399637,-1.0917319,-0.010462033,-0.17391054,5.184447,-0.63300437
-0.2790678,-3.600965,-0.79881245,2.1574185,-0.7098414,5.8587246,-2.3994832,3.771906,0.005477626,-0.29839313,4.1407185,0.46432424
0.28911206,-2.5250578,-1.8717879,-3.1475194,-6.2794147,-2.4356968,-4.0257964,6.6904035,0.003663489,-1.173246,2.6273162,1.8571703
-0.08299946,-2.2053638,-2.8071105,-5.746659,-6.41941,-5.1888747,-1.6829727,8.735263,0.0011580609,-1.3474445,1.6680621,3.4203563
-0.374535,-1.2903327,-3.9133835,-2.4110293,-3.718101,-5.505607,4.714544,11.073088,0.0010223766,-1.7986068,0.47915363,4.989347
-0.24828729,-1.0136539,-4.5820723,1.9722835,-5.2086897,-3.3150566,10.538805,6.9361567,-0.36308706,-2.5940452,-0.25821427,5.9893923
11.422242,0.90113586,-0.00037924165,-5.9334383,9.170322,-9.486028,23.933216,-15.039345,-6.448291,15.632107,-6.934781,-1.0874527
-0.31246814,10.135773,-0.0003503522,-0.45491213,4.8547993,-0.5793635,0.38342932,-3.0937858,0.026846014,1.7672181,-12.35727,-4.7884774
-0.8844221,9.863848,-0.00028015522,0.5264281,3.4534726,1.2034378,0.045407858,-2.552928,-1.2286836,-3.3946934,-11.262028,-2.1059704
-3.0039232,7.873895,-8.6866436e-05,0.2569272,2.984979,2.149657,0.17195725,-2.7359548,-0.937873,-3.2705674,-6.8273582,0.7667041
-1.6025165,0.9195465,-1.1091294,0.2483077,2.3382008,2.9478016,0.1332613,-2.4482257,-1.7704706,-2.987703,-4.119784,1.6767542
-4.4771147,-3.9878259,-1.4917359,0.75231135,1.1355053,3.9820251,-0.34236762,-2.5693965,-1.3707682,-3.0454087,9.270881,7.822874
1.0365674,-4.788748,4.867024,0.18533587,1.9453211,-6.0236144,-3.560529,-2.6407094,-0.8062241,4.8494864,6.1772647,-9.731015
0.7597481,-5.507835,3.3086853,-1.271847,2.7344465,2.078144,-8.396433,-6.0782437,-0.033835575,0.5481148,5.0587573,-2.362742
0.57172596,-4.260562,0.5181252,2.0048873,-0.40805784,5.1075916,-2.1071577,-0.5653145,-0.010165539,-1.1046028,3.7802417,0.43461764
-0.5391232,-3.6680653,-0.6372514,0.73890424,0.18363349,4.466044,-3.6165533,2.7608013,-0.0025422946,0.025072414,3.9495692,0.11426797
-0.34600177,-3.0353904,-1.4331076,-0.07649821,1.1693734,2.6869762,-2.3484874,4.5028276,0.01313036,-0.19043598,3.2069218,1.146959
-0.29578578,-3.2207994,-1.6768373,-2.4766476,-4.3344665,-2.7898386,-2.2194548,4.7353,0.0034803892,-0.5539292,2.6065817,2.062764
-0.31385094,-2.2830644,-2.5511677,-3.8637242,-5.211479,-7.0300984,-1.6117972,8.931402,0.0015300871,-0.68858653,2.2207868,2.4597855
-0.66564226,-0.7987633,-4.098951,-4.3197713,-6.9467974,-8.356455,2.9329038,12.415916,-0.0024428423,-1.4150838,0.9105519,4.1397824
-0.4294371,-0.57706815,-4.7260017,0.70288587,-3.6805303,-2.2032564,10.051674,8.424049,-0.10067325,-2.7526715,-0.34097305,6.179417
11.092602,0.5502063,-0.00039728906,-5.4494395,8.944528,-9.29175,24.751446,-18.256779,-6.8339148,15.510822,-8.003827,-3.6583738
0.44052953,11.612572,-0.00035774882,0.6437056,4.6779847,-0.5370428,-0.3811301,-2.5293694,-0.434467,2.564512,-11.065907,-4.5587325
-3.3050299,9.744606,-0.00014491173,0.6186897,3.0834794,1.6145997,0.14115375,-1.8719813,-1.8006656,-3.0341632,-9.091635,1.0961697
-3.5930552,7.2624664,-3.7290876e-05,0.4854863,2.9782157,2.0674517,0.13157853,-2.0429406,-2.0843754,-4.931918,-7.3786607,1.3674209
-4.002357,-1.4253584,-2.118867,1.0990578,1.7460932,3.154604,-0.80394816,-2.300805,-1.2600497,-4.108915,4.4616857,5.249966
-8.027597,-9.419307,-1.1854017,-0.095614836,0.2533194,-0.6948843,-2.162999,-2.1066144,-0.5672445,-4.896105,11.59376,2.246685
1.1778183,-4.9433517,3.7706254,-0.52091056,2.7634125,1.2142826,-5.598545,-2.7818725,-0.01374634,1.1992738,4.724826,-3.7169166
-0.27932844,-4.0453506,1.0452787,0.19046377,2.0446718,2.7577572,-7.0937037,-5.268539,-0.010156389,0.2954475,4.0201817,-0.0017583221
-0.21132776,-3.6327684,-0.1833145,1.4894578,0.048239492,4.692947,-1.8756626,1.4548054,-0.009155329,-0.40958095,3.3235998,0.8519665
-1.1105301,-3.1586468,-1.1590937,-2.105967,-4.460106,-1.3351399,-5.515043,4.322384,-0.0002038345,0.43785578,3.326637,0.756815
0.21953844,-3.4426298,-1.210463,-3.9099612,-3.858921,-4.1153927,-3.264269,6.256832,-0.0006040781,-0.6306208,2.6267588,2.1389012
-0.90026474,-1.8489404,-3.177118,-4.9568467,-5.6338906,-4.803844,1.2888446,10.80035,0.0043915887,-0.8608249,1.4571377,3.2932649
-0.7712561,-2.08085,-1.2076744,0.46689928,-4.416548,-4.499688,7.400892,8.5273075,0.5274975,-2.7861726,-0.09203379,5.652289
16.350746,-2.8860319,-0.00043853524,19.988953,-2.4929113,25.899513,22.713146,-13.973561,-2.8713653,9.869752,-7.079434,4.4954686
0.90866536,12.638503,-0.00038735173,0.17919835,5.356714,-1.9580774,-0.92239904,-3.5339727,1.2922806,3.2213337,-12.315796,-6.1053343
-4.057774,9.123584,-0.00015792958,-0.29339087,4.542023,-0.27407217,0.42052382,-2.5056877,-1.2143308,-3.1521997,-8.723199,1.3939158
-3.4155035,2.9990363,-1.0071428,0.35950378,3.549986,1.3260924,-0.10721761,-2.3043904,-1.6598799,-4.5290413,-4.4265547,2.2622008
-0.92275923,-1.3207098,-1.1958154,-0.0820951,3.1521523,1.950628,0.043312456,-2.2642097,-1.8348627,-3.1072133,0.0061430256,-0.20816728
-2.6236928,-3.9048376,1.4475985,0.6206104,1.7065685,3.0407734,-0.44581035,-2.2801275,-1.1334256,-3.245248,9.516314,6.220195
1.454099,-4.783739,4.832824,0.36610943,1.5621163,-6.2032447,-3.0223053,-3.565975,-4.0791707,6.575043,7.7998614,-15.458454
0.337341,-4.5876975,2.4717062,-0.67995805,2.4186745,2.0299168,-8.36583,-5.598634,-0.011820158,1.1775101,4.6984763,-2.517922
-0.27618393,-3.3571649,0.23222277,1.1468349,-0.23867415,4.304357,-2.089863,-0.45338315,-0.00803069,0.051400844,3.4014308,-0.2520029
-0.39487898,-3.8245876,0.06755128,0.45813632,-0.25917667,-1.2642064,-1.7138075,4.2698984,1.0128245,0.06784296,3.2711613,0.39717823
-0.22664014,-3.1666102,-1.0290446,-1.3061101,-3.833306,-1.395171,-4.5609846,3.921369,0.0015996015,-0.34426823,2.8761384,1.1456558
-0.6588197,-1.9778489,-2.7944613,-6.164803,-3.7384312,-12.134236,-1.1175059,10.702066,0.009068194,-0.46367064,2.2749977,2.3379467
0.3591646,-2.4022636,-2.780793,-2.2729564,-7.0813036,-5.679379,2.6291184,8.765226,-0.00081588305,-2.0161068,0.93414557,4.130279
-2.8069355,4.5589795,0.13026467,7.160986,-4.4339085,3.8051343,14.697932,2.8013625,-2.478895,-1.7482431,0.78092,4.220325
12.730262,-0.64468694,-0.00041587173,17.30703,-0.1176434,22.607082,23.994001,-10.843985,-4.1380844,8.637738,-7.496931,7.192352
2.3362799,10.781043,-0.00041576312,-0.047447577,4.6169643,-1.2216024,-0.9034791,-3.3940613,1.6197256,5.399606,-10.396414,-6.3258195
-2.2139177,10.003095,-0.00024029071,-0.50814754,4.2917027,0.36725384,0.9712721,-2.2678268,-1.32563,-2.1649594,-9.294271,1.4739162
-2.8182938,6.3732433,-3.864477,0.784427,2.5161846,2.525416,-0.32004747,-2.069973,-1.6895859,-5.8764358,-5.7553926,6.786584
-1.4077506,-1.300495,-1.8371679,0.8986872,1.6899633,3.3379645,-0.67361695,-2.4766376,-1.3955412,-3.7472475,1.5773832,2.9552672
-8.472798,-8.254842,-1.9308307,0.45361435,0.76944876,3.8034232,0.6379721,-4.051176,0.49637926,-3.0401435,12.258267,6.18881
0.9760078,-5.706063,4.4634824,-1.8613286,-0.15338326,-0.2145753,-7.6965976,-3.4963336,0.0013888592,2.1985106,5.8437853,-4.879002
-0.00012778491,-4.5593266,1.5141721,-0.14082931,2.0144026,2.6721175,-6.2869806,-2.3656597,-0.016691152,0.5733431,4.9041243,-1.7752454
-0.08116186,-3.838468,-0.022475567,0.8246587,0.52395,4.0343313,-2.6764102,0.9703,-0.010118011,-0.4222801,3.795383,0.22423337
-0.67247224,-3.3452802,-0.8610684,0.92561007,-0.044670932,4.4464297,-2.5798557,3.828219,0.0043571964,-0.105415575,3.0135746,0.9308697
0.100252554,-3.0222678,-1.4863151,-4.1094885,-5.475463,-2.6443608,-3.8784628,4.9154105,-0.0020201523,-1.2449751,2.0087206,2.2595458
0.21689455,-2.2269547,-2.6520634,-4.5983386,-5.2360926,-5.5806985,-1.1345965,7.9744563,0.0046989387,-1.5412073,1.339358,3.6302483
-0.04905985,-1.4227171,-3.5776277,-3.6386876,-3.8088448,-5.665486,0.7700152,8.158997,0.010853231,-1.7794949,0.93774384,4.236775
-1.8381802,-1.8831666,-0.9449191,1.767428,-6.9972377,-3.1208045,9.900871,9.839838,-0.48753673,-1.8080919,0.16684034,5.2005444
14.395639,0.08172338,-0.0004147875,17.579222,1.383204,26.504492,24.598711,-14.349602,-2.9133961,11.674292,-6.5685277,-1.5046254
-0.8636515,10.328914,-0.00036124635,0.48307917,3.5928628,-0.05821246,-1.1415275,-3.038526,1.470567,2.7497053,-13.21979,-4.1448417
-3.2256184,8.839747,-0.00015326659,0.62231416,3.0507107,1.6016768,-0.062483177,-2.2903984,-0.9892696,-3.0709991,-8.119622,1.1545805
-3.8090057,4.346758,-1.0408787,0.18053263,3.3329837,1.9819233,0.1744327,-2.6188276,-1.4991099,-5.252589,-5.1622343,1.7810568
-3.9236526,-3.8089883,-3.7248318,0.8538285,1.9769917,3.1363962,0.8653639,-7.0544734,8.52508,-5.2116075,4.9094396,19.199871
3.835507,-6.3285494,6.894214,-0.47602552,-5.0277963,-3.4735644,0.6171305,-5.609774,-1.327294,1.784445,5.718408,-7.128751
0.5356959,-4.6745605,2.3466506,0.03331648,2.9370248,1.8933533,-6.8631473,-4.9318748,-0.005205131,0.8578153,4.925296,-2.3629427
-0.37417892,-4.1339436,0.35066152,0.5440263,1.248982,3.7517698,-4.617588,-1.8764129,0.17107557,-0.091259204,4.108141,-0.04594955
-0.7536652,-3.6487076,-0.5207893,-0.019107461,2.5105374,6.088837,-4.8120995,2.8737483,-0.0062716105,0.50292444,3.8134212,0.4365527
0.7650844,-4.241665,-0.49986702,-2.7625477,-4.2795987,-2.634634,-3.9597275,5.237001,0.38191018,-0.7655194,3.4799325,1.2919192
0.2780229,-2.8039498,-2.374993,-5.314851,-3.6044092,-4.8644147,-2.070864,9.47077,0.0022766544,-1.0153081,2.4868069,2.5990736
-0.72047955,-0.9851215,-3.9713538,-1.6618814,-7.052083,-5.5825853,3.1426766,10.378932,8.0360565e-05,-1.37929,1.1458267,3.6011548
0.06738067,4.3338037,0.6790199,7.6251006,-3.1009603,4.8506413,17.841509,1.1434501,-3.4344032,-2.168066,0.48731092,4.613561
5.776491,8.836088,-0.0003895188,-0.5647072,6.116925,-3.3551126,-5.5813413,-7.699374,10.468617,12.6620455,-12.607388,-7.817394
-0.9454911,9.911756,-0.00032415282,0.30498743,5.022185,-0.48993108,-0.10734628,-2.7197948,-0.6492194,-0.5686274,-9.237235,-2.1582823
-4.282236,11.048974,-0.00017523268,0.29890707,3.5545423,0.9997445,0.039426416,-2.4266095,-0.77218026,-3.6869822,-10.018723,1.7570137
-3.0102158,4.532835,-0.647577,-0.1576203,3.4954863,1.7944193,0.56961656,-2.2744613,-2.3895519,-4.9221473,-6.2720304,2.1827075
-3.196159,-2.0526285,-1.1987586,0.80590934,2.1493988,2.93713,-0.7060193,-2.4970348,-1.246448,-2.9521768,4.9544997,3.8203635
9.699208,-7.5308785,13.579624,-0.055586338,5.014893,0.15577078,-2.447961,-6.865386,-1.6670215,4.4289856,8.27799,-14.69591
0.46664327,-5.7961755,3.3691378,0.48717096,-2.1179633,-1.6250495,-8.689363,-3.614263,0.0010394634,1.448235,5.9805183,-3.1487072
0.54236805,-4.468163,0.6886496,1.0852184,1.20242,3.7470582,-3.6287608,-2.4120421,-0.6810981,-0.75030524,4.012337,0.18723634
-1.0493895,-4.218381,-0.60107327,-2.796214,-4.3629436,-1.9788742,-5.708709,3.757154,3.718678e-05,0.21295488,3.6817377,0.9220687
-0.12568158,-3.3905792,-1.6754152,-1.4386997,-3.350071,-2.6112223,-2.2087889,7.061375,-0.00017766585,-0.48099723,3.0688055,1.910148
-0.0145216435,-2.2098582,-3.014408,-3.4299839,-5.552152,-4.73712,0.19331889,9.577695,0.0030165217,-1.5147251,1.5681963,3.5907478
0.2289014,-1.3388278,-3.7223394,0.12390914,-4.134605,-3.7915845,7.3215513,10.41579,0.03324495,-2.3434134,0.5594775,4.7030163
13.748364,-2.6082578,-0.00041909306,17.40592,-0.25409406,24.866085,23.253246,-12.663401,-3.755339,10.605253,-8.171291,7.1791935
2.1989124,11.816082,-0.0003902191,0.30337095,5.324897,-1.5748001,-1.0510935,-3.2953422,1.088643,3.7421029,-11.15481,-5.831953
-2.7204452,10.433356,-0.00022070581,-0.16346823,4.5776715,0.24733421,0.27606294,-2.6585405,-0.9671132,-4.169755,-9.594465,0.12521212
-2.8493888,5.118635,-0.09061859,0.2316222,3.0919719,1.8988467,-0.5207599,-2.7838013,-1.1410925,-5.2103324,-5.359059,2.295343
-5.081708,-3.1315815,-1.8840871,0.4981584,2.2424095,2.76857,-0.48976806,-2.682354,-0.5981244,-3.2374861,7.8701506,6.681188
2.817051,-6.4097023,6.0633097,-0.76803243,-4.806404,-2.9610538,2.9067748,-4.026885,0.7871685,1.3613502,6.1895328,-6.4195433
0.15300724,-4.763626,2.251129,-0.35615262,3.2993667,1.5015953,-7.59722,-4.878139,-0.011061596,0.9751905,5.1399393,-2.5770605
-1.1186941,-4.074613,0.33302101,-0.4438345,1.8988556,2.7416573,-5.4926667,-1.079658,-0.014589456,0.44469976,4.0303507,-0.15372708
-0.33160123,-3.7835155,-0.21833456,0.9704332,-0.20839036,4.4724426,-1.9466609,2.3984494,0.20977278,-0.45735273,3.233278,0.62988764
-0.3021981,-3.2139714,-1.1680316,-3.1326292,-3.623573,-2.975665,-3.9304233,6.2908125,0.007418356,-0.6581282,2.5440793,1.6823801
0.29163188,-2.1673033,-2.5214908,-3.7580118,-2.849211,-5.548813,-1.3500618,6.8596687,0.0041464153,-1.5922875,1.5711179,3.4869153
0.021350585,-1.8205742,-3.24837,-2.9996388,-5.4618397,-4.023222,3.5742216,9.622522,-9.523705e-06,-2.0236197,0.7199463,4.5919847
-4.214679,5.840321,1.6603482,8.618794,-4.2680473,4.394836,17.809498,2.6747541,-2.721564,-1.9309278,0.25771126,4.78945
9.1757765,6.8915286,-0.0004007251,0.13722366,5.4896917,-3.366638,-2.9914765,-4.301475,3.4765568,12.832954,-12.48934,-9.097804
-1.8212134,10.93472,-0.0002558488,-0.40875718,4.9433546,-0.7885339,0.5569605,-2.666343,-0.62396693,-0.40190044,-9.794973,-0.30296037
-4.2544446,9.397615,-5.551413e-05,-0.1736354,3.9241362,0.8497588,0.2655005,-2.580324,-0.956647,-4.0423245,-7.824687,1.3090526
-3.3271375,0.16418146,-1.6059328,0.27427605,2.7651343,2.3829513,-0.07293533,-2.5430272,-1.0547804,-3.9622407,0.3309163,2.6138139
-3.745576,-3.422831,-1.8171556,0.830757,1.8013098,3.1241593,-0.61662674,-2.6088839,-0.5745733,-3.4052439,5.0996013,4.8967233
7.3542776,-6.548543,10.3209,0.34861267,2.7750041,1.5976362,-4.1280174,-3.6082442,0.46051142,2.0576267,6.0131803,-8.449455
1.0185587,-5.291873,3.3734965,0.107946694,2.333969,2.5577264,-6.963029,-6.556363,-0.044477683,0.9035759,5.351052,-2.868697
-0.83001536,-4.6395283,0.99131936,-0.98744005,1.8004116,3.4633691,-5.6429753,-2.5964494,-0.0013188319,0.9567979,4.9843283,-1.3586217
0.22338818,-3.7466853,0.03068069,1.9646852,-0.25504065,4.8271017,-3.5272326,0.8861864,-0.15583542,-0.8689789,3.2264903,1.1917444
-0.032159775,-3.6178682,-0.35563588,0.37120402,-0.98806214,-4.6730056,-1.9784849,2.289109,-0.039182257,-0.081270054,3.2240565,1.0677505
0.39311802,-2.6347344,-1.5455645,3.5203223,0.5769285,4.810049,-5.193262,6.6949754,0.65787846,-0.9104246,2.6605008,1.1971487
0.34967238,-2.116213,-2.6464884,-6.033315,-5.705908,-7.596364,-2.6319735,9.482778,0.00042697787,-1.9186339,1.1324879,3.5817842
-0.3166823,-1.7844887,-3.648805,-2.4475994,-8.787672,-7.1719475,4.9554205,11.564158,-0.0011282037,-2.0262234,0.31302506,5.209372
2.7842152,3.4817638,-0.00022109068,10.086898,-4.4066906,9.365108,20.393955,-3.6598806,-4.479986,0.22186436,0.083534285,2.810479
5.9546633,10.179387,-0.00047269836,-1.4359599,6.7860065,-3.159467,0.79319423,-3.4833553,0.3965532,8.866531,-11.2714405,-11.045801
0.1465562,10.826748,-0.0004072885,-0.29484433,5.8133826,-1.3878404,0.39747715,-2.8778727,-0.72035563,0.31603688,-10.978461,-4.090603
-4.2416034,10.643164,-0.00018018292,0.40347308,3.365597,1.68497,0.20162885,-2.283629,-1.3591244,-2.9808524,-10.014822,1.4570668
-2.679504,3.311606,-0.6930867,0.7960625,2.4459648,2.7050867,-0.6759109,-2.642987,-1.2836576,-3.6804678,-6.5599318,1.90178
-5.052165,-3.7949696,-1.9740622,1.0667295,1.3279127,3.6801577,-0.8087785,-2.649307,-0.8428965,-3.1660626,7.967492,6.840327
3.1582408,-1.5337434,4.044361,-0.49587947,0.8807801,-0.66491395,-2.1438856,-3.3781774,3.0475137,-0.30301958,0.23050392,-0.41558933
1.3507267,-1.755582,2.083335,0.30821413,1.3798821,1.0986654,-1.2972121,-5.3712153,0.96670693,-0.5842271,5.5883565,-1.8332117
-0.47737414,-2.3296487,0.80826366,1.0001802,-0.13727483,3.583272,-4.122676,-3.924608,-0.08382653,-0.83208287,10.28845,0.96750927
-2.1866498,-3.2905874,0.5350852,-0.39794353,-0.26911557,4.0486298,-4.9933543,0.97492075,-0.003413389,1.255625,2.1669888,1.0820812
-1.2127639,-3.7592127,0.39188403,0.18310735,-0.035571627,4.1299233,-5.275142,3.2724605,-0.008315098,0.39327186,2.0003645,1.9013569
-0.81102264,-3.0279236,-0.5447757,-4.7248206,-3.4446986,-12.694669,-6.1096683,7.594008,0.00067529175,-0.0041775852,1.6311306,2.2425585
0.01642187,-3.1729999,-0.7861656,-5.111851,-3.43028,-4.50139,-4.307315,7.6702294,-0.0025853417,-0.979025,1.2107376,3.1867156
-0.14098254,-2.5398192,-1.8767173,-3.3904266,-5.5004244,-6.272014,1.5571871,10.612983,-0.0029720599,-1.6301613,0.49905473,4.0285883
1.6810484,-2.3580287,-3.906283,1.4885311,-5.7271113,-2.2245848,12.008339,9.986072,-1.1121293,-3.1546247,-0.6796389,6.3051724
14.388514,3.773692,-0.00040918466,-1.2524312,7.47036,-6.187187,22.656574,-17.9888,1.2782651,10.672398,-10.118345,-6.374025
-2.344131,11.710806,-0.00032820203,-0.76633906,5.1836033,-1.6858684,0.68318844,-2.5699487,-0.551389,0.14953281,-11.222754,-2.1363828
-2.6802454,10.83256,-0.0002183246,0.1690732,4.2952123,-0.24461393,0.08671335,-2.436147,-1.2457603,-4.36596,-11.31512,0.48884803
-3.6283448,6.362501,0.47413963,-0.06186726,4.2026215,0.97241056,0.46520388,-2.3625486,-1.9359189,-2.7955666,-5.5626564,1.2438016
-2.3673744,-3.58641,-2.2522316,0.058918677,3.3278084,1.7294943,-0.34716302,-2.4798646,-1.7152686,-2.021491,-1.405443,0.7783018
-3.172014,-4.445554,0.0287996,0.89477897,1.6167617,3.0180295,-1.4992251,-2.816309,-0.64070964,-2.1406646,7.9316792,6.014282
0.96139914,-4.673314,4.387377,0.55602604,-2.9538867,-1.1639302,-2.4964073,-1.657699,-1.8421757,6.7175117,7.901341,-15.0459385
0.18318373,-4.5599337,2.0769644,-0.137912,1.883809,2.584798,-5.9291916,-5.7055573,-0.007382553,0.6769606,4.43349,-1.3849808
-0.07889349,-3.684618,0.08720875,1.622067,-0.12479456,4.7047,-3.1701403,-1.1793072,-0.009792138,-0.5512527,3.4268785,0.7285126
-0.6839464,-3.7249453,-0.3709457,0.7737095,-0.42421412,4.6562862,-3.6095924,4.000488,-0.0035029352,-0.0033777468,3.228198,0.51342803
-0.30586866,-2.9324608,-1.3965533,-0.8950391,-5.4341626,-2.0649238,-4.0415897,4.7935543,0.005684056,-0.56638104,2.4003577,1.9056379
0.022437233,-2.23266,-2.5010066,-4.940229,-2.6224427,-6.193167,-1.4577082,7.912074,0.0022535773,-1.1767342,1.5693641,3.5070422
0.10808034,-2.0681524,-2.9572697,-3.6540108,-4.30765,-5.2090306,-0.08374492,6.947803,0.009402738,-1.5777607,1.2779632,3.7645376
-0.26381153,-1.0694059,-5.100917,-2.5122154,-6.375251,-4.766153,5.9410973,10.985364,-0.0024677292,-2.4336817,0.07124984,5.614544
11.961537,3.0871873,-0.0003062319,15.886228,-4.3545847,13.794459,22.279776,-6.3769007,-2.6459727,1.4531991,-9.475533,17.926615
3.7777603,9.893879,-0.00036609598,-1.8302867,8.985115,-9.059811,-2.1012604,-4.1918073,2.425271,4.633155,-9.194962,-7.3518004
-4.779906,10.598271,-0.00020045307,-0.51210725,4.559283,-0.024836723,0.4146473,-3.0944953,0.22501811,-0.41529983,-8.817614,0.8022463
-3.8146174,4.173614,-3.506377e-05,0.22844687,3.2937903,1.8406924,-0.06196557,-2.821972,-1.0172188,-4.3318706,-7.1305137,1.7011318
-2.5991447,1.6511214,-1.3115803,0.268301,2.89492,2.5189738,0.099562734,-2.637065,-1.6273123,-3.8119738,-3.855809,2.5070374
-2.3401308,-1.7379882,-1.2567236,0.7933486,1.8540007,3.3424675,-0.9822831,-3.1471794,-0.31223288,-1.2945442,7.437849,5.786557
7.135888,-6.942814,13.5129595,-1.2865103,1.931703,-4.6698594,3.05049,-3.018794,-3.4282541,7.860157,6.747594,-13.962911
0.9596014,-5.5772815,3.9455702,-1.0060112,3.2006736,-0.34719223,-8.3328285,-5.257413,-0.003329241,1.5937463,5.4609246,-4.1423864
0.07746737,-3.9139678,0.61630636,0.73606044,0.9824849,3.526257,-5.825426,-4.010815,-0.016730476,-0.4532196,3.7974021,-0.050309688
0.0739987,-3.4618313,-0.8320112,2.1068478,-0.97231674,5.614944,-0.86937034,0.24126652,-0.6266751,-0.97943616,3.1005273,1.2226069
-0.4006391,-3.7149253,-0.81307656,-2.864959,-6.5407267,-2.902309,-4.949293,6.217317,-0.00032965693,-0.11151711,3.420162,0.79621327
-0.18180273,-2.579494,-2.2104144,-4.324844,-2.5892825,-5.722771,-1.8146158,10.554317,0.00039636693,-0.6638162,2.2463853,2.7276363
-0.23886679,-1.8988489,-3.2432234,-3.0231872,-7.0546494,-5.0963416,2.9663742,9.977564,0.00044230564,-1.830765,0.73534685,4.410476
3.6868467,3.3888338,-0.00020117112,9.799464,-3.001081,7.195478,17.384956,0.7757149,-3.2756507,2.0114975,-1.948549,1.8938388
4.654952,11.098711,-0.00040167326,-1.0493953,6.4751062,-3.4803648,-5.0424027,-7.7821975,10.10141,9.735401,-10.279215,-8.564083
-2.6309586,11.873384,-0.0002840067,-0.26769182,4.6362133,-0.16230322,0.22598886,-2.8813615,-0.36143082,-1.6953928,-10.115685,-0.319459
-3.1389759,6.669403,-4.3807056e-05,-0.09467621,3.6843028,1.1927882,-0.1423518,-2.754728,-1.0982702,-4.8285217,-7.8872976,0.9955715
-2.6104066,-0.5574776,-1.9785925,-0.64110935,2.7872267,2.1836042,0.4366715,-2.3793924,-1.9832814,-3.4560041,-1.2867156,2.9157495
-5.9500885,-6.9277983,-1.5399898,1.5438601,0.9818696,3.7053816,-0.66876614,-4.2217746,0.8301455,-2.4573941,14.522646,6.9389763
1.5317785,-5.4647636,4.727069,-1.6362908,-2.7748861,-1.4067345,-7.6961536,-4.533739,0.0006260718,1.9235449,5.5715647,-5.2169085
0.053901486,-4.9207897,1.9926612,-0.16658568,1.7795234,2.9943287,-6.952023,-3.927119,-0.010919852,0.37941018,4.6468954,-1.172871
-0.13868183,-3.7931218,0.18340297,2.0036101,-0.8185258,5.394029,-0.7540585,1.017221,-0.2682448,-0.19552806,3.5818813,0.17012088
-0.6223996,-4.2952743,-0.22792147,-2.1966424,-6.4266577,-0.97733927,-5.150764,4.4697347,-0.0006076908,0.02892635,3.5864215,0.57966423
0.13517961,-3.573691,-1.4231517,-2.5275486,-2.4413242,-3.2231205,-3.177142,6.189436,-1.927698e-05,-0.83772814,2.4329271,2.7681942
-0.16569147,-2.3470943,-2.9700305,-3.2080011,-4.7626677,-5.80182,0.021871,10.409111,0.0051632402,-1.277087,1.4121615,3.9927151
-1.2179786,-0.7542191,-4.5892677,-0.7364697,-5.5031285,-4.333353,6.28974,10.924566,0.74844176,-1.7323724,0.23008546,5.484279
15.081474,-1.0256734,-0.0004011771,18.184011,-2.041595,18.303642,22.454773,-12.448844,-2.4727416,6.7353163,-11.322361,10.080721
1.369114,12.440164,-0.0003746858,-1.3694353,7.3874593,-4.1592937,0.608068,-3.8233318,0.6545511,2.7187986,-11.162315,-5.379135
-1.6635121,10.803636,-0.00026542164,-0.56369036,6.4792356,-2.3558164,0.6001175,-2.9497979,-0.86611813,-1.8923838,-10.161119,-1.1890366
-3.79964,7.1997952,-6.8352776e-05,-0.15811455,4.170236,0.8638559,0.4409781,-2.4517949,-1.9222854,-5.3256884,-6.592309,2.4588015
-2.7392423,0.6848068,-1.5063636,0.67544293,3.4073663,1.9506307,-0.5226677,-2.4748108,-1.4459026,-2.7817583,1.137552,4.610791
-4.3542852,-5.40497,-1.0624421,1.2292187,1.4951496,3.3813033,-0.85778344,-3.0078197,-0.21754356,-3.1132522,10.380429,5.901321
2.5113916,-6.055269,5.596341,-2.817526,-3.8187163,-3.0551088,-2.77593,-2.102344,-0.097211875,1.5629303,5.903115,-5.745438
0.68499106,-4.6973605,2.0753472,0.11141835,3.2045214,1.7093751,-8.760458,-4.8361993,-0.013688476,0.21434356,4.8986573,-1.75045
-0.31616575,-3.9070232,0.12992963,0.68486875,0.6738064,3.8360324,-3.657399,-0.90926105,-0.015632298,-0.2779474,3.7953196,-0.096356764
-0.33021075,-4.021721,-0.088104725,-2.055014,-4.5108237,-1.7630022,-4.8742037,4.5946913,-3.1238073e-05,-0.25284532,3.2203732,0.7906828
0.3970059,-3.764022,-0.4753245,-0.68532026,-2.8586628,-1.4912424,-2.0864348,6.244249,0.0056436714,-0.15120664,3.0074334,1.6384147
0.025209755,-2.2778168,-2.1934083,-3.844078,-3.505947,-2.746655,0.21118237,8.363073,0.0045544133,-0.46520323,2.3658357,2.2079701
-0.30746922,-1.5994128,-3.1046326,-4.4730535,-3.5420263,-3.6532805,1.6042452,8.030303,0.003495345,-1.1734022,1.280377,3.4925988
-0.32208437,-1.8360755,-3.010423,0.85406125,-4.3389163,-4.7789516,8.222349,7.8262067,-0.38790995,-2.8946836,-0.3839975,5.66725
13.270236,-2.0061636,-0.00043778634,-4.3588166,7.93655,-8.45521,24.683279,-14.237201,-4.8848877,12.460027,-6.901313,3.115048
0.6859045,10.807105,-0.0003626129,-0.9419768,5.2742996,-1.9879977,1.3403043,-2.078,-1.4937702,5.817408,-11.907384,-6.9947367
-3.3800082,9.558941,-0.0001619441,0.3313517,3.5960498,0.96194434,0.5227845,-1.9238254,-1.8430691,-4.33994,-8.385891,1.9940473
-4.2169676,3.0746796,-1.3896079,0.7344626,2.7934935,1.9514185,-0.25016642,-2.1296775,-1.6943189,-5.337444,-5.6756325,1.2894222
-0.72314656,-0.8410018,-0.9051593,0.40889156,3.001553,2.184714,-0.49110666,-2.5197806,-1.6005573,-2.337879,1.5565305,0.73647285
-4.4737945,-6.3266706,2.191489,-0.20891151,2.362548,2.2088833,-0.7749328,-2.8060856,-0.6152405,-3.3067377,8.127436,5.2404194
1.2159382,-4.124032,4.1786146,0.3542781,-0.19148588,2.340492,-6.4934373,-3.5410695,-4.07432,6.435352,8.188703,-15.534113
0.079377085,-5.0625763,2.4214282,-0.99684584,2.3854728,2.1904345,-7.6128716,-4.967681,-0.011992999,0.5585926,4.453185,-1.2871152
-0.68081814,-3.6531136,0.018349957,0.65242666,-0.035306573,4.325054,-4.0283976,0.6498185,-0.010057304,0.004236432,3.2498457,0.4876777
-0.3992718,-3.3438065,-0.49583602,2.137651,0.34555745,8.218717,-4.2755046,4.3900366,-0.024201982,-0.28159186,2.5602999,1.1165265
-0.507444,-3.4490426,-1.0372447,-2.7599266,-4.906128,-2.9895022,-2.5448468,6.4918637,0.0019498367,-0.20607683,2.6040072,1.5577803
0.042414874,-2.9176297,-1.6480466,-1.8415731,-3.4784064,-3.0627515,-0.72790563,7.2539344,0.00072296895,-0.8571809,2.0549235,2.3156695
0.10403781,-1.6145494,-2.9042583,-4.1299887,-4.0789986,-5.2871146,-0.2774942,9.497843,0.0034944348,-1.7744331,0.8930364,3.7060397
-0.015293941,-1.5527664,-3.3465242,-3.333234,-5.939839,-6.7549148,3.6497462,10.932192,0.0029163284,-2.3597996,0.1628529,4.91306
1.2822121,6.7143216,-7.224298e-05,11.584281,-1.880163,8.610047,20.629519,-0.5397209,-4.3661966,0.5154136,-0.36937922,1.2897583
5.294175,10.127429,-0.00042089634,-2.3228295,8.470445,-8.32793,-6.382013,-7.393829,11.050349,11.508313,-11.031566,-8.920692
-1.2009789,10.338944,-0.0002671373,0.2422135,3.464843,1.2763377,0.6717876,-1.887388,-1.8785678,-0.64521134,-10.598818,-2.2923276
-4.411706,7.0852695,-4.3362554e-05,0.85258174,2.215853,2.648489,-0.3891918,-2.1793392,-1.4407243,-6.0899343,-8.242442,2.7157855
-5.584811,-3.0553775,-2.4482737,1.5703381,1.4235525,3.5857031,-0.29238212,-3.9942958,-0.0006329119,-4.172866,7.235575,8.706738
3.4346786,-6.1429577,6.997846,-2.0252783,-4.305162,-4.271946,-3.1979148,-0.84030324,-0.20329514,6.1569552,8.775751,-15.237126
0.23870169,-5.3667316,3.2248893,-1.6429014,4.607181,0.18649912,-7.4356766,-3.8479114,-0.01340344,1.4306768,5.1422286,-2.7595768
0.26697057,-3.876068,0.56176245,0.5725924,2.0217996,2.6552532,-4.7185388,-1.6358396,-0.011393534,-0.30048788,3.7065995,0.3499052
-0.1980746,-3.2457585,-0.85119665,1.4881694,-0.48192495,4.7136817,-0.72010285,1.7135861,-0.010199141,-1.0409555,2.5648444,1.4621786
-0.6996013,-2.6984167,-1.5942771,-1.3461163,-4.4378433,-2.2704937,-3.7402873,4.2786484,0.0040661492,-0.47402054,2.2163403,1.8657027
0.16667044,-2.7079968,-1.9649988,-4.3293366,-3.449258,-4.6305323,-2.42064,7.474787,0.002033579,-1.1100434,1.8403928,3.1124153
-0.8725617,-1.6601942,-3.300575,-3.7317114,-6.7059603,-5.8195443,2.7495806,10.791156,0.0044594305,-1.1309165,0.95320034,3.9116378
3.2096684,-7.340978,-3.8132377,7.7131696,-4.2397456,1.8248185,15.319566,3.97773,-3.2814147,-2.2259367,0.02602652,5.047992
10.025009,8.59489,-0.00043927622,-2.2983353,8.037481,-9.541316,-2.6570325,-3.6600018,3.6475863,12.181687,-13.207876,-14.225544
-3.365025,13.091018,-0.0002705485,0.77452457,3.6372502,0.74138767,-0.04418873,-2.2516057,-0.51944834,0.6592727,-8.723366,-0.5984575
-4.329923,11.63921,-0.00019106586,0.0069122873,3.877246,0.98075914,0.7543791,-2.3677175,-1.2969745,-1.4367855,-7.7347755,0.79517514
-3.9326541,5.29691,-6.823782,0.58948416,3.3800747,1.8686569,-0.40794125,-2.712051,-1.0324838,-3.989341,-8.431114,13.546461
-2.569553,-1.7920814,-1.9638118,0.55412453,2.3204186,3.0503302,-0.7415346,-2.672696,-0.8860313,-3.2894998,5.726264,6.7485986
10.771588,-8.856847,14.803876,-0.11477941,0.2617352,-3.113944,-0.97895914,-7.260435,-3.5887733,2.9400375,8.067269,-13.557813
0.5572026,-5.040197,2.7211971,-0.63623106,4.1497207,1.2702515,-7.8955,-5.213587,-0.03602931,1.1166265,5.10418,-2.8819597
0.044261277,-3.8245237,0.39739433,0.95265716,0.79967594,3.9413185,-6.420809,-1.7664177,-0.38016954,0.20031063,4.276337,-0.64057755
0.02909325,-3.975467,-0.10973738,-0.9747865,0.11288678,-6.6757646,-4.644328,5.8096566,-0.7142872,-0.20586635,3.6467354,0.35531527
0.12359313,-3.120786,-1.0649165,-2.5330787,-5.3837667,0.297714,-3.0045066,5.900787,0.34539112,-0.8154258,2.837202,0.8901365
0.19177914,-2.3615837,-2.1077645,-4.938081,-4.775439,-5.957594,-2.9298067,7.6830473,0.0043369196,-0.9582525,2.2220883,2.3056972
0.22528368,-1.6425562,-3.2731795,-3.3814697,-3.9982712,-4.847733,0.6367777,8.6752,0.011806463,-1.807227,0.99151313,4.2289305
-0.96734715,-1.613774,-2.337485,0.5681943,-5.896593,-4.1441903,8.045063,8.793475,0.16641557,-2.1293437,0.123001486,5.298937
14.632678,-0.7931716,-0.0003805122,17.826439,-0.9531374,22.189724,22.316504,-14.387457,-3.0801933,6.7151847,-6.5537024,9.344639
2.0792458,12.408681,-0.00041365746,-0.7232089,8.066205,-7.625526,-2.1236396,-2.6367013,0.7168175,1.6432762,-10.020957,-6.6160965
-5.572102,10.897332,-0.0001723776,0.12483551,3.315769,1.284484,0.52332014,-1.9987676,-1.7276235,-2.1351733,-9.729216,1.8904064
-4.819569,4.7717676,-0.85474586,0.16677493,3.1524642,1.9766551,0.24009281,-2.3810601,-1.6990429,-4.9559493,-6.2701287,3.635319
-2.8846276,-3.9704316,-1.9726653,0.6199553,1.9778202,2.9580758,-0.1445086,-3.408527,-0.46259487,-3.5075526,6.2168016,5.579091
3.4601526,-6.7552123,6.638297,-0.709977,7.030755,1.3967638,-1.0255232,-3.4738798,1.0143471,1.4332626,6.464771,-6.37085
0.5583163,-5.286957,2.797462,-0.4598374,2.5708468,2.2776237,-7.967625,-5.026796,-0.012661228,0.6665237,5.257194,-2.5805068
-0.34276906,-4.080353,0.466535,1.0390342,0.48221374,3.6796064,-4.37127,-1.1416932,-0.020466335,0.22159052,4.2499423,-0.23981518
-0.18811896,-3.5248191,-0.50528747,2.6864,2.7983818,6.629533,-4.217525,2.3568532,0.0008142814,-0.26177874,3.6176577,0.44499344
-0.21001005,-3.3460011,-1.2422276,-2.116471,-5.074789,-3.0684812,-2.703525,5.5190887,1.1719177,-0.42359045,3.0380528,1.3952932
0.24632527,-2.488832,-2.4137433,-4.2080383,-3.6619375,-3.598798,-0.7191161,7.846873,0.00038769224,-1.2767977,2.1184533,2.6950552
0.01003134,-1.5832517,-3.4432733,-2.9848654,-6.522018,-5.144192,3.4411578,9.361943,0.0075487643,-1.9449244,0.81757045,4.1711526
0.74724627,-1.4541224,-3.6993961,5.432758,-2.835996,0.5187821,15.02689,4.6478457,-2.2775888,-2.5602767,-0.038962424,5.250057
8.032878,8.640988,-0.0004013062,-2.212144,8.305275,-9.712725,-8.017397,-7.6015167,12.706656,11.271281,-13.734028,-8.3291445
-2.2439911,12.208761,-0.00026038307,0.42767876,4.3436666,-0.16342549,-0.11997869,-2.474642,-0.79415697,-0.552917,-10.486268,-1.2178398
-5.6887283,7.6580567,-2.8132123e-05,-0.3492073,3.4003413,1.2149963,0.4162016,-2.4326284,-1.1600713,-3.864158,-8.471346,1.9321632
-1.3098084,0.13923874,-1.389493,0.24322438,2.4889328,2.4514613,-0.32297704,-2.6190662,-1.0098221,-2.795101,-0.5504125,2.2382946
-4.1692996,-3.4114578,0.3471706,-1.4926519,2.7573712,2.6194234,0.16550478,-2.6323698,-1.1323075,-4.8303804,9.22928,5.0481577
2.2693172,-5.8332124,5.6033034,-0.45024657,2.5216064,2.3460763,-2.6217358,-4.9871063,-0.2719605,2.0022008,5.786375,-5.4940095
-0.46261132,-4.31478,1.7551031,0.838641,0.20431414,4.5643964,-5.778589,-5.866982,-0.0038889684,1.2987615,4.9178634,-2.072164
-0.1813827,-4.362258,1.1130407,1.3227245,-0.19254717,4.9184594,-5.1092362,0.48113012,0.004509039,0.72502947,4.79174,-1.3106761
0.40286273,-4.0425014,0.22758,2.8620188,-1.2725084,6.128568,-3.519158,3.141666,0.0043260846,-0.37320513,3.6986663,0.5144376
-0.038337514,-3.006301,-1.3578788,-1.6503026,-2.8513815,1.7517743,-5.276928,5.4341254,0.053140886,-0.82929564,2.6128526,1.8587894
0.36085156,-2.4705157,-2.2524219,-4.548122,-5.6825624,-6.296597,-1.8705717,8.914541,0.0017644672,-1.6039164,1.3791058,3.576735
-0.044606715,-2.0344675,-3.1331909,-2.4858458,-6.8686433,-5.234242,3.7758172,10.498588,0.0004480118,-1.9248301,0.57274365,4.6025257
-0.29721487,-6.051063,-10.093593,5.115055,-5.4709516,3.1356862,16.423664,2.415312,-3.2083242,-2.2107651,-0.10804047,5.4717703
8.098731,9.562918,-0.0004494117,-4.5691867,9.723073,-11.352762,0.38176617,-3.77011,1.5420583,12.188639,-14.317264,-9.538693
-2.3366992,11.117926,-0.00030955538,-0.09777611,4.907542,-0.72916526,0.04584582,-2.815473,-0.089036055,-0.9816139,-8.665574,-1.3824928
-4.417711,8.517446,-0.000106567546,-0.13791882,3.6900387,1.0428667,0.14206368,-2.6230443,-0.9272098,-3.269735,-8.903721,1.2677896
-1.7283522,2.2362874,-1.3361939,-0.058174938,3.31163,1.8366246,-0.37019113,-2.8473356,-1.1067281,-3.4584699,-2.2481809,2.7595022
-3.6288311,-5.151797,-2.417595,0.7679005,1.6934625,3.2168043,-0.89626694,-3.6289973,-0.031619366,-2.9900434,10.636258,6.853702
1.5613097,-5.652246,5.092645,-2.3563025,5.107137,-0.4973526,-0.47794548,-1.6636584,1.7340318,2.6618192,5.7643313,-6.3271203
0.5678965,-4.68076,2.213064,0.37391263,1.6482344,3.1050923,-7.2217574,-7.0576158,-0.014155278,-0.13480337,4.5616355,-1.1814991
-0.326288,-3.9456108,0.16676922,1.4676261,-0.6763063,5.216562,-1.7740216,-1.0454164,-0.025718797,-0.2946611,4.0387115,-0.3423425
-0.40980595,-4.0190725,-0.1766872,1.5710735,-0.6332014,5.4774013,-4.0403075,2.7038796,0.9414967,0.0134499725,3.890628,0.3411833
-0.32864332,-3.189455,-0.9816049,-2.7074203,-1.5875233,-14.870201,-4.452072,5.228864,-0.15458032,0.19150952,3.796158,0.4054353
0.17426825,-3.0974991,-1.3975011,-4.8294187,-5.2659674,-4.7954335,-5.2578163,7.142295,0.0043921014,-0.6115143,3.0158339,1.4448458
-0.10007731,-1.9221599,-3.1213863,-4.996212,-3.912737,-6.708499,0.27483764,10.692522,0.0043129884,-1.3009974,1.4317605,3.928069
-1.1257083,-0.43478313,-5.1805477,-1.8062189,-7.0575933,-0.0009775162,7.3623805,8.971362,0.5624349,-2.1454551,0.21969964,5.5311003
8.555956,1.2096632,-0.00029344176,12.158083,-4.6512847,13.3549595,19.595076,-5.858912,-3.6377857,3.392404,-5.1812816,3.9994242
5.415749,8.536616,-0.00041622994,-0.18518725,6.738722,-3.3234892,-0.9314313,-3.9603176,1.2197462,6.248309,-9.88833,-7.5187597
-4.5223727,12.579774,-0.00021569832,0.12570117,5.0080695,-0.47830957,0.2497207,-2.6768951,-1.3899736,-3.9435341,-10.62754,0.054449994
-4.1258297,6.55757,0.33350313,0.7395075,3.9680567,1.4913336,-0.08243966,-2.4277675,-2.0735888,-3.0620394,-6.878839,2.029173
-2.243626,0.14284125,-1.618771,0.84349865,3.2748237,2.2974584,-0.718658,-2.5661364,-1.466592,-1.6989636,3.1552062,5.5199556
-6.122802,-10.389716,-1.9657112,0.072687745,4.7941074,0.31480885,-4.2730055,-1.3427002,-5.3447456,1.5993843,6.683338,-8.824791
1.0620492,-5.502403,3.2274547,0.18734905,3.178904,2.2982788,-5.6343327,-5.9875174,-0.0154045,0.653529,5.8708925,-3.0269344
-0.39807323,-4.3508806,0.7611604,0.8547893,0.6082556,4.3261747,-5.641786,-3.42948,-0.0064139897,0.37860817,4.935028,-1.449722
-0.03968786,-4.342984,0.27141136,1.3107214,0.18990228,4.907421,-3.5110607,2.9711359,0.002929612,-0.26830927,4.185061,0.25329137
-0.14088404,-2.9103029,-1.2256322,2.2162125,-0.6450565,5.2103662,-3.0107095,4.119701,0.0056384057,-0.42118672,3.241023,0.8990787
0.55929625,-3.0024047,-1.5572587,-5.3911085,-6.989744,-6.2983756,-3.7956204,7.114033,-0.000163252,-1.1851283,2.5304139,2.1148684
-0.82113254,-1.0060016,-3.9064753,-3.2114248,-3.6177573,-4.7362857,1.9259993,8.172827,0.27382773,-1.2336152,1.2711352,3.788008
-0.34722763,-1.5251355,-3.6513011,0.20271187,-5.532704,-2.1432657,7.494145,8.511152,0.03648598,-1.8410592,0.6520509,4.61903
11.86982,-0.10943562,-0.00041901926,-4.5954285,9.334916,-9.5661,24.78874,-11.876111,-5.209963,11.599464,-9.161304,4.885531
2.876986,10.341422,-0.00042306283,0.871003,4.8157344,-0.57137066,-1.0909007,-3.1971247,0.722178,5.488015,-10.663025,-6.6921577
-3.5956943,9.393619,-0.00021019261,0.13839237,3.4393177,1.1372705,0.8340469,-1.805817,-1.9713649,-3.13516,-11.497611,0.99534523
-2.7428331,5.1128674,-0.24001725,0.20151173,2.806987,2.3661473,0.38821557,-2.0157313,-2.166522,-5.5844774,-3.6559618,2.596595
-2.7429168,0.3582936,-1.9770365,0.12541239,2.4572937,2.7487013,0.35221484,-2.1248834,-2.261389,-5.3275948,0.9478746,3.0781467
-6.127133,-5.9216995,-1.5183308,1.2171621,2.5724134,5.0841455,-0.7965238,-3.4199064,-0.040230513,-4.3947906,10.058441,4.0673814
1.365514,-5.689782,4.4447412,-0.87951666,1.6894869,1.1733792,-5.178836,-2.4390776,0.04518924,2.059417,5.921691,-5.2170615
-0.2624488,-4.922784,1.7790647,-0.95797276,3.2942736,-4.134146,-7.969075,-2.9440615,0.0012995922,1.1775582,5.580561,-2.5432625
0.7247969,-3.9633229,0.23343532,1.4194885,0.9305636,3.769745,-3.5513756,1.0087053,-0.007463513,-1.0380008,3.4073658,1.1146773
-0.22705548,-3.490958,-0.8519594,0.6857742,0.04684686,2.9868512,-0.4292702,3.2367644,-0.2676834,-0.4941842,3.196688,0.9214715
0.2636919,-2.6574152,-1.9335732,1.9989343,1.9456334,4.229396,-3.45621,5.3289876,-0.030903876,-1.2331586,2.268359,2.131069
-0.021960352,-2.221318,-2.7649164,-5.3596296,-7.107344,-6.855616,-1.3285546,9.947284,-0.0019087736,-1.5135965,1.3233881,3.4493039
-1.4269828,-0.7715298,-4.6152315,-2.1156163,-8.252887,-5.949284,6.5305543,12.512004,0.74853706,-1.6419848,0.030848652,5.3188744
10.553911,1.4672108,-0.00028159877,14.419831,-4.028522,12.239991,19.046122,-9.671652,-2.7937653,4.048721,-5.292419,5.5836105
3.229295,10.586464,-0.0003822819,-0.45214328,6.072026,-2.813916,-0.18150452,-3.200181,0.45169732,4.648683,-11.8262615,-6.0715237
-3.372252,11.386374,-0.0001961987,0.50910604,4.4544053,0.34889108,0.4826101,-2.0560353,-1.9628632,-2.871129,-8.579706,0.48921007
-4.0461082,6.312007,-7.66626e-06,0.7296751,2.8853736,1.9682692,-0.59742266,-2.4457617,-1.3510038,-3.9727747,-7.153662,2.7127082
-2.230913,-2.3898787,-2.195356,0.60316247,2.50858,2.4294307,-0.4291445,-3.7177062,-0.5323067,-2.1044967,6.6932535,5.7759438
12.753084,-9.129982,15.836754,0.7090531,-4.042461,-2.8889997,-1.9354415,-3.6269758,-1.1923604,-2.377815,6.155881,-5.275427
0.30452368,-5.122218,3.0295565,-0.84808296,3.4796169,1.0488074,-7.0784817,-4.776309,-0.0109402295,1.2248559,5.040788,-2.8424187
-0.36438686,-4.1178665,0.7088495,0.12137627,2.042443,2.820058,-5.400981,-3.726554,-0.013273239,0.29064754,4.083038,0.019327
-0.003632106,-4.2468987,0.26561153,0.6857684,1.6536748,2.2576938,-4.28783,2.9531143,-0.04500507,-0.26311654,3.4172032,0.6110146
-0.07622808,-3.5823152,-0.82134765,-1.6522915,-3.9032817,-2.916244,-1.8752927,5.2986665,-0.00049801765,-0.43185067,2.7653058,1.6561898
0.18011065,-2.6298647,-2.0742953,-4.1017847,-2.3158488,-4.8893375,-2.1706212,8.241338,0.005935833,-1.0940614,1.8329633,3.1119454
-0.6581167,-1.0945357,-3.748212,-2.8951497,-4.4404993,-4.991287,2.3185287,8.705121,0.008015042,-1.3497468,0.94530714,4.0660005
-3.5110571,2.314837,-3.3451183,4.6189513,-3.651349,0.0834111,13.513654,6.1290627,-2.0113692,-1.8429741,0.073070675,4.9148846
14.278094,8.041162,-0.00047589873,-1.2224537,8.805477,-10.091746,-6.873069,-5.285703,8.0427475,9.328026,-14.920417,-6.734248
-1.8976504,12.38386,-0.00022676022,0.19927444,4.7377043,-0.55680203,0.21032457,-2.1906364,-1.1253831,-0.98825586,-9.7137785,-2.532569
-4.5702844,8.004433,-0.00010083898,0.34098586,3.4751835,1.5106746,0.39592177,-1.903973,-2.2618132,-3.0647314,-8.444487,1.2335856
-2.2495332,2.194875,-1.3428644,1.1114231,2.5588121,2.7038054,-0.7652156,-2.2775917,-1.4028279,-2.9568107,-0.07307879,3.932383
-5.509812,-5.925445,-2.2892709,0.17061256,1.5867428,3.0781007,-0.03632772,-2.6955621,-0.6362129,-4.6468,8.380044,5.3518806
2.063341,-6.3894258,5.6963453,-1.5279009,3.319995,-2.9632568,-3.7433126,-2.9637644,-0.63314474,1.9715577,5.910011,-5.7231092
0.14341001,-5.1471567,2.0644395,0.23701094,1.4131484,3.713211,-6.189021,-4.9645996,-0.0046034288,0.5949482,5.3358865,-2.1592722
0.10050294,-3.955613,0.40160877,1.7375884,0.0054566786,4.9473767,-3.9601526,0.7718282,0.0020023016,0.13220999,4.396582,-0.6747348
0.11135824,-3.6411154,-0.30072165,2.6686087,-1.0275126,5.9078636,-2.5521233,3.288264,0.34591365,-0.2900559,3.4205182,0.74273133
-0.44094974,-2.4958732,-1.672286,-2.4738636,-4.4265237,1.9889504,-4.474036,5.671707,-0.0012188721,-0.41730106,2.9228823,0.46083525
0.38194385,-2.0989292,-2.651163,-7.015292,-5.028818,-6.348891,-2.7179978,7.4555717,-0.0009492226,-1.919782,1.5239607,3.1276689
-0.42035726,-1.7652717,-3.742992,-3.0295846,-9.176582,-6.7340083,3.8623726,11.264127,-0.0029378645,-2.2603567,0.2683856,5.1710134
-4.0074234,6.0722213,0.5280459,8.061659,-5.7181745,1.8126341,16.836796,2.5629551,-3.7697985,-1.5658374,0.16180643,5.1838684
7.892327,9.959221,-0.00043664232,-5.1362305,10.155572,-11.710698,0.74069214,-4.2011127,1.2866309,11.756801,-13.587026,-7.858022
-1.8837729,11.20598,-0.00027328957,-0.2608077,4.962133,-0.39401472,0.46452636,-2.8581684,-0.5862228,-1.7151263,-10.876502,-1.404967
-2.532755,6.374253,-9.092338e-05,0.109254345,3.7703626,1.3139204,0.012053721,-2.661074,-1.4641769,-3.5915415,-9.3403,1.5981932
-3.4587207,0.24582073,-1.8435416,0.14478672,3.115159,2.2534847,0.07855609,-2.3975332,-1.9049233,-5.3996964,-0.1136798,3.6397398
-4.7911053,-4.4033527,0.5457942,0.3436997,2.3536122,2.7813902,-0.721644,-2.9651642,-0.60580707,-3.9202664,11.742286,5.373201
2.2425768,-5.6325965,5.379138,-0.39291918,4.10196,0.9451854,-4.635237,-4.2147,-0.033888817,2.0450115,5.7198143,-5.2453675
-0.015620284,-4.421222,1.9146857,0.704057,0.6736318,4.1825914,-5.081306,-5.6971936,-0.008512806,0.9172033,5.025053,-1.9277056
-0.5831944,-4.785836,1.026467,1.1591548,-0.39728168,5.795745,-3.7717714,0.88493454,0.746655,0.5654683,4.593534,-0.35130206
-0.24118885,-3.9806666,-0.40368545,3.0535011,-0.15172505,7.773354,-4.7408957,4.929084,0.011511188,-0.48136896,3.2528799,1.285488
0.43361765,-3.3548732,-1.0447847,-3.518431,-6.3521075,-5.1781864,-3.1543908,7.3433914,0.00016041799,-1.0689521,2.1313436,2.4864583
-0.560437,-1.903568,-2.8899345,-5.3138103,-5.314282,-5.895611,0.23109221,10.470139,0.0061909403,-1.2374339,1.0520824,3.8883395
-0.58957416,-2.476627,-0.6160896,0.54474074,-4.772316,-0.0033430518,6.969255,8.433748,0.43900096,-2.3465328,-0.15540811,5.720448
13.538213,-3.0583103,-0.00041429215,16.643389,0.1336459,24.18658,22.108936,-12.121385,-3.727934,8.651569,-7.479678,11.501433
2.9228172,12.078634,-0.00039761892,-0.02933687,5.488253,-1.8465886,-0.95362604,-3.7014158,1.2251886,2.8293788,-13.507914,-6.506897
-3.144031,10.607346,-0.00015788336,-0.4105877,4.4950294,0.328168,0.62496936,-2.5406795,-1.4588156,-4.100068,-8.878869,1.240559
-3.8460152,3.5985475,-0.8470786,-0.07968954,3.2473211,1.8768927,0.18189408,-2.3380299,-1.8234034,-3.9880393,-3.021867,2.8878665
-1.6962073,-1.4722576,-1.2452743,0.77275324,1.3375444,3.523519,-0.5339725,-2.429898,-1.2323581,-3.1019459,4.796115,3.515613
5.219822,-5.659029,8.752014,-0.6091826,3.300264,1.140055,-1.9257213,-3.037616,-0.6245403,-6.409681,11.743458,5.1600037
0.8849862,-5.507481,4.124905,0.126222,-1.4666563,-1.6424962,-8.548911,-4.482297,0.002259951,1.378492,5.127562,-2.8788242
-0.3049315,-4.043754,1.2162385,0.0022020265,1.7495968,2.745181,-5.2735972,-3.6654558,-0.016071226,0.57997817,4.0088987,-0.45686215
-0.43602985,-3.8903413,0.28758705,0.0050630122,1.0694761,3.1451178,-3.358399,2.6351807,-0.019674653,0.10440423,3.4440968,0.26348066
-0.4877528,-3.4515967,-0.42752755,0.061946288,0.24304281,2.427948,-1.0654137,2.2300181,-0.004798346,-0.103765815,2.602378,1.3261921
0.0013255253,-2.9011374,-1.3187704,-1.3311585,-3.8393257,0.23590803,-3.101605,5.2401743,-0.0014590169,-1.0695815,1.5413938,2.627241
-0.5816533,-1.1761922,-3.3812299,-4.720975,-3.0833287,-7.4760323,-1.3100681,7.8998184,0.010071639,-1.4296618,0.7258709,3.997722
-1.7533917,-2.2701101,-0.6121022,-2.5912638,-9.984533,-6.684616,5.554162,12.715278,0.004664398,-2.045772,-0.18316472,5.4426003
14.3777485,-4.413811,-0.0003938186,17.879549,-0.20377484,19.798843,22.151217,-9.998098,-3.9306614,9.637162,-8.047991,11.535722
3.3779485,11.598137,-0.00039845082,0.12377279,5.029599,-1.2251763,-1.0040545,-3.78974,1.937036,5.368957,-11.482043,-6.730335
-0.41564235,9.369439,-0.00028828712,-0.49550694,5.1833572,-0.6649678,0.45219183,-3.1245353,-0.6487947,0.04881614,-11.182535,-3.0610075
-3.847896,9.209672,-7.463897e-05,-0.39447966,4.1769595,0.919378,0.23520495,-2.8762827,-1.3598676,-5.8190746,-8.60215,0.46934688
-4.127627,2.1273596,-0.69679844,-0.0818819,2.3877563,2.5666935,-0.022273913,-2.67656,-1.2091407,-3.2692978,-2.2483807,1.4459519
-2.3814156,-3.533556,-0.49581972,0.817666,1.8757976,3.25494,-1.2458034,-3.0937977,-0.6233551,-3.8034742,10.654293,5.8552628
1.6060973,-4.9232793,5.182584,-3.4162552,5.6270733,-1.4064984,-2.044725,-2.51831,0.21402636,6.468672,8.152579,-15.255978
0.23992586,-4.763431,2.6124127,-0.9192136,3.1421027,1.5670819,-7.589732,-6.299725,-0.021057304,0.7181555,4.789514,-2.0043662
-0.51127934,-3.6883786,0.5811997,0.87137085,-0.06067799,4.271132,-3.830602,-1.375171,-0.0048589,0.27773303,3.8671234,-0.3470661
-0.14952578,-4.1931696,0.42348912,0.49170476,-0.73654616,-3.9931335,-2.9778903,3.706579,-0.03726001,-0.09204612,3.4142401,0.60647815
-0.18786499,-3.0484025,-1.0926219,-0.23241645,-1.6535082,-7.3320894,-1.8739562,4.857963,-0.032556474,-0.59998226,2.2105389,2.070149
-0.2936498,-2.5032363,-1.9811765,-5.0566516,-6.4043255,-4.8444247,-3.8734596,6.71103,0.00012972511,-0.9261841,1.8753057,2.3338356
0.024435364,-1.4910231,-3.2463188,-4.5185957,-6.916296,-7.508782,0.42731488,10.038325,0.0012910122,-2.1665993,0.41932914,4.426443
-0.39560837,-1.1407486,-3.955489,-2.9053931,-6.590757,-6.2666616,4.7358274,11.134286,0.0029610826,-2.457933,-0.07434881,5.38963
3.3792424,2.488841,-0.00017425476,10.838715,-5.4809937,8.81676,18.565079,-1.137893,-4.3547873,2.5118868,-6.6599092,7.686361
5.3833194,11.052728,-0.0003904031,-0.7127807,7.226472,-6.2275257,-2.8545005,-3.7959192,2.884648,9.710565,-11.056131,-6.2063174
-1.4953787,10.554461,-0.00025566516,0.5948724,3.9699845,0.7356405,0.20974064,-2.4015455,-1.0986702,-1.8828697,-9.553266,-2.3214562
-3.1516137,6.592293,-5.6444667e-05,0.85003847,3.2968404,2.048848,0.10093295,-2.231957,-2.0497596,-5.3192344,-7.426515,1.6297698
-3.0388496,-0.47025496,-2.1086626,1.0926001,2.4001098,2.7757092,-0.94685566,-2.7679927,-0.7962243,-3.4905374,1.6304529,3.5050826
-7.5163355,-9.582492,-2.3860476,0.15682703,0.17783976,-0.48136324,4.000664,-5.440048,-6.5154157,-4.973939,11.885057,4.968052
0.98602057,-5.5951266,4.366311,-1.6674131,-2.8285613,-3.0952752,-9.58171,-2.4906473,0.0015854691,2.5471096,6.0727167,-5.353172
0.5590968,-4.2315207,1.4831892,0.232203,2.3892407,1.9734087,-6.219626,-2.9083877,-0.017660698,0.28534195,4.4899683,-1.9218224
-0.34294277,-3.8683207,0.0206457,0.46798867,0.6028697,3.5518832,-2.9854953,0.7072986,-0.02035807,-0.4298974,3.41901,0.056842007
-0.80706125,-3.4382825,-1.1291095,0.079731405,2.5578744,3.0104399,-3.0745854,3.4574707,0.00992182,0.06386402,3.4572818,0.91760457
0.22102387,-3.186225,-1.2535857,0.53126466,-2.2037985,-1.4618721,-1.7873635,5.1968994,0.38329297,-0.7726439,2.748445,1.7811222
0.060055096,-2.5108173,-2.1533148,-4.3355517,-3.4454696,-4.4899635,-2.51707,9.036754,0.0019401505,-0.7245706,2.22892,2.562688
0.7589639,-2.4920897,-2.3768308,-4.5106683,-5.4103847,-4.4047737,-0.71905476,8.967809,0.002760183,-1.659054,1.5473292,3.4894667
-0.57119995,-0.6360204,-4.35141,-0.87331676,-3.5493348,-3.5270996,6.9248857,10.318922,0.65914375,-2.243376,0.014857262,5.3418465
0.59017074,-1.0047978,-11.131548,6.184464,-3.4420822,1.436428,13.413604,2.9524472,-2.6742887,-2.047124,-0.06745367,4.8682456
14.397959,6.7627563,-0.00040354877,-1.67244,8.485078,-10.212013,-2.7085376,-7.3057547,8.63217,9.147085,-11.152198,-8.241338
3.3268197,11.425442,-0.00037777546,-1.1244272,8.522329,-8.22274,-1.8926327,-3.1268141,1.5003695,5.0696435,-10.428835,-7.173575
-3.2267163,12.070976,-0.0002164517,0.11063912,4.641655,0.4758487,0.85990405,-2.1300178,-1.889445,-2.0375235,-7.5194325,-1.4029588
-4.944187,6.0256877,0.26558495,0.7472943,1.8699793,2.8973029,-0.5981373,-2.317007,-0.967335,-4.5969024,-8.747277,4.2907586
-3.7497063,-2.3836977,-1.7821136,0.3782519,2.7868247,2.440464,-0.6303948,-2.8463433,-0.63006365,-3.7101512,4.4900746,6.575061
11.997918,-7.91799,14.920696,0.60660017,2.3705883,-4.130755,-5.6188087,-5.525897,-5.318446,-0.59577394,6.137258,-7.0579042
0.60932404,-4.8902473,2.553315,-0.1442676,2.4599278,2.2614474,-7.7608776,-5.049576,-0.009263663,0.35037938,4.928555,-2.246952
0.061722744,-4.0175447,0.689022,1.3838927,0.3316329,4.233695,-2.9594123,-1.8438299,-0.008527081,-0.17145817,4.1311035,-0.45914632
-0.5830627,-4.008236,-0.034754187,0.62694275,0.41329038,4.334704,-3.9851398,0.7956603,-0.005535163,0.101626664,3.6984577,0.68002796
0.17093214,-3.3536115,-0.91234326,2.7831407,3.6699033,8.439959,-4.285055,6.415063,0.0048551597,-0.54847425,3.1393886,1.1130785
0.020987421,-2.8843575,-1.5421932,-2.9620473,-2.8720992,-2.5597224,-3.6054542,7.18463,0.009433938,-0.80852795,2.4011858,2.060593
0.07637969,-2.1325011,-2.868504,-4.594505,-4.1444764,-6.671087,-1.9542507,8.440002,0.002820456,-1.3295078,1.5614412,3.7062137
-0.74897903,-1.052724,-4.354601,-1.7655481,-5.7842555,-5.5984235,5.993331,11.012193,0.8234907,-1.9931378,0.17616796,5.617909
4.033567,2.149423,-0.00024584285,10.72075,-6.3431582,6.0173535,17.726604,-2.3900506,-3.9139433,-1.8963132,1.2606676,4.6269436
5.395529,10.696808,-0.0004055074,-0.6376411,7.132711,-3.8276422,-0.263853,-3.6265364,0.8340382,7.6062717,-12.873022,-9.571935
-2.1757631,12.285006,-0.00024392287,0.27631766,5.273607,-0.20704657,0.13118152,-2.6715374,-1.147924,-3.2048345,-8.569378,-0.6296774
-4.4528437,8.030824,-6.710754e-05,0.42022163,3.078241,1.986015,-0.41915616,-2.4562616,-1.2250862,-2.886726,-8.7707615,2.248387
-3.7218728,4.7420373,-0.6465859,0.7665612,2.804724,2.5881095,-0.63901675,-2.5058477,-1.295958,-3.6544175,-3.696757,3.7022045
-4.345461,-3.5886738,-1.4791896,0.46986267,1.8610275,3.4629743,0.06739652,-2.8877463,-0.9218127,-3.0741103,7.7065253,7.0157685
2.6472492,-6.665925,6.032893,-0.3605468,-4.123187,-3.8935924,1.1779759,-2.6174784,0.5900365,2.1051764,6.1752415,-6.9484534
1.2046278,-6.2584667,4.548341,-1.3124222,-2.6810298,-3.6309865,-7.9805894,-3.2483401,0.0025328617,1.5855316,5.9883704,-4.2777023
1.197313,-4.588532,1.6560942,0.6528311,3.0361006,1.9305252,-5.1459637,-3.9088116,-0.014851091,-0.33317024,4.531654,-1.0619453
-0.07245678,-3.7778583,0.39358434,0.3167912,1.298656,2.9760246,-3.2474291,-0.69991714,-0.014702483,0.07428626,3.9735007,-0.9918373
-0.22904865,-3.820509,-0.19132286,-1.1685271,0.14241046,0.4358051,-4.285388,2.3147442,-0.0025888013,0.0011681169,3.4877214,0.6910808
-0.2633059,-3.199594,-1.1333805,-1.4528344,-2.979696,-1.7971263,-2.2793012,4.2162623,0.0006428296,-0.34502813,2.4961543,1.9185193
0.23588851,-2.613567,-2.1618009,-4.2245946,-4.0972023,-3.91762,-0.86274713,6.5763183,0.0042350953,-0.9180098,2.1623294,2.6913524
0.621337,-1.9967295,-2.8409505,-3.4651222,-2.8386147,-4.331568,0.51074463,7.6378403,3.8684462e-05,-1.7606797,1.3896403,3.7392058
-0.31537575,-0.9460364,-4.8481393,0.658374,-4.523236,-4.630907,8.660003,10.019034,-0.17045288,-1.6035218,0.6656563,4.2848716
3.2540085,-6.952925,-5.0683594,7.83483,-3.5902486,4.5078564,16.612709,2.5064566,-3.0911493,-1.7320688,0.44401705,4.2004375
7.045228,8.7215605,-0.00042104966,0.527076,5.885883,-6.635766,-4.5381722,-3.2259932,3.659687,9.856648,-12.353446,-7.2246804
0.18335661,13.8227415,-0.00029550324,0.30714825,4.374142,-0.40156603,0.3113845,-2.1064801,-0.5936339,3.233498,-10.79069,-3.2152295
-2.893643,9.994348,-0.00019489636,0.22965366,3.5994802,0.8822773,0.6468075,-1.7532758,-1.9691869,-3.1307697,-10.457955,0.73221135
-4.237465,8.847582,-0.00011814726,0.7672411,2.6017106,2.196655,0.15467496,-1.7523636,-1.8469636,-3.9024415,-8.340695,2.5080872
-3.747347,2.6562693,-1.3842572,0.93325156,2.0908206,3.0334187,-0.37275642,-2.653637,-1.26516,-3.863078,-0.1246342,4.373542
-4.988088,-1.9666524,-2.1312108,0.81207234,2.2175055,2.8752134,-0.42721894,-2.8366508,-0.69428056,-4.0976963,6.6305256,6.3298717
-6.1599693,-8.316426,-2.588108,0.5885692,2.9696195,4.1301327,0.0060554743,-3.7839656,-0.7168672,-5.8227267,10.421418,4.8304095
2.3827817,-6.295779,5.248716,-2.6807172,-2.0864072,-5.1448464,-6.725582,-2.1900952,0.0020170896,0.91868937,5.834613,-4.455791
0.02215676,-4.365797,1.8802215,-0.29856148,2.5937817,1.7455308,-6.5661077,-4.119208,-0.009137843,1.0093437,4.7982264,-2.564366
-0.48969042,-3.5973654,0.14145553,0.35438657,1.2357917,3.1709712,-4.313519,-2.2761815,-0.01676694,-0.030417155,3.7188466,0.04252681
-0.20277008,-3.8170242,0.0985257,0.6090668,0.9384965,3.569862,-4.703356,0.7361559,-0.009570265,-0.3284025,3.4546366,0.68533313
-0.6138301,-3.2653844,-0.9289248,0.044639826,0.4042194,4.2303824,-4.00582,4.4147506,0.048962176,-0.11342999,3.1164289,1.0723935
-0.004503358,-3.198736,-1.1256527,-1.8339344,-4.394536,-2.1909766,-2.5937407,5.478434,-0.00016867998,-0.67630816,2.702883,1.6087705
0.9764575,-3.6156375,-0.90868473,-2.7070053,-3.6957996,-3.6493928,-2.1263618,6.819932,0.00033468148,-1.3327653,2.1678557,2.801468
0.48776674,-2.378699,-2.1897857,-5.4165034,-4.790158,-10.35848,-0.7790069,9.89381,0.0031745485,-0.9816413,2.1039283,2.8973136
-0.42609906,-1.105558,-3.637184,-3.4006333,-2.7390242,-3.3253407,3.1741257,8.013153,0.00085682876,-1.2870079,1.0677351,4.032057
-0.27119887,-1.5107493,-3.2931995,2.457768,-5.384963,-0.54545945,11.65449,7.6941166,-0.9222216,-2.720979,-0.35392654,5.7541943
9.918962,5.6196017,-0.00035828067,-5.41947,8.332657,-8.346489,27.1716,-16.438107,-7.1932025,16.753716,-9.442966,-4.9936495
1.8929403,14.577061,-0.00031927775,-1.4128165,5.3846893,-2.101114,1.4309168,-2.7464514,-0.17575026,9.876,-13.457986,-10.711101
-4.285514,9.285322,-0.00018209286,0.685904,3.2453372,0.76970905,-0.19752593,-1.9731115,-1.2039152,-2.8848777,-11.52268,2.6400487
-4.453924,8.432734,-2.6531146e-05,0.3029982,3.6892295,0.9222851,0.14076364,-2.1522708,-1.8154752,-4.852884,-7.7909794,1.883822
-3.4113152,-0.11229467,-1.7164245,0.57049114,2.847647,1.751422,-0.8758419,-2.5872388,-0.7804357,-3.7627866,-2.6453824,2.042255
-3.3105366,-6.9503245,-1.3899225,1.2853639,1.8339787,2.7861753,-1.9460391,-2.9738214,-0.124505475,-4.0492144,8.625794,4.497477
1.6071504,-4.6527576,4.966426,-0.87101173,2.5909753,1.5403639,-0.56230277,-3.1893868,0.52268416,-2.6470318,12.048521,4.1340823
1.4031502,-4.9468164,3.8492553,-0.1779497,3.8954945,4.0044336,-8.681112,-6.8329725,0.009114727,1.5423601,5.0491476,-5.0962157
0.15975347,-4.462752,2.29209,-0.24274455,3.0864277,-2.0579243,-7.5268965,-5.396096,0.0021606572,1.5670248,4.93574,-3.378963
-0.03877775,-3.3788216,0.2123244,1.28397,0.08057234,4.100985,-4.180797,-0.42619506,-0.009216139,-0.20526643,3.4773524,-0.1440694
-0.038624816,-4.004136,0.3006028,1.1191083,-0.13884248,4.5749993,-5.205973,3.0834281,-0.0025048386,-0.48488566,3.3106863,0.6114956
-0.0077908,-3.6694715,-0.4076671,1.5796052,-0.53022987,5.139092,-1.8457873,3.7856815,0.36287704,-0.47601128,3.0739174,1.0593437
-0.7468544,-2.9922738,-1.2361705,-3.151458,6.9272084,-29.158726,-4.7589536,7.3099604,0.0006631017,0.2811955,2.9398859,1.2223396
0.09303414,-2.0827258,-2.485694,-5.9611945,-3.9973102,-12.191234,-3.342859,7.5172133,-0.00527366,-0.91065466,2.2206655,2.44978
-0.07049669,-1.66888,-3.4532168,-5.1364975,-4.9283667,-6.9737196,0.9032071,10.240808,0.014399119,-1.7917249,0.8476641,4.5899434
-1.4291897,-1.278008,-2.4072204,0.96017027,-6.1793275,-2.6871517,9.285094,9.594398,-0.16765997,-2.8434772,-0.58854043,6.3498287
16.288239,-0.41354522,-0.0004661556,18.446808,-0.90746677,28.015364,24.013107,-14.915909,-3.367554,11.307866,-6.523188,-0.5154588
0.6805524,12.965492,-0.00037230435,0.149386,5.031173,-1.4679785,-0.7339418,-3.322112,1.2714077,3.8674846,-11.617134,-5.1118917
-5.485362,8.390498,-0.00014099243,-0.19516869,4.3073263,0.21856578,0.16653441,-2.8213995,-0.5083104,-2.777894,-9.959458,2.4261277
-5.134035,5.1074224,-1.3285597e-05,0.12820812,3.95783,0.9413482,-0.44870588,-3.083933,-0.45220262,-4.9192505,-7.9542155,2.6164088
-3.282189,-0.22880477,-1.4466938,-0.011423086,3.3317714,1.8678908,-0.38614023,-3.041833,-0.4907946,-2.4731152,2.1533217,3.980626
-2.683825,-2.860554,-1.0971925,0.2674485,2.6616702,2.5126896,-0.8793352,-3.2209392,-0.14496198,-3.6365006,7.328509,5.1501083
-4.839777,-7.353898,-1.4834256,0.1616611,2.2997246,2.6330109,-1.2016368,-3.9446843,0.6254749,-5.5087237,11.847109,5.0269275
1.8937141,-6.0252113,4.982366,-0.21894415,-4.025685,-3.255782,-4.613866,-4.559416,0.001688892,1.3309915,5.636876,-4.9192877
-0.29842794,-4.245684,1.2877268,-0.17681743,2.014204,2.5295496,-7.090541,-3.932018,-0.011517171,0.90429056,4.7389765,-1.7934353
0.26923373,-4.308559,0.4416551,-0.07841089,2.0173526,2.7277746,-3.987212,0.34158927,-0.008186758,-0.5145204,3.9499333,0.11164877
0.1035125,-3.3585093,-0.8048077,1.5272686,0.10783358,4.580119,-1.2178816,3.0890698,0.36133975,-0.68972564,3.0787354,1.2464952
-0.26607326,-3.0216093,-1.7223917,-0.023755044,-0.25144565,3.92934,-3.4501715,5.003483,0.011691637,-0.9301438,2.2521713,2.198268
0.55768156,-2.5255592,-2.2455018,-5.1156454,-8.204159,-6.962247,-2.4933686,8.732458,0.00063055195,-1.6814301,1.438724,3.1468236
-0.8995791,-1.0151297,-3.8964508,-4.962808,-5.2543817,-8.491905,0.14601934,9.876783,0.00082803814,-1.2303847,1.1382519,3.5679946
-0.9780565,-0.569869,-4.648964,-1.5483923,-7.9192863,-4.885824,7.3135967,13.439179,-0.00072836736,-2.8155627,-0.8154722,6.4288764
15.802797,-2.0170274,-0.0004129184,19.63279,2.1136346,28.186968,23.223833,-15.92215,-6.6900134,13.258366,-4.19521,-2.776544
0.60665226,12.454176,-0.00040824956,0.8769916,4.2586465,-0.5476072,-1.1818161,-3.36711,1.3082026,4.0285306,-11.88836,-5.231646
-4.8923936,9.379831,-0.00019601086,-0.61974007,4.05149,0.22682345,0.95064735,-2.4808478,-1.1435,-3.8497798,-10.375863,2.3083332
-3.0126138,5.7658095,0.28890494,-0.39380127,3.888456,1.1800466,0.4400678,-2.7437317,-1.4190793,-3.9387832,-6.602911,1.8382171
-3.1637313,-2.2717054,-2.1094623,0.4712784,2.5052302,2.7415855,-0.45820987,-2.7991664,-1.188622,-2.6984022,5.3828807,5.4090676
6.944388,-6.5857835,9.330702,1.0895442,-4.282132,-1.1825122,-1.6888528,-5.1584296,-0.6620428,1.2161574,6.348913,-8.132085
0.5288462,-5.4901447,3.8314106,-1.5003,4.8171344,-0.012169018,-9.366374,-2.6296985,-0.013812229,2.2709074,5.8947597,-4.119727
0.37265944,-5.058052,2.5192454,-0.48829484,2.8092844,1.8367884,-6.961866,-3.584325,-0.015148656,0.9440578,5.0577793,-2.4092453
-0.1905638,-4.2387385,0.53866446,0.42171606,1.0675268,3.509883,-5.093055,-1.8463116,-0.014068786,-0.18574902,3.6518006,0.30907902
-0.7373267,-4.0798182,-0.043627426,-0.53314245,-3.5479612,-1.943596,-4.4222364,2.735754,0.004149029,0.31701618,3.7739246,0.07785682
0.90507245,-4.23618,-0.3136478,-1.1186947,-2.49526,-1.3401642,-2.316685,5.406958,9.502191e-05,-0.85627747,3.135626,1.7329051
0.8123943,-3.6727967,-0.82080925,-2.5000625,-3.0857296,-3.315527,-1.7160699,7.0983243,0.000119135715,-0.6625701,2.714418,2.1625094
0.47459966,-1.8118606,-2.7565582,-2.0903304,-3.3789706,-3.9074972,0.90982157,7.2294273,0.63888526,-1.4816124,1.4776523,3.4186485
-1.6894388,-6.1212797,19.394634,2.002453,-4.7835336,3.4409652,8.393352,9.579719,-10.330719,-2.0271459,0.28571337,4.2701344
7.912912,0.047760714,-0.0003253066,12.417167,-0.2864605,13.290723,20.843353,-7.155628,-2.9963596,2.3635638,-8.520413,9.142963
4.697037,10.974234,-0.00036878,1.3047242,4.2494607,-0.21608311,-1.6134999,-3.1871927,1.0212989,5.544217,-11.639035,-7.6609917
-1.9847394,10.625573,-0.00017283377,0.023944888,4.221555,0.43962532,0.43789667,-2.149181,-1.896577,-2.8037884,-8.91268,-0.5584825
-4.3443084,5.553445,0.12384461,-0.01474785,3.0496993,1.907729,0.42174366,-1.9583203,-1.980878,-4.056256,-6.111403,3.260464
-1.998403,-1.5789446,-1.7160589,0.34600568,2.1825752,2.8640864,-0.1787816,-2.1980705,-1.7459955,-4.53127,2.5144773,2.271526
-7.6772523,-9.4507265,-0.15096869,-1.0290196,2.2864766,1.8316791,-1.433544,-2.525529,-0.09786873,3.2533727,8.214779,-13.108931
0.6940831,-5.2788243,3.9130535,-1.1055475,-1.9178551,-0.56976724,-9.861776,-6.077927,0.0012613102,1.9421201,5.505843,-4.7336526
0.55283004,-4.482493,1.3992805,1.1520764,0.60462546,4.084361,-4.379733,-2.8509073,-0.009312479,-0.21220748,4.5654216,-1.079155
-0.44472027,-4.076814,0.2963581,0.62922776,-0.21925265,2.4842596,-1.9441578,1.8854525,0.068176076,0.36031935,4.0715504,-0.16085416
-0.25059974,-3.5135157,-0.74736464,1.0941486,0.7194544,3.8864295,-3.9556093,4.4424434,-0.035142466,-0.12926207,3.1678832,1.0838493
0.40053615,-2.8466165,-1.3890401,1.9905373,1.7666392,5.938965,-2.1543396,5.152611,0.011408975,-0.96421874,2.6210947,1.6270117
0.28704414,-2.1883128,-2.432883,-4.678226,-6.3253026,-6.666482,-2.6295674,7.9263287,0.0068035275,-1.5515031,1.6150349,2.904562
-0.7183657,-0.87602735,-4.1016936,-2.7114217,-5.4519806,-5.999727,3.5706635,11.260629,-0.002143709,-1.7818954,0.45826137,4.662062
-2.2154202,2.8798687,0.6493431,8.030748,-5.687554,3.5925112,16.00522,1.022976,-4.019825,0.49921212,-0.3951768,2.4604094
8.652776,8.618163,-0.00047074235,1.6401663,4.341535,-1.748886,-9.021106,-8.064072,12.476727,10.768013,-14.087054,-9.435648
1.8707287,11.927169,-0.00041008985,0.5504481,5.0465302,-1.0499606,-0.6231942,-3.08083,0.09217194,2.8951423,-10.498284,-5.5665646
-3.5009172,11.922845,-0.00020702952,-0.22938558,5.21122,-0.15872984,0.76563525,-2.3078127,-2.1561027,-4.9658933,-9.66097,1.1963089
-4.2573094,3.6596096,-0.77020586,-0.060416237,2.781758,1.9474218,0.104866646,-2.1925075,-1.8679296,-4.8684134,-6.190039,2.8306887
-4.0690336,-1.8741544,-1.3705055,0.93450236,1.6595299,3.4026153,-0.40868565,-2.238266,-1.3989079,-3.5934248,8.146551,5.830821
