ancorasir/BennettWheelLegRL/experiment_data/2023-12-27_22-40-32/joint_torque_env1.csv
Joint_1,Joint_2,Joint_3,Joint_4,Joint_5,Joint_6,Joint_7,Joint_8,Joint_9,Joint_10,Joint_11,Joint_12
0.0,0.0,0.0,0.0,0.0,0.0,0.0,0.0,0.0,0.0,0.0,0.0
0.0,0.0,0.0,0.0,0.0,0.0,0.0,0.0,0.0,0.0,0.0,0.0
-0.30221546,0.01000789,0.2265659,-0.07071687,0.0463709,0.062004566,-0.55473715,-0.039754633,-0.21046026,-0.017207801,0.010108957,0.13060567
2.1091442,0.36593246,1.7386836,-0.05799055,0.014302239,1.0554109,2.5202289,1.2321049,-0.9600253,2.1393955,-0.27672768,-4.951022
3.0493839,-3.0001945,2.8389728,5.2386045,-3.2024724,7.9809713,8.25917,2.8608408,-12.291133,1.0744376,3.3268647,-0.527169
0.7767322,-3.4832997,1.4651757,9.684408,-4.9567776,10.926001,8.586932,-2.8107831,-10.017466,1.6475004,3.5706797,-0.56862473
0.40925568,-1.5457501,0.9526898,8.480448,-3.084126,10.446159,8.659887,-6.9589243,-11.322579,1.2583284,0.70151544,-0.3207817
0.6702707,0.19683039,1.6523635,7.3052673,-1.0167726,9.399096,8.28397,-5.848998,-10.6439295,0.8009303,-2.318582,0.84319437
1.1219954,0.6071775,1.1725742,4.007922,-2.4954805,6.606012,6.776536,-5.066486,-9.574856,0.80057585,-1.1354029,-1.0809834
1.0442982,0.17341626,1.5646045,3.313023,-4.207629,4.69297,5.997867,-3.0501683,-8.7046585,0.3143568,-1.3381214,-0.99739575
-3.2573094,0.6960559,-2.4534972,2.6271477,-6.0108166,2.2404258,6.999516,-1.8520318,-5.817357,-3.0864577,3.0733888,9.989173
-6.9831257,-1.378051,-3.6765947,2.205913,-5.9826684,0.5038113,-0.034685016,0.038140774,-0.5991048,-0.32057714,8.550541,11.991871
-11.998873,-4.0569177,-7.570211,0.55521846,-5.9220815,-1.5482094,-2.1413584,0.92526007,-1.1897707,-0.6930202,10.078213,13.972125
-6.521434,-4.1517906,-5.081805,2.6691613,-7.9189615,0.3993951,1.5303123,0.5196862,2.3324728,1.1350691,10.930088,16.92906
-8.0276785,-4.5615134,-3.780813,2.0589144,-8.933747,-0.9115231,0.7280927,1.2418061,2.1819263,1.8028352,10.976164,15.955279
-7.801436,-4.3980923,-2.8288481,0.5748179,-9.65529,-3.6357455,-0.016099691,0.42494458,0.4846675,0.28188434,8.989876,11.872442
-8.16263,-2.8092418,-2.8847883,0.78361946,-9.000382,-0.035135984,-0.22537017,-0.6698699,0.724951,-2.049982,5.36922,13.354347
-6.820962,1.7824286,-0.3748958,1.905049,-9.8036,4.4881306,-0.10174394,-0.61866164,1.3710821,-1.296902,0.6165856,14.541517
-7.6532593,3.211778,-0.42769265,1.1824818,-9.80155,11.114353,-0.33095407,-1.0503411,3.3231406,-3.7049963,-2.2981892,14.9495735
-5.1459827,5.8508554,1.237543,-2.143611,-8.230701,11.865485,-0.40153074,-0.9243169,4.2773905,-3.616826,-1.7388129,12.4224205
-6.944875,4.7664375,3.828336,0.065282345,0.21799874,5.1545267,0.8121412,-0.85023355,4.8455973,-3.5477197,-5.9065275,11.454041
-9.271094,6.8839192,7.333049,0.387949,1.9723521,0.99471426,-0.18322933,-1.9329443,4.6549783,-2.5733354,-3.9084675,13.146976
-7.6614995,8.373531,-4.5275726,0.87902653,2.2188373,-3.448828,-0.1427753,-1.699851,2.7033467,-0.16033638,-4.102274,8.6390915
-3.3337188,8.671722,-13.97145,0.21886289,1.1980069,-0.3863173,-0.10071421,-1.700772,1.1184762,3.0603719,-5.5504,3.4279833
1.3422651,-1.0471687,14.4168415,1.3210526,1.2039843,-3.388877,0.029249191,-3.819643,5.900489,0.45742702,-2.54332,10.471533
-2.531066,-0.9363098,16.448814,10.286488,2.9322767,20.0,14.158463,-9.085838,-5.5671625,-1.1802793,2.8711047,0.38423085
-1.3833952,2.3210921,3.1901567,3.7982664,1.9975188,10.973286,7.6428747,-5.6478276,-1.3778553,-1.763625,-3.0587592,3.9324894
-1.23722,-2.820558,-5.490301,2.785708,-2.8358207,6.1867795,7.8980436,-3.4431915,-1.4183975,-0.74189115,3.6200187,5.705068
1.3379955,-0.89482737,0.996724,0.77337724,-4.897914,-0.24539626,4.0213437,-0.9274938,-1.5670226,0.22046518,1.848448,-3.3502069
-2.3315659,-0.24886703,3.1725693,-1.6327611,-0.8667437,0.8036721,1.6108856,2.5848236,-4.823523,-9.343888,-5.297818,19.554895
-16.970142,4.170353,-11.525726,0.5583032,1.0918366,0.805248,-2.692951,-0.9201528,5.3732305,-4.6495667,2.8546515,19.081112
-10.866209,-4.277457,-9.405559,1.4358205,-5.318854,4.374723,0.73225904,0.19407916,1.6467798,-6.0228376,7.5244703,9.85875
-7.7205677,-5.6219444,-7.566204,1.7457037,-5.0487375,5.727688,1.1639657,1.2476585,0.6798641,-4.156813,9.199299,8.188349
-6.4701657,0.8398746,-5.777069,0.05622852,-0.9029196,0.61857975,0.4669516,-0.53739977,0.9008925,-5.5857267,2.6954637,9.067603
-6.578989,0.4236176,-4.628699,0.028822482,0.6408601,-0.37571514,0.503494,-0.7500031,0.29222548,-5.4853787,0.8106545,8.6916
-9.553244,2.0738616,-4.0852385,-0.1613338,0.7559037,0.88135743,-0.013321519,-1.0255833,0.8213741,-7.4200997,-4.1608925,7.882194
-9.518466,1.0191007,-2.777483,-0.07406831,0.8938395,0.61180496,-0.19014406,-1.1782799,0.3574618,-7.877686,-3.75537,5.5735836
-9.044886,0.5007757,-1.625378,-0.04878974,1.1211596,0.7234757,0.29900026,-1.0009243,0.47416243,-7.6369505,-4.2404914,5.652407
-7.7438965,3.3979697,2.3989348,-0.61230224,1.0404425,0.23498154,0.11334038,-1.6493533,0.72510886,-4.947675,-9.920432,6.1081953
-0.32358566,3.2426734,-5.391512,0.24849081,0.53270614,-1.2552567,0.6912708,-2.300826,3.2999716,0.47457778,-6.0475383,0.8411746
-2.5983593,0.014317751,15.262632,7.2351594,2.088972,20.0,19.793354,-3.491015,-9.759094,-0.71738863,1.4929104,4.3223777
0.19687049,-1.4303217,10.8306875,5.864081,2.6460962,17.203276,12.662132,-5.783599,-5.038355,-0.67250663,1.8497005,-0.20611429
1.0202223,-1.3904848,3.2898953,7.1817255,2.6896546,11.156514,9.649826,-4.3867183,-3.3190312,1.1342349,1.2241437,-0.5332236
1.2032669,-1.36145,0.6453662,6.166712,1.232009,6.7472906,7.3087287,-3.0552642,-2.0269196,1.5539292,0.81394124,-0.014735341
0.1886015,-1.1860669,1.5300148,3.3378618,-3.9121227,0.7081821,4.051133,-1.1083384,-0.4994052,0.95719814,0.96029806,-0.876214
-10.408694,-3.0422502,-7.585272,2.4455733,-6.457957,-2.1517828,-1.5075266,2.2376406,-7.7298007,-9.779028,0.6028371,18.706444
-12.750767,-4.3820257,-11.914895,2.4621565,-2.26685,-3.7352443,0.2841096,-0.70595646,5.0087614,-7.464963,7.194085,15.989414
-7.934735,-6.571655,-5.9487596,1.8241329,-7.374173,0.41446292,0.7522098,1.1784456,0.51718354,-2.6813455,7.750063,9.4278755
-7.7811203,-3.2892973,-4.1759934,0.4727186,-6.5548778,-3.076115,0.26535666,0.23716426,0.43040192,-1.8391827,5.641269,11.720537
-7.0409856,0.6894227,-5.1550207,-0.11271441,-1.8172742,4.5239143,0.28851247,-1.1689863,1.4437397,-6.5976334,0.13282406,10.296455
-8.061265,1.0768745,-1.3851731,0.28511596,1.2548635,1.0590465,0.3780743,-0.8408451,2.194454,-5.129536,-3.9989989,7.453388
-9.586569,3.5215535,0.99190295,-0.2375567,1.2540798,0.7030113,0.04033661,-1.4684558,0.6888286,-6.514269,-6.448536,6.91036
-4.1297746,6.2227345,-2.551498,-0.91064566,0.9596553,0.025853157,-0.29308176,-1.6704063,1.0653124,-3.0405555,-7.9236517,6.8878007
-0.43408298,-0.49831128,14.495815,11.711537,0.22280979,19.783134,-3.9971485,-2.9972906,4.9608965,-1.1651521,-1.6437023,7.1365213
-1.1565994,-2.0866256,10.70926,5.704013,1.273912,15.399302,8.690507,-6.1337376,-4.5742455,-0.47964293,2.74305,-0.4354915
1.0351863,-2.098935,1.0916668,5.8514795,2.4726734,11.125912,7.109349,-5.0275226,-4.7945714,1.5294847,1.4852924,-0.68398654
1.5851412,-1.5006545,0.59022737,4.33608,-1.0019126,8.040597,7.999856,-3.6138635,-2.4783833,0.9827312,0.6848683,-0.4463997
0.5526223,-0.54108334,2.094652,2.2639306,-4.334287,0.30590773,4.820463,0.10802269,0.13907325,0.15986907,0.96808815,-2.4880037
-16.439478,-2.9417274,-10.474089,0.98008287,-5.434984,-1.3933082,-2.250606,1.0626874,-4.547142,-7.392001,5.8212004,17.90886
-9.503655,-4.5834837,-9.150455,2.4044256,-4.871575,0.7299119,0.92071104,0.7730675,2.6023586,-4.155674,8.251519,13.034358
-7.108805,-4.0741253,-3.956023,0.2046858,-7.4206896,-3.5029645,0.71277404,0.97078854,0.7662533,-2.032401,4.258801,9.629264
-5.958377,-1.6909373,-4.4800315,0.4635192,-6.6568003,-0.8982291,0.6388273,0.07655144,0.31349948,-3.5406868,3.6763651,9.300664
-6.922834,0.4968351,-5.975313,-0.5709548,-5.696266,4.4810104,0.057115674,-0.7836964,0.8630118,-6.33686,-0.40309954,9.437354
-9.02593,0.7166813,-5.9642963,-0.40732837,1.3966384,1.866992,0.2058661,-1.1990979,2.5866985,-8.405073,-0.65600467,10.603376
-9.930363,0.47888345,-2.6982753,0.5005295,1.080225,0.76388526,-0.27023488,-1.1762044,0.51648563,-6.8252363,-1.4706511,7.240116
-7.9869885,3.8155968,4.481433,-0.27622697,1.2371292,-3.041244,0.18558097,-0.9942689,0.83154964,-4.039761,-8.746081,6.713803
-0.14766914,3.3067975,-4.908707,0.25775838,1.1287291,-0.64409554,-0.11254978,-2.4096906,2.2068868,1.1086743,-6.204892,-1.0024977
-3.4075143,0.0931201,15.478907,5.8035355,-1.3016211,18.600096,12.461526,-3.090312,-5.332159,-1.0975204,1.5291786,3.447649
-1.0982641,0.7136674,9.049163,5.712769,2.5314493,15.989645,12.575024,-7.28551,-5.60096,-2.2401226,1.074152,-2.267901
1.312494,-1.9328532,6.325034,7.582126,3.123057,15.702773,13.094543,-5.760559,-1.7310342,0.9461124,1.4718289,-0.5542456
1.5906025,-1.1965234,0.47168747,7.6053643,1.4896545,11.067707,9.768818,-4.2839866,-3.7597072,1.4037299,0.83967733,-0.49776542
0.47811806,-1.5616477,-1.7342246,6.343553,-1.0922284,7.725549,7.4098673,-3.1063423,-4.942897,0.20282102,-1.1409934,0.29785115
0.9766363,0.52071065,0.42222387,5.940645,-2.5573316,5.590074,8.178725,-2.9464166,-3.9782615,1.0788879,0.50336045,-0.17255163
0.7220447,-1.1964879,3.2178903,4.386114,-3.142923,-1.5782096,6.9205923,-0.16228902,1.4324076,-0.22204018,0.78929853,-2.2621143
-9.379985,-1.7152843,-8.750896,1.0248585,-1.7145483,-0.06818473,0.894771,3.2640724,-10.482769,-8.057244,1.6628258,15.482876
-13.475979,-1.7520227,-12.566093,0.012746692,0.5816853,0.49537158,-0.6360731,-1.3381147,5.591962,-6.4640207,6.869054,16.713482
-7.7943997,-5.4486933,-5.5889845,1.9708166,-5.7930555,2.2077198,-0.52693176,1.9095337,0.16959803,-3.5591626,7.2770147,9.468745
-8.158477,-1.987511,-7.1983857,1.6246169,-4.7476106,-1.5577092,0.4162314,0.44304696,0.26185313,-4.311206,8.692458,11.673411
-7.6529026,-0.827147,-5.511766,-0.15519175,-5.0924954,1.7314004,-0.24768972,-0.31248832,-0.029121816,-4.2703567,4.850691,10.342935
-6.144105,1.3659285,-3.4707286,-0.026033878,-2.292171,2.0318995,0.2896881,-0.58442783,0.8252163,-4.2739205,-0.3921281,9.929774
-7.539906,3.1612978,-2.2593856,-0.39238036,0.8772607,1.3670108,0.53474164,-0.5960982,1.3522764,-5.728838,-2.6871762,10.597697
-8.910682,4.3265004,0.1862588,-0.05707562,1.4405286,0.77387977,-0.18384042,-1.1821957,1.1716714,-5.031098,-5.8667684,8.091114
-10.604764,1.6138959,2.637396,-0.45393765,1.6744266,0.44457054,-0.07869923,-1.5877457,1.1911036,-7.3631673,-9.290599,6.0426445
0.19490564,3.5333753,-7.7052097,0.5945711,0.8842907,-1.4537325,0.95191574,-2.9506614,3.390422,0.8897512,-4.555034,-2.173915
1.5232611,-2.1390042,15.233352,0.93204165,2.408193,-3.3193874,-1.0448618,-3.2965035,5.242466,0.2948041,-3.275944,10.970912
-1.3870287,-1.39919,14.132444,10.370842,1.3885784,18.569927,12.840185,-6.055924,-6.0175114,-0.7824689,2.5717874,0.19938445
-0.22796583,-1.2201977,10.292615,6.071147,0.98683405,17.5294,11.019883,-7.2265472,-5.1317635,0.31008446,2.028611,-0.45696658
1.6671228,-1.8902006,1.276055,5.274838,1.6127453,10.016751,8.366729,-3.600603,-4.1252956,0.7797055,1.1871495,-0.63856626
0.8018124,-2.3714762,2.0612497,5.445326,-1.3269624,7.271743,7.0501575,-2.8244524,-1.6854739,1.0089691,2.2587001,-1.9682157
0.97998476,-1.1174905,2.1900742,3.9457812,-3.3607678,2.9248881,7.071203,-1.5066807,0.62014306,0.565858,1.3690567,-1.0518415
0.4237044,-2.0053272,3.0375018,2.9457548,-5.201126,0.1255287,4.98031,-0.84143305,-2.1072116,-0.15082526,1.400548,-2.4634514
-14.782268,-3.4540687,-10.274405,0.055616334,-1.8504528,0.13434291,-1.9709551,1.3279927,-5.1280518,-6.544076,6.0439916,15.28536
-13.9147005,-5.734729,-11.556031,1.5307498,-4.985621,0.12588423,-0.26305342,-0.5591028,3.5754068,-8.858951,8.1184,11.616025
-8.799281,-2.2487082,-6.854866,0.3736069,-5.6010323,-1.9257102,0.6880677,0.77738416,2.134249,-5.5182276,5.134815,7.921426
-6.970099,-4.7268085,-4.4517117,-0.076036096,-7.4967403,-1.70982,0.67716765,0.48501706,0.25393182,-3.7127502,4.9649167,9.232808
-6.674379,-1.6746728,-4.3161364,-0.18725866,-5.7456393,-2.3872066,0.644788,0.112309456,1.2623599,-4.1879463,4.0459933,10.726273
-7.662708,0.28985608,-5.188754,0.0971663,-2.1704936,4.187121,0.10143721,-0.80385065,0.53965753,-6.4408894,0.55873823,9.254165
-8.863927,1.4679024,-5.2631426,-0.35544753,1.759982,-1.4792747,-0.106781006,-0.7205806,3.0612793,-7.950086,-1.4620585,10.512235
-10.69785,0.032868862,-3.415485,0.30251956,1.2808864,0.3702228,0.3769896,-0.9379678,1.623242,-7.9597435,-4.6501317,9.13222
-9.240821,1.8527756,3.2982183,0.09344292,1.5961034,0.5157497,0.04827428,-1.0082893,1.5549085,-3.7568512,-8.399521,7.681143
-6.368329,4.8221307,1.9745492,-0.56265545,1.2739658,0.11806667,-0.22490788,-1.8976362,0.46814924,-3.0233946,-7.3235164,5.2058187
10.674294,-3.8786654,15.389498,7.4475546,3.7182934,20.0,10.575738,-10.923524,-3.0711098,10.5589285,-0.76554394,-16.664955
-3.0423203,-0.36131,15.224621,9.243171,0.48353672,20.0,18.922619,-3.3806186,-10.774039,-0.6791935,2.0756352,2.7129116
-0.77305406,-0.13977385,11.218729,7.3114414,4.941366,16.104559,12.083389,-7.253011,-4.2773647,-0.58937126,1.1224675,0.25387335
0.6340189,-1.8319736,7.581001,4.1292214,0.8433882,10.923376,8.369458,-5.1801305,-4.2094965,0.34652758,1.296906,-0.55437315
1.4839852,-1.6645617,0.6054317,6.797048,0.41697466,5.8344574,6.4869123,-1.2471398,-2.2161164,2.093212,1.2865732,-0.2340278
1.2116636,-1.4950769,0.93316793,3.38652,-2.9812467,3.0244007,5.0897226,-1.4432117,-2.6247263,1.1087092,1.191462,-0.5110533
0.75921726,-1.0314499,1.8434114,4.5034466,-3.5802693,1.1996483,5.969969,-1.1938747,-1.780543,0.62870824,0.85193753,-0.78089404
-4.643199,-4.865576,5.167459,0.6624143,-4.8376074,0.6843984,1.348613,0.7949729,-9.001026,-0.8452616,3.5526252,-7.6970844
-16.043503,-3.8298824,-11.329291,0.86513156,-3.64158,-0.16232848,-1.6784098,-0.9375913,4.5614753,-7.7114816,5.343297,17.268606
-10.362546,-4.6275086,-8.013411,2.1979365,-6.771455,-2.288612,0.54322886,0.7344749,2.1637876,-4.797412,7.5534496,11.737501
-7.673857,-3.9229748,-6.143441,1.3451977,-5.8190026,-3.0349467,-0.85784316,2.203267,0.17548305,-4.7719,6.995743,9.157095
-7.558213,-2.3609476,-6.1872354,-0.27032894,-5.831449,-7.3064947,0.6764815,-0.25422275,0.42517078,-5.1361046,4.9307365,10.988301
-9.559777,4.14263,-5.7798586,-3.3179893,-1.5911329,-6.9680448,-1.7447337,2.0592332,2.8616018,-7.2197514,-3.0061626,11.571066
-8.779692,-0.13839376,-2.2725477,-0.074549675,1.4772146,2.0479856,0.30716348,-1.164917,2.4175017,-7.3519964,-4.1778064,8.1997595
-9.767132,2.9018779,0.577029,0.2750404,1.7209029,0.8121526,-0.23757428,-1.324367,2.0000854,-4.7578797,-4.7751627,9.241704
-0.33641183,3.471755,-5.116909,0.23054862,0.74656105,-0.67198277,0.04017687,-3.084499,2.1852026,0.6985826,-3.3947322,-0.057254076
-3.8810751,-0.74299,14.947351,7.014827,-1.7320867,20.0,11.738391,-5.3537903,-2.7656739,-0.71714544,0.7513685,2.4932246
0.37620014,-1.7219563,9.28837,5.215398,0.4004388,17.97052,11.5578785,-7.2557397,-6.5668077,0.05772294,2.347484,-0.38167688
1.3190608,-1.7702777,3.6206667,6.7675605,0.50504434,12.334189,8.0769205,-4.9751654,-7.218945,1.7682588,1.2012749,-0.36569732
1.429564,-0.9860803,0.53914356,3.6784477,-0.99383414,7.7823067,6.6041417,-3.5665412,-5.4174175,1.1634424,0.66810846,-0.34446263
0.27896762,-0.94442695,1.6986793,5.0183587,-4.7955723,2.1920056,6.498016,-2.4861124,-1.1954646,0.8241077,1.1923394,-1.0014274
-11.859503,-1.5415084,-10.550341,-0.84272254,0.01933527,1.1437275,0.95793104,2.3225598,-4.9014354,-9.848797,-1.2199447,14.993048
-13.562103,0.47191906,-9.73684,0.7927954,0.36065924,-0.7106663,-0.4073093,-0.6076219,4.5978203,-6.0341353,3.4494383,12.904896
-10.227352,-3.1997218,-8.371466,1.1618094,-3.2560716,0.9373418,0.4168558,0.47902974,0.30089855,-7.075527,6.120248,9.52806
-8.476028,-0.8726053,-6.8386106,0.1814173,-0.97127455,0.3267305,0.2387569,-0.3117385,1.2850262,-6.302405,5.4121213,10.133038
-7.608002,-0.12369561,-5.053334,-0.22070777,0.42763752,0.46967208,0.4229076,-0.5703013,0.57275385,-7.617193,1.1736269,7.771507
-10.2646475,0.7600074,-1.8228867,-0.5450492,1.2064862,0.028107941,0.12150246,-0.84969425,1.1235169,-7.3185196,-6.1512437,8.406246
-9.737588,0.9031223,1.1725503,-0.10708833,0.7207068,0.023538828,-0.4702737,-1.4136584,0.35380414,-5.919815,-6.8261523,5.2403316
-10.186205,3.3451746,4.5358553,-0.73648536,0.8616238,0.77867794,-0.06599975,-0.7631788,0.8036283,-6.067538,-9.817931,7.1119757
9.133776,-2.1574605,19.04996,9.588121,-1.8994815,14.759398,12.300955,-8.397038,-10.497221,4.258152,0.5690622,-11.722454
-0.8828082,-0.25171137,14.262199,10.701712,1.5756073,20.0,-4.803239,-1.5700274,1.8903797,-1.674325,-1.5590687,6.844616
-1.5831296,-0.7446704,14.825366,10.036809,1.2600446,20.0,15.617555,-6.688232,-6.042067,-1.2894073,2.6638482,0.53407025
0.49357545,-1.4367709,9.314202,5.359402,1.816055,18.410677,11.153949,-7.4730487,-7.1456738,0.22625667,1.3471918,-0.33244735
1.2551959,-1.4620466,1.6187559,5.088041,3.3353696,10.440267,6.989264,-4.8728523,-2.4784503,1.491534,1.4885731,-0.5853561
1.1690264,-1.7280391,1.8287077,3.496714,-1.7640738,5.0266304,6.00274,-1.7154928,-3.3292484,0.5204077,1.2711029,-0.81996536
-0.029868126,-0.6289377,2.4258466,0.48413384,-5.0335507,-1.9159808,0.9808477,2.089287,-7.6234784,0.71317077,1.7289696,-3.8398242
-13.176076,-4.9530516,-10.912198,2.1930466,-0.02022785,4.600094,-2.7078102,-3.3027854,4.0053596,-7.828286,8.63041,13.256094
-9.972074,-5.1871605,-7.1098146,2.2728188,-5.15796,4.049164,1.1255085,1.0759287,1.6013722,-4.8091846,6.701956,10.458833
-9.264181,-3.2161932,-6.3109374,0.228962,-4.0330124,-1.9061756,0.4941976,0.14293957,0.35802263,-6.1283836,5.0124636,9.492296
-8.463875,0.008298278,-5.3974423,-0.8311651,-2.423971,-1.9837846,0.3087306,-0.72985053,1.7799495,-7.2509766,0.32768762,9.423202
-10.639276,-0.054822683,-2.7630959,-0.05870366,0.920629,0.9537883,0.05653143,-0.84333134,1.5523977,-8.435004,-4.3821726,6.935578
-10.420654,2.2327983,0.45224798,0.05555439,1.1369891,0.42472005,0.21182778,-1.1882725,1.33584,-6.6223097,-7.433793,7.3537035
-6.007721,5.3923297,0.1489985,-0.28496206,0.8631308,0.47931433,-0.005733013,-1.7295418,1.1046414,-3.8437753,-6.4080195,4.010266
1.1459718,-1.5235696,14.027513,1.0243902,3.2832541,-3.2722282,-1.5264168,-3.4407816,3.3441596,0.9579549,-3.121798,9.05596
-0.99444234,-1.4149547,12.609716,5.973903,4.227126,15.845322,12.071503,-6.618182,-4.8211236,-1.7272764,2.4450874,0.25909853
1.0375462,-1.5384073,5.1669,5.0215254,0.66140234,11.407662,7.948194,-4.985562,-5.584937,0.5912346,1.6820431,-0.7798898
1.4230962,-1.5324025,1.1281625,5.24788,-0.73108524,6.8083177,7.0760107,-2.6520185,-4.687607,1.1945426,1.2015297,-0.73365784
1.0142784,-1.3200034,1.6150243,4.2151904,-4.8900685,2.0583165,6.795456,-2.2664592,-2.6814008,0.54410994,0.29585648,-1.0443082
-12.469906,-2.2004309,-11.64378,1.3227016,-1.8778505,1.0920675,-0.7649028,1.6820393,-4.507502,-0.3470981,0.8730836,-6.609465
-14.350779,-8.329983,-10.247412,-1.3340961,-2.5366507,1.4610178,-0.54343843,1.2385459,-4.2234926,-12.578362,-2.8186486,17.88921
-10.297906,-5.3493223,-10.125995,0.27306062,0.15472102,-0.5271891,1.0627782,0.19433427,2.525713,-9.202256,3.3079631,9.253799
-9.357978,-1.88717,-6.893273,0.80844045,-4.7785726,-0.21027291,0.17655337,0.042896926,0.9962981,-5.269338,5.411624,8.756815
-9.211074,-1.6005235,-5.7980967,-0.050434947,0.8093184,1.1789682,0.5202515,-0.6144905,1.4470736,-7.300435,-1.4684318,8.264383
-8.359642,1.4290333,-2.3779697,-0.37168193,1.1081805,0.9144273,0.5397358,-1.1455097,1.583117,-7.1861086,-6.756201,5.960705
-9.76597,2.2997246,0.37346387,-0.11527407,1.2937145,0.579247,-0.271657,-1.5850148,0.6306372,-5.9514837,-8.486518,6.1551642
0.88316965,-0.25485185,7.929918,0.61066437,0.7997203,-1.894134,0.38512135,-2.6587875,3.636282,0.19150339,-4.970089,2.5947235
-2.2745078,0.91213894,16.480536,11.79226,6.8593216,20.0,16.733063,-8.088748,-6.2355494,-1.0950332,2.2555068,-2.6465716
-0.9141872,-0.8449645,12.914166,8.734536,3.372095,18.225363,14.496763,-6.7413607,-6.176849,-0.9913974,2.1110156,-0.008221865
1.4795384,-1.9535313,6.0402346,6.4922605,1.5386544,14.355381,11.208409,-5.675164,-2.0622478,0.8146791,1.5511179,-0.6997577
1.5663667,-1.6908126,0.675915,7.6251655,1.6255649,9.593536,9.83228,-3.8894033,-3.001678,1.2992351,1.2383363,-0.6643913
1.1520951,-1.0886773,1.5820498,4.252207,-2.5329154,3.855792,8.851032,-3.4187596,-0.3024342,0.27666724,0.9116529,-0.9878509
-9.136396,-1.4097583,-7.799834,-0.4344033,-1.1679331,-0.19989657,1.6137723,3.0794306,-8.5403805,-9.380093,-0.33728337,16.626522
-16.773565,-0.723047,-11.106497,-0.36277404,-3.7378876,-3.250947,-1.8495548,1.0454531,-4.914177,-7.255386,3.8671134,17.366758
-10.283376,-6.862257,-7.848665,2.331281,-6.702475,2.768139,0.97762895,0.56995153,1.6235255,-4.573163,7.0893245,11.021219
-7.7183385,-3.958372,-3.9798455,-0.16666043,-6.1383634,-1.87704,0.4552226,0.63080716,0.45042735,-3.0973527,5.2139935,8.791047
-7.2530603,1.2120097,-5.0891957,0.18830621,-1.5709913,2.652061,0.26417518,-0.7145269,1.1190939,-4.94707,0.55010307,9.589827
-9.0741415,2.6681094,-6.1549664,-0.4428625,1.1112218,1.5341592,0.15935421,-0.8877516,2.8465643,-8.89014,-1.1675469,9.362352
-9.845159,1.9218442,-2.2245433,0.08562815,1.1347619,0.47071338,0.17799503,-0.96385765,0.29325897,-7.015295,-4.1507945,7.4690914
-9.334408,4.076741,2.55743,-0.46133634,0.8723227,0.089502454,-0.50859976,-1.4792895,0.33284754,-5.0583143,-8.702278,6.798954
0.5646479,-0.03786373,8.290659,0.8524709,0.92305946,-1.8316712,0.2819605,-2.9917192,4.6756773,-0.42911065,-2.6033633,4.994594
-1.0821052,-0.4512763,13.683325,8.927259,-0.4929595,20.0,16.47611,-1.9173288,-13.983936,-2.1107147,2.4645576,1.007381
0.4439466,-2.0549526,6.9264517,5.224244,2.7983365,16.901436,10.383313,-6.169887,-3.816457,0.46654224,1.8194275,-0.7635462
1.367691,-1.8570483,0.46030402,2.822053,1.2327694,10.23186,6.822981,-3.6799207,-2.609448,1.104651,1.0204396,-0.73724496
0.8519387,-0.77523774,1.4767069,5.001852,-1.0445768,4.621873,6.3025455,-0.9338887,-0.7059895,0.87507486,0.1852498,-0.43406534
-11.167867,-1.5221117,-10.153672,0.7048657,-5.9857078,-0.4480418,0.5451068,2.1790526,-5.801014,-7.397478,1.0245297,17.1287
-16.151358,-4.675929,-11.330803,-0.07414484,-0.9622686,0.0040183067,-2.104382,0.8725345,-3.727377,-7.2272396,4.1049104,15.860258
-9.481155,-3.4491956,-9.5393095,1.5451546,-4.261053,-1.4311532,1.0183029,0.3559234,2.2345912,-5.691475,4.632653,12.274298
-6.755687,-1.6767701,-5.851465,2.155403,-5.958405,-0.05408573,0.73460066,0.5139053,0.3939585,-2.3222716,6.3018665,10.894747
-7.858718,-0.1109916,-7.619522,-0.11299467,-2.1983166,0.8729527,0.053055763,-1.0738814,0.89923215,-6.430863,3.2166104,10.162034
-8.111777,0.6598797,-3.8625627,-0.28133845,1.2792993,0.89703417,0.30237913,-0.7765255,1.0860779,-6.3215027,-3.4753275,8.236277
-8.317256,4.287356,-1.7411984,-0.41715574,1.4460614,0.96524525,0.42451617,-0.84338856,2.085284,-7.2018776,-6.753296,6.7272897
-8.669567,2.8115225,3.2234616,-0.21476847,1.0994749,0.57406235,-0.1782515,-1.6880879,0.56519186,-4.5839415,-8.306821,6.479945
-3.400107,3.363793,2.7706113,0.2091906,0.9147577,-0.61354625,0.75747776,-2.3647318,2.5205991,-0.8646289,-8.705391,1.3223252
-3.8751936,-0.3187678,15.060316,7.6704144,0.42162228,20.0,11.027432,-6.16082,-3.9867668,-0.18080664,0.39955068,5.4098377
-0.14626163,-1.4573984,8.754903,6.48351,3.0296063,17.788345,13.136507,-6.1766477,-4.4100513,-0.7918277,1.8644502,-0.42456147
1.5522019,-1.3397124,3.8141732,5.6137657,1.4271927,13.459134,9.44373,-4.9115057,-5.652482,0.9963411,1.119153,-0.74545205
1.350873,-1.0307121,0.5917438,6.9327555,1.5070262,8.8478565,8.133611,-2.3575985,-3.558041,1.5182428,0.71080804,0.18283147
0.96292096,-1.2307862,0.76178813,5.330745,-2.2071316,6.421158,7.027005,-1.0299338,-3.933652,1.0320288,0.6596385,-0.24937212
1.092344,-0.23215687,1.2309444,1.1397073,-3.1492405,-0.5581417,4.7949805,-0.6045989,-0.73624647,-0.1489377,-0.56355214,-0.90151083
-11.457867,-3.9119463,-9.348066,0.2539438,-0.92622507,0.15955687,-1.389847,2.5105522,-7.9084187,-10.538935,1.0391092,17.343756
-10.714715,-5.166319,-9.329981,1.9322306,-4.0494804,-1.0705184,0.76805186,0.012639999,2.7661624,-6.5040383,6.6288977,13.841682
-10.482359,-5.150182,-8.942775,1.7390447,-5.1226583,-0.25755858,0.65390825,0.70936775,2.0497983,-5.227967,6.4510365,13.409462
-8.100157,-4.046725,-5.940103,1.1475723,-5.787516,-3.3547826,0.4060619,-0.11325079,0.16528943,-5.509679,5.2654715,7.8608785
-7.4423337,-0.9547299,-3.460151,-0.1847423,-4.839332,1.5883892,0.39317012,-0.3960805,0.10920303,-5.495992,-0.819018,8.721442
-8.492801,2.2819085,-5.04076,-0.37143958,-1.6017509,3.284513,0.025151968,-0.7666502,1.5478914,-6.1100035,-1.6220082,11.472721
-11.14941,-0.74887717,-1.8408823,0.4922862,1.6269965,0.82086444,-0.021366656,-1.086113,1.6340765,-6.1443634,-5.895886,9.110299
-8.961606,2.817111,3.9302382,0.0058060884,1.526669,0.6087878,-0.05266857,-1.6232533,1.2100868,-4.354677,-7.2192473,6.787368
1.7232928,-0.19500595,11.795927,1.9315195,1.2858644,-3.0119944,0.75220585,-4.384054,6.598914,-0.18287945,-3.8387585,15.042529
-0.87271583,-0.9218426,13.902928,7.056385,0.31973338,16.346231,12.513329,-5.4346743,-5.307518,-1.4531893,3.1161451,-0.24411845
0.7439356,-1.8762212,7.181468,5.722385,-0.45439374,13.807274,10.186953,-5.2983155,-4.369087,0.64253795,1.9206576,-0.67827725
1.7587421,-1.8168857,0.42166805,7.422871,1.1018054,10.50459,10.393199,-4.0915346,-4.281637,1.470195,1.0193012,-0.45982468
0.7105135,-0.78573763,1.1546212,6.0066705,-2.69805,4.7083845,6.8604145,-1.6557034,-1.6498332,1.5194609,0.77705574,-0.6957464
0.53509235,-0.85096836,3.3967729,2.9083273,-5.492365,-5.005763,2.4646082,0.96254826,-3.3151438,-8.538158,1.9128273,17.875477
-13.572452,-1.8686073,-10.334357,2.119496,-5.083477,-2.8914864,-0.9184444,-0.69408107,4.2693887,-6.176486,6.8171463,14.024233
-9.028452,-6.427045,-5.592352,0.84878254,-7.7570205,-1.1117778,0.6786289,1.0371689,1.3454115,-2.868886,5.880068,11.69632
-6.801666,-1.2730236,-5.3951607,0.38060844,-6.1522713,-3.8020077,0.571254,0.12370634,0.857063,-3.8968446,3.727684,10.129898
-7.4463305,-1.4598545,-6.142018,-0.25532103,-1.6036954,3.1137524,0.2308917,-1.112097,1.3336267,-6.61942,-0.5416838,10.326544
-8.785645,0.8305227,-5.249222,-0.2144916,0.9669677,0.6496017,0.17703545,-0.5509651,0.4486748,-9.122303,0.16783214,6.725828
-10.183534,-0.06452787,-2.0505624,0.3261609,0.9942713,0.5702896,0.09938133,-0.97736645,0.6076003,-7.1761384,-4.569723,7.3692055
-5.700953,3.5278964,1.5956783,-0.6568333,1.4016576,0.25438046,-0.0073251724,-1.755611,0.84246355,-3.4757872,-8.114935,5.1810336
1.3626342,-1.9299307,14.8702,0.4670782,2.4189482,-3.5133238,-1.3818254,-2.0664663,3.5204506,0.36193419,-3.4699574,9.283357
-0.25826612,-1.4635131,13.116273,7.7895155,2.8514702,18.925457,14.263577,-5.9904556,-4.576494,-0.9564438,2.450306,-0.13422072
0.8256544,-1.4056735,7.2528725,5.7555704,1.643113,13.899915,11.091549,-5.468689,-3.4874,0.46821547,1.6801181,-0.28545475
0.9687607,-1.5774717,2.4932969,6.2583237,1.8939532,10.60134,8.38215,-4.417734,-5.2149754,0.95486045,1.0814135,-0.5350301
1.6433109,-1.4173782,0.9906359,3.114287,-2.0174003,3.615913,4.996162,-0.9893414,-4.3551044,1.2026,0.71536565,-0.6116897
0.51319575,-1.6353935,4.340994,0.28454602,-1.1188056,0.39309198,2.859466,0.45133448,-2.7762315,-0.9261441,1.219656,-4.351495
-16.904593,1.4793749,-10.554729,0.18689758,0.5181228,0.27853048,-1.9509504,-1.1823852,6.0516934,-6.198533,2.3997014,15.847348
-10.7442255,-5.7035203,-8.582666,2.216262,-5.1774044,3.0171974,1.057492,0.5923085,1.4585046,-7.0015216,7.5595503,9.340229
-7.682512,-3.2592857,-4.2712374,0.13090265,-4.816303,0.62566113,0.2458483,0.63912165,0.838038,-2.3996248,5.4350996,10.167971
-7.289941,1.2632041,-5.4790983,-0.04916227,-0.8036455,1.4035616,0.22117305,-0.7822325,0.6740346,-6.0623894,2.2127745,8.616671
-8.959952,1.8333192,-3.434362,-0.2931714,0.87898254,1.1551139,0.2309947,-0.76699615,2.6390288,-7.43822,-3.1317196,6.5420394
-9.144836,0.9190281,0.0155466795,-1.2313092,-3.2562282,-2.3881698,2.3768675,2.498711,1.9911261,-4.9047947,-6.3054776,8.376631
0.19655415,0.82917744,13.597024,4.5838537,-4.710203,5.8770657,8.688978,-2.0710778,-4.2013235,0.043892324,-6.0938835,-1.9257648
2.363729,-2.028322,14.733976,1.6571112,3.0783887,-3.0622387,-0.11043453,-3.40201,3.8344984,0.5025768,-3.5567522,12.835125
-0.6265389,4.2849183,9.352785,6.4600716,4.19048,15.322409,12.047,-6.139329,-7.196732,-2.6860094,-3.3400764,1.6597967
0.541247,-1.6668029,4.302994,7.6479797,1.6435416,12.833164,8.879547,-3.7457201,-5.354645,1.137573,1.8295908,-0.7695019
1.7944641,-1.8513763,0.3718412,4.458384,-0.35739374,7.8460307,7.250313,-3.1282187,-1.990267,1.3648801,1.2667902,-0.34036636
1.6400001,-0.1324799,1.5748081,4.6588693,-0.50835764,4.9597044,8.454246,-2.6674953,-2.8624263,0.41317046,-0.33141577,0.0862931
0.053350687,-0.92681265,2.0418358,2.1430078,-6.43886,-2.1292322,1.8588301,-0.38598394,-1.874228,0.6434572,0.98900795,-2.8178692
-15.790848,-8.860319,-10.4205885,0.08855963,-1.1480839,-0.009618044,-0.6942649,1.0144756,-4.5062094,-9.306665,1.1884427,16.119167
-9.6291895,-4.880459,-9.798098,3.7155728,-3.8225121,-0.54323244,0.9880278,0.30833244,1.9558076,-4.3786616,7.5308704,12.60354
-8.162535,-2.5785112,-6.9280763,1.5739349,-4.635272,-3.9029396,0.5469899,0.26302356,0.38193786,-5.5727305,4.4189115,9.0227
-8.5106535,-2.1648505,-5.316674,0.7418144,-5.6314692,-0.13401818,-0.011004448,-0.54554987,0.19407359,-4.708318,1.9633254,9.595015
-6.53172,2.1140645,-4.5967493,-0.5797823,-0.7442911,1.7082467,0.43296564,-0.68317986,0.60091317,-5.990187,-1.3405663,10.335512
-9.81744,2.0190153,-2.878076,-0.118665695,1.3224785,1.2640922,-0.24604297,-1.1080666,1.6349351,-6.192106,-4.6420975,9.45397
-10.164152,2.702909,4.0282764,-0.15258098,1.7277794,0.3024001,0.05474329,-1.5269542,0.77136326,-4.74002,-10.55976,7.2998185
1.1318014,-0.82586455,10.063986,0.7978544,0.6926141,-1.8366671,0.077682495,-3.6539793,4.7907305,-0.67333126,-3.0315077,5.8272095
-1.3694491,-0.1466136,12.432898,6.8990984,3.0311944,20.0,15.530392,-5.006215,-8.745357,-2.3296006,2.7912645,0.8965583
0.6193383,-2.0863233,4.495273,5.0850544,0.7879336,15.449346,9.585896,-5.660493,-4.245769,0.77487224,1.820169,-0.6698401
1.8543485,-1.2173834,0.28862453,4.7530403,3.9694512,9.861079,8.063993,-3.9104366,-1.059495,1.1416266,0.8775604,-0.2991408
0.82241714,-1.365112,1.6679142,2.563356,-3.6943688,4.6698723,6.5984077,-2.5940108,-0.52034557,0.45486796,1.6651349,-1.2602291
0.12978983,-0.7654791,5.015273,-0.011145558,-0.88108337,-0.1459688,0.8160935,2.4079566,-5.8521113,-0.07446003,0.8349676,-6.45242
-16.732466,-4.1595917,-10.325768,0.7309673,-4.960571,1.0207736,-1.0764351,-1.3336897,4.6403117,-6.121513,4.3863587,13.876796
-9.581034,-4.861705,-7.118156,0.8022064,-4.7881327,-0.81825197,1.1800985,0.8327725,1.3445737,-6.6705494,3.9749947,9.56658
-7.534154,-3.2457266,-6.1221733,0.64879227,-5.1401653,-1.3071793,1.0778444,0.66264915,0.53102815,-4.8378415,4.099227,9.594946
-8.118983,-0.011586785,-3.8672254,-0.4022553,-5.372454,-2.8775194,0.14342213,-0.30338597,0.95933926,-3.7653658,-0.011464715,11.667177
-8.299187,2.2594903,-4.758103,-0.86675143,0.99168086,2.8967996,0.2988429,-1.0961103,3.7878199,-8.133184,-2.6633074,9.810644
-10.88272,-1.0573153,-0.4279716,0.799546,1.290444,0.47019005,0.184288,-1.1963458,1.9734695,-5.567539,-6.4863005,7.0045195
-9.854512,1.177093,1.1841279,0.44228518,1.4587841,0.58596754,0.23518014,-1.0381904,0.9270219,-5.1126194,-6.6396127,6.6612005
-1.2885705,4.2333775,-5.956498,-0.31086612,0.5951226,-0.7212517,-0.27437067,-2.1042924,1.67186,-0.45841944,-5.329999,0.95403886
-4.2033787,-0.38419127,15.779021,8.748017,-1.3263648,20.0,9.19528,-9.519186,-3.1558073,-0.20684958,-0.30443883,4.4322357
-0.078794956,-1.4753776,10.71375,5.8444495,1.0078707,15.798988,13.277178,-7.6099973,-4.640812,-0.7293372,2.0779762,-0.43414688
1.6331105,-2.139154,2.0244951,5.3960557,0.8383287,10.854012,9.908802,-6.0235085,-2.638567,0.85292315,1.4044805,-0.77678657
1.2272229,-1.4739631,1.4457603,5.179338,-2.2578502,4.912011,7.29523,-3.006556,-0.64027333,1.2800493,2.0479288,-1.1727462
0.6207826,-0.5541773,2.1241417,1.1139965,-6.240928,-5.09167,0.81384873,2.1110013,-6.6772223,-8.876265,0.42279792,15.180248
-14.437385,-2.729622,-7.3516426,-0.5957644,-3.3520467,-1.1772273,-1.583127,-1.9856458,3.109397,-4.913508,1.0992785,13.293295
-10.514334,-4.3724527,-7.3126364,1.4961734,-5.562849,1.1344733,0.8070028,0.684896,1.2350476,-4.998205,5.411557,11.821659
-8.179501,-1.6917841,-4.9871774,0.15658438,-5.4645677,-3.703297,0.7620237,0.47951573,0.25740713,-5.4300947,0.9709823,10.098351
-6.4238086,1.7034514,-4.0815854,-0.109152704,-2.4359481,1.1804283,0.42883253,-0.5954716,0.5056709,-3.8788066,1.3889104,11.548615
-10.6892185,-0.8205105,-4.2888837,-0.020771027,1.1930823,1.1827283,-0.10621452,-1.3706973,0.5228145,-9.26227,-2.407426,8.073823
-10.380884,1.8762977,0.89968556,0.25429797,1.6533356,0.46234536,-0.29730177,-1.2190495,0.37563965,-5.7092743,-6.3186746,6.469636
-4.0308237,3.7823038,2.6381333,-0.45291805,1.029598,-0.45161313,0.2006402,-1.8459411,1.4791074,-1.6029664,-7.4298787,1.9220283
-2.3507607,-0.2815585,16.32384,9.470855,-2.1107385,20.0,-2.4366188,0.91077566,0.8453399,-0.67580223,0.29782653,3.2921457
0.115168124,-1.600724,10.812641,6.437015,3.2767467,16.71781,12.489376,-6.491544,-3.977808,-0.60008204,2.0274806,-0.4769966
0.6638861,-1.4407861,4.353695,6.576919,-0.23490739,10.836128,8.249766,-3.6023588,-5.19829,1.2536412,1.6171384,-0.5041685
1.6961119,-1.0852065,0.9518795,5.079874,1.8973298,6.843403,7.6505737,-3.5039778,-2.3775382,1.409541,0.38441563,0.12350555
0.8570651,-1.1822946,1.3781369,3.0534468,-4.336545,3.7062721,6.890699,-3.4532592,-2.3140235,0.34259772,0.24615073,-0.8613794
-9.585687,-2.4581828,-7.526154,0.42633858,-1.2061713,0.5253575,0.20994675,2.0277946,-5.1648407,-10.503513,1.4803767,16.696232
-12.193961,-4.7796054,-8.384827,2.905755,-6.481605,2.3203194,0.70125556,-0.23799324,3.3899121,-4.6333337,7.1315722,14.271094
-9.2358265,-3.9018211,-7.3054667,2.0078526,-5.279948,-1.6929157,0.4955914,0.74205905,0.48652166,-4.6583786,9.169607,9.365927
-7.127992,-1.2926466,-3.5208147,0.016992807,-6.209395,0.2557726,0.22624254,-0.20302463,-0.09281391,-3.3123748,0.81709313,10.712481
-8.078996,1.7425098,-5.2928524,-0.4469427,-1.9067422,3.3819323,0.3427794,-1.018065,2.8433836,-6.060483,-1.8865811,12.995888
-9.267745,0.70051265,-4.7288065,0.12926531,0.96954906,1.8357799,0.31870627,-0.54524994,0.6457432,-8.262029,-1.0037128,8.446248
-9.516315,2.7584615,0.48314154,0.14876926,1.3795507,0.3958962,0.41799614,-1.01969,0.78159547,-5.8338547,-6.0431542,7.9121113
-9.743702,3.706794,5.007806,-0.5408259,1.3230796,0.20574737,-0.037789106,-1.5696225,0.6002748,-5.7395096,-10.615318,6.7261486
1.5184312,0.30578566,13.071779,0.8230009,1.3225837,-2.9478016,0.20650864,-3.6318278,5.0247364,-0.103571415,-3.1325774,10.196669
-0.8448769,-0.92127323,14.890961,10.7174425,-1.0054209,20.0,14.924047,-8.037952,-6.972339,-0.5526755,3.4513543,0.15011644
0.5597991,-1.7265344,8.375566,6.5982494,0.35193348,10.544437,8.858872,-4.2473364,-6.243004,0.34991097,1.4049475,-0.32022718
1.4048493,-1.8025565,0.18937641,4.360357,-0.07659459,9.775923,8.888081,-4.9599867,-1.4122157,1.1137089,1.4508145,-0.61112285
0.93174446,-2.0596094,1.9430859,2.7362368,-2.9996717,2.3790166,6.906546,-1.6032629,0.50863624,0.017159462,0.8068569,-1.956687
0.62612104,-0.85729027,1.826577,2.9894333,-3.7681718,-1.2866685,0.21569347,1.9219904,-6.2670918,-6.5075636,3.2944617,12.962671
-15.831297,-0.9745002,-10.065486,-0.24415976,-0.8668344,0.65166426,-1.78927,2.5588796,-4.836932,-4.629163,1.9889181,15.06921
-15.5968685,-2.509791,-11.769474,0.7155043,-5.391751,-1.6274306,-1.1495559,-0.78661084,4.4331226,-7.9078426,5.8211203,14.893912
-10.258145,-5.9058137,-7.3674984,1.9382329,-7.0727787,0.69409466,0.799876,0.21644783,2.3146036,-5.542309,4.569069,10.836866
-10.682391,-5.2047377,-6.93251,0.8976792,-6.7932286,-0.6746758,0.3826518,0.9454818,1.310219,-4.205271,5.7988515,10.662818
-9.149025,-2.5347066,-6.7844586,0.12792853,-4.7802105,0.62911725,0.61248374,0.3846603,1.9938984,-6.913015,1.730243,10.271976
-8.363184,-1.794101,-6.355926,0.031137258,-4.412835,1.7190835,0.5608854,-0.3966756,1.2955598,-6.909468,1.1350329,9.540617
-7.542428,0.52035177,-6.05365,-0.08558774,-1.233401,2.2918038,0.59247804,-0.5583527,1.8203214,-6.508069,-0.8612311,10.612536
-8.520723,1.4825513,-6.7291913,-0.25613832,-0.88639116,2.2452254,0.38103414,-0.6504469,2.079832,-9.005659,0.35812747,8.605265
-9.096118,-0.069792986,-3.838626,-0.0099954605,0.9706783,0.90645957,0.2138195,-1.0739336,2.455551,-7.4565983,-3.1910906,8.025222
-8.7774725,1.710953,-3.13996,0.28750324,1.2830204,0.48904848,-0.053376198,-1.1721926,1.4335558,-6.945574,-1.8510618,5.8471637
-8.324765,1.6589459,0.8512708,-0.12116814,1.3983653,0.5657139,0.26600802,-0.80214834,0.52050686,-4.894577,-7.0012226,6.288801
-4.2314644,5.551318,-2.301241,-0.37632036,0.64974976,-0.9393575,0.35271215,-2.177287,1.7630606,-3.52738,-9.1165695,1.8584161
-2.3502676,-0.6384704,15.668644,9.744207,-1.2301726,20.0,12.044497,-7.706539,-4.6323166,1.0885735,-0.093906164,6.245171
-0.26888323,-1.1714692,13.173534,7.9197617,4.261837,15.829941,13.934265,-7.1229053,-3.5335019,-0.923939,1.6819377,0.09266639
1.3705025,-1.9968762,3.215858,7.451609,1.4429809,10.446515,10.571947,-4.5804205,-3.2417448,0.76091886,1.3839779,-0.603246
1.7786502,-1.6737764,0.8015826,6.6819725,-1.0688708,6.6583176,8.619972,-3.6440523,-1.880258,1.8210131,1.1787862,-0.2701013
0.7258227,-1.029521,2.3509967,2.9562109,-4.564719,-1.239429,5.77615,-0.78646255,-1.3630123,0.26158106,2.3946586,-3.056178
-16.719414,0.5514555,-9.943958,0.73772603,-0.73448825,-1.0716351,-2.4363317,2.2161055,-6.0187745,-3.2373378,5.593593,18.258766
-10.704723,-6.1962447,-5.7630258,0.9915494,-7.7775145,-0.23352242,0.70077634,0.6321392,1.014727,-4.0735106,6.8386784,11.496155
-7.199334,-2.4019673,-4.880386,0.23229015,-6.5051675,-4.184549,0.58714104,0.32236725,0.69852424,-4.450074,4.122163,10.6782255
-8.793097,-2.268508,-3.903346,0.02710092,-6.8464813,0.6538465,-0.2964722,-0.3294344,0.510518,-3.6893322,1.2497029,12.775506
-6.2840166,4.8088083,-2.6147842,-0.4489467,-2.27054,4.4628367,0.27842832,-1.0770602,2.923254,-4.590915,-3.1713595,11.454057
-10.851506,1.4915404,-0.95456254,0.18549442,2.134549,0.65746737,0.23354352,-0.73935986,1.9736272,-6.7033324,-5.781024,9.404625
-9.681082,4.8135023,3.1128583,0.10057485,1.116427,0.83522606,-0.14038253,-1.7380695,1.3163188,-4.7869787,-6.399624,8.569205
-8.520451,3.9968576,2.7735717,-0.21208102,1.0149918,0.20228934,-0.089348316,-1.7858143,0.62149626,-4.3053093,-7.7449675,6.8893414
1.7049408,-1.8806947,13.3427,0.56188965,2.471424,-3.3468084,-1.0907135,-2.4266977,3.216012,-0.015253544,-2.4450428,10.255728
0.21557735,-1.5474277,12.361748,8.400902,1.1109207,19.654411,13.71849,-5.2453895,-5.221538,-1.593,2.4676871,-0.04447508
0.31956545,-1.4582081,9.98315,7.1709642,0.24751425,14.870639,10.073411,-5.7711763,-8.095918,0.6769072,2.357123,-0.301979
0.9945911,-1.6506336,2.816233,6.1214204,1.3728344,8.6422415,8.216634,-2.52056,-2.326696,0.93791384,1.0866296,-0.35782754
0.48809785,-0.9991512,-3.1736543,5.0093746,-2.333889,4.349814,5.0821424,-2.199325,-5.9816537,-1.2770327,2.1335812,2.0858502
0.29372573,-0.70048475,2.066771,3.5353744,-5.9184318,-0.94795275,5.5820537,-1.0942494,-0.8860504,0.44880593,1.5726275,-1.5997214
-10.552821,-1.151767,-7.5731487,0.4342088,-3.7195477,-4.7884645,-1.0137355,1.5539329,-6.292768,-7.061408,0.9156475,16.443645
-10.510739,-5.6724586,-9.120561,2.4961948,-4.109827,-1.5228473,0.8768525,-0.34924436,3.01642,-5.169517,7.140484,13.882305
-9.356469,-5.723574,-7.063059,2.6353376,-6.320358,0.13369107,0.61484575,1.0164216,0.5454888,-3.8588934,8.37146,10.375448
-7.5681105,-2.584859,-4.323849,0.24267927,-4.2185655,1.0666239,0.016999483,-0.6453868,0.90915555,-3.5368545,1.621774,10.751746
-7.892359,0.253536,-2.9878585,-0.008046448,-2.349007,0.07446575,0.16598499,-0.5880029,0.53391224,-4.932535,-0.91271484,9.123888
-8.981987,-0.5387331,-3.4481726,0.0357908,-0.72112644,0.8392806,-0.05687976,-0.6947856,0.6478591,-5.7214513,-1.475354,10.343369
-8.123529,3.990841,0.44314623,-0.43946767,1.2214549,0.02858591,0.14757395,-0.28131628,1.5917892,-5.898303,-5.3725963,7.7849097
-10.693089,1.866625,2.642686,-0.92025506,-2.2019548,-1.6659048,3.350236,3.4346766,1.1908982,-5.6603727,-9.312099,10.5065365
-7.520622,5.520463,1.9619675,-0.3388818,0.9607898,0.06902254,-0.47914553,-1.9458642,0.63435566,-3.1562114,-7.756358,6.4324846
1.6149578,-2.226269,13.889882,0.7493243,2.7574413,-2.9678268,-1.2635622,-3.1730819,4.2753386,0.098860264,-2.605806,9.802509
-0.10143995,-1.2979274,12.954448,9.223947,4.636271,17.124634,13.76311,-4.8824635,-5.2845845,-1.1667022,2.6254516,-0.16706419
0.78427696,-1.7395854,5.0947847,5.8007584,1.7508177,13.846711,10.819411,-6.3810477,-3.8819566,0.5351412,1.5409803,-0.56015813
1.1519548,-1.5879653,1.1290009,4.8135443,2.2436342,10.402476,7.791753,-5.322618,-4.2046247,1.0996535,1.1846161,-0.46517754
1.1047885,-1.4602062,1.7012053,5.378231,-2.1532235,5.607175,7.6281223,-3.0392346,-1.644695,1.2234551,1.124232,-0.6378038
-0.23331928,-1.1441219,2.221541,1.3186336,-5.155713,-2.1847453,1.1499578,1.8431833,-5.281013,0.41034532,1.633168,-5.345641
-12.46955,-4.573853,-9.911877,2.2142003,-3.5244436,1.7376566,-4.3992543,-3.332003,3.9260538,-5.0749164,9.190781,11.853763
-6.7172523,-5.524248,-6.5419846,3.701343,-5.098376,2.4631426,1.5300083,1.2834017,0.41666377,-4.748229,8.901575,7.2000723
-8.249599,-4.7592463,-5.448157,0.64960265,-6.2364483,-1.3965092,0.29582417,0.67101717,0.8490685,-3.601151,5.424377,9.305331
-8.073857,-0.16365743,-6.7854795,-0.14097047,-0.5833705,2.6354399,0.06489253,-0.96057343,1.9569628,-6.7536144,0.21898198,9.216285
-8.7927,0.85397065,-3.4673452,-0.41591287,1.0932508,1.0290937,0.057482123,-0.6111088,0.49248728,-6.8374653,-4.2488475,6.7211637
-11.703405,0.4946764,-0.6395085,0.255409,1.3423029,0.34431314,-0.07331303,-1.3472509,1.9583778,-6.9955025,-10.100484,6.2461667
-7.5176544,3.0437706,4.470563,-0.25793007,0.764884,0.6293652,0.015969992,-1.7181063,0.4519807,-4.1277037,-6.5601463,4.8765464
2.8640566,-2.2817814,15.152047,2.2050152,1.6385872,-3.32753,0.8755331,-4.21782,7.930601,0.7720237,-3.8340318,14.1264105
-1.2324797,2.3217664,10.69234,4.185481,3.0797594,17.021692,10.282771,-6.001393,-6.4177966,-2.1254346,-2.7373524,3.2869468
-0.80262685,-0.053836346,0.95903605,6.1203737,2.2103083,13.015317,9.180426,-4.0738907,-4.5859847,0.14205241,-1.6559224,2.4974518
1.7661273,-0.8819759,-2.2115226,4.6799045,1.7893834,9.367442,7.700471,-4.213213,-4.5072417,0.1516962,0.70517373,-0.49654102
-1.4446946,-0.5994727,-2.2251084,5.6590104,-4.2660804,5.352148,6.5895524,-1.0010386,-3.4644837,0.7466098,1.7336576,3.561778
-2.6837134,-2.4140434,-4.0946136,0.20808366,-4.7239943,-1.9574836,3.7868412,-0.87862396,3.511087,-3.494409,3.0094156,3.4568772
-12.391843,-5.236994,-8.467607,0.112497896,-2.5792074,1.2006401,-7.5479503,-3.7544708,9.767171,-7.3739643,4.3359995,20.0
-8.481572,-5.396453,-7.0009646,2.9534729,-6.334983,2.1138568,0.38658452,-0.16939497,2.1990416,-4.7084703,7.3484907,10.664427
-7.8262672,-6.970641,-3.9275732,1.2295339,-7.5947003,0.21588397,-0.499184,2.450176,-0.37634632,-2.0475588,7.444201,11.127173
-8.070567,-0.16255319,-5.329371,-1.599339,-3.4838808,-4.9908094,-3.6580431,1.4230714,1.1136003,-5.4005785,2.6446629,9.37454
-9.332517,-0.54200935,-5.1113024,-3.8481412,0.23155761,-6.3953457,-1.3413386,2.9248388,2.0572097,-8.724444,-1.6658841,10.327168
-9.734224,1.1333356,-0.9393244,-2.1166,-1.4582307,-3.3514504,0.76459205,3.4786367,1.9049217,-6.034037,-6.247648,8.055786
-7.3456793,4.1583605,3.2282305,0.64436615,-1.2955403,-1.1251328,3.926172,2.1449738,-0.6917486,-3.477798,-5.0824466,7.7751055
-0.71869445,3.8002434,-6.521391,0.12838149,0.88366747,-1.1981328,0.5066705,-2.0195594,1.793539,0.15483946,-4.502371,1.3064415
-1.0177064,6.482263,16.175814,-2.2448592,2.95026,6.3467865,3.1868677,-2.698697,0.16200125,6.6279864,-1.7725816,-17.794878
-0.5597291,1.6542516,10.941794,7.1502643,4.717476,17.574215,13.671506,-7.1222215,-7.8428936,-1.6105574,-2.4706988,1.7468488
-0.43449712,1.0121522,4.2834506,7.159281,1.0253935,13.422599,9.194309,-5.092462,-7.462242,-0.8212199,-1.8342538,0.9506759
0.58017683,-1.043694,-1.4601083,6.798338,0.72189856,10.40487,7.2396564,-5.125868,-3.0605404,0.491997,1.6608407,2.2040255
1.024339,-0.858386,0.60635924,3.0109935,-1.6943543,5.1736364,6.3691773,-3.4223022,-3.6318746,0.7936082,0.31208837,-0.48274696
-0.098733425,-1.059865,2.1897109,1.7019284,-5.562834,-0.9280412,2.5448773,0.024542093,-1.7132004,0.2785585,1.5740781,-3.9822402
-14.993597,-2.0824385,-9.478041,0.14904344,-3.4545307,0.24647057,-1.5213404,-1.4980377,5.299272,-6.0966997,2.362299,15.230108
-9.581288,-2.2315538,-8.158572,1.8418517,-4.294723,-0.76276755,0.33214307,1.1386294,1.4939353,-6.8298807,7.0954766,10.775211
-8.4765215,-4.0094357,-4.5429206,0.052773356,-5.7317576,-2.2308764,0.34856117,0.10352641,1.0192128,-4.852026,2.6216645,9.883026
-7.115292,1.3783619,-4.673073,-0.16504377,-4.4643536,0.8598769,-0.0248667,-0.56691694,0.19681329,-4.7438354,1.5029557,10.513235
-9.247504,-0.36248338,-4.276184,-0.1733892,-1.5386999,3.2691426,0.07393074,-0.6061084,1.5610551,-7.8186054,-0.29016304,10.338898
-9.843231,1.980005,-2.0237713,0.1376493,1.3715127,0.83812094,0.16487217,-0.8844147,2.111711,-7.4381804,-2.535324,8.047602
-9.804688,2.4703665,-0.26895475,-0.058939457,1.2678604,0.8757765,-0.011742681,-1.1381066,1.2784057,-7.232746,-3.8176994,7.591507
-8.935602,2.9367747,5.276602,-0.10012025,1.3360043,0.3033259,0.26323032,-1.0547066,1.2260897,-4.4293613,-7.6276164,5.637541
2.192966,-2.4953246,14.173971,1.1509304,2.022502,-3.526744,-0.5545645,-3.5672274,5.0257163,0.27803946,-3.5803869,11.384731
-0.72677726,-1.3590012,12.908219,6.963264,0.7879572,19.192158,13.986418,-5.5157957,-5.0365834,-1.099423,3.4548097,-0.3463205
1.0221398,-1.7484539,5.408153,6.4164977,1.8197407,14.827361,10.269743,-8.321044,-5.725436,1.0624068,1.4172482,-0.513729
1.2585948,-1.5829155,0.85119796,4.873489,0.14736903,8.432577,7.792939,-3.7452655,-4.568599,0.98954296,0.68325686,-0.5608698
-0.040919304,-0.7449858,-0.33089107,0.51904494,-6.1786404,-0.52753186,4.016614,-2.2207305,0.74582624,-0.34604287,0.75631666,2.1507158
-15.923525,-3.07023,-11.45978,-0.4884251,1.1628659,-0.69119513,-6.432673,-1.4868429,7.941839,-8.999073,6.2328663,14.10709
-9.218769,-6.8524866,-7.842393,2.4129481,-5.313694,4.1740828,-0.41100073,-1.7351754,0.9069648,-5.5308785,9.471222,8.969042
-7.054856,-3.5039463,-4.440631,0.24586597,-6.2530174,-0.55063343,-0.73612595,1.5490372,0.16772234,-3.4783509,4.812852,8.677333
-7.262963,-2.1628628,-5.785863,-1.3451514,-4.103718,-5.6057982,-1.3189592,1.6955872,0.6162989,-7.239869,3.2304707,8.987808
-10.101362,1.8186502,-5.533485,-2.6056066,0.67346334,-4.4640718,-0.89853513,2.8161986,1.5870813,-8.751882,-2.3937888,9.42157
-9.079756,3.6867018,-1.3018037,-1.1193566,-0.83346605,-3.2562683,0.6864182,3.4708586,2.0546885,-7.571656,-6.669967,7.982402
-7.916524,1.8741192,5.6965504,0.5028404,-1.9914293,0.58397055,5.76018,1.2369733,-1.6206261,-5.115667,-9.759244,7.1265574
-0.09691587,3.0085993,-5.6758165,0.059151173,0.8533118,-1.2228861,0.5854635,-2.2845325,2.6713145,0.019783974,-6.315072,-0.7681806
-2.6732938,-0.13486624,14.33792,7.367106,4.1771555,18.173254,19.437393,-4.4917865,-9.89547,-0.8354492,1.5545454,4.097635
0.42710578,-1.8062601,11.406401,5.277789,1.8374937,15.990633,11.145233,-6.3335752,-4.503023,-0.20803735,1.843128,-0.106601834
0.44701505,-1.3595066,6.461752,4.925584,0.56950784,15.189142,10.881452,-4.9996386,-3.4045146,0.2295512,1.5458865,-0.81286156
1.5402505,-1.4187651,0.5745431,6.784008,1.310542,9.620156,7.915032,-1.941193,-6.0838366,1.6378548,1.2035983,-0.64539707
0.79517436,-1.1775503,1.4762721,4.3318048,-3.688766,2.8123927,6.035174,-0.6440096,-0.28361267,0.8732119,0.3885026,-0.42496848
-0.048279762,-0.5148411,2.2795928,0.8299756,-0.93255234,-0.06778324,-0.6374755,1.7001064,-4.973953,-7.5131826,1.687113,15.156328
-13.261127,-4.9031715,-10.730333,0.33681643,-0.094009995,-0.043432117,0.045407772,-0.8434236,3.6665366,-8.209386,4.825493,13.442773
-7.5952725,-3.7617886,-6.8383913,1.9374903,-5.589426,0.67472064,0.8125832,0.29593205,0.34061682,-4.1902285,6.301948,8.896028
-9.494618,-1.2951169,-7.660225,0.3582616,-1.2980732,1.8598318,0.25007534,-0.3784585,0.81264347,-6.3985376,3.0470428,10.990193
-8.272872,1.6113992,-3.5902505,-0.39719784,1.1593393,0.32484818,0.4994136,-0.9177525,0.7206133,-7.733741,-3.0781395,7.5434074
-9.793483,0.99657583,-0.4913175,-0.19409633,1.2995389,0.44804835,-0.0006891154,-1.4569302,1.3156104,-7.4450417,-6.100355,6.413557
-6.1788354,2.576563,0.93335223,-0.32115155,1.0730193,0.35203362,0.15567732,-1.5123386,0.8998078,-4.510264,-6.2911763,4.604684
2.4481425,-1.9222205,14.734602,1.6780062,1.8537028,-3.3643312,0.28204823,-3.3625278,5.5678926,0.4330845,-3.631406,12.994805
-0.3546821,-1.1228771,14.279698,8.151013,4.806541,19.883736,16.895908,-7.1887145,-4.4926853,-1.6123602,2.9231405,0.26036382
0.9083092,-1.6744747,7.758197,5.178322,0.72659373,13.586024,10.748934,-6.551663,-4.759535,0.3251909,1.4235945,-0.47508967
1.4104885,-1.5619957,0.1772353,6.147411,0.6874528,8.532338,7.4849796,-4.2323956,-4.033273,1.8034251,1.1941068,-0.46301115
1.0003691,-1.2768313,1.9555085,5.567122,-3.7372026,2.1193004,8.28578,-1.5726303,0.38468254,0.47814107,1.0050747,-1.7280207
-12.656064,-2.0137978,-9.892883,0.055903062,-1.1878208,0.6949718,-0.11826414,2.1335776,-3.683753,-6.6539707,0.5401063,14.906214
-12.386543,-2.980306,-9.845111,1.0819848,-5.910241,2.9129,0.46653724,-0.5685792,3.853834,-6.934622,5.292631,11.732065
-8.054637,-3.1819692,-7.308182,-0.5919272,-3.9700446,-0.8831458,0.4794886,0.70290303,1.1268827,-4.871401,6.1451893,9.806308
-5.7603097,-1.0693957,-3.1221542,-0.97121155,-6.3800974,-2.1969504,0.49336636,0.15546262,0.31324393,-3.05358,1.4100436,8.659657
-7.3511553,1.6748512,-5.938235,-0.30280995,-1.8330296,1.9530478,-0.067313194,-1.198421,1.4859612,-7.387222,1.5525569,9.52177
-8.20228,1.4227964,-4.1761956,-0.15437508,1.031891,1.0428329,0.19506973,-1.0502248,1.204582,-7.764335,-1.0146573,8.118789
-9.236686,2.9030423,1.0562677,-0.023584127,1.3821951,0.38044882,0.38204086,-0.7347431,2.070822,-5.394454,-7.1001444,7.6324697
-0.5794698,3.7204723,-6.2665877,-0.0049037933,0.7830174,-1.367353,0.5493908,-2.3104637,2.336284,0.0617283,-8.053263,1.0570395
-2.6995287,-0.15744972,14.887551,6.859779,-0.80544734,18.600704,12.620676,-5.7836366,-4.3797393,-0.41966915,1.0938125,6.0344434
-0.19196558,-1.2330642,9.257419,7.1154256,1.599299,16.995384,12.688657,-7.308714,-5.7306476,-0.49913687,1.6756372,-0.5007379
1.3272607,-1.7536306,1.7861478,7.149395,1.7828314,10.743828,9.512362,-4.404142,-2.2035487,1.3700655,1.3647234,-0.46191823
1.7769272,-1.1398454,0.9304893,5.3980327,0.09197569,8.149511,9.491221,-4.891531,-3.3251152,1.0136635,0.6140565,-0.16454375
1.0620372,-0.8082289,1.2559704,5.16733,-4.001256,4.6310863,7.994531,-3.1133664,-2.4866304,0.97458315,0.76063275,-1.2061486
0.58908224,0.31108284,0.8532338,0.8622488,-4.5711737,-2.6711159,0.48554254,1.6396348,-3.8801908,-7.5475025,1.3042393,15.475662
-13.571677,-4.2151575,-11.116624,0.94643366,-4.5255446,-1.5009888,-0.9488883,-0.7815244,3.224824,-5.8172474,8.164059,14.29056
-8.532654,-3.0365894,-8.8876095,1.2385263,-5.0497704,-3.0575864,1.2394063,0.8143971,0.63128966,-7.7731485,3.4676766,9.982073
-5.2258744,-2.48672,-5.2068844,0.9612746,-6.0707192,-1.9725437,-0.60578513,1.3470212,0.27351853,-2.603492,6.828601,10.486298
-7.172347,-1.209134,-4.04536,-0.68392044,-6.1095853,-5.33544,0.2623471,-0.30925345,0.25418866,-2.1998742,2.388581,11.9884815
-8.5013485,0.7037305,-5.5682693,0.15085459,-3.1647105,7.579426,0.081424475,-0.6455653,-0.16803533,-8.068099,-2.227972,8.4324665
-9.024378,0.45496428,-4.1328573,0.19178915,1.1128571,1.595365,0.395625,-1.1124907,3.2045991,-7.1581006,-2.5432825,9.74761
-9.642637,0.65936244,1.4601524,0.18969452,1.9867744,0.9211812,-0.18560028,-1.7581863,1.4107567,-4.1487904,-5.760004,8.818953
0.8705747,-0.0455395,6.9962544,0.5831332,0.66069317,-1.8757071,0.36306763,-3.1030364,3.6457808,1.4850146,-4.625497,-1.2983139
-1.6445441,-0.09158707,17.166582,9.78648,0.2722435,20.0,17.938276,-4.189446,-7.1577334,-2.1115735,2.238626,1.6465893
-1.1630139,-1.3447018,14.697306,8.894477,1.0295033,17.097277,11.647301,-6.1381826,-6.678751,-0.5398661,2.5214891,-0.14062381
0.9060142,-1.4640627,6.535343,6.4062243,0.69868875,13.308483,9.960795,-6.1327114,-4.1112866,0.90922225,1.5000634,-0.67710865
1.4691678,-1.6890404,0.22263443,4.968804,-0.10067737,6.7974014,6.9866486,-3.0544975,-3.784812,1.1788881,1.0841029,-0.40791535
0.51157904,-1.1594309,0.9165727,3.750247,-5.3301826,1.7317414,7.016644,-2.215141,0.10582024,0.35616505,1.0839148,-1.448956
-10.195934,-7.3129916,-7.663931,2.595271,-2.2487645,1.6740857,4.8983135,-0.18372536,0.40025043,-7.9756975,11.639555,11.281246
-16.353355,-14.153313,-10.33788,6.1985707,-3.546732,5.1118927,-1.5129213,0.063066006,-0.5235442,-5.3713274,14.25783,9.420042
-11.188494,-11.93021,-8.762996,4.752415,-4.30006,4.0511074,0.34707904,0.60784054,0.35254943,-3.4409766,8.110832,7.1981225
-9.356403,-9.364847,-9.36543,1.7672874,-3.4581294,-2.0482762,0.2644434,-0.053518027,0.6678189,-7.2604904,6.029908,7.6167636
-6.424162,-4.3441677,-7.800756,0.8927007,-5.017672,2.2191844,0.32745266,-0.687387,0.97139454,-6.857415,1.5184124,5.4849067
-8.320611,-1.9564501,-9.171162,-1.1899207,2.2646914,-2.9833333,0.17402148,-0.5712447,2.0977554,-10.731523,-1.2901292,5.625247
-8.2581625,-2.2604342,-6.9020677,-0.16022635,1.4862963,0.97217655,0.48254228,-1.0766625,1.700601,-8.699638,-3.8395035,4.5862494
-9.539724,-1.8749748,-4.788052,-0.0032896996,1.3089321,0.854054,0.46864402,-0.8905883,1.3548408,-8.872958,-6.30827,3.343444
-6.170728,3.271141,2.3177252,-0.35588923,1.0499852,0.14545047,0.69034624,-2.1248584,1.5168929,-3.9118164,-11.138999,2.6006627
-0.22601175,0.05803752,14.871638,13.365961,1.371737,20.0,-4.0676546,-2.1121874,4.934352,-1.178577,-1.7736611,8.341108
-0.77637595,-2.3707957,11.646052,6.526146,0.748384,16.94033,9.48827,-4.7655787,-2.7589831,-0.5297945,2.649376,-0.4398321
0.640638,-1.8016567,7.8323994,7.0777273,1.5047121,13.274317,8.883832,-4.260053,-6.791213,0.94369507,1.8887925,-0.70806426
0.7613565,-1.6465073,-3.7225049,5.543539,1.1516092,9.048908,6.8132915,-3.772684,-3.1182966,-0.59696937,0.05167389,2.08904
1.0268084,-0.9233208,0.8062999,5.602561,-1.570785,5.6401124,6.553541,-1.7071767,-4.2114735,0.9121539,0.29750776,0.049021304
0.9062271,0.20049715,2.2782006,2.5740604,-3.8787813,0.70157087,5.826592,-0.69093704,0.18859819,0.36179757,0.81215143,-1.4005351
-13.676891,-7.9000373,-9.193597,0.64629495,-0.59630144,-0.6656883,-6.6397424,-3.880748,7.838233,-10.064157,3.6641624,19.391594
-12.838231,-1.5336707,-11.0474205,2.7613833,-3.584103,-0.6254835,0.12896419,-0.25903106,3.9789424,-6.161866,7.672695,14.073838
-8.946831,-4.833186,-5.5873313,1.7747331,-6.4211717,-0.46139657,0.81228757,1.1478934,0.97377324,-3.279383,5.208788,10.689082
-7.575214,-0.7360226,-4.9002223,0.76299644,-5.5379457,0.68056965,0.3639803,-0.19493985,0.46356946,-4.905531,1.329576,9.500435
-7.782186,0.86332154,-4.986657,-0.48393345,-0.3097875,2.8717809,0.18805957,-1.0473187,2.2235057,-7.059906,0.23595178,10.119158
-9.486137,2.3294334,-2.8633657,-0.09977627,0.9861392,1.35113,-0.06587827,-1.0514226,2.5805058,-6.8905206,-4.1039796,7.9586716
-9.86433,-0.26108253,-0.82993186,0.2730943,1.1012213,0.6058974,-0.027402535,-1.1595099,1.233115,-7.4936733,-3.7025263,5.2022247
-9.811739,2.047271,4.451606,-0.18532479,1.365629,0.45118523,0.14499664,-1.1214285,1.6085042,-5.29697,-9.816921,6.6753225
1.5998421,-1.095489,10.779188,1.8344584,1.0334952,-2.397047,0.032770157,-4.598097,7.234018,-1.1266966,-4.5717273,15.375594
-2.0349312,-1.1443434,13.271973,10.299255,-0.46087313,20.0,13.190788,-6.4317226,-6.055329,-1.2823067,3.216234,0.29894114
1.0642207,-1.852128,7.15243,5.5763392,2.2045515,15.348871,12.230693,-5.212802,-2.537606,0.031316265,1.5876007,-0.5496155
1.3701892,-1.3390651,1.1089686,6.8405294,1.0222415,10.479647,8.571625,-4.4216127,-4.943718,1.5242586,1.2842302,-0.5239514
1.5772856,-0.8801751,0.765972,5.3262973,0.34571123,9.75559,8.201826,-5.2113357,-5.3607903,1.4465182,0.89206433,-0.4986688
0.8158889,-0.56862706,0.9419162,3.973417,-3.9309397,3.044269,6.6398134,-2.5088296,-1.5830132,0.8845168,1.3853157,-1.0795302
0.0026788712,-1.3024611,4.7537313,0.074267685,-3.1589715,-3.0900989,0.76650786,2.2530835,-5.4847546,0.49354053,1.8878069,-6.067896
-15.2824335,-2.5752008,-11.14424,0.04598224,-4.364155,-2.5587373,-1.2828703,-1.6502581,5.339317,-6.6726975,3.0069685,16.486645
-9.615487,-6.2176294,-8.908387,1.695102,-5.725781,1.5000391,1.2611566,0.89571095,0.6540303,-6.6516676,8.572835,10.314555
-6.4528565,-5.47219,-3.1856928,0.32910836,-7.6550508,0.6018748,0.40363675,0.54598284,0.76168215,-0.8629979,6.2634525,9.805053
-7.937362,0.08046067,-4.362011,0.020966768,-0.4813435,2.447241,0.2861204,-1.1564953,1.6896843,-5.6697626,-0.74182355,10.157477
-9.509807,3.1821587,-3.8457298,-0.2119925,1.3821142,1.18034,-0.044918776,-1.4637346,1.8914579,-7.4761634,-3.106718,9.505409
-8.997334,2.0142674,1.4208615,0.064903855,1.3696651,0.4616568,0.24433196,-1.4418335,1.0275381,-5.345103,-8.491535,6.6868734
0.6138779,0.5520588,4.413537,0.9083891,0.61087394,-1.3741517,0.41621685,-2.827095,2.398819,0.54989594,-0.5873983,0.35272062
-2.6827655,-0.14491892,14.77172,8.488237,3.0313034,17.638912,19.749865,-2.6597962,-10.599474,-1.2928176,2.063256,1.7822189
0.7134994,-1.7836285,10.059022,5.412408,1.6605141,14.715022,11.402347,-5.463529,-3.6738095,-0.025623262,1.6840138,-0.47295174
1.2305521,-1.7462521,1.3870713,6.566685,0.1475892,9.057433,7.2615166,-3.0373244,-4.260441,1.86456,1.4893057,-0.4389938
1.4516604,-0.8498975,1.4494936,5.338489,-1.8465565,5.7031455,7.3799334,-1.1356311,-4.838809,0.86655927,0.5909183,-0.50934947
0.07849693,-0.60742927,0.895897,5.0004,-4.275326,-0.0755837,2.6027582,-0.18610811,-1.8008523,1.3263175,1.3163743,-2.0680785
-15.756485,-5.6975174,-10.376977,0.47901517,-1.6442914,0.6799648,-1.9548049,-0.15104008,-1.0557394,-6.273958,3.739771,15.231882
-8.425457,-4.2478466,-9.068463,2.6515307,-4.635438,-1.7353735,1.482264,0.64011693,1.8831462,-6.9812465,5.446047,9.065451
-10.230468,-4.9788895,-6.9969563,0.02482748,-4.059225,-6.1144342,-2.899524,2.0633419,0.07495049,-5.288459,5.370159,9.455385
-8.693717,-0.02621317,-7.933085,-1.917938,2.6171489,-6.5105095,-2.4928987,2.2136333,0.7367431,-8.200767,0.027408957,10.530103
-7.4337125,1.4902216,-4.5966296,-0.34712315,1.0042409,0.5487621,0.53611827,-0.93875504,0.92615205,-6.768005,-2.943656,8.097645
-10.745909,0.286363,-2.9079218,-0.17368305,1.0694416,0.68916535,-0.035011813,-1.2133121,1.7337675,-8.015438,-5.494778,7.7624083
-6.6728063,3.2189035,3.2516658,-0.14355546,1.1062424,0.57402754,-0.29040575,-1.9287777,0.4253291,-3.798787,-6.238323,4.8692513
2.7117834,-2.03838,13.973751,1.5480671,1.4088626,-3.0196629,0.8701687,-3.937397,7.1676893,-0.1324563,-4.910158,15.230463
-0.36780858,-1.172883,13.712412,8.009363,2.2608125,18.860823,14.404642,-2.9108522,-4.840644,-2.1292334,3.0718226,0.060926437
0.071918726,-1.986876,9.575813,7.426308,0.992574,16.975988,10.685419,-4.726233,-6.2128386,0.35837173,2.151667,-0.37869498
1.5835315,-1.6035974,2.2988732,5.4147763,1.5925682,13.415106,9.787858,-4.492383,-5.030411,1.1845537,1.1789894,-0.60672057
1.1572375,-1.5469016,0.92414427,5.783744,-1.51769,8.2158785,7.697229,-2.618203,-3.2601967,1.2009726,1.142596,-0.8594067
0.58714104,-1.0072018,1.8896828,2.5646617,-4.570602,2.7993674,5.939753,-1.205504,0.06518564,0.597031,1.7754798,-2.5402412
-13.796625,-2.1669405,-9.868854,0.03691864,-0.3671416,0.53672814,-1.9335476,1.8082013,-4.644993,-6.2438602,4.2777615,15.226198
-10.394307,-4.504758,-8.337394,2.1573179,-4.9661503,2.1890593,1.261087,-0.25191522,2.1747906,-6.437652,5.2500134,10.595323
-8.816942,-3.5030477,-4.8460913,0.60024816,-5.787014,0.019586682,0.58443594,0.7378277,1.1416991,-3.0538783,2.2039285,9.766184
-7.203857,-0.6022943,-4.567142,0.047719955,-1.0934765,1.4575455,0.4382398,-0.45601153,1.812634,-4.8821173,-0.5121559,9.313386
-6.339738,1.9951801,-3.1163893,-0.24528477,0.9180072,0.16739649,0.30987084,-0.7181084,0.52674264,-5.246065,0.65706706,7.962821
-10.985914,1.5056624,-1.7630473,-0.4916997,1.0263002,0.22207677,-0.528754,-1.3383756,0.47005394,-8.090748,-8.325949,6.4878254
-11.486541,1.3028421,-1.4813659,-0.40043068,1.097931,0.424896,-0.47453272,-1.2439623,0.4863058,-7.913453,-9.851361,7.2867584
-9.210116,2.2009807,4.7773285,-0.04809071,0.8658627,0.7136848,0.45242572,-1.3321364,0.74847865,-5.073924,-7.431939,6.3587666
2.5067735,-1.9918888,15.260003,1.802455,2.4377644,-2.9643717,0.5598602,-3.6801057,5.121237,0.42696142,-3.1830435,12.812178
0.06242895,-1.0310593,13.127072,5.5276513,3.5123007,18.935553,14.211832,-3.2758884,-9.148575,-2.5850441,2.7832956,0.2639737
0.699064,-1.8179963,5.570296,4.469419,2.2870214,16.188904,9.475107,-6.3140173,-4.7299023,0.80404913,1.6020656,-0.65234756
1.6065073,-2.014594,1.0615067,6.1351686,0.5144707,9.746706,6.9340353,-2.434845,-4.5559688,2.1347582,0.8815417,-0.39059925
0.934975,-0.14172333,1.2329936,5.070419,0.30472803,5.112885,5.777327,-1.3263347,-3.9102342,0.7350997,0.402718,0.1986085
0.45292234,-1.7095833,3.6492345,2.9633532,-5.0299273,-0.7513546,4.2902555,0.7799194,-0.19292313,-0.0026203394,0.3761196,-1.1735749
-11.898296,-7.771473,-9.063876,-0.0906131,-0.8422146,0.09876394,-1.4585159,1.6460717,-8.508266,-11.142485,-0.37595677,16.949127
-11.503153,-6.0327673,-10.9115,2.1870914,-3.5331612,-0.15698767,0.8665898,0.093640804,3.5626128,-5.7927794,4.7119665,14.969135
-8.106512,-5.831863,-5.683188,1.5709493,-5.949252,-1.2577355,0.5490246,0.5345352,1.0962383,-2.2117412,4.720722,8.95668
-6.403023,-1.0998521,-4.6635513,0.6256116,-4.6158323,2.598156,0.3075838,-0.5715656,1.1338149,-2.4721997,0.9101248,10.319476
-8.286096,-0.9659034,-4.800563,-0.10154402,0.84931076,1.2062347,0.07847679,-0.8896127,0.5073844,-6.1889076,-1.5418122,8.690332
-8.179632,3.1145067,-3.8252969,-0.66275775,1.2676313,0.7517221,0.20099688,-0.9456339,1.222378,-7.262456,-5.2308984,8.179738
-8.614504,4.182136,0.36252886,-0.40277815,1.1820409,0.66647077,0.12327322,-1.2971828,1.8464979,-5.346902,-10.147554,6.8461347
-10.0054035,0.9143754,1.3169379,0.13248003,1.3014051,0.92327166,0.2726686,-1.1490226,1.3671412,-5.735613,-7.485933,7.0396843
0.42545784,2.8710423,-4.3262486,0.85894585,0.6589997,-1.9726276,1.2833481,-2.9399865,4.0492773,1.5475843,-4.364142,-1.6067057
-3.0133526,-0.31839323,15.570703,9.121448,-0.3183651,20.0,20.0,-2.0825415,-9.842361,-1.3249292,2.0614724,1.4512582
0.4519741,-1.459466,9.390745,5.087374,2.3247547,12.650689,9.445564,-6.054069,-6.553554,-0.25795123,1.9087296,-0.18003619
1.1883943,-1.6720088,1.3176383,3.466184,1.0094881,8.442666,7.6417847,-4.9968996,-3.1050727,0.64376426,1.206223,-0.71239233
0.83710384,-1.6644175,1.8281741,3.995276,-3.8472385,3.1767654,5.917364,-2.538432,-1.011107,1.259482,2.0793362,-1.9186769
-11.628319,-0.88171315,-8.1763935,0.10420179,0.74302375,0.13562012,-0.026350498,2.4662197,-6.5488615,-10.365477,-3.886673,17.813667
-14.378635,-2.0911996,-10.204216,0.43262544,-4.84601,-2.0021973,-0.053532124,-0.22987914,4.3903975,-7.367075,3.3514042,14.763065
-8.1556225,-1.752425,-7.862311,1.1258935,-4.6024823,0.74821246,1.2578573,0.78816974,1.8974231,-6.605349,5.4869165,9.780231
-7.7786903,-3.8434763,-3.945174,-0.5707973,-5.4177732,-1.0794549,0.02402085,0.09743863,0.9351908,-2.9999132,2.92338,10.638789
-6.955779,2.5731359,-4.686716,-0.23859268,-1.2532558,2.472722,0.11744022,-0.69833684,1.1481036,-5.992316,0.9457233,8.92494
-8.91403,1.0220855,-2.1474574,-0.2385974,1.2728586,0.98784757,0.3035419,-0.7897954,1.6545894,-7.648398,-2.566701,7.696765
-9.98963,2.2967238,1.5450656,0.71815205,1.2106626,0.7121091,-0.21468091,-1.2651587,0.83080924,-4.6651764,-6.221326,5.5850105
-0.78143394,3.6778035,-5.02726,0.08759308,0.7436533,-0.6641916,0.70480967,-2.696939,2.4056199,-0.7230053,-6.0893426,-0.18498588
-3.6682267,-0.25228024,15.991742,9.896865,-1.8848097,20.0,10.774912,-7.245109,-7.3768,0.59354925,0.3901136,3.9818163
-0.15595877,-1.2818217,9.893333,6.994204,4.315773,18.224743,13.956747,-10.277683,-5.9049544,-0.58120507,1.7599239,-0.44073007
1.3792083,-2.0966444,6.875815,5.301536,2.779617,14.230126,11.200416,-8.054306,-3.8192384,0.19027686,1.2487683,-0.38504082
1.659671,-1.337831,0.596704,3.97073,-2.6645575,7.6686974,7.9963493,-3.69008,-3.4327822,1.119543,1.2295561,-0.7328105
1.1254419,-0.76259506,1.7471073,2.664052,-3.4785185,3.7444248,7.955368,-3.796732,-0.78203976,0.34834623,1.4530003,-1.192853
-1.46909,-0.7188964,2.1964605,0.6387445,-6.958784,-3.3152547,0.8246793,2.3147502,-7.0648565,-10.68003,1.0021415,17.679623
-13.277476,-1.5230677,-9.396317,0.63697267,-3.0652502,-1.006242,-0.42809296,-0.75940466,5.3625975,-6.2939525,3.65751,13.1638975
-8.46299,-2.9641986,-5.3904166,0.18131337,-6.306258,-3.8743436,0.6377518,0.84147024,0.68260735,-5.95207,5.2433147,7.7661095
-7.380882,0.995103,-5.9729376,-0.18984574,-4.326976,1.3951378,0.6261306,1.194103,0.78918314,-5.4342,2.5461602,11.632874
-7.106265,-0.008229375,-3.0953472,-0.9457568,-5.258694,2.0476997,-0.064181924,-1.0404084,0.06821244,-5.3230824,-1.2203674,9.436519
-10.494406,1.1032069,-3.978391,-0.24144435,1.5514432,1.5621612,-0.11381149,-1.0045605,1.0156868,-8.928868,-1.8373874,8.832777
-9.96626,1.4719844,-0.4597422,0.06765294,0.9489646,0.57240057,0.051671565,-1.0096271,0.72176206,-6.6297703,-3.9297428,8.8947735
-8.714387,3.4298298,5.7294817,-0.16601111,1.0381978,0.5773735,-0.476089,-0.956403,0.37726194,-3.8374581,-5.5388355,6.732849
0.8406434,-0.016061902,13.706419,1.8209977,1.6428142,-4.00158,0.09788704,-5.0416713,7.286483,-0.5654135,-4.1586294,14.793372
-1.4605653,-1.2917271,14.9838705,10.080838,2.7865553,20.0,14.281254,-9.1993265,-5.491445,-0.4770695,3.3764913,0.37718654
0.91767406,-2.0948563,6.155046,4.783159,0.566141,15.113704,10.815909,-7.14885,-4.3504524,0.008283079,1.3189564,-0.6851014
-0.13106489,-2.093728,-3.0104563,4.235922,-2.4785266,7.1422114,7.7756286,-3.4515297,-1.333736,0.4771211,2.2631521,4.735672
1.1707915,-0.8369788,1.0033791,2.7440464,-3.3453865,1.3912938,5.763881,-2.1090698,-0.2491836,0.587868,1.0762181,-0.99866724
-13.670793,-1.1093993,-9.428038,-0.20520782,-1.6062027,0.023679733,0.07944405,1.5644317,-4.743968,-7.110496,3.3869185,15.662481
-10.575674,-2.5898476,-7.591156,0.75753224,-6.1266418,-0.18798935,0.6163068,-0.234869,3.5886323,-5.1173425,4.674853,11.908796
-8.536208,-1.4455454,-5.854242,0.31511068,-4.7985888,-2.4457376,0.49348092,0.63340575,2.1013556,-3.7738724,3.8540573,11.59838
-6.8170485,-2.088338,-4.2019005,-0.5943005,-4.991149,0.56913805,0.27033925,-0.4530816,0.2226201,-5.101877,0.7694851,8.994846
-8.992258,1.9078319,-5.347674,-0.26533866,0.96649694,1.0469943,0.23331249,-0.5968845,-0.12463975,-8.680096,0.9351393,9.578721
-9.04553,2.3718755,-1.9515823,-0.28020954,1.1799351,0.42295575,0.12775093,-1.2341752,1.5197865,-7.837224,-4.8939114,7.9634213
-9.962482,1.2974811,2.7189412,0.13826859,1.3408418,0.50887275,0.21471262,-1.1131749,1.120172,-5.2581167,-7.916824,6.9175053
-3.3474584,5.2960205,0.6943655,-0.2830732,0.54872537,-0.5990713,0.40528345,-1.7817105,1.9457304,-1.0529788,-6.755903,3.8338661
-3.3270621,-0.8372159,14.569021,6.7729325,-1.4072495,20.0,11.513324,-6.376995,-4.789685,-0.25776672,-0.15571785,4.4238396
-0.36139834,-1.3768725,9.6102495,6.176176,2.220634,16.873672,11.508766,-7.505699,-6.9796796,-0.32989877,2.1606088,-0.451424
1.7146373,-2.1565738,0.7320248,5.8266497,0.8778511,12.87877,10.540572,-4.6822886,-2.5252113,1.1067979,1.3505499,-0.63883996
1.3221011,-0.77096814,0.5483465,6.235457,-0.40313613,7.9418583,7.773312,-3.5381472,-4.11939,1.4445481,0.79851604,-0.1918143
1.1088816,-0.8624775,3.641969,3.1890397,-1.2456466,-0.36251473,6.2342143,0.68009233,0.023603797,-0.609076,0.08446455,-1.8335378
-14.537937,-3.2910023,-9.489506,0.25942394,-6.232999,-1.845485,-2.1817865,1.2341778,-4.950704,-4.6952343,6.557373,15.544159
-10.752112,-5.573351,-8.952151,1.8053286,-5.864444,-1.769701,0.3606181,0.3828652,1.6592798,-4.9965916,8.412359,11.943124
-6.3061013,-1.7464087,-4.892553,0.6922327,-6.31787,-0.40412807,0.74434185,0.35554314,0.8683657,-4.1507845,3.2559042,9.618233
-7.1715727,-0.5081377,-5.300682,0.3125487,-6.6169963,2.1154475,0.008205652,-0.44700134,0.9578565,-4.063553,1.5963016,11.142568
-8.098082,0.5373616,-6.023184,-0.14380717,-1.5515467,4.1817927,0.2388196,-0.86347604,0.71256024,-7.0318074,-0.70229363,11.414149
-8.357793,1.4492263,-2.1679704,0.19361138,1.2567867,1.1250153,0.36310542,-0.8828664,2.6555533,-5.16885,-3.5369945,9.082665
-9.199609,1.8655055,1.7650325,-0.31952596,1.8347669,0.558908,0.09469128,-1.6983514,0.8713299,-5.985484,-8.433746,6.514535
-0.72760177,3.634544,-4.77769,0.15144157,0.90567994,-0.7458365,-0.12058449,-2.3859491,2.1631382,1.2183477,-8.016646,1.3196344
-2.303474,-0.2973218,16.262632,9.326321,-1.1684599,20.0,14.157415,-4.4382906,-7.5364714,-2.2384486,0.13749266,4.5503817
0.08036339,-1.593391,11.168831,6.4031463,2.0967007,17.272537,12.347005,-7.472312,-4.5811234,0.06440507,2.1339722,-0.16927153
1.6651444,-1.8494072,3.5594413,4.5766196,1.1400084,11.57072,9.010943,-6.2704687,-3.4291947,1.0619439,1.3375788,-0.51530147
1.334896,-1.2257203,0.75985396,4.758411,-0.71637326,8.118116,8.469871,-3.9064267,-3.1910784,1.0635594,1.0261216,-0.38819468
0.6124152,-0.45005274,0.5838673,3.3931205,-5.0636797,2.087228,6.196134,-2.186008,-0.55139875,0.93911815,1.5434847,-2.0709724
-13.655422,0.28376818,-9.642683,0.27661684,-3.0472217,-0.9349684,-1.0410149,1.6054583,-4.3593473,-6.073223,4.0577755,16.045238
-11.005276,-6.059908,-8.902468,1.795607,-5.3095627,-0.24457288,0.5891113,0.24565315,2.3202345,-5.055431,8.594814,12.356147
-9.547898,-6.524441,-4.7384086,1.3765025,-8.241688,-1.1119972,0.45031178,1.1465039,0.64381194,-3.7615511,7.194498,9.233889
-6.268832,-0.115694284,-4.0247602,0.9780825,-6.411192,0.96628046,0.289896,-0.11436629,-0.20654255,-2.6196375,4.1000237,10.551181
-7.206069,-0.13307738,-3.2603235,-0.8235016,-0.24415302,-6.6549215,0.34392047,0.027806997,0.009219151,-4.755121,-0.15256858,9.524628
-8.479512,0.41311848,-4.3309274,-0.28990316,-1.5618824,4.756132,0.24449158,-0.81365347,1.6589632,-7.4444904,-1.1000278,9.7234535
-10.050193,4.1916676,-2.8563905,0.11950922,1.4484478,1.092041,0.20442036,-1.225059,1.6273291,-7.2743096,-3.2638652,11.41564
-10.995139,2.2515028,3.5776255,-0.17115527,1.396357,0.5880277,0.030327797,-1.3148949,0.37434176,-6.567437,-7.8070335,7.658956
1.3079886,-1.3429817,10.12049,0.74317217,1.076602,-2.5727286,0.2799263,-3.5006733,3.9247394,0.015208483,-1.9785738,4.1955934
-1.5311995,-0.3727107,15.171717,10.168678,3.9193065,17.769753,14.380326,-7.6292486,-5.5123444,-1.212507,2.7140498,1.1449256
0.15230203,-1.7716422,7.844306,7.694394,-0.7077824,13.432018,10.289007,-4.9756007,-6.19562,0.45408642,1.8612766,-0.55684084
2.412075,-2.0940053,-0.1131268,6.7712107,1.228095,9.741498,9.532259,-3.7127752,-2.620669,1.7444824,0.9626777,-0.60222983
0.8228687,-0.9473544,1.3786421,4.1341977,-2.885037,4.450487,7.5575023,-1.3510499,0.17682195,0.5426295,1.2979704,-0.9814491
-0.47984457,-0.6708088,2.262775,-0.1073885,-4.9059362,-0.57442987,4.9406204,0.4188919,-4.358159,-8.447905,2.905483,14.524647
-12.753952,-2.105847,-9.185692,1.4595056,-5.292762,-0.76809335,-1.0844913,-1.0896659,4.4551,-6.0176816,6.5353203,14.073374
-8.011919,-2.032091,-5.4198594,-0.069372535,-6.221083,-2.9845064,0.840863,1.008846,1.700986,-4.9065204,4.941605,8.902961
-6.844893,-1.2835197,-4.1954713,-0.38311756,-5.967393,-2.1897304,0.5773618,0.34413493,1.2782183,-3.8639283,3.2339766,11.658205
-8.167595,0.98955053,-4.671033,-0.34585428,-5.3791203,2.890202,-0.1278863,-0.56733394,1.2520264,-6.131475,0.8249302,10.620155
-7.671437,1.6325277,-2.3845263,-0.030281305,1.4493269,2.0291133,0.3956864,-1.2780476,0.5892588,-6.691065,-2.5387964,8.255574
-10.718227,3.124024,-0.8608376,-0.17342079,1.4908276,0.6341176,-0.45703518,-1.4029856,0.2812778,-7.21255,-4.139011,9.67851
-5.445899,2.730126,-2.3645644,-0.025297016,1.3709226,-0.05476117,-0.08819842,-1.2719374,0.7477816,-2.8556247,-7.1045527,3.9784951
2.0242085,-1.533953,14.7695675,1.4692278,1.6758423,-3.4263334,0.33403683,-2.4616213,4.7997556,-0.032310963,-3.7322493,10.973274
-0.0019414425,-1.0998578,15.105719,5.2611165,5.3810096,19.433441,15.06437,-6.423157,-4.724381,-2.311799,2.7793705,0.40425038
0.83927727,-1.7774146,7.298246,5.8403363,-0.6973015,14.627991,10.394068,-4.4590635,-6.365199,0.49663615,1.7858691,-0.79376304
1.5075486,-1.3952234,0.28454757,2.7967591,0.2584709,9.531765,7.853847,-5.7351475,-4.1761866,1.0526829,0.92102885,-0.5277178
1.225907,-1.5761331,1.3006322,4.1994057,-1.7473891,7.1761875,6.8515916,-3.5832267,-4.1446576,1.2526711,0.63055974,-0.43539655
0.22582841,-0.8424871,1.3795402,1.1880779,-4.4873996,-1.7539974,1.4033775,0.6338856,-2.504117,0.40803266,0.639102,-3.3021412
-15.822985,-1.9743502,-10.939426,0.62060374,-2.294769,0.15574694,-2.2870817,-0.04355049,0.60695386,-6.5889025,6.1711626,16.598505
-10.454925,-3.1502852,-8.645935,0.52870977,-4.879611,-4.9459815,1.1081083,0.4276948,1.8459221,-8.174313,3.413357,11.624919
-6.535072,0.15407598,-6.416389,1.2763395,-4.959966,-1.6568116,0.9810171,0.30609444,0.86697936,-4.3243113,5.648816,10.969681
-7.542421,-2.0756636,-4.021464,-0.05894047,-5.735495,-3.4321864,-0.011273146,-0.36568093,0.55219394,-5.1171713,3.8798795,9.754984
-7.912572,0.20757318,-4.0326333,-0.06674278,-1.4819252,2.942842,0.015914083,-0.6573081,0.1366235,-5.6863356,-1.3234662,10.359622
-8.001795,1.1479809,-0.13552606,0.19530964,1.4196022,1.2833636,0.62733537,-0.584476,2.4843538,-4.6233163,-5.608036,8.809786
-9.790108,3.1770873,4.3149157,0.16636229,1.8895555,0.6424761,-0.4810748,-1.7846923,0.67977464,-3.0219326,-8.696088,8.982549
0.98520803,-1.043782,9.941719,1.1049047,0.8586738,-2.491737,-0.2671919,-4.148369,5.493865,-0.076141596,-2.5782394,8.404354
-1.0881445,-0.7512202,14.005848,7.512209,2.0529294,17.34837,13.534068,-5.799478,-5.308124,-1.4187007,2.905597,0.29900312
0.22960222,-1.6412001,7.157664,7.969384,2.5852642,15.283727,10.65055,-5.571277,-5.1962748,0.6848271,1.6467309,-0.4718749
1.5467207,-1.8808064,0.026124526,3.3408668,0.6201675,8.549192,6.372244,-3.7767496,-1.8356938,1.2065549,1.301908,-0.64324355
0.9851409,-1.1453443,0.8779671,2.3901746,-2.8952231,4.191303,6.1177406,-2.6219242,-0.59424484,0.6117876,1.0025716,-0.9155946
-2.1716967,-0.14724183,4.352717,-1.5207881,-0.81585884,0.5859027,1.711802,2.585459,-6.043566,-7.3611045,-1.7851336,15.427489
-14.850906,-3.740389,-9.506111,0.8964382,-5.8397264,2.8624105,-0.47184062,-0.9970217,3.1366491,-7.404795,4.4525228,12.151274
-7.24352,-1.9899943,-6.786566,1.1646287,-4.2783613,0.35539067,0.9992578,0.448951,0.5147708,-5.191736,6.102525,8.659779
-7.2997775,-0.18179059,-5.4672966,-0.31671184,-3.5871747,-0.58231914,0.69930387,0.26189053,0.8743489,-5.8450403,0.34115255,9.655246
-8.012439,0.9798548,-5.0588765,-0.15861046,0.7077788,0.6659999,0.44173765,-0.45875525,0.52609426,-7.3698583,-1.4593291,7.8249927
-11.030936,-0.16308832,-4.615722,-0.5693846,1.0345298,0.92370987,-0.2583257,-1.0780528,1.7144771,-9.548519,-3.2098112,8.248137
-10.019658,1.3177185,-1.0312122,0.23738682,0.94656706,0.67335916,-0.49116075,-1.3698037,0.47410148,-7.3056226,-2.3864903,5.8569093
-3.6046362,7.762068,-3.9979975,-0.14302456,0.8548354,-0.25711733,0.33893108,-1.8460665,1.9365426,-1.7169812,-6.482462,2.4400008
-1.2113323,-0.26045442,17.015959,8.817123,-0.18062115,17.128801,-5.684274,-0.29558277,5.7309246,-2.4582238,-1.8481653,5.997016
-0.062731445,-1.5530472,8.342649,7.4489813,2.0390282,18.198315,12.78789,-7.0167327,-8.526651,-0.18026815,2.51769,-0.05858636
1.7584546,-1.9284954,3.3592894,5.782138,1.4181465,12.148478,9.168704,-5.0802445,-3.9846096,1.191878,1.2077863,-0.53691924
0.9393134,-1.4852414,0.71054745,4.790192,-1.0126753,7.6676106,7.4692926,-3.3084393,-1.2107311,0.93794143,0.96964914,-0.49423552
0.8259921,-1.0359116,1.5688603,-0.55403554,-5.1892834,-0.95747054,4.804909,0.017890453,-0.03453064,-0.66727495,0.7388427,-3.0975661
-17.156153,-2.7532082,-11.035412,-1.5417724,-5.864522,-3.8822236,-1.8802893,2.0173032,-5.6460996,-7.2414846,5.3365116,17.140827
-10.519886,-4.7818956,-8.780561,0.77031416,-5.77637,-1.2884969,0.9562738,0.6884694,2.9290156,-7.0304255,3.831074,11.537824
-6.9911857,-1.4314942,-5.23863,0.19917038,-6.126616,-2.3349655,0.7638345,0.55472195,1.7453415,-4.702726,2.5098999,10.496074
-5.9693437,-0.2402575,-4.3739667,0.13769329,-6.3252373,-0.5896213,0.13405097,-0.335001,0.1921819,-3.7735183,4.5438404,10.0767975
-9.046532,0.31848538,-5.8113785,-1.5352798,-7.3954325,4.949418,-0.13542867,-0.88842154,1.252111,-8.509716,-0.15837467,10.065933
-9.255256,1.2815995,-2.7360888,0.07240343,1.6698107,1.4285183,0.22295201,-1.3146296,2.5363984,-6.887592,-4.741215,9.9250765
-10.389331,0.87847465,0.9309415,0.4986745,1.8440919,0.77235174,0.16791677,-0.9299617,1.8501958,-4.9859743,-4.7273417,9.335111
-0.39941382,3.8074481,-5.6242275,0.17698431,1.1096904,-0.72469234,0.63111496,-2.9980483,2.9322815,0.071612,-6.2027993,0.023667812
-2.076837,-0.2779169,16.243734,9.51835,-1.6315207,20.0,15.300421,-1.7472749,-6.4268084,-2.2983227,0.4720974,3.687293
0.30428803,-1.5783215,9.905979,7.913319,3.4355323,16.496216,13.31807,-6.380991,-5.177729,-0.027622342,2.097074,-0.42103684
1.2688277,-1.7121346,2.9972513,6.087708,0.35512686,11.385106,8.382182,-5.03676,-5.589582,1.3224733,1.3309693,-0.727888
1.4214792,-1.691312,1.3537405,4.3897724,-3.1657145,6.705163,8.699445,-2.5145206,-3.4228206,0.86793184,1.196445,-0.69083095
0.5750246,-0.7208259,3.0619721,3.0573258,-3.1254501,-0.5639838,5.1492214,0.45493078,0.17788577,0.10869312,1.0069342,-2.22514
-15.461239,-1.70647,-8.966688,1.0365053,-4.8796935,-1.4734263,-2.4734812,-0.01864028,-0.6806197,-4.8734827,5.6046495,15.894268
-10.733811,-7.214555,-7.3798614,1.66303,-6.9669237,-0.885769,0.7818568,1.110085,0.6667409,-5.443279,6.5145645,11.098088
-8.578477,-3.770896,-5.6510344,0.54354346,-6.3868217,-3.3034298,0.5602317,0.912117,0.40816492,-4.4829335,3.7760592,10.151079
-6.9185143,-0.5760381,-6.5087624,-0.7037815,-5.472628,4.411032,0.28788042,-0.55254483,1.107013,-6.104545,0.1435548,10.943472
-7.589502,2.953383,-3.959261,-0.3667513,1.2410741,1.8726363,0.3077222,-1.0136371,1.7979286,-6.2205153,-3.4197354,8.280412
-11.212533,-0.27591157,-2.7545435,0.31300426,1.663062,0.6688924,-0.18634875,-1.5145974,0.95286673,-7.9518895,-5.900003,6.29632
-6.5972266,2.8388128,3.8864238,0.2965679,1.4871211,-2.6753602,-0.32553077,-1.6355922,0.5074209,-3.1024723,-3.8855634,5.705115
2.8714652,-2.0641136,14.316932,1.5408874,1.7112267,-3.2339678,0.47707558,-2.8510642,4.7334785,0.15035915,-4.215368,15.70837
-0.94804287,-1.2721176,14.41213,8.217227,3.6326485,15.597931,14.449456,-3.0340643,-6.5265,-1.0717151,3.5415382,0.02650857
0.8994669,-1.5339422,5.6666446,5.5876937,1.5765703,14.22439,9.897463,-5.5033712,-6.205198,0.5736029,1.6792622,-0.5763104
1.7434297,-1.7163413,0.4627893,6.421697,-1.126581,10.449718,8.45127,-3.0088415,-5.015417,1.793596,1.0247707,-0.5186038
-2.154583,-3.0429583,-2.3826694,4.4883976,-3.0667372,1.0110176,5.0372605,-1.6025006,1.1929259,-0.33453894,4.9755163,2.8161662
0.5783901,-0.8092866,2.4542687,0.87345254,-3.7985368,-1.1603173,2.1351948,0.27521396,-1.5586132,-0.6205573,-0.13221121,-2.3888323
-13.872997,-2.1536715,-12.024546,0.03387566,0.6101869,0.32839453,-1.2609253,-1.2252219,6.1539083,-4.879563,4.9582863,17.29495
-8.10754,-3.9492016,-7.465888,1.6602713,-4.509934,-0.46671593,0.9132118,0.78730273,1.6300217,-4.1971803,4.134178,10.4534855
-6.3407626,-3.0551155,-6.631622,0.52388865,-4.129493,-0.7679002,0.3953023,-0.17732263,0.3305944,-4.907635,3.269267,8.298454
-6.794176,-1.501777,-5.244913,-0.1831269,-5.316785,-2.8969014,0.0015179515,-0.41319478,0.055449594,-3.0289223,2.0605316,11.708389
-7.99489,0.26025653,-5.6686625,-0.50937164,-4.118349,2.8267922,-0.19394624,-0.68238044,1.5513345,-5.654213,-0.17787391,11.994677
-9.247025,3.1475627,-5.400319,-0.18921447,1.3319905,1.9176745,-0.014425397,-1.0911818,2.3988955,-7.5196576,-4.061263,8.502176
-7.5249643,1.3947883,3.6080642,0.38705063,2.0224667,0.7828789,0.37474132,-1.1720195,0.9981993,-2.2583137,-8.138987,5.837639
2.8888783,-2.0719388,13.756578,1.4420114,1.6290992,-3.502533,0.32143307,-3.5898364,4.717319,0.2826023,-3.8231697,14.828102
-0.70319176,-0.9175439,14.518897,6.743458,5.0017567,18.762238,16.416862,-5.7393293,-6.052782,-1.9538137,3.3238661,0.56393933
-0.20068994,-1.7004774,10.098097,4.59998,1.7475817,15.121361,8.656494,-6.171725,-9.11189,-0.7302536,2.2816648,-0.20159447
0.9094968,-1.5336776,2.6845016,5.674633,-0.3695265,9.647789,6.499895,-2.249197,-6.882114,1.3160298,1.3389721,-0.461034
1.967493,-1.2728916,0.3936165,6.0188117,-1.3728385,6.5263615,7.428609,-0.791263,-3.4841068,1.6410115,0.48157942,-0.057541907
0.3988365,-1.0805109,2.5846727,4.5433993,-2.1659167,1.1868504,5.3260946,-0.888517,-1.1101145,0.5464215,0.76819706,-1.0060813
-11.116035,-4.2148075,-8.114474,0.8163015,-1.2059634,0.3910632,-0.84263617,1.4714749,-4.553733,-9.789871,-0.79366875,17.104477
-11.68408,-4.352759,-9.004922,1.7417142,-4.42472,-2.073717,0.14587879,-0.47553563,5.0415506,-4.20189,4.3733597,16.089243
-8.002361,-4.3780575,-5.612247,1.3933456,-5.835585,-3.091209,0.62275624,1.1983663,0.6739272,-3.7447038,5.2593493,7.90324
-5.955568,-1.1946146,-4.5768623,0.5287807,-5.744266,-4.9606743,0.48557377,-0.6627636,0.8463578,-2.9805255,2.4772024,10.637414
-8.316827,0.7429255,-5.5356817,-0.53710264,-3.2375672,-2.1656902,-0.10117531,-0.9627404,1.6191503,-4.9643507,0.16290462,12.721643
-8.971056,0.20774305,-2.7864232,-0.1047132,-1.1767085,3.852726,0.03814268,-0.57673764,2.1934822,-6.1042185,-4.8908515,8.308436
-9.838346,2.3384044,1.2200843,-0.0836525,1.9361317,0.9429264,0.3236806,-1.161838,3.5897748,-5.3400683,-9.433175,8.164983
-9.376964,1.942414,1.9916161,0.16634536,1.648633,0.8027215,0.15714955,-1.3144817,1.5259578,-4.9973555,-6.0339108,7.507843
1.0985141,1.2076072,1.4157658,1.0026236,0.9623146,-2.0048614,-0.13052559,-2.7564697,3.4678106,-0.13087249,-2.0473006,5.0955863
-2.6222615,-0.24716759,14.553683,8.4746275,-0.43726254,20.0,16.093706,-3.6201873,-7.045053,-1.1071067,2.4751225,1.569582
0.38332403,-2.0723538,8.984703,7.452175,1.7209318,13.865812,10.596789,-4.709648,-6.838463,-0.04612595,1.7385855,-0.14122975
1.0371857,-1.4838226,1.7792108,6.375085,1.7711705,8.595455,7.4943624,-3.8568468,-5.2354426,1.343301,1.2339394,-0.5653825
0.8360895,-1.3462608,1.3652368,4.1842947,-2.5345297,2.9198549,5.5910463,-1.2464235,-2.22328,0.8884616,0.92852384,-0.41113687
0.23469496,-0.11958885,1.178824,0.7427623,-6.009351,-3.017918,1.1245875,1.5553772,-6.0364013,0.45046282,0.29335928,-2.3418958
-16.468384,-5.1844525,-11.218129,-0.07401055,1.2597344,0.22671592,-1.4316673,-1.956593,4.4488225,-8.86667,5.0204425,15.199238
-10.890067,-3.1758342,-7.7736454,2.1035182,-5.257178,1.1331818,1.0570145,0.51197827,1.6943679,-6.5940247,4.6679316,8.777284
-9.1841,-3.394595,-5.9474845,0.27830955,-4.361807,-1.1621568,0.325019,0.43709746,0.7307676,-5.030038,5.0218453,11.215117
-8.458529,-0.7760941,-6.2103624,-0.12423912,-2.0569992,0.35808814,0.09617758,-0.41883123,0.3798596,-6.83995,1.7256173,9.015677
-5.640292,2.8241587,-3.866883,-0.46880135,-1.0530102,0.44834983,0.49633038,-0.39406776,0.26138395,-5.1940513,-0.19101012,9.293684
-9.575718,2.3362668,-2.5207365,-0.2506144,1.293829,0.82382536,-0.16372919,-0.98128414,1.8619001,-6.4831038,-4.145005,8.381071
-9.142525,1.3283994,-0.13270557,-0.116147995,1.2819993,0.3665402,0.33645386,-1.3284426,0.6574452,-6.912268,-6.819141,6.8214884
-9.975754,4.398688,4.356702,-0.2969784,0.9145162,0.37338018,-0.23836565,-1.5057697,0.46342278,-4.732765,-10.379271,7.9661894
-3.408134,5.0313196,-3.6488879,0.11394143,0.6214347,-0.550673,-0.16681576,-2.418064,1.7224467,-1.619477,-6.611899,1.0442674
-0.7951293,-0.551867,14.339299,12.096366,1.5468605,18.755444,-4.587277,-3.0854607,5.318446,-1.44385,-1.3920292,7.193942
-1.8176854,-0.6300316,13.843618,11.505049,1.4154377,20.0,15.881429,-7.732114,-6.738129,-0.87685823,2.9445012,0.5339637
0.76629376,-1.7426944,7.762369,5.9442387,2.3467717,17.9443,12.610131,-6.9656825,-4.815844,0.021358907,1.2607293,-0.107472956
1.484227,-1.6580012,0.06085354,3.7287655,-0.10590875,11.443523,8.436819,-5.3425956,-2.1227794,1.1869559,1.3952289,-0.99066544
1.0501714,-1.9620519,2.3697672,3.743465,-2.6306896,2.8392825,6.2835927,-1.6083785,-0.74068403,0.60716677,1.2725294,-1.165174
-1.8532405,-0.6293855,2.4799047,-2.171708,-6.1293197,-5.2145185,-0.069031715,2.8218212,-7.3088965,-7.1461563,0.37668133,16.739313
-9.776941,-4.2091208,-8.693004,3.30858,-5.3813853,2.553258,1.1621225,0.642889,1.6146495,-5.3405347,8.054599,12.248839
-8.984521,-2.3512704,-5.9664063,1.6084076,-4.8473854,-0.57783854,0.39070964,0.8682792,2.196459,-2.0523958,4.3361254,12.374481
-6.0789657,-1.1905859,-4.6162295,0.6341287,-5.245545,-0.42712688,0.4396038,-0.10778913,0.15269497,-3.2964435,3.6185226,10.4465475
-8.6450815,0.42516708,-4.8620024,0.15764701,-1.9421953,3.4345686,0.28517938,-0.47884798,0.9276379,-6.33294,-0.8459084,9.519771
-7.3011446,1.313743,-5.9667335,-0.3134215,-2.1978116,2.4591641,0.10420108,-1.1183383,0.60685444,-6.867517,0.78163743,10.108064
-9.571036,2.0262399,-3.21913,-0.06204176,1.0875963,1.2380116,0.02253139,-1.1063693,2.033093,-7.940329,-1.168705,9.871307
-9.925602,3.6754634,2.2984338,-0.19600451,1.445739,0.7603359,-0.19684172,-1.5639744,0.40731207,-4.9434566,-6.948691,9.461891
1.0266306,-0.11099458,6.8732166,0.6798439,0.87149763,-1.30125,0.2314558,-3.0866883,3.623475,-0.2464962,-1.6974192,2.856508
-1.8459477,0.12409258,14.967374,10.360534,-0.085348606,20.0,17.062382,-5.7428236,-7.406841,-1.8343143,1.9447408,1.0272818
0.26376528,-1.2793245,8.949476,6.062232,2.8598382,16.284113,12.318793,-6.8060436,-2.518254,0.2708559,1.724772,-0.3215358
1.0266244,-1.7081661,2.3610222,5.788275,-0.009751201,11.973985,9.1365795,-5.4545712,-2.0530064,1.2454138,1.3750477,-0.6832639
1.5301831,-1.5771811,0.58237875,6.3650994,1.2403524,9.023271,9.681797,-4.5478134,-2.1660028,1.038568,1.1215091,-0.5664997
1.0381948,-1.2124233,2.2994337,3.1288238,-3.3404837,3.0122318,8.209062,-2.4556732,0.72964483,0.10043037,1.55533,-1.6287613
-15.247444,1.1035309,-12.793129,-0.14032927,-1.5243421,1.2084966,0.74152315,1.9457572,-5.476476,-7.76731,1.1999564,14.928413
-14.751296,-0.9155669,-10.912874,-0.38456625,1.0061407,0.8504343,-2.0392764,-1.5493727,5.6503735,-7.8071423,3.9915152,14.484484
-8.053884,-1.2405374,-6.1220193,2.3721178,-6.1168823,4.345683,1.7658775,0.74145913,0.7945128,-5.211338,3.8388968,8.503239
-9.85497,-2.2857203,-5.5139523,-0.36897078,-5.3822675,0.6969465,0.46571565,0.82543755,0.88328665,-5.0293474,1.9457486,9.624278
-7.752039,-0.58514,-4.8177176,-0.53017473,-2.0933862,-0.6618038,0.4154508,-0.48253512,1.7398962,-5.6022964,0.39778888,9.567274
-7.90173,0.61189663,-5.5092583,0.1344375,-0.7773192,0.43166447,-0.08657026,-0.5735264,0.086976424,-6.502811,3.9330473,8.951562
-9.580133,0.33479327,-3.0394106,-0.058907747,1.1062493,0.403466,0.26794094,-0.6500404,1.1946789,-8.71694,-3.015622,6.8727913
-9.673806,2.2940784,-2.1429467,-0.3383144,1.0436022,0.65075135,0.083852984,-0.86588764,1.6595067,-8.615815,-3.9697628,7.0724096
-9.212151,1.7612733,3.8106666,-0.050594278,1.0660548,0.7727566,0.39497328,-1.1966372,0.95283747,-5.3700457,-6.101652,5.9154725
-0.8221669,3.4774046,-5.1304164,-0.055111647,0.66077745,-1.3279653,0.43345833,-2.5228975,2.3783717,-1.5235655,-6.103416,1.3707778
-3.9052482,-0.20548868,15.489507,8.850733,-1.3571308,20.0,12.8836775,-6.1170545,-9.893021,1.4213619,-0.2056477,6.2433844
-0.9847096,0.71057796,11.147457,4.13205,3.575513,16.90863,12.460189,-7.5508823,-4.8055797,-2.1828334,0.871953,-1.37785
0.47050393,-1.7978611,6.804508,5.6116366,1.0951236,15.154833,9.659704,-7.7855115,-6.131501,0.38823843,1.4128709,-0.64178723
0.9295025,-1.5842083,4.116309,6.3342505,2.0588741,13.721628,9.676607,-6.995947,-3.5172234,1.2884874,1.4207323,-0.716063
1.2738447,-1.3463392,0.96874475,3.207118,0.22782135,8.007335,7.076389,-4.040943,-1.8916569,1.0302578,1.0853798,-0.63995004
1.0272918,-1.6201663,1.9613853,2.4735389,-2.4286685,3.4204803,5.8520837,-1.7095687,0.06568594,0.48493123,1.0645976,-1.270844
0.60150814,-1.3529835,1.6845102,0.18828389,-4.418995,-1.4475937,1.0862907,1.2073915,-4.1995683,0.25720406,0.789124,-3.030054
-16.390434,-0.7517843,-10.71588,0.50451285,0.3551669,0.9018487,-1.9183788,-1.252374,5.247634,-5.964177,1.800467,16.881176
-12.755859,-2.4976513,-8.462992,1.6357611,-5.078377,2.7622442,0.25273204,-0.6207204,3.983035,-5.4657764,3.427073,12.349901
-7.849933,-4.2330914,-5.4184246,0.76468956,-4.341778,-0.33843172,0.66832757,0.7224078,1.27252,-4.1253386,5.335451,10.150911
-6.532029,-2.0747476,-4.892859,-0.17147544,-4.5201235,-1.0289521,0.74864554,0.40861127,1.4882066,-3.3287225,4.079153,10.272741
-8.165131,0.35473287,-5.129112,-0.060418785,-3.3047376,1.8456168,-0.06502867,-0.8948872,0.9062769,-5.529709,0.89976585,10.398747
-6.816161,1.5199594,-4.165935,-0.26294374,-0.9887086,1.5337315,0.38365865,-0.656193,1.0435587,-5.979979,-1.2063888,9.697415
-6.771147,1.8794656,-1.8367333,-0.3774488,0.90854347,1.103343,0.26167333,-0.8072164,1.2900202,-4.63749,-2.317464,9.288109
-8.815316,1.7422152,-0.039380312,-2.7539856,-1.9137446,-2.6054592,0.34184653,2.312961,1.8569045,-6.056003,-7.257617,7.9372745
-11.27355,3.074222,1.5166087,0.1048851,1.1814241,0.3713839,-0.4061072,-1.3447466,0.9146384,-5.8720827,-7.802258,7.167409
-4.8339305,5.8445926,-2.968041,-0.38228303,0.8559823,-0.3179299,0.117459774,-1.2644072,1.5197911,-2.5868292,-11.775811,4.3874674
-0.31599998,0.7377584,13.566807,12.432198,0.5804844,20.0,-1.9698477,-4.047861,1.5918119,0.53201103,1.7097397,-9.080547
0.02318263,-0.5405922,11.828223,3.0812078,4.3973503,17.034477,18.662142,-2.3344975,-12.647373,-3.173959,3.419756,0.8264265
0.21623945,-1.9176598,6.2788296,4.2669444,0.07069075,14.250196,8.553494,-6.5229807,-4.5795727,0.4175173,1.8679962,-0.90772367
1.4173024,-1.3777196,0.89412105,4.139963,2.6673079,9.968365,6.383094,-4.571932,-5.4164643,1.166288,1.4052768,-0.48217845
1.527767,-1.5157931,1.040626,4.498218,-0.87588173,7.5697007,7.0779123,-3.5429387,-3.7071517,1.1149288,0.3202114,-0.34718513
0.6907394,-0.5114176,1.3748124,4.0872784,-4.018304,2.9351006,6.5611453,-2.9553175,-2.2111444,0.73178506,0.36165428,-0.84570646
-6.644224,0.27425504,-5.3674116,1.4467568,-3.9969952,-0.6312638,3.0973866,0.16471839,-1.9277823,0.5644994,0.79470444,-3.6714597
-13.774858,-6.6270337,-9.002096,1.062504,-1.8173139,-1.5118223,-0.9429512,-0.9755943,4.0599213,-5.1672797,6.2695303,15.237851
-11.185326,-2.2859697,-10.562511,3.148016,-3.6054041,-2.8760757,0.5677266,0.35235214,5.1193433,-6.793207,6.4709196,14.147556
-7.300944,-3.5865936,-5.001657,1.2576796,-6.3071647,0.13416255,0.73469543,0.81167245,2.0324538,-1.5190175,7.7383327,10.327494
-5.7349234,-2.5015454,-4.0120378,1.0161535,-6.050365,-1.4850124,-1.1117741,0.8387904,0.5424571,-2.476656,5.806445,11.883735
-6.9559097,-1.0544084,-4.3559995,0.6661292,-5.692618,-0.38365734,0.11821306,-0.2756281,0.1622616,-3.2495992,2.8400507,11.067423
-6.7590685,3.196936,-5.927658,-1.0600528,-4.774459,8.904303,-1.0863736,0.29222417,2.1250837,-6.9996896,1.7465264,10.6489725
-8.409406,-1.4030179,-0.7524661,-3.1792488,-1.1860591,-3.297574,-0.37889087,2.4426203,1.7234116,-6.7562795,-4.95692,8.846907
-10.77065,2.7328856,-1.5335122,0.28139496,1.4750326,1.1080172,0.19983193,-0.6638074,2.0832727,-6.8379993,-4.3955593,9.385932
1.3100089,2.772494,13.262421,6.278121,-1.0544174,3.8222184,10.004427,-3.1140897,-6.6630516,0.8869026,-3.6571357,-2.340617
2.4959302,-2.6510916,16.232944,1.421423,2.1169431,-3.40522,0.13155842,-3.4382477,5.577055,0.7667513,-3.6324325,11.81866
-1.2219768,-1.3766022,13.614029,7.1447444,3.7249455,17.47665,14.267169,-6.4469905,-4.90742,-1.7813835,3.0754285,-0.07623792
1.1795139,-1.7611179,4.8496094,4.6493235,0.32749057,12.804276,9.472159,-6.4344363,-3.7578673,0.5481474,1.5521836,-0.72781193
1.4573483,-1.4174321,0.21867007,5.228132,0.97948337,9.859223,7.9509797,-5.7655754,-3.813612,1.2505013,1.2525041,-0.6794784
1.693763,-1.039671,1.2180194,4.8782597,-3.0783482,7.147279,8.929154,-2.9126587,-2.6338296,1.0399901,0.92400914,-0.487329
1.1673774,-0.6422558,1.3736484,3.390986,-4.0967803,3.069773,7.334862,-2.3857088,-1.6523365,0.4300431,0.59237313,-1.2616694
0.29337478,-0.83315563,1.3934426,2.708709,-4.500847,-1.3072462,4.5729685,-1.0103669,-0.31389928,0.09049988,0.2942419,-1.8385704
-16.123877,-3.0305705,-10.963739,0.13219526,-0.90379095,0.3287506,-2.1469605,0.4604621,-2.050486,-6.792092,4.1113048,16.433256
-9.768758,-1.8753195,-8.598588,1.9777154,-3.9141386,-0.97995555,0.97379255,0.11489844,3.2509592,-6.0118737,5.368642,11.38227
-7.9780455,-2.2975292,-6.1500926,0.6616591,-5.155359,-2.4198384,0.80677557,0.5274656,0.24310935,-5.180554,3.5222626,10.3680935
-6.7936883,-1.8844173,-3.114565,-0.60340774,-6.4571743,-2.7971854,0.19967592,-0.18654168,0.19158506,-2.5602157,2.6463318,11.2512665
-9.09182,0.48616898,-4.863103,-0.29812837,-3.2202644,2.79652,-0.3469249,-0.8493285,1.5213547,-5.7876763,-1.8172796,11.990529
-8.340516,0.5514865,-0.018569946,-0.012511253,1.2668903,1.6170888,0.4201131,-0.56665516,2.8108892,-4.8777876,-6.0335007,7.6972065
-11.7586155,3.1314313,-1.8776085,-0.18012214,2.150931,1.6014318,-0.2405556,-1.211781,2.694857,-8.027827,-6.332832,8.806248
-5.84765,4.790992,-0.51744986,0.08011556,1.642045,0.40588522,0.32361102,-1.4302745,0.67097473,-1.1791457,-11.203064,6.5479565
-2.2230034,7.325589,17.09975,-1.4392166,4.18948,2.635066,-0.04511547,-1.1164207,1.002892,3.7848911,-3.499738,-13.392383
-1.3993828,2.5741434,10.511674,2.6835687,4.0743856,14.211587,11.858614,-5.693471,-6.420322,-2.7280612,-2.0000153,1.983171
0.9564121,-1.9477139,6.8388805,5.5446754,0.68411684,13.83468,9.5854645,-4.5097404,-4.2503347,0.7424289,1.5880008,-0.83267164
0.5119035,-2.3456523,-2.4511266,5.021543,-1.0271337,8.879543,7.150523,-3.8998098,-5.8072166,-0.24030948,1.26067,2.7251134
0.6980207,-0.7360049,1.3511992,4.8107347,-3.054087,3.9251876,5.6496396,-1.3389802,-2.8658168,0.96555483,0.9695022,-0.8120439
0.643919,-0.59826446,3.408545,0.7337873,-0.9572052,0.908648,-0.36804488,1.6287525,-3.240927,-8.033055,0.48934674,13.711065
-15.624873,-4.459683,-10.336613,0.8170029,-4.864951,0.07218884,-0.644948,-1.9640617,2.9104512,-8.465639,4.40969,11.311876
-11.480143,-3.0822253,-8.337399,1.2871187,-4.773807,0.12614709,1.1193192,-0.15798295,2.510696,-8.023896,0.9015434,11.751911
-7.942017,-2.7344074,-7.370904,0.76168776,-4.141944,-1.171137,0.86142373,0.14573002,0.8964196,-5.9705615,4.338586,10.249461
-9.1511545,-1.1105757,-7.3692145,0.1532006,-1.1675055,1.1902416,0.61294246,0.4951558,0.330677,-7.947499,1.8315595,8.177961
-6.9000597,2.2137318,-3.7071195,-0.4989186,0.8781982,-0.03761065,0.6222311,-0.8246896,0.7099261,-6.929216,-2.6896942,7.37858
-7.576623,2.6229496,-2.4541864,-0.3427596,0.63522184,0.7126179,0.06982958,-0.7538526,0.42289633,-5.113793,-4.267479,7.020632
-10.29411,2.669858,-2.6618,-0.68230534,1.0526981,0.47083354,0.010165483,-0.89581585,0.25910562,-9.493647,-5.084872,6.7103605
-4.604553,3.3565536,4.092476,-0.67118895,0.60892355,-0.6231358,0.9471111,-1.7236769,1.4339578,-3.2154417,-6.77831,2.6520684
1.8824909,-0.65139514,11.321401,1.2501416,0.6237607,-2.2343998,0.85376453,-3.152966,5.378751,-0.5565522,-3.4690187,8.400583
-0.46344042,-0.7892685,13.156759,8.759197,3.3798392,20.0,17.359188,-5.95795,-6.236456,-1.4687948,3.3461266,1.0031166
0.6645335,-1.7984853,6.3189993,7.1585507,2.1714625,15.119753,11.230512,-5.519794,-6.7581825,0.2096479,1.5967124,-0.3386833
1.6911414,-1.5058975,0.12657121,5.094566,0.6975157,10.59393,9.7892685,-4.4481616,-2.8222861,0.86596274,0.99941635,-0.76617324
1.552636,-0.7163773,1.4863183,5.0392036,-0.80018795,4.6334925,7.6276503,-2.6053596,-2.6129007,0.98025787,-0.08203161,-0.14019406
-0.45753145,-1.6567442,3.1823046,2.3216052,-4.4150615,-1.9838346,1.0349004,1.8992007,-5.7585135,0.5469997,1.877141,-5.2874417
-13.142324,-4.7522535,-9.114,0.54197073,-2.7790601,0.66101503,-0.7526059,-1.1896751,5.236894,-5.1024776,3.8747945,14.649146
-7.9135504,-4.777873,-7.155628,2.365778,-6.3397875,0.18228996,1.562262,1.3614647,1.4866738,-5.5460916,6.091881,9.816586
-7.782276,-2.6042335,-4.7371597,0.43470928,-6.2663198,-4.0246572,0.10884082,-0.11742246,0.25300607,-2.932991,3.723731,10.892688
-7.6220083,1.3492911,-6.1584787,0.034226775,-2.203086,2.4027414,0.19521737,-0.6787429,0.84707296,-5.6739717,0.75034213,11.041997
-6.507352,2.0504198,-4.377137,-0.33124083,-1.1568567,1.3976889,0.4265058,-0.58321095,0.8125548,-6.033803,-1.1400739,9.557403
-9.516594,0.18025917,-2.3927345,0.035948277,0.99862576,1.3399925,0.069242,-0.9709039,2.3279958,-7.2565355,-3.51198,7.7652693
-10.197106,2.6927476,0.54689074,-0.16401482,1.4910417,0.82216406,-0.16012287,-1.5187292,1.8977239,-6.3826966,-5.270075,9.795792
0.09095073,3.3760257,-6.1819572,0.6272104,0.91193485,-0.8094673,0.15759087,-2.958743,2.4594512,1.3598356,-2.6314218,-0.93883026
-4.5557985,-0.21487379,17.266102,6.3769503,-0.10598779,19.300592,14.574561,-2.4504347,-7.306652,0.27924395,1.3931389,2.8601913
-0.53925323,-1.0873952,14.9348955,8.656688,5.3770323,17.652842,14.699503,-4.820867,-5.469855,-1.717249,2.7957883,0.111240864
0.7889004,-1.7643547,7.429436,6.9698124,1.9994059,12.213119,9.769642,-3.9769387,-4.7494106,0.7210046,1.495101,-0.6392561
1.8349664,-1.7306867,0.38854468,4.9521556,-1.8335531,9.685938,8.287284,-3.0387778,-3.8798435,1.6579404,1.1962636,-0.6242659
0.877949,-1.1220268,2.6491785,5.842866,-1.1534309,4.1344185,8.772283,-1.3199079,-0.113921344,0.20717418,0.46604872,-1.1217666
-10.4727745,-1.4532423,-9.668,-0.4540792,-0.80040216,-0.2568562,1.1531371,2.7298152,-6.559722,-8.654106,-0.3373201,16.88162
-13.332378,-2.4197555,-11.227933,0.61434877,0.18630505,0.22524774,-0.69569445,-0.95559,4.426902,-5.535964,4.5383945,14.88291
-8.089616,-4.167855,-6.4136906,2.1018834,-6.585477,3.270277,1.2669702,1.1932771,1.4702152,-3.7954676,4.3322477,9.495449
-7.57355,-3.1797147,-4.9278164,0.6165291,-5.2829366,-0.94674385,0.3933419,0.67235166,0.46634817,-3.137742,4.511591,8.540351
-8.565156,0.019049525,-7.680363,-0.23114216,0.9589567,1.7877386,0.21540499,-1.017637,1.4343812,-8.586942,1.2148029,7.5280085
-8.976804,0.66926455,-5.332068,-0.34887552,0.47013658,0.5589583,0.23464966,-0.72013855,0.31889415,-8.904066,-1.7241081,7.0535274
-9.670679,1.1056392,-0.32614625,-0.11254871,1.1384783,0.4066174,0.01843369,-1.2339566,0.2050488,-5.6966767,-9.133485,6.4376817
-4.8072495,4.4069386,-0.30571222,-0.25861126,0.9229944,0.17544103,0.21327305,-1.4935727,1.3976524,-2.5796423,-9.495675,4.339901
0.7731974,-0.82765853,14.570993,12.668449,0.113499165,20.0,-3.239787,-1.8188367,3.0618205,-1.2957058,-2.0499122,10.075964
-0.96027917,-1.9251895,10.617747,8.442495,3.0802379,17.150017,10.213782,-7.2916374,-6.639167,-0.29803324,2.702024,-0.3527205
1.2878323,-2.0254786,2.8199785,4.7206044,0.76239324,11.815917,7.6705875,-4.5327435,-5.4898453,1.2195059,1.4181709,-0.41295892
1.3905222,-1.7311919,0.7463567,4.914955,0.6447675,8.517237,9.125583,-3.8673368,-1.988434,0.7410461,0.6829721,-0.26673245
0.7975075,-1.0610622,1.9494953,2.6407902,-3.7269645,1.4799016,5.986494,-1.4276899,-0.50298667,0.34840262,0.655874,-1.0606542
-13.951031,-1.537997,-11.942785,0.36155376,-3.7856607,-3.039077,-0.36009872,2.0137815,-5.436511,-10.48434,0.5334921,17.611807
-16.222923,-4.256759,-11.42197,0.70136,-5.0026064,-2.964848,-1.1572702,-1.2916498,5.040972,-8.017299,4.441229,18.299736
-9.827387,-3.8248382,-7.376333,1.7057902,-4.6193633,-2.4866686,0.7792084,0.81113243,1.8793436,-5.1477933,5.5384626,12.034526
-8.227943,-2.0624084,-5.555661,1.4621639,-5.0444818,-3.3307552,0.21676648,0.44469607,0.45032844,-3.0391576,7.355188,11.688932
-6.2821617,0.16872466,-3.019873,0.26827744,-5.732966,2.4360046,0.20524693,-0.7162411,0.0825975,-4.375631,2.596764,9.357722
