ancorasir/BennettWheelLegRL/experiment_data/2023-12-27_22-40-32/joint_torque_env0.csv
Joint_1,Joint_2,Joint_3,Joint_4,Joint_5,Joint_6,Joint_7,Joint_8,Joint_9,Joint_10,Joint_11,Joint_12
0.0,0.0,0.0,0.0,0.0,0.0,0.0,0.0,0.0,0.0,0.0,0.0
0.0,0.0,0.0,0.0,0.0,0.0,0.0,0.0,0.0,0.0,0.0,0.0
3.7524877,-1.7738596,3.771991,-4.939787,3.4243083,-7.6091294,-4.9166603,-1.8387928,6.064942,5.1344447,2.8658242,-10.226799
0.26373625,1.1342106,-0.14820123,-0.54819334,0.86781573,0.0197016,1.1329844,1.1774344,0.75329673,1.499243,-0.4112954,-2.0497527
0.23164248,-2.4506867,0.9145329,0.40591228,-1.0965369,-0.45648265,0.20736408,0.89381474,2.8929322,0.12300098,4.188424,-0.44622898
-0.07570851,-2.8754005,1.7674949,0.27524617,-0.63413566,-1.0770952,-1.2994338,-1.3663874,5.2730513,-0.6795666,3.8806424,-0.7681036
-0.8690906,-2.822301,2.6572027,0.34693754,-0.8136038,-1.2034652,-2.2297924,-2.8012266,9.598881,-1.448346,2.5596688,-0.44114327
0.8156109,-4.198314,10.414669,1.0066235,-1.3456421,1.7238451,-5.2895346,-4.625422,19.70298,-1.3501265,0.9231491,-0.12982774
2.7105656,-7.2372913,20.0,2.9926975,-4.062385,10.769454,-6.9236727,-4.2730513,17.80812,-2.746602,1.1840096,-1.3328648
-15.750705,-3.7858026,-12.378959,8.937962,-4.812709,6.4339027,-5.974304,-3.5038807,10.475061,-5.055046,-0.7678871,-1.288002
-10.2690525,-17.33491,-10.104225,3.9558773,-5.8214426,8.37664,2.0936472,-1.8837509,5.2347126,-19.749067,5.3180118,17.887596
-16.573425,-11.345087,-16.263113,2.2638254,-2.1921728,8.211245,1.6686401,0.88349414,4.8093824,-12.19948,12.095596,20.0
-16.842031,-10.555285,-14.858296,3.6815686,-2.4147766,8.936286,-0.723053,-0.036760807,3.637095,-6.1603656,16.543657,11.043301
-9.807172,-13.759297,-9.791123,2.0417,-4.189991,8.265061,0.002586484,0.2707827,0.24960175,-2.7749274,7.136099,5.119899
-8.437077,-13.072085,-9.512798,0.07937664,-3.2516522,5.344233,-0.18383694,0.027827086,0.2909618,-3.2251043,3.2374558,3.2803566
-6.392076,-9.797624,-10.4733515,-0.053444456,-2.7874153,3.3637915,0.23942065,-0.42617095,0.7089832,-4.807359,5.2591515,5.3760386
-6.0883746,-7.103894,-10.406046,-0.37348884,-3.2711828,1.8028307,0.53180623,-0.5083792,1.6967397,-5.9650292,5.5217147,6.5406976
-5.178555,-4.627436,-10.819475,-0.62543696,-2.3321826,0.25828248,0.29019094,-0.5993763,0.91042405,-8.640746,2.1283858,4.053931
-4.2239447,-6.4171457,-9.306723,-0.84146607,-1.976607,0.7694447,0.030074596,-0.744174,1.7821677,-8.130356,-0.23476845,4.8167343
-5.7262545,-5.52443,-9.827378,-0.51335406,0.5926924,2.206133,0.16302085,-0.7231636,2.9563155,-9.401096,-3.8244257,4.2119255
-6.3941994,-2.2890642,-10.4535885,-0.27541256,0.55919063,2.1938534,0.49770856,-0.8259654,3.5989814,-8.600958,-5.6186967,3.6329262
-8.271761,-4.2552357,-8.72685,0.8098006,1.0127714,0.7446227,0.98847425,-0.4487462,1.8335323,-7.592942,-5.279945,2.811767
-7.3182755,-2.0876694,-4.337817,0.53153515,1.3393221,0.46275997,0.85192466,-0.6395607,0.6069068,-4.725294,-7.323347,2.6459076
-0.16755426,0.9515891,-1.2316498,0.044469833,1.292443,-1.0227731,1.0546107,-1.8295016,2.5729628,-0.8047322,-5.564945,-0.86806726
3.664235,-0.7668977,15.343814,2.008894,1.4689405,-3.650031,1.4581928,-5.186631,9.096236,-0.47259426,-4.274618,18.43234
-1.5105126,-0.009068966,14.394706,4.676157,3.6082559,15.390201,16.786133,-1.3371651,-9.758944,-4.304737,3.2656033,0.92241335
-0.96004176,-0.11060333,1.027732,5.642989,1.2458912,12.169287,5.957984,-6.133438,-4.846805,-0.49485517,-2.2047167,3.6396368
0.108376265,-2.1170301,-4.1916566,3.116059,-0.010721445,8.286989,7.528823,-4.9320693,-2.5070581,-0.49826324,1.1287835,1.9450092
0.511616,-1.3882647,1.5431719,4.8067756,-4.9520116,5.8269258,7.5281544,-3.5242977,-1.3338586,1.1518836,1.7227311,-1.5200577
0.30583262,0.13563395,1.2619028,1.3563948,-3.9429502,-0.41431987,1.4912269,0.79597044,-4.1173553,0.33547783,0.42794657,-3.1620855
-13.643603,-2.3040905,-10.043,-0.62709343,-0.8104234,1.4566803,-0.8956882,3.1514947,-5.874975,-9.3060875,-2.2390456,16.343754
-14.141847,-5.003718,-12.227328,0.5685674,0.62980413,-0.23437858,0.083017826,-1.2394159,3.5420516,-9.080308,5.3075676,12.922896
-8.370529,-3.1489193,-6.9581213,2.3979774,-5.000541,3.087909,2.0311675,0.4488443,1.2933203,-8.207723,2.2269316,5.911203
-9.489277,-1.6616136,-7.567618,0.16362938,-2.8496442,-1.3225427,0.28748655,0.1824193,0.7263704,-7.457971,4.3156395,8.166954
-5.8241234,-0.87545514,-5.8189764,0.33340636,-2.9146266,-0.06845547,0.48299265,-0.29527897,0.55300105,-5.099704,3.726199,8.196627
-7.832355,-0.07030213,-3.1282542,-0.06689966,0.41731477,0.44842458,0.11171222,-0.98439646,1.1587101,-5.9112716,-2.0156064,7.3201303
-8.898656,1.9380759,-4.308914,-0.36771286,0.90790623,0.89080334,0.36431074,-0.73149896,1.774674,-7.7315044,-1.0811068,8.727678
-9.170834,1.3254149,-0.8486512,-0.27438235,1.0708481,0.044563055,0.49160603,-0.5144901,0.62381446,-6.1878295,-7.943374,6.6335654
-9.892407,3.0985665,0.58222985,-0.23225296,1.2246921,0.66178775,-0.5234388,-1.334424,1.0331349,-6.366125,-6.9010787,6.675879
-9.678088,2.7889555,5.1643963,-0.4371413,1.0910953,0.44666004,0.026947498,-1.6111937,0.8136517,-6.6712794,-8.793529,4.1497774
1.063592,1.2855625,13.217731,0.8648977,1.6321536,-3.228672,0.028222084,-3.8375514,7.0812006,-1.1071727,-5.42654,16.378674
-1.7404985,-1.236177,13.367868,10.695707,1.076251,20.0,14.383768,-10.3492365,-6.446466,-0.6816056,3.8188431,0.04130006
1.3577375,-1.9800496,5.269963,7.985447,4.029009,16.711622,13.370662,-7.78417,-3.862987,0.35972077,0.97675204,-0.50204647
2.1050816,-0.8542657,-0.05403427,4.0035615,1.0868943,12.11825,10.791067,-7.302033,-1.3770912,0.8352169,0.99758744,-0.41311848
1.1757355,-1.1547557,1.9741759,2.9354084,-2.3513885,3.5939531,8.065436,-3.5830245,0.24973628,0.22715521,1.0752819,-1.2448282
-9.377684,-1.5003521,-7.3076816,-0.5808482,-0.8660686,-0.056065798,1.2300236,2.335654,-6.8392096,-8.947754,-0.78344154,14.971927
-14.869579,-0.034950495,-11.358301,0.8932104,-3.566864,0.46647358,-0.58013153,-0.8908304,4.2651296,-8.189509,3.8886983,12.58592
-8.550878,-5.513484,-6.119738,1.0934386,-5.4894648,2.7395277,0.8271508,1.2055492,1.2113668,-3.3103192,7.329215,11.080764
-6.28851,-2.6042771,-4.4876547,0.17510447,-4.2359834,-1.6036181,0.39232397,0.05856937,0.59420097,-4.006518,5.346059,7.939086
-6.94027,2.2780547,-3.2065747,-0.19419539,-0.02947092,2.149741,0.34045196,-0.691566,1.5838118,-4.612096,-2.4655733,9.074966
-8.890702,3.294726,-1.075776,-0.5489385,1.29636,0.5030551,0.5339792,-0.9887922,1.6155126,-7.7797956,-7.7502356,6.913319
-9.406659,2.3978808,1.9516323,0.079790354,1.4511082,0.5642066,0.43649006,-1.1011448,0.9821812,-6.281309,-8.549837,5.363609
-0.21392836,3.5621262,-6.200297,0.42398596,0.99573755,-1.2362404,0.3670349,-2.7470326,2.7841036,0.5444517,-6.6457562,-1.6362398
-3.606585,0.10061884,14.3148575,8.529698,-2.0002713,20.0,15.250698,-1.2779248,-9.534259,-1.0625858,1.7303662,3.2388992
0.76255697,-1.5212336,10.087758,6.920284,3.414376,15.6575775,12.541788,-5.235384,-7.523909,-0.19584078,1.8384209,-0.25035897
1.4279065,-1.6502466,3.1061273,7.0991316,3.157692,10.61739,8.082078,-4.5219173,-4.464105,1.5114195,1.1274071,-0.31137636
0.8400754,-1.0043005,0.96976066,6.669613,-0.5193976,8.746961,8.261521,-3.5061316,-3.3664684,1.2582304,0.77460825,-0.33908987
0.76868486,-0.94021165,1.5628239,4.51921,-3.4859507,2.3889315,6.9494014,-2.871683,-0.7099329,0.5662918,0.33355713,-0.9583993
-8.908155,-3.900617,-8.287576,2.8987288,-4.337032,-2.540102,-0.47758877,1.6240113,-5.9614973,-9.762473,3.0320163,15.459645
-10.907834,-4.612693,-9.297491,2.1096408,-5.281185,-0.8635409,0.8174777,0.0361948,2.9315429,-5.5082455,6.9845295,12.047917
-7.6980886,-5.112303,-6.6042967,1.6395729,-6.075715,-2.1752484,0.921628,0.9268132,1.0777017,-3.8018672,4.8176246,11.144612
-7.567325,-3.005587,-5.9946814,0.6016099,-5.469927,-1.7607408,0.44826484,0.28805065,0.57909846,-4.6303554,3.829626,9.256692
-8.083896,0.43748605,-8.252703,-0.30828482,-4.022442,5.059929,-0.10905635,-0.7316921,0.5652919,-7.4338183,2.2194738,10.979667
-7.64417,2.0452492,-5.0966344,-0.34701347,1.1678107,1.7156279,0.25680637,-1.0928428,0.6254009,-7.3099937,-1.0660375,7.963225
-8.783329,1.5777602,0.34827965,-0.061012268,1.6276388,0.45033407,0.30319473,-0.93447256,1.3650459,-5.0795794,-8.749836,6.412941
-8.579285,3.6473885,5.519519,-0.25939345,1.5880222,0.7337024,0.35818386,-1.7461658,1.4087135,-4.2647505,-11.058076,5.372762
0.7045119,1.2217107,1.8630891,0.70485497,0.60235524,-1.4210422,1.0010738,-3.351973,4.1238976,1.0186845,-5.0528684,-2.9777613
-2.133028,-0.46974134,15.418287,12.639073,2.3739085,20.0,16.963905,-7.474618,-3.1342776,-0.8092742,2.9417424,0.9696584
-0.17144084,-0.18992043,9.1841,6.1965375,1.6658227,15.326401,10.741655,-7.128371,-4.5623264,-0.66272503,-0.04100132,-1.4131724
1.0250745,-1.2781863,5.4073906,7.99873,0.8631847,14.233117,12.122764,-5.0628715,-4.4736958,0.7651018,1.8344684,-0.66650903
1.5492142,-1.3583426,0.09442783,6.6697335,1.7624471,8.796759,9.617342,-3.3648133,-2.82399,0.9482164,0.78104997,-0.07670578
-0.469346,-1.3492401,-3.4288073,4.978952,-2.8362956,7.146612,9.000593,-2.8124504,-2.055093,-0.6780988,2.1747327,2.0230784
0.75775385,-1.1308442,3.1271718,4.6806946,-3.496212,2.48548,8.378199,-2.0506477,0.8841682,0.38740492,2.1020908,-2.5020695
-14.60561,-2.2380238,-10.423169,0.25982895,-1.226928,-0.27004558,-1.2795186,1.4406548,-5.351982,-7.8907495,6.3631477,16.47043
-13.865151,-3.641452,-9.675703,1.7555054,-5.2411838,0.5700493,-1.0005066,-0.5939975,4.1819825,-5.4946456,8.644819,12.890033
-7.4976482,-3.4850535,-5.1171536,0.6688224,-6.5827966,-1.7901528,1.0818624,1.1527256,2.0886102,-3.7973924,6.475419,9.751974
-6.509592,-1.7865319,-4.295068,1.0055163,-6.579738,-2.2522693,-0.86943436,2.2777414,1.7983075,-4.5760937,5.6038694,11.127343
-6.619601,-1.6992924,-4.5659275,-7.921457e-05,-6.530711,-3.8408916,0.26056433,-0.4400854,0.07871229,-4.110738,5.8545127,9.97109
-7.555565,1.4515228,-5.0124035,-0.46055603,-6.339605,4.73464,-0.15899932,-0.56492805,1.1152357,-6.038888,1.2029228,9.0642395
-9.782142,-0.65116096,-4.476757,-0.090023994,1.0727245,2.4697976,0.3679905,-0.69575024,3.1962702,-8.012039,-1.764395,10.115412
-10.0842705,1.6885153,-3.3017855,0.34227538,1.5059735,1.0422564,0.42217654,-0.70848274,2.0599415,-8.133417,-2.1611078,8.449297
-10.057012,2.880644,2.5403898,-0.121592045,1.5613599,0.6465738,0.18419957,-1.2186856,0.7435213,-5.872648,-7.5235815,7.3258123
-4.336572,3.963405,-1.8931091,-0.15218818,1.2531979,0.040554047,-0.42794704,-2.0849586,1.3018427,-3.3914514,-4.589681,2.002115
0.33608627,-0.91554284,14.607316,-0.08155632,2.5489721,-3.3934107,-2.5585327,-2.8679166,5.2367873,-0.30570078,-1.9471202,9.513664
-1.1588037,-0.34823227,14.115117,9.977274,-1.0285897,20.0,15.071446,-5.4546585,-9.029279,-1.8094878,2.3188777,1.127523
0.43576443,-2.0902753,7.225652,5.975682,0.92935395,12.955689,10.228537,-5.184094,-2.6227586,0.2643543,1.8704801,-0.4796043
1.0557101,-2.5599473,0.69355285,7.144413,1.4786066,11.92772,9.325711,-5.1075983,-3.7431114,1.2457578,1.396204,-0.64927876
1.3346417,-1.8273916,1.1340551,3.4141338,-3.7485743,4.504543,7.0122066,-2.2187576,-1.5740592,0.91205096,1.4904244,-0.92799807
-2.6861491,-3.9160216,1.0121377,-0.56418496,-4.3879304,0.4949863,2.7391105,1.3597965,-10.061696,-0.57554984,4.5646267,-7.3604665
-19.17853,-0.8914466,-12.940371,-0.69395363,-6.4294176,-3.2234945,-1.2406902,2.4830804,-5.9007373,-3.012549,6.1782885,16.373417
-14.297329,-2.5379698,-9.044279,0.78947324,-5.7924523,-1.9564816,-1.4466875,-1.1410818,4.132377,-5.4326463,6.2268257,14.439246
-8.587626,-3.6544895,-6.601191,0.26271397,-5.958228,-2.8034759,0.7804887,0.9265256,2.0322018,-3.3627768,4.029971,12.913862
-6.528039,-4.464472,-5.188243,1.4073449,-7.2767344,-2.1692836,0.79257274,0.820179,0.3574739,-2.0141711,7.47408,9.99621
-6.863007,0.006734848,-3.9461095,0.66230726,-7.018023,0.19795227,0.27542806,-0.40867758,0.6627327,-3.264388,1.5760105,11.150507
-7.281451,1.1554816,-6.5805645,0.6780765,-5.852556,4.950771,0.008846521,-0.73972654,0.12278813,-5.2300177,3.6529298,11.743238
-7.82292,-0.21179616,-5.24626,0.22094381,-2.7136433,4.1775017,-0.17152083,-0.95140004,0.27844858,-6.682054,2.1055202,9.371715
-8.44009,3.1967742,-4.2637186,-0.17787671,1.0908185,1.8852892,0.37799883,-1.0602312,3.055423,-6.7670326,-2.104252,11.534366
-9.948028,1.5607257,-0.91980183,0.3483925,1.8244307,-0.14673758,0.0067094564,-0.37116766,1.176287,-6.013772,-2.949347,9.958752
-8.658683,4.795168,3.1905255,-0.09144521,1.3872356,0.64193535,-0.46681976,-1.672317,0.50342613,-3.9070926,-5.759319,10.342037
0.70003307,-0.23879349,6.8048134,0.10304141,1.1117244,-1.7212849,-0.023962975,-2.282711,3.1596706,2.0616264,-8.487949,-2.9204144
0.39596415,-1.3490381,14.352244,1.128665,3.4358568,-2.9564314,-1.1500006,-2.2460046,3.3973777,0.15633392,-3.2421703,9.625099
-1.9997916,4.179014,15.114466,8.382987,6.4146385,18.692104,14.362048,-8.213396,-3.897202,-1.7698781,-1.0566769,-0.5597782
0.31633848,-1.3937926,11.344114,5.6109347,1.5716395,17.530506,13.009254,-5.8195333,-3.4332962,-0.18737602,1.7535319,-0.19722676
1.1598344,-1.1849265,3.4355266,7.932322,1.2056766,10.696673,9.850252,-2.3142748,-4.14703,0.6122017,0.77676916,-0.29690123
1.3901409,-1.8051186,1.0207177,6.689799,0.31205666,9.298272,8.453759,-3.7059479,-1.2186172,1.7978787,1.3231263,-0.49081767
1.0391078,-0.93879116,1.4542589,5.703941,-3.4991655,4.86576,8.159541,-0.21136427,-2.5241187,0.5803774,1.032653,-0.57407784
0.6299629,-0.6402452,1.3191481,4.1390147,-5.001649,0.43287444,6.8390517,-0.41850483,0.3665421,0.46172643,1.6751301,-1.9832373
0.6881752,-0.69719577,3.0973947,0.54556483,-1.2623733,0.43821383,3.037346,1.5893223,-3.1960156,-0.2919364,0.661777,-4.66932
-13.73366,-2.2427359,-10.571483,2.1809216,-4.342992,-0.17958088,-3.788396,-0.2675748,-8.889467,-5.16491,10.624113,14.714529
-10.925995,-2.9314783,-8.603787,2.268675,-5.4303083,-0.081962585,0.058695793,-0.22061777,2.887521,-3.1652346,9.317757,12.93635
-6.817256,-3.3522952,-6.0944643,1.3191433,-5.579114,-1.2749946,0.9593744,1.0250174,0.8708637,-3.3685238,9.345417,9.788852
-7.9413524,-2.9806197,-5.163412,-1.044108,-5.2149534,-6.4823823,-1.6231209,2.7268672,0.15217604,-5.291733,3.503843,7.970505
-7.1977324,2.0564656,-6.7892084,-0.059847236,-1.6635904,3.4260778,0.18214488,-0.9971268,1.5478145,-5.9774985,1.9365274,11.307425
-8.533417,1.6047003,-3.3973148,-1.5231841,-0.2530967,-2.771385,0.10275161,2.1361976,0.08775931,-7.9971657,-2.2884336,8.6278305
-10.033553,3.2120743,-0.568038,-0.14828098,1.1325661,0.36027193,-0.28858936,-1.044544,0.19278477,-5.903369,-6.4497814,8.361273
-8.7359915,2.00989,4.1635714,-0.5315465,1.0354489,0.17104065,-0.074261665,-1.1589851,0.37567437,-5.5598335,-7.258236,4.998251
0.07780182,0.083897114,6.7839794,0.03307104,0.16026497,-1.3713417,-0.06540394,-1.5398195,2.3772497,0.716712,-5.879755,0.12661648
-2.0419788,-0.07901335,15.406451,5.3358464,5.221698,17.215984,20.0,-3.4520817,-12.443858,-0.547771,2.2745123,3.9841352
0.36937857,-1.4947586,11.128448,5.411757,1.9107031,16.270977,11.802404,-5.8372097,-4.9706297,-0.50425863,1.8993688,-0.4902643
1.2092785,-1.7370744,2.104903,6.059903,2.0205784,10.692307,8.329812,-4.9304547,-3.8918042,1.3124496,1.2401488,-0.54861736
1.1431105,-1.2798611,1.5114014,6.018071,-2.146069,6.0561123,7.8065434,-0.5081953,-2.9020164,1.0192658,0.85990644,-0.53492427
1.2034873,-0.42869258,1.722452,3.5780344,-3.4493825,-0.6683247,6.4164977,-1.4081548,0.31072915,0.08964801,-0.42023563,-1.1039069
-13.387552,-4.8146267,-8.889136,0.8479707,-5.7017345,-1.6209787,-0.99370956,2.4553435,-8.894472,-6.7061796,2.7701378,18.199793
-8.894531,-5.901469,-8.84783,3.5409043,-4.6389313,-0.020240903,1.0338573,0.33120537,3.5907898,-3.013594,8.288166,13.524823
-8.877581,-3.0904338,-6.8554015,1.4610132,-5.353741,-4.2250013,0.4762249,0.3843478,0.5541397,-4.8703375,4.415143,9.159843
-7.2386293,-1.5032511,-5.848842,0.4073738,-4.8795,2.8203397,0.18575835,-0.8282974,-0.032373235,-4.3504987,1.7062521,10.866458
-8.283209,-0.15533173,-4.805447,-0.43507951,-5.726327,4.9858584,0.16081023,-0.52108,1.1951594,-6.02475,-2.2914324,10.30238
-6.9810243,3.308167,-1.7625096,-0.39208424,1.2991539,1.7017093,0.29670763,-0.91832495,1.5287454,-5.244795,-3.6955423,7.9936037
-10.333383,2.7176085,0.3917657,0.18019843,1.386033,0.51071715,-0.17956829,-1.1576333,1.2337234,-5.696445,-6.891391,7.5750437
-3.5303745,4.959689,-2.7754633,0.21785021,0.84650064,-0.7348094,0.21691847,-2.226454,1.5040135,-1.7079091,-7.6814256,1.5496671
1.8381896,3.3740017,13.963189,1.6855145,4.385611,15.973836,5.965086,-9.195976,-1.3817201,9.824669,-1.1948557,-18.060623
0.06032014,-0.9664302,13.465503,8.798674,4.13823,18.506847,14.636154,-5.493591,-6.900103,-2.0106874,3.4111147,0.922616
-0.71708804,-1.5907001,10.557465,6.255735,2.7388072,17.930292,11.375053,-7.3079686,-4.09904,-0.6362295,2.0941305,-0.3150271
1.0906701,-1.6002789,2.18848,5.026531,1.1050837,13.071807,9.89704,-5.522175,-3.8384511,0.51593316,1.0782442,-0.83656836
1.926239,-1.537966,1.7957911,4.268187,-0.75858295,7.7417836,8.139775,-2.6001453,-4.823143,1.0055771,1.0515314,-0.6561966
0.75052774,-0.24822426,0.88174367,1.6171443,-3.465109,0.02929151,4.234,-0.99725866,-0.24725106,0.25080276,0.5503268,-1.9235184
-15.712587,-3.356114,-10.367302,0.6080706,-1.4582437,-0.61116564,-1.961514,0.9774537,-3.5369213,-5.454953,4.398926,16.14658
-7.5191293,-2.6316898,-7.103395,1.913471,-5.5127745,-0.8245406,-0.89711165,1.0814409,0.8853947,-6.9116664,6.744979,6.8203773
-7.22799,-4.3766327,-4.06001,-0.6998345,-6.710982,-3.7990873,0.6697309,0.49695402,0.6810735,-3.7748294,2.5410042,9.322103
-8.186365,0.9311092,-6.934781,-0.63601834,-5.6626053,4.142715,0.03981352,-0.4427755,0.5759186,-7.2932334,2.744419,10.813717
-9.073342,0.06619334,-4.8499355,-0.3725598,1.1794784,1.161314,0.06416106,-1.002439,0.7238457,-7.541575,-2.2502584,9.225319
-9.08933,1.7131102,-0.7499076,0.21071243,1.3017074,0.44818783,-0.06464307,-1.0873804,0.61800444,-5.725552,-5.9082956,6.1004477
-9.736845,1.3446627,1.5778289,-0.5026591,1.1147492,0.4308169,-0.17746997,-0.6508951,0.18987036,-6.8188605,-5.843511,6.9996643
-0.0023515522,3.6613276,-6.586173,0.6999464,0.60636294,-1.9655542,0.1560421,-2.6757848,2.985828,1.7689631,-5.4720607,-1.8961827
-1.9862287,-0.1776352,15.463767,6.6383286,5.1742225,18.338032,20.0,-2.4120061,-9.960007,-0.7157841,2.3779726,3.5498571
-0.062062263,-1.4926987,9.639508,5.8573446,2.0509207,17.770847,11.849887,-6.4982905,-3.9448855,-0.16575322,2.0887194,-0.5983727
1.6837447,-1.9829469,1.3675774,6.6208625,3.107088,12.193172,9.080233,-5.2759066,-2.555151,1.8140123,0.8969271,-0.184897
1.0426301,-0.4233021,0.70657647,5.223068,-0.32438433,9.101155,8.2259655,-4.1297507,-2.0792658,1.1547164,0.7407796,-0.2773428
0.4599917,-1.1222992,2.1233606,3.595825,-4.9328985,1.4947456,4.67526,-1.3044603,-1.3885441,0.601215,1.4532833,-2.4097352
-14.863247,-3.1637654,-10.080172,0.11831468,-1.0109499,1.0925634,-1.9607356,1.0787416,-3.7566743,-6.239322,5.391741,15.787817
-13.050143,-4.9086924,-8.755693,0.9250924,-6.220235,-1.406038,-0.04274416,-0.76397586,3.3606992,-6.62642,4.3349924,12.110153
-10.036661,-1.7110093,-9.210903,2.366791,-4.6628084,-3.190919,0.7259824,0.80204934,2.2239182,-7.1955333,5.9939165,11.263315
-7.039426,-0.6662884,-6.6363263,0.43943274,-4.177496,1.1157867,0.4346478,-0.19338048,0.96593916,-5.6607847,4.300001,9.919397
-9.380562,-1.1211324,-6.2946196,-0.08003354,-1.3716624,2.312233,0.12694192,-0.5804727,0.6950432,-7.53421,-0.22393811,9.504103
-9.700145,1.3106694,-3.6297717,-0.17068744,1.4658557,1.0756586,0.2062875,-0.6701522,1.1483144,-7.473855,-3.829039,7.61403
-10.098341,2.9152126,-0.8490591,-0.09591186,0.96358025,0.4011538,-0.29875994,-1.2640817,0.13798453,-7.681945,-6.0088015,5.647071
-5.0479555,3.3624864,-1.645719,-0.10975586,1.1349647,0.3580327,-0.4085803,-1.353836,0.59129804,-2.003242,-7.169231,4.513836
2.5173645,-1.6444638,15.263945,2.9666824,2.6978803,-1.4801826,5.113638,-4.930699,-1.6875749,5.470142,0.7823937,-10.161418
-3.7478852,-0.2278924,15.810846,7.848136,-0.6187687,20.0,14.796795,-2.5551286,-10.892756,-0.9507346,1.8371353,3.7488942
0.4946059,-1.5744224,10.092142,5.6846905,3.334367,16.99756,12.2294655,-6.4096255,-6.03094,-0.18216223,1.8256841,-0.4959545
1.5137265,-1.8513339,2.0579228,3.13715,0.287426,14.309726,8.579764,-6.7709,-2.7113652,1.0635805,1.3156619,-0.94615984
1.4363663,-0.78012687,0.25813687,4.3576155,0.15150583,8.878744,7.2212825,-4.1300216,-2.1270528,1.5695041,0.2753341,-0.29862785
0.7491231,-0.516361,1.7134542,1.8223076,-3.5695992,1.5758752,5.798397,-1.6181192,-0.032378577,-0.07727003,0.086592436,-1.5122638
-8.974178,-0.50878835,-8.999818,-0.99133545,-5.9155464,-3.2001646,0.9207311,2.2592177,-6.53133,-7.4746656,-0.14182568,16.528429
-13.099788,-2.0343795,-10.979807,0.13183802,-4.3391733,-2.2743196,-0.35013914,-0.5193753,3.625392,-6.2909617,4.743395,16.875301
-8.15824,-3.671102,-8.769915,0.86598426,-4.965211,-1.1399888,1.0358694,0.50148845,2.080796,-5.231754,6.6063023,12.624024
-7.230673,-0.5064944,-5.5323853,0.014413357,-6.38601,-1.9982469,0.124578536,0.4692893,0.20631355,-3.1073468,7.611731,11.198393
-8.41334,-0.14527941,-4.049277,-0.024742842,-1.3185608,3.1367064,0.18673968,-0.6954465,0.09374493,-6.0579333,-2.3945317,10.940759
-8.3973675,1.4717848,-1.5945946,0.26116586,1.2565385,1.077461,0.36230254,-0.95056486,1.5655301,-5.392007,-3.6255765,8.660461
-9.405802,1.7359793,1.441323,0.16727066,1.4118521,0.51341105,-0.2059865,-1.5560756,1.5405409,-5.311765,-6.5809264,7.347251
-0.5566525,3.5700202,-5.465427,-0.020082474,0.7908566,-0.8599534,0.15758467,-2.764873,1.8056064,0.4754275,-5.7071633,2.130471
-1.7157557,-0.6921549,15.547274,8.762897,-4.2954884,20.0,13.762084,-2.4521358,-3.5832415,-2.9840584,0.33984137,2.5654445
0.1293113,-1.645936,10.554076,7.9563527,1.6726353,15.036773,11.999476,-5.1932297,-5.9456997,0.18873808,2.334735,-0.17689323
1.4956517,-1.4902864,2.3737648,6.322174,0.5403589,13.020997,10.372914,-7.029315,-5.3959894,1.2592359,1.3199594,-0.59002495
1.4050012,-1.1999332,1.3836188,5.2231345,-2.7627468,6.8158174,8.10526,-3.9150302,-4.7223864,1.3972096,0.94621146,-0.5582533
0.52988446,-0.47686994,0.6723763,3.3443816,-4.3774805,-0.7029507,5.6002336,-1.808286,-0.005058408,0.62551475,0.6066046,-1.832175
0.09929705,-0.5115242,2.2920322,2.8988879,-6.1857586,-3.1804543,3.0300558,-0.0017967224,-3.314403,0.44075918,1.3836384,-4.1831846
-13.658213,-2.4937148,-9.31447,0.8375718,-2.603083,-1.0860183,-1.4333217,-1.4748464,3.807671,-4.987027,3.872768,15.657241
-7.1654243,-6.303397,-6.0782175,1.5284551,-6.9134007,1.0781988,1.404897,1.1241608,0.58058435,-3.1453304,7.549573,10.593725
-7.0067053,0.2244935,-5.819227,0.14158782,-4.241029,1.5513091,0.3694818,0.10179043,1.8902436,-3.817725,2.458943,10.549291
-6.9923897,-0.10181236,-5.407189,-0.34217054,-3.6786304,0.5557972,0.28139257,-0.60240555,0.8305317,-5.4932094,1.5084245,10.82756
-9.2307825,1.6530637,-4.4224954,-0.5506005,1.2475034,1.2572484,-0.2118926,-1.0962768,0.9287206,-7.0917172,-3.2524323,10.009798
-9.473143,1.0023487,-0.7638552,0.095621824,1.3779569,0.5768609,0.06663564,-1.1826196,0.57081133,-6.5366116,-5.4538465,7.0038857
-8.9186,2.3963466,3.126936,0.09476495,1.3661964,0.5253916,-0.23593462,-1.309505,1.623364,-4.126485,-7.9452085,5.5496902
0.5054004,-0.03413999,6.6941543,0.7150812,0.6803875,-1.4587274,1.1052256,-3.1517885,4.27798,0.8175936,-6.6089272,-3.5601928
-1.467802,-0.1426487,14.482906,10.778701,0.5935092,20.0,17.335182,-5.862315,-7.5358033,-1.9900894,2.4155555,1.3913879
0.32356274,-1.405139,9.009025,4.7827997,1.3310707,17.36065,11.824669,-7.0650744,-3.001956,-0.042534072,1.583497,-0.40557006
1.6447614,-1.7285676,2.5771363,5.5585866,-0.0878005,10.528252,9.196546,-3.12851,-4.7831364,0.6827351,1.2381153,-0.8210186
1.1059299,-1.2430797,0.20891617,6.720584,1.5181187,10.925693,9.457027,-5.499458,-2.6298554,1.33496,1.3435855,-0.5969423
0.7422813,-1.0993218,1.0359032,4.907328,-2.447319,5.477998,6.1437125,-3.9556832,-3.4821193,1.4012115,0.8347513,-0.16971481
-0.044042587,-1.1602569,3.9501097,1.3940731,-5.215975,-2.5091825,1.3263118,1.8987253,-7.3143587,0.25716186,1.2333713,-3.9142265
-17.638277,-3.9468155,-11.03784,0.22190982,1.5796887,0.4785292,-1.6950669,-2.0100594,3.9178994,-9.302423,2.6117523,14.846459
-11.825145,-4.544487,-8.722073,3.3373287,-3.9472692,3.5532568,0.9268348,-0.73457265,2.2697031,-6.120096,7.038472,12.847958
-9.758776,-4.364785,-5.119564,2.6203113,-4.769535,2.853282,0.5339079,0.94823134,0.94290745,-3.5892699,6.9619646,8.146471
-7.2983465,-1.223274,-3.4218228,0.1934947,-0.7811663,-0.11978823,0.49042034,-0.029111266,0.60452044,-4.069899,1.5262474,9.564508
-7.587973,4.0307207,-3.85208,0.050483942,-1.3114623,1.0502551,0.04185307,-0.45821142,1.6696061,-5.171254,1.8775259,10.155591
-10.037776,0.52322537,-1.8676541,-0.40439725,1.306084,0.6746156,0.4660498,-0.9536505,2.1667128,-8.286738,-5.5080113,8.0443945
-8.105184,4.1327176,2.2321806,0.14707339,1.0121244,0.89914465,-0.015041351,-1.3712702,0.5651817,-4.9218736,-3.7128258,6.111379
0.4171453,2.8745394,-4.76312,0.89864016,1.0908623,-2.2450867,1.2980957,-2.8811378,4.153187,0.8295817,-6.146531,-2.1235483
-3.2792485,-0.13055038,14.785996,9.259646,1.1813703,20.0,18.858416,-3.0117798,-12.560308,-0.8797264,2.316368,2.314704
0.16581798,-1.7365274,10.246269,3.7603488,1.6535451,16.08095,9.737958,-5.136223,-3.2347827,-0.20881324,1.8819451,-0.73422134
1.4225191,-1.8178451,1.3859168,5.172079,0.8538135,11.778355,7.5269485,-4.676429,-5.981621,1.6547418,1.4580808,-0.7547642
1.2476052,-1.2318958,1.4436941,3.6075516,0.81815743,6.455918,5.81536,-3.0613422,-3.3566852,1.001061,0.5254041,-0.021276832
-0.14557219,-0.88682413,0.81307423,0.79634225,-6.6854334,-1.3727238,0.9838165,1.5948117,-5.381459,0.7966502,0.9150653,-3.144381
-16.108486,-5.042291,-9.86286,0.68237424,0.6982312,-0.538104,-1.8247514,-2.1229854,4.07189,-6.396548,6.1444006,14.675699
-10.819479,-3.0580842,-8.849898,2.0260525,-4.975202,1.2208841,1.1902566,0.29760504,2.8368456,-6.86712,5.922025,10.131024
-8.970314,-3.3610487,-6.284107,0.9731772,-4.7891545,-1.399234,0.43174624,0.24373028,0.56534296,-5.263623,5.188943,9.523477
-7.638148,-1.4752556,-5.0289235,0.85755545,-4.984867,-3.5219107,0.30736065,0.01402545,0.3907186,-4.0845428,3.708852,10.823971
-7.2184844,2.077742,-4.7564735,-1.0512993,-5.675962,3.339322,-0.15868735,-0.86063194,1.0065726,-6.3343,1.3253891,10.464001
-8.882377,1.4091957,-1.8286415,-0.20247102,0.9920577,1.7580373,0.17939615,-0.8135588,3.1573427,-7.2335553,-2.9194875,7.6230006
-8.5457945,1.6275007,3.2060761,-0.07483029,1.9099174,0.89551306,0.4069153,-1.3014841,2.2787294,-5.177514,-6.8447733,6.533677
-0.53301793,3.7961588,-7.34551,0.13483858,0.9140227,-1.2257626,-0.064816475,-2.2489011,2.4060688,0.3833604,-4.3853555,-0.4102056
-2.5293465,0.020646572,16.321224,9.096714,-3.3086777,20.0,15.591657,-1.1721737,-5.0006742,-1.4768114,0.6955128,3.5809345
0.0825358,-1.6294551,11.399133,7.220402,3.2995238,16.471073,12.839425,-7.8778486,-5.4435735,-0.21939234,1.7003233,-0.14931011
0.7041507,-1.8194199,7.097927,6.778062,1.6589489,15.188891,12.011333,-7.3121157,-2.846046,0.48534918,1.2907715,-0.58969724
1.8082947,-1.4798152,-0.046817593,6.264169,0.75815594,8.629585,8.813758,-5.0345964,-4.5923505,1.6541398,1.292439,-0.49782228
0.76765656,-0.8321804,1.3904862,3.5140958,-3.9776225,-0.59552944,5.3497844,0.23263061,-0.67662954,0.47745466,1.0369396,-0.47210193
-0.16457987,-0.90909004,3.5534875,1.424061,-6.093323,-2.1322303,0.074335575,1.9615123,-4.910652,-8.373946,3.11382,14.821065
-15.82548,-4.3376017,-11.138448,1.5964543,-5.0636454,-2.0684686,-0.7898965,-1.4645004,4.5953455,-8.1535425,6.5875645,14.2923975
-7.653736,-2.5505297,-5.741722,1.4059635,-6.6483,-1.0259523,1.3849733,1.064277,0.78157175,-4.9595766,5.3353043,9.059887
-7.6258903,-2.6441793,-3.0598059,-0.8855718,-7.3376846,-5.299598,0.38546276,0.07915783,0.29207155,-3.3756962,2.0634742,10.311418
-8.435066,-0.16473258,-5.416752,-0.23743188,-4.683447,-0.852366,-0.013774157,-0.78191566,0.8309683,-6.23964,3.3430252,11.487384
-10.533552,0.5234821,-5.0219784,-2.978585,0.33481264,-8.133276,-0.39210713,2.7499807,1.6100568,-8.810113,-0.9062482,12.167438
-10.229254,1.2083852,0.17105734,-0.5871012,-2.6321821,-3.6773436,2.119562,2.6236157,1.3704638,-6.8425794,-5.4002237,9.954659
-7.843252,3.462697,2.8323224,-0.28634387,1.915611,0.67210484,-0.06449604,-1.5907593,2.3113296,-3.018643,-7.6970406,8.340346
0.43661022,5.5501223,16.203732,3.3883877,7.216258,11.003805,3.092167,-6.548173,-0.8894727,5.77839,0.25139403,-20.0
-1.0208428,-0.9423971,14.000578,8.216709,3.7047043,17.47324,15.128509,-5.9479246,-5.065179,-1.5300264,2.6233652,0.26229906
1.235801,-1.8307688,6.3056583,7.214785,1.6737924,15.106974,11.716656,-6.135661,-4.5566587,0.74037534,1.5028124,-0.54977894
1.6104115,-1.8178432,0.7112883,7.05458,-0.019183159,10.320457,9.449201,-2.742507,-3.4466653,1.2052596,1.1283646,-0.7748339
0.9681525,-0.49202532,0.99154663,4.9197755,-2.285779,4.8933706,7.222466,-1.2047547,-2.3152695,0.5785725,1.038862,-0.4107628
0.6541512,-0.8396987,3.2489185,1.6961238,-4.3163347,-1.9704629,3.9658918,0.6738086,-3.3935003,0.074370146,1.8978443,-4.0731983
-14.913753,-2.5856302,-9.31929,0.5870388,-2.851671,-0.44888294,-1.3957143,-0.560593,3.6486049,-8.235607,1.7332764,13.810499
-10.793169,-4.411321,-10.421388,1.6638759,-4.6744194,-0.66337633,0.71637845,0.16060257,2.2482076,-8.314386,8.69915,9.724488
-8.7560625,-2.8771274,-7.8533874,0.6815176,-5.3674183,-3.381939,0.638952,0.3643321,0.3178547,-7.584263,6.224106,9.098187
-8.237468,0.16235423,-5.234527,-0.7415784,-4.97554,-2.6854045,0.24275851,-0.3595066,0.9898571,-6.0318627,-0.19526482,9.393826
-8.055501,2.2590358,-5.3896728,-0.0916183,-1.2217996,2.387376,0.46249795,-0.64438534,0.63900465,-6.859281,-0.6368233,10.770893
-8.861125,2.7149272,-1.0270854,-0.037119627,1.5631378,0.65059376,0.31264666,-0.97024417,0.0493178,-6.40023,-5.404488,7.2700233
-11.98888,2.9944563,0.08782089,-0.24427128,1.311903,0.66217947,-0.72147894,-1.2995553,0.67000353,-7.5351253,-4.891041,7.8366327
-3.5730176,5.3952665,-3.549722,-0.20730388,0.62835026,0.11045277,-0.2873845,-1.4610691,0.8927474,-2.6633978,-4.7371964,0.93975616
0.29887772,-0.68527555,14.925439,13.940901,1.316191,20.0,-3.8131008,-2.7591877,4.703401,-0.543406,-1.8349016,9.740727
-1.0207113,-1.7903795,11.677062,6.102845,2.7939155,18.516972,10.8263855,-8.985792,-6.474616,-0.5821288,2.5022643,0.102642536
0.74051785,-1.6816082,2.8103662,7.363845,3.164467,12.701597,10.179967,-4.86182,-3.1701486,0.6415922,1.2235012,-0.8148651
1.8632629,-1.728095,1.6515613,4.3519964,0.23583484,6.8001914,8.195013,-3.557459,-1.088454,0.9158313,1.4091325,-0.776737
-0.034721375,-0.5834825,1.8450878,1.0573151,-5.7653904,-0.33481443,1.6053152,1.9049265,-6.6190653,1.3124782,3.1582625,-5.4964347
-15.836242,-1.4110079,-10.355713,0.6018661,0.78223956,-0.039162993,-2.1881347,-1.4181712,4.5728784,-6.4393697,5.2795324,14.506044
-12.865118,-3.8008008,-10.089453,3.9750535,-7.552026,6.1786623,0.59006333,-0.3414204,3.083563,-6.4617352,8.042093,12.403672
-8.7631,-2.042303,-5.406429,0.9524189,-4.9569244,-0.18643916,0.75766087,0.8178034,1.0632839,-4.310484,5.798206,9.968862
-8.544419,-1.7568128,-7.4823184,0.0072840415,-1.97546,0.47174323,0.19935441,-0.495458,0.53978956,-8.168215,6.146991,9.944822
-8.422328,1.0086819,-5.045398,-0.037469864,-0.17785203,1.0309548,0.081796885,-0.80114794,0.28639466,-6.952198,0.76296353,8.869892
-8.422937,1.1221027,-2.7829506,-0.5376773,1.1155536,1.0824528,0.5759063,-0.57567596,1.4887316,-7.838411,-2.7149544,7.855961
-9.835099,2.9207187,-0.3243779,-0.07289839,0.91324544,0.55713606,-0.21867083,-1.3747609,0.9273552,-7.163917,-4.981232,6.435279
-10.046055,3.8270874,5.568213,-0.28235793,1.3473077,0.66744065,-0.00515604,-0.99671793,0.5851425,-5.5992374,-8.616415,6.52373
2.6699195,-2.07491,13.258249,2.4699354,1.9188898,-3.7075748,0.5558605,-4.7770395,6.857389,0.0034327507,-3.9881413,15.734388
0.3589295,-0.8858619,14.107154,4.333689,5.677184,17.49548,18.624523,-2.1032774,-8.816323,-3.157394,2.859614,0.38725233
0.5629535,-1.518992,7.140392,4.1352696,2.1241443,12.4505825,8.856289,-4.429728,-3.779172,0.026447654,1.4902763,-0.6411567
1.1114042,-1.5936344,0.8353988,5.709236,2.1400127,9.172001,7.143262,-3.496016,-2.72463,1.768232,0.9781287,-0.45946217
0.99160886,-1.6971757,2.636783,5.0303493,-2.501999,3.9786553,7.1282177,-1.2820975,-1.2823608,0.7916601,1.031889,-0.83496046
-12.2211685,-2.4703982,-9.766935,0.5004662,-4.9641685,-4.422531,-0.11568369,1.7235429,-4.2665415,-7.785429,1.3223445,13.188891
-12.654369,-6.0444083,-11.125415,1.4777927,-4.306381,-1.3643903,-0.034615993,-0.47115302,3.1392016,-7.0182943,8.310727,12.202194
-8.692829,-3.7277815,-5.16074,1.6877221,-7.02353,-2.7670383,0.9443753,1.1997993,0.4657786,-4.567209,3.5086045,9.9693575
-8.472852,-2.187461,-7.3321857,0.6523671,-5.483652,-5.814502,0.3361566,-0.35135782,0.49134803,-4.98609,5.2387385,12.729388
-7.9541636,-0.2816807,-5.3452263,-1.8585478,-4.0463066,-6.1231475,0.5086267,-0.6223371,1.8944232,-5.130954,-0.24624765,12.247276
-10.313859,0.9586495,-4.9518976,-0.34350538,1.7452227,1.3228788,0.09453452,-0.6167941,1.3407186,-9.859613,-2.9854326,7.8378325
-10.688102,2.0252192,0.5267757,0.25452685,1.4189192,0.5128238,-0.09545913,-1.4291039,1.8279927,-5.90568,-7.137637,8.164839
-5.827883,4.497465,0.6048455,-0.28794795,1.3461034,0.23174882,0.06435585,-1.4327765,0.95970154,-2.855421,-7.4712267,3.566393
1.5569267,-2.1924148,16.020851,1.5339966,2.976746,-3.2857342,-0.6374121,-3.5704641,4.339183,0.18176556,-3.2209802,11.272705
0.122250676,-1.1560483,14.823626,7.079228,5.4642124,17.305403,14.018185,-3.7741005,-4.5506606,-2.350986,2.5161161,0.45354939
1.1993959,-2.0290732,6.2410445,3.603534,1.1068411,11.6690235,7.4523335,-2.9495625,-4.462327,0.67750263,1.7082152,-0.54148054
1.4792137,-1.5904274,0.65968525,5.2607,1.3773125,9.741247,7.2196894,-3.9838376,-3.2534866,1.8145066,1.3414679,-0.42536235
0.7585244,-0.92588603,2.3643713,3.5255818,-1.7127262,1.2032189,5.567196,-0.3693924,1.0290082,0.13810027,-0.02643919,-0.8920119
-15.870663,-0.23248315,-12.860449,-0.37796813,-1.4563949,1.4886794,0.9592546,1.9822502,-3.9634628,-9.881825,-3.750284,18.316584
-12.929266,-4.0164757,-9.610776,0.34346285,0.63318086,-0.8041688,-0.1306324,-0.7047081,4.2711415,-8.925411,4.0783525,9.819108
-8.489295,-4.2313395,-5.007,1.6986449,-5.734648,2.9071798,0.8850329,1.1944108,0.92166233,-3.1405005,4.7283483,10.003296
-9.262598,-2.829537,-6.244932,0.54937065,-4.5068507,0.073259115,0.2464925,0.55198616,0.47015658,-3.7841136,5.3942213,10.527026
-8.374833,-0.9868051,-4.6621428,0.060486227,-3.2862475,-0.0804975,0.0011377335,0.051856637,-0.07299155,-4.27572,2.511543,10.717006
-7.964657,1.3179524,-2.663094,-0.19277143,0.7447964,0.9119034,0.09264529,-1.0698974,1.6823388,-6.2111387,-2.5861752,7.9684377
-9.9985075,0.4151622,-1.3761897,-0.32181215,1.3098822,0.9615412,0.61293006,-0.7979932,2.9240904,-8.142556,-6.8523326,7.634208
-9.225654,2.782492,5.5450697,0.47238362,1.6205101,0.28096724,0.13800097,-1.3965459,0.5734559,-2.6927629,-10.789158,4.2150884
3.5924559,-2.0366952,13.20853,1.9832983,1.7847759,-3.301035,0.60412216,-5.0528708,6.290589,1.0160279,-3.58652,15.018646
-0.41764235,-0.63838005,13.450575,5.9792676,2.5060978,17.83073,15.009812,-2.1663203,-6.950405,-2.6983228,2.775443,0.057971
0.77071214,-1.7596302,5.730156,6.2208467,1.6302145,13.426864,9.241192,-4.7529783,-5.7350473,0.7874603,1.7759933,-0.7321385
1.3619759,-1.7895133,1.2893838,4.6410723,1.8401551,11.951088,7.6517954,-5.4368362,-5.676772,1.5108283,1.3707232,-0.56675136
1.4453008,-1.4914856,0.44776773,5.438762,0.7961613,10.308371,7.843125,-4.2063494,-3.389957,1.8919442,1.0866148,-0.3023988
1.5727327,-0.85884833,0.5406207,5.0440426,-0.61638093,6.1598263,6.1294155,-1.6280165,-3.6523247,1.3627428,0.3068385,-0.03689587
1.1571275,-1.02073,2.288456,4.7821593,-2.2388365,4.607876,6.9275203,-1.1305671,-2.3927636,0.6195945,0.95312023,-0.80962133
1.0559225,-0.40555847,1.1371166,3.117179,-3.9754345,2.158323,6.1602,-1.6715649,-0.9853296,0.28088808,-0.62783575,-0.5171622
0.34824133,-0.88455224,3.169892,3.2783995,-4.9880166,-1.7909133,3.5401351,-0.0100317,-1.816814,0.2390548,1.5962605,-3.1139598
-9.68424,-4.1403623,-8.043459,1.0360279,-1.3472934,0.39974523,-0.6066195,1.7815516,-5.2136307,-10.525419,0.36684012,13.46822
-15.250086,-7.034933,-12.09831,-0.35607877,-1.3823051,-2.3427186,-1.4387755,0.56540036,-5.6755376,-9.632559,4.8427725,15.181967
-12.1769905,-3.3018298,-11.755422,0.98933065,-3.9161823,-0.8899508,0.07473898,-0.9526622,3.6912632,-7.3659816,5.358365,13.133332
-9.08034,-3.5830867,-10.338343,2.7495933,-3.8356833,-0.6846422,1.5062766,0.33178568,2.6036403,-8.109969,5.593999,9.664234
-7.458118,-5.1812816,-8.240365,1.615592,-5.315138,-0.004487872,1.0711713,0.860682,1.1290212,-5.098322,7.3068657,8.282752
-7.382454,-1.4125568,-6.215892,-0.18338777,-4.7863436,1.6190829,0.41696763,0.08574891,1.3558111,-5.6760635,2.830471,9.351062
-8.197241,-0.27051938,-5.196624,-0.19712496,0.6340153,1.8509254,0.14592505,-1.159904,0.7338469,-6.6213713,-2.1267366,8.838903
-10.771014,-0.21826804,-4.610823,-0.0693059,0.98840344,0.97611976,0.025990546,-1.1670275,1.9405364,-9.099183,-5.1259756,7.8417645
-8.313398,3.7615068,2.4221015,0.11058223,1.5321641,0.6398995,-0.018374205,-1.5780149,0.65412515,-3.4219837,-8.108665,6.94108
1.8819165,-1.4049537,10.71178,1.2020969,0.92518306,-2.267603,0.7492552,-3.3727582,4.7843666,0.14560151,-2.7592382,7.2552414
-0.6355276,-0.45830488,13.481819,4.9808807,3.6726315,17.232204,15.235428,-1.0183396,-8.344693,-3.097976,2.6960907,0.69915676
0.08756888,-1.94172,5.9196,6.779427,2.0839076,15.224164,9.520473,-4.383603,-4.754467,0.8738202,1.6971855,-0.56224585
1.7946167,-1.7575746,0.9403434,3.9747171,0.57440686,9.881,6.6057935,-3.1190782,-4.5355196,1.5661261,1.1748397,-0.8510773
0.8226415,-1.1354079,0.7853128,3.2134614,-4.7893553,4.719367,5.9825683,-2.5818253,-0.82566047,1.1718589,1.2872572,-1.0503023
-9.603785,-1.5590544,-7.4213467,0.17502093,-0.43707037,-0.33571112,-0.09383434,2.0284612,-3.9289906,-8.768343,-0.57548857,15.469346
-14.575965,-4.468916,-9.551148,2.0345776,-4.3087873,1.0896868,0.22473383,-1.1470556,3.0825615,-6.858042,4.691645,12.967903
-9.058366,-4.722473,-6.660992,2.6404295,-4.788578,1.5851705,1.0046039,0.846807,0.69242626,-5.428993,5.307047,7.639794
-6.42338,0.42747235,-4.8253756,0.11763799,-1.2104303,0.695771,0.5256336,-0.045141578,1.6977603,-3.9519756,0.20700431,8.462376
-7.1223097,0.86633694,-4.7093244,-0.590999,1.2063527,0.20620918,0.4221772,-0.9453559,0.3894315,-7.725082,-1.908018,6.6176224
-8.718727,0.6266751,-3.732849,-0.5062977,0.7670542,0.5437615,-0.04659319,-1.102556,0.41889563,-8.303617,-2.4733021,5.729359
-10.272442,1.2757821,-1.9534051,-0.25643766,0.9022728,0.74718094,-0.0930282,-1.490314,0.939922,-8.753335,-5.23186,5.627143
-9.609708,2.4811041,3.6648538,-0.31593406,0.9221066,0.41076016,0.003895998,-1.4321847,0.6794349,-5.700878,-9.689615,5.326336
-0.9517052,3.0251994,-4.9771976,-0.12675929,0.6641921,-0.6108886,0.8539758,-1.9675136,2.3859541,-1.945432,-6.6619,1.2298646
-3.5120022,-0.27665138,14.900302,7.7956133,0.07996893,20.0,12.909439,-4.922368,-4.7399673,-0.2901187,-0.18838692,5.8801856
1.0447518,2.073122,5.9010425,7.0775657,3.7875645,13.918999,10.123366,-4.337617,-4.9730697,-0.8994851,-0.1381898,1.000942
1.2225205,-1.7721434,2.5481443,6.680809,1.7606509,13.2409525,9.3144455,-3.0219035,-6.0203047,1.2088675,1.043654,-0.37763813
0.99746764,-0.885697,0.59310675,4.744003,0.7235398,10.351343,7.7908,-4.76613,-4.054377,1.4544206,0.5990573,-0.015060812
1.0804293,-0.43903518,1.2385371,5.6008177,-3.2439787,5.179838,7.069273,-1.6180478,-3.9373922,1.0675548,0.21874428,-0.36446798
0.09748006,-0.62979925,3.128942,1.1679136,-3.2910535,-0.8437971,1.4434509,1.1265466,-3.1485329,0.60356975,1.4720898,-3.796503
-12.494039,-2.2830124,-9.06974,1.3013375,-3.8824582,-1.8616722,-0.45858622,-0.6663306,3.6922052,-4.244282,5.6669235,16.637844
-10.043904,-6.0771494,-9.051801,1.5067291,-4.86491,-2.5547981,0.89820385,0.74256504,1.5683391,-6.893573,6.033751,11.034716
-8.102007,-4.443345,-6.938501,2.0021918,-6.472083,-1.3136399,0.80124354,0.60627705,0.30804756,-4.305485,7.129446,10.314466
-7.720906,-1.7762561,-5.8000674,-0.76879513,-5.0108705,-5.0338573,0.09940338,-0.27698278,1.2996081,-4.3215156,1.8428456,10.786934
-7.6103764,0.27149665,-7.124198,-4.005135,0.043888688,-9.777953,-1.9632595,2.525094,1.8335339,-8.995057,-0.12235439,9.947693
-10.148529,0.7709342,-5.7558126,-0.15408802,1.0844711,2.1957512,0.4107833,-0.61588573,1.9809328,-9.580374,-2.8049822,8.031546
-9.467508,2.8523085,-1.162845,0.24605465,1.6884921,0.81903577,0.15055907,-1.3262606,1.3637276,-6.2479405,-5.0413246,8.250156
-5.292369,4.2992716,0.22820258,-0.29793614,1.0490377,-2.3520958,-0.43910122,-1.6794024,0.45665586,-2.0972266,-7.124574,4.8793054
1.9082465,-1.9318379,15.670677,1.661861,1.893657,-3.4627037,0.30220127,-2.5789962,5.9228454,-0.519351,-4.7493105,14.632706
-2.8909562,-0.029825687,15.719332,10.364516,-1.2560992,20.0,13.958014,-6.111044,-5.2362776,-0.28918362,0.809741,6.184065
-0.0905242,-1.6836357,9.427944,8.049505,2.704324,18.64179,13.488283,-7.2054167,-4.569625,0.03117928,1.9242103,-0.6520506
1.7397454,-1.4934695,2.4717023,5.8473344,2.3776436,12.388833,10.256199,-6.7379394,-2.6305277,1.3467543,1.1269271,-0.3740229
0.46643126,-1.3455833,-1.5966966,4.321701,-4.069627,7.1589317,7.311481,-4.6681757,0.48184514,1.138725,4.8470798,3.4143085
-5.3611856,-4.279943,-2.591718,-1.7228378,-5.106201,-5.495651,-1.3997898,-3.3390503,8.6404705,-4.027101,-1.8684835,5.922121
-16.830597,1.687253,-11.139776,0.57487315,-3.9217494,-0.25705737,-2.081308,-0.6846925,5.6210747,-6.604786,4.168783,17.03631
-11.431488,-6.1521277,-7.2153273,1.1491394,-6.52322,1.6341023,0.72213817,0.8965113,2.727372,-5.1744194,5.134336,10.649822
-6.2423277,-2.5187626,-4.7296324,0.31379315,-5.494589,-2.9973269,0.87863827,0.3791717,0.9638047,-3.8786173,4.176876,9.493885
-7.2520933,-0.97423756,-3.9341831,-0.010625631,-5.6692433,0.3420031,-0.013516903,-0.4738772,0.0059918165,-5.268363,2.684021,8.237488
-8.453736,1.0139172,-5.785325,-0.15751767,-0.13967228,2.7127151,0.22920513,-0.69976234,2.3069417,-7.2604017,0.100964785,10.538144
-10.003542,2.062217,-2.6563058,-0.116405725,1.3947518,1.0117738,-0.039355934,-1.0102763,1.7714055,-7.2924175,-5.301416,7.520446
-7.652859,4.9528475,4.467395,2.2851522,0.059833765,-1.8083372,6.693388,1.6744776,-2.6415365,-3.1382432,-7.0766215,6.819243
6.808251,-1.9131612,14.564062,7.0856147,3.7063644,19.236969,8.85041,-11.772839,-3.0816748,10.52926,-1.1364775,-17.20052
-3.308832,2.5417519,13.299284,8.398006,4.983345,18.672686,15.97201,-4.7236996,-8.171158,-1.6551275,-0.79497147,1.4386337
0.110376716,1.6552258,6.321828,6.099531,2.7717454,14.061195,9.902703,-6.283005,-5.745596,-0.85261303,-3.3589587,1.972494
-0.6430521,0.8947625,-1.3629045,6.0432205,1.4403429,9.329646,6.9712095,-4.056821,-3.4859338,-0.405519,0.3691945,3.0838304
-0.08766127,-2.605228,-2.8785443,2.6502218,-3.5127752,1.0252634,4.2616262,-1.5845263,-0.7957227,-1.2625244,3.861286,3.7873049
-8.827663,-5.025379,-5.3974047,-0.65146816,-5.5918007,-5.808223,-3.8317814,-2.1489744,8.103422,-4.516008,0.41452122,5.4921446
-11.523454,-6.5861263,-9.310064,3.8109307,-4.3680143,2.6389852,-1.8589857,-3.202218,2.5760274,-5.7554464,8.994532,14.49785
-8.71359,-4.2025347,-6.8236938,2.080253,-5.530426,-1.9144313,-2.3098426,0.9532689,1.01249,-4.673646,7.2571745,10.920147
-7.75558,-4.87368,-4.836363,1.0617108,-6.6660743,-2.9642491,-0.38053787,1.6849858,-0.9072201,-4.320367,6.2815123,9.463686
-6.5247264,1.2635739,-3.8393118,-0.7256943,-5.003124,-0.9561672,-0.6459246,1.510364,1.5652052,-3.9568477,-2.2001767,13.378702
-8.779789,0.64478827,-4.31556,-5.486186,-1.4678698,-10.252293,-1.642751,1.6164043,2.8326237,-6.843037,-3.6697798,10.067593
-10.861057,0.34710038,-3.0840492,0.24470258,1.6565942,2.0004501,0.030330658,-1.081336,2.5398862,-7.3442326,-2.84721,9.288584
-9.405327,-0.28052628,2.1646304,0.099928975,-3.7036638,-3.6734169,3.6018505,3.968501,1.0167522,-4.284442,-5.634943,7.1881046
3.1076567,1.3302974,15.036289,6.21607,-1.0567186,10.103203,9.668658,-3.457629,-6.8409386,4.1562686,-2.8307166,-4.1503725
-0.023879528,7.466074,14.772262,10.130098,1.5204759,19.22213,4.0888195,-1.8098378,-4.955924,-0.47514343,-3.2888951,-9.120906
-0.48224473,2.4772954,10.15064,6.66588,2.905194,14.357614,9.302828,-6.336213,-5.582976,-1.2407601,-2.7322865,2.0224733
0.82678187,-1.7423983,4.7946157,5.8751383,1.4761257,11.306193,8.145061,-4.838464,-4.6253285,0.9091941,1.6237936,-0.4881752
1.5414602,-1.7445967,0.7291393,4.766036,-0.6303961,5.6891603,7.0096602,-1.1668674,-1.9021301,1.1617403,0.7621174,-0.26323032
0.386549,-1.4558761,1.859251,2.2503104,-5.7005105,-1.9461942,4.365596,-0.34494877,-2.9546545,-0.15661645,1.804553,-2.8138275
-14.105008,-5.342953,-10.841133,1.8252285,-3.5080857,0.59269845,-3.633212,-4.497387,3.9547908,-8.6173315,8.295849,12.17667
-11.324703,-5.668375,-8.32917,2.0808747,-6.1443605,0.6528876,0.96893525,0.86694765,2.0565352,-7.247324,5.3056927,8.741639
-9.524832,-4.0501237,-6.85562,0.4320059,-4.186521,-0.5217302,0.45828867,0.27451712,0.77446103,-7.2665787,4.9246235,9.4380245
-7.059628,-0.107207775,-5.740919,-0.20112681,-1.4980963,-2.1167402,0.41057873,-0.6792736,0.89377284,-6.8603516,0.68824697,8.243034
-8.029742,1.3749208,-2.468622,-0.27961242,0.89484763,0.81386614,0.3293531,-0.80995107,0.3498192,-6.966164,-2.665327,6.6495237
-11.403327,0.6209079,-3.359942,-0.3247013,1.610803,0.6350732,0.117892146,-0.6469755,0.4338134,-9.675658,-3.8653672,6.8781986
-10.964854,1.7435738,-0.22097754,-0.3342018,0.9176824,0.34020638,-0.12700665,-0.8763175,0.28398603,-8.491719,-6.930383,6.4930415
-9.73318,3.067508,5.237402,-0.36575705,1.0461487,0.77713585,0.111638546,-1.4669838,0.5938254,-5.9352484,-8.250565,5.8436627
1.2049632,0.28008544,13.112982,1.9759574,1.9860957,-3.399908,0.12353039,-4.200753,6.025651,-0.28288174,-4.091907,15.920139
-0.7067672,-0.8512788,14.433635,5.020703,6.4621596,20.0,14.825582,-9.9333935,-4.0274343,-1.4876018,2.924007,0.7036984
0.700145,-2.1477957,7.092382,4.7230544,2.7470798,15.187088,9.931145,-7.066058,-4.1870995,0.39252746,1.3654909,-0.6402253
1.0796818,-0.70873,-1.6324881,3.9542875,-0.4342463,8.06698,7.233625,-4.3160515,-1.3932985,1.1824162,1.6093692,1.0774922
-4.1115403,-5.0189705,-2.9621959,0.59712934,-5.889081,1.0412359,4.600572,-5.2311916,5.09681,-1.9117222,6.839056,7.710723
-14.521284,-1.7125134,-10.578663,0.013445258,-2.4468699,-3.0376437,-6.398971,-5.411639,7.302691,-4.3525724,7.294755,16.33784
-10.537783,-6.056529,-9.885168,2.1705453,-3.8781738,1.5382192,-0.8110151,0.25763965,1.8177594,-7.2261977,9.222619,11.025103
-7.8818607,-2.8117986,-3.8263679,0.7295812,-5.99186,-0.82373786,-0.7493098,2.2880569,0.509228,-3.5168376,4.508935,8.072135
-6.116084,-0.9627261,-3.5878673,-1.5195296,-3.0767288,-5.9150686,-1.6212704,0.87538004,0.6589084,-5.070464,3.2137442,9.3749
-9.590021,-0.26889348,-3.6018584,-2.2224019,-0.0017974377,-4.4458528,-0.14712965,3.0002837,0.67094946,-8.471792,-1.9802976,8.479368
-10.457616,3.1348357,-1.0292614,-0.70787287,-1.2937322,-3.0339282,1.6412271,3.7430935,0.7239261,-6.8877335,-6.6793203,7.4557476
-11.145907,3.3878803,1.9167911,-0.339059,1.4000573,0.6557584,-0.3162048,-1.4281325,1.0506792,-6.8354216,-8.812657,8.526258
-3.2062788,4.931161,0.3337288,-0.13450646,0.9940715,-0.56613445,0.22891474,-1.8630896,2.1820135,-0.016189694,-8.05929,2.1153915
-4.0923223,-0.6583996,14.937357,7.9904785,-0.030920506,20.0,9.810151,-7.966264,-2.8340993,-0.25621986,0.4805069,4.331516
-1.1280406,-0.87974215,14.962933,7.369816,3.138916,20.0,15.889176,-7.2626567,-5.4443374,-1.204195,2.9349794,0.07356429
0.99194074,-1.963728,6.7177057,4.1563916,0.65466595,14.353341,9.909844,-6.660603,-4.676776,0.28778386,1.5475886,-0.52307606
1.6868131,-1.6459522,1.1552734,6.319654,1.9582202,9.109587,9.126104,-2.8115456,-1.8016957,1.3713223,1.0416083,-0.5350523
1.4152435,-1.0794392,2.1345675,4.1887274,-1.8931105,4.0565233,7.4813337,-1.4268956,-1.208459,0.6022781,0.68849504,-0.629647
-9.737665,-0.9957168,-10.22369,0.3844653,-3.5492997,-2.2203221,0.8597529,2.459103,-6.491276,-8.713887,1.3143616,16.614939
-13.376696,-3.2243392,-9.25931,1.1179925,-5.7675757,0.2210347,-0.23581743,-0.5930128,3.2424004,-5.1389556,3.6334383,13.419089
-8.205528,-5.082385,-7.763374,0.67992496,-5.6198688,-0.41483462,1.061769,0.62131,1.5528897,-5.4634576,6.8901863,9.914435
-5.867024,-1.2806298,-5.079496,-0.19484136,-5.539966,-3.1113687,0.29231107,-0.17881083,0.73321486,-3.0071716,4.506803,11.128611
-5.903159,1.1019502,-4.699585,-0.6878302,-4.99742,3.523292,0.16858077,-0.6153803,1.5895869,-4.8689127,0.0678395,9.941037
-7.965905,0.5798837,-3.443724,-0.38724518,1.377181,1.962826,0.021584272,-0.8117914,1.9734288,-7.0963335,-1.0461999,8.195424
-11.035387,1.9738932,-0.6623472,0.108677864,1.2531056,0.30296898,-0.22347742,-1.3569639,0.9904228,-6.8015757,-6.5759687,6.8644404
-5.362474,4.7240734,-1.7210898,-0.35481426,1.3509498,0.025920868,0.15211439,-1.6398644,1.3344973,-3.3507752,-10.692195,5.2179637
1.042706,-1.5541198,14.229342,13.275559,0.42759824,20.0,-3.1806126,-3.2232294,4.2376432,-0.30854988,-3.138125,9.083883
-0.14561272,-1.7930875,11.687333,8.140409,4.3782854,16.982937,12.903163,-2.4790215,-6.1376925,-1.7952243,2.6202786,-0.052076697
1.2940574,-2.023837,2.831515,6.748144,3.4907956,12.86772,9.350203,-3.2665927,-2.2498307,1.3010361,1.4850454,-0.6439558
1.2881279,-1.1622983,1.6227832,5.5520616,2.1002164,7.9207454,7.6340756,-2.5707936,-2.4213214,1.1738982,0.6450081,-0.40967214
0.9524863,-0.45048094,1.6264042,1.6014411,-2.8286796,1.0158904,3.0095875,-0.065231085,-1.7457778,0.13788128,-0.24860668,-0.5563438
-14.9156885,-5.8559337,-10.935935,-0.4342898,-1.9090927,-0.102954865,-1.2731559,1.4200206,-5.234031,-9.978532,1.9098058,15.7799835
-10.652069,-2.6084669,-10.341533,2.188527,-3.5010343,1.2548828,1.2418559,-0.15572739,4.1312957,-6.537076,2.0902143,13.201934
-6.6147823,-3.1594114,-4.4248657,1.6754932,-6.0514297,0.2362938,0.82845056,0.84474456,0.43480697,-2.623373,5.3205533,7.547451
-7.0456324,-2.910866,-4.859945,0.10873729,-3.2943945,0.2464397,0.29996502,-0.46107912,0.35507765,-4.81405,2.190287,9.016745
-7.619873,1.5497704,-3.4191682,-0.100396216,-0.71313834,-0.38226008,0.07440364,-0.6553087,0.8076928,-5.2794266,-0.93414795,9.10676
-10.615528,2.690736,-4.2201705,-0.38788724,1.0551398,1.2466478,0.071505666,-0.7853341,2.6329105,-8.181387,-5.261221,9.565904
-9.447992,2.7435825,1.901713,0.25293458,1.383923,0.8387799,-0.06504917,-1.7447538,1.5505629,-4.4692516,-7.5346975,7.077527
1.1874306,0.80282867,3.1711059,1.2806687,0.9562141,-1.8250055,0.47235012,-3.9825983,4.4732685,-0.29523242,-2.1986768,5.656332
-2.7573948,-0.34112215,13.15429,7.965616,-0.05333376,20.0,18.273699,-2.6995964,-11.748579,-1.0249805,2.5767875,1.5268173
0.071052015,-1.7881846,8.886524,7.182487,3.359422,16.337217,11.169321,-5.2581396,-3.2761128,0.40222353,1.6152787,-0.38737464
0.951565,-2.09809,4.5336823,5.716851,1.5385892,12.835245,9.618791,-4.2147045,-4.870937,0.65478635,1.280961,-0.5643154
1.6067911,-1.1590843,1.137624,5.394103,1.6255794,7.510805,7.812304,-2.915247,-2.068791,1.3843063,1.0605814,-0.3782338
0.79727423,-1.0133269,2.4636369,2.239983,-4.4547935,1.016034,4.0267706,-0.13630748,-2.3701262,0.63598686,1.8727894,-2.0424929
-16.970644,-1.1622283,-12.607115,-0.5726855,-0.82603645,1.3996086,-0.1948018,2.536622,-6.152014,-8.784249,-1.7662859,17.867514
-11.49145,-4.0335484,-8.907432,3.7191248,0.121588826,6.3139887,-2.2877011,-2.3803735,3.6053584,-6.615099,7.5130386,10.602192
-10.103888,-4.6647215,-7.733868,4.457092,-5.8148603,6.2437844,1.6025021,1.1929958,0.95809275,-5.370295,7.250172,9.112393
-8.79779,-1.3308907,-6.9838405,0.32938993,-2.5069966,-0.9852314,-0.089468,-0.6619045,1.9111351,-5.3269706,6.208531,10.540655
-6.755825,-0.28738022,-3.8831887,0.11609447,0.5715494,0.009340584,0.7175298,-0.32163644,0.47922924,-5.821257,-0.7451254,6.1755276
-9.279424,3.5019112,-3.5110426,-1.0370468,0.71986747,1.0967484,-0.045995235,-0.84996724,1.0554768,-9.649808,-3.5023208,5.63152
-11.41297,1.6153185,-0.8398411,-0.07558131,1.0369922,0.4398191,-0.09746817,-1.5940363,0.25876546,-8.326807,-8.50184,5.736443
-8.289589,3.0987623,4.615821,-0.07109171,1.1325967,0.58683825,0.06608963,-1.3793273,0.6856817,-4.9466743,-5.7420692,4.079328
-0.6776756,3.8103633,-6.992436,-0.05656576,0.94686127,-1.4067907,0.8885393,-1.8949401,2.356781,-1.2943231,-6.7917933,0.030092716
-2.6913893,-0.16832495,16.698898,8.38843,-0.10316253,20.0,14.014345,-4.7347975,-2.9726198,-0.7239876,-0.016775131,6.898586
0.1556108,-1.7408309,8.543257,6.8985186,3.0561059,17.509771,13.613363,-5.846406,-3.945355,-0.46181124,1.9375224,-0.31608868
1.1242803,-1.3165953,3.9860888,7.6310716,3.473343,12.983489,10.198796,-5.3690023,-3.3163993,1.3860185,1.130264,-0.3811099
1.2854333,-1.4538759,0.07144141,4.6081257,8.136735,15.424708,6.6110525,-7.6704283,-3.4379609,1.3689845,0.5142741,0.2717626
0.47887588,0.2714591,3.72878,2.4842865,7.6805205,16.766958,7.202643,-4.9882174,-4.894692,0.12216109,0.3890128,-0.08800393
-6.968487,-8.180053,-4.388155,8.089365,2.8518667,17.197252,4.3197107,-8.085855,-7.5468397,0.84827995,-0.48944283,-0.45624936
-2.548166,-4.670676,-2.4099646,6.8806725,9.280516,17.458515,6.7431087,-5.696683,-5.4715285,0.9197872,-2.822198,-0.5878657
-0.27083975,-1.6062307,-2.0821083,7.273366,6.5106044,15.764703,6.312089,-1.6594739,-7.3975363,1.0647285,-0.2684784,-0.25970727
1.4334325,0.895253,0.07238868,7.2476277,4.4747596,14.721244,6.656871,-0.95974135,-10.321621,1.5056367,-0.103108406,-0.42559874
0.63975453,0.668427,-0.56833786,5.1897044,3.2638993,14.139582,6.4801917,-2.6196623,-9.1748905,0.6329899,0.36572564,-0.24236807
0.032411218,-0.045814514,0.39418373,4.1115866,3.0992656,11.327834,5.085586,-1.9702158,-6.361291,0.43055734,0.13416094,0.049088597
0.5877419,-0.14376283,1.0442407,2.5530539,1.00214,6.350014,2.043998,0.2976682,-6.2539606,0.56059813,-0.10072881,-0.04580091
0.87950516,-1.2258728,3.9085302,3.4579246,-0.18761218,2.6332006,2.3628454,2.4200165,-1.9256102,0.392985,-0.6170571,-0.3929298
-10.010159,-4.9549594,-6.403508,3.7126443,-3.6727114,-1.4343033,-0.67334366,1.1355176,-4.695015,-0.89177597,0.79446983,-2.7799807
-12.953626,-9.848701,-8.3342285,0.0353193,-3.2275002,-0.6317271,-0.26691246,0.0113732815,-5.2715178,-8.221312,3.0118215,15.579269
-9.902702,-8.026267,-6.022332,4.6315813,-5.311185,-0.30955672,-1.0868504,1.5051601,1.0361769,-0.9506838,10.019557,10.444039
-10.098255,-6.626904,-6.7015476,1.9877114,-5.0183244,0.3209691,0.2821331,0.13009864,0.85153854,-4.8046527,3.7240183,10.6495495
-8.895485,-3.0474524,-5.955534,2.1361756,-5.7073913,-0.6782017,0.0053887367,-0.33840203,-0.06445101,-3.8754501,3.6891725,10.988698
-6.845362,0.41373098,-4.1969614,-4.2902727,-1.4204886,-11.525835,-1.3774762,1.9478478,1.4191307,-5.2833357,-1.7005786,9.543768
-8.920532,2.9433966,-4.312199,-0.59348464,1.1195241,2.7617445,0.5365889,-0.6071906,3.7546628,-7.5624957,-4.8481717,10.008156
-9.853265,0.3514325,1.3944497,0.372612,1.8775029,0.8363261,-0.17606223,-1.7012076,1.6850905,-4.0681725,-7.027355,7.717673
-1.3107828,3.730655,-5.2123723,-0.74982524,1.1532173,-0.5561855,0.39345694,-2.0794678,1.8593173,-1.7631518,-8.4396305,3.0619915
-4.009856,-0.33442307,14.609977,9.466888,-0.611825,20.0,11.636731,-6.942977,-8.41702,-0.027641773,0.3235073,4.283802
0.27223718,-1.599885,11.723939,5.636752,1.7468851,17.67111,11.346893,-8.9931345,-5.1228733,0.058813095,2.0986562,-0.17366332
1.1664222,-1.6564498,7.847134,5.529976,2.024216,14.501343,10.459323,-6.4304075,-5.2370806,0.41527557,1.4959278,-0.33497682
1.3806889,-1.4345491,0.8937983,5.5279827,0.5598773,10.423731,7.7097545,-3.8828533,-2.7849555,1.5048522,1.2842543,-0.52875364
1.016793,-1.3373545,1.4170356,3.9451292,-4.099813,5.094614,7.9843626,-2.7342522,-0.19376779,0.49970913,0.9762211,-1.2686467
-1.8501499,-0.197397,3.2181778,-1.4899547,-0.4774964,0.57579017,1.3538492,2.4817312,-6.3574734,-6.5424466,-2.87926,15.442116
-12.114794,-1.92783,-10.450193,1.8059076,-4.4047565,1.3312192,-0.37162423,-0.6265507,4.5116143,-5.1575694,6.3268127,12.854766
-9.126399,-5.183137,-5.5234504,0.24599248,-6.4081445,0.24706388,0.6335404,1.0358771,1.541793,-4.124881,4.4931026,9.50928
-7.404933,-3.3341725,-6.526565,-0.27997097,-4.953349,-1.3876178,0.45610404,0.45710352,0.32190508,-4.603943,5.7017245,9.514735
-5.622951,-1.7347703,-5.354804,-0.006640248,-3.693737,-2.3031003,0.32688308,-0.67059803,0.0112796165,-4.552145,4.2281046,8.13007
-8.044638,2.6180184,-4.862741,-0.3790357,-1.1945716,1.4623003,-0.026864767,-0.8758836,1.0066279,-6.7206163,-1.4444252,9.382487
-10.388343,1.0843511,-4.6368217,0.044371128,1.3912861,0.9741533,-0.19798845,-1.1744423,0.98447394,-8.723535,-2.3866801,7.1167955
-8.648995,3.5846221,0.6122316,-0.30607533,1.0344774,0.5484047,0.11298537,-1.3324509,1.5182798,-6.189145,-6.4432716,8.482255
0.26408774,3.0098677,-6.0390177,0.34690905,0.9547422,-0.78037906,0.3773594,-2.7565224,2.4858356,1.2578104,-4.1094537,-2.0194204
-3.2825885,0.14781523,16.29438,7.667799,-2.0441856,20.0,14.951469,0.43403172,-10.887781,-1.6082153,0.84904814,2.659091
0.19189954,-1.8090491,9.3185,8.100198,4.79144,16.502428,12.334374,-5.6230397,-6.089172,0.10262799,2.3000135,-0.3485565
1.2739351,-2.1184332,0.5932646,4.4806485,-1.0190748,11.923699,8.6721945,-6.0627165,-3.757391,1.601117,1.3652108,-0.74890375
1.2878764,-1.0628589,1.4056046,3.5919795,-0.97071326,4.9085536,6.5325274,-2.8163896,-0.58442926,1.0751387,0.6170007,-0.85459733
-1.3632035,-1.5573928,3.4636848,-0.50544614,-0.81101775,-0.27070677,0.64059126,1.8138504,-5.3540835,-8.634298,1.862134,16.178043
-13.869951,-4.51253,-9.724052,1.4146216,-4.5164804,-1.065911,-0.92643976,-1.4281211,4.0345902,-7.164703,4.894365,13.332724
-6.8468003,-3.737507,-4.748822,1.7305567,-6.648998,0.13299727,0.9346421,1.1705129,0.38290504,-2.2587261,7.7679434,9.588006
-7.8083253,-1.3508592,-5.6586037,-0.3364442,-4.4264336,0.7201779,0.28776932,-0.35449338,0.24613388,-5.905131,3.283978,9.067061
-7.1366577,-0.17044449,-3.220177,-1.0167832,-4.587352,1.4822478,0.34717607,-0.5709896,0.7727276,-6.161181,-1.5333849,9.3123045
-9.245678,1.3959978,-3.7535672,0.007694721,0.983094,1.547245,0.11249614,-0.9317639,1.995045,-7.195759,-2.870916,8.840236
-9.15797,2.336615,1.5008874,0.28737712,1.5163498,0.39161587,0.1521213,-1.3460727,1.5210724,-4.925459,-7.8045588,8.024373
6.3264337,-0.050457224,18.713528,7.2280674,-1.6566296,12.699125,10.485102,-5.650728,-6.011156,3.7885532,-3.4970925,-6.5294065
-2.4895039,4.331567,14.634019,8.472843,3.0329185,20.0,17.397379,-7.588384,-7.7943516,1.1878955,-0.46074343,-5.3614993
-0.524772,-1.3746543,11.947845,8.01158,2.8774416,17.518938,11.406738,-6.4735584,-7.816945,-0.18220437,2.3867764,-0.18899477
1.3246294,-2.090838,2.6750445,6.7001786,1.9713237,13.35071,10.956788,-4.435079,-3.0355358,0.8134302,1.2482333,-0.5138154
1.679785,-1.7993011,0.6444588,4.459561,-2.5829067,8.262342,8.616634,-3.4909806,-3.691884,1.3716164,1.1575584,-0.5430095
0.91886544,0.06973839,0.94927263,0.2809062,-4.153868,-0.034820914,4.430743,-0.61044765,-0.32287145,-0.029710054,0.9168639,-2.7278533
-16.37953,1.452213,-8.623365,0.04128018,-3.8557858,-2.2966833,-2.7487028,-1.1915863,6.277689,-1.3881906,4.3808756,20.0
-12.750218,-2.593149,-10.077878,2.0431962,-4.9152846,-0.3917867,-0.9935074,-1.0776541,4.825977,-2.968487,10.056459,16.518108
-9.46243,-5.405546,-4.8787017,1.2012283,-7.11627,0.107385874,0.31209064,1.3944348,0.7022968,-1.8260882,7.2089367,11.244713
-5.827848,-0.2893772,-3.8250592,0.44097716,-6.0987954,-4.121457,0.37306762,-0.2348603,0.17803916,-2.3718944,4.7001896,10.501334
-6.7371054,3.315284,-3.126963,0.609617,-6.0217915,4.2120733,-0.07008207,-0.897182,1.531681,-3.830653,2.0079393,12.610025
-8.42392,0.9834912,-0.30534077,-0.027345419,1.3665881,2.2405052,0.40825891,-0.8033881,2.2811236,-4.81552,-5.381754,8.502378
-11.491309,2.3052588,-0.29988885,0.30295086,1.8086269,0.8954978,-0.17157936,-1.1591396,1.1602304,-7.1472106,-6.016816,8.359629
-6.2980995,6.4517927,1.635942,-0.15221453,0.7474642,-0.17542401,-0.14304876,-2.1326966,0.5259011,-2.0501733,-7.5875745,4.4592257
1.757525,-2.1269662,14.735059,14.119122,-0.5073693,20.0,-1.8560705,-2.8552642,4.3991566,-0.5480242,-3.1452253,10.765839
-0.31683934,-1.0477352,14.009864,7.255852,5.4700317,19.652227,13.89122,-5.061057,-3.9606087,-1.893117,2.548708,0.031507254
1.1516944,-1.760817,7.120593,4.2991166,3.5385742,13.55773,9.228972,-5.504365,-4.7107787,0.6425414,1.6683583,-0.32873824
0.9478178,-1.6369846,1.8608681,8.275322,3.1362324,11.541387,9.250272,-2.1267262,-4.6442566,1.3019805,1.2303932,-0.52663445
1.7193363,-1.5906068,1.4895039,5.8172154,-0.47242975,5.877576,6.893175,-0.27096844,-2.7181096,1.388624,0.7871702,-0.37852883
0.2793088,-1.260996,2.082611,1.3934913,-4.7749395,-0.39202428,4.1212234,0.41472077,0.102895856,-0.04762888,1.3129792,-2.2398057
-15.7797575,-5.446811,-9.445859,-0.45582217,-5.679445,-0.65299094,-2.3020263,1.793566,-5.6626153,-5.208411,5.2949815,17.406672
-10.033844,-6.9231396,-8.058351,3.2221146,-6.5830173,0.4030218,0.8621342,0.70643973,2.554775,-3.3653805,8.364965,11.583466
-8.034692,-3.882798,-5.2145677,1.0697356,-6.6042314,-0.22617841,0.54174757,0.43608057,0.6683964,-4.4529643,3.6526663,9.544256
-8.098711,-1.7655563,-5.912389,-0.24452329,-5.2581844,3.3149924,0.017474651,-0.82850647,0.6542801,-6.372929,0.13875341,10.160347
-6.7777977,1.134356,-5.1707497,-0.17581677,0.8394753,1.7797332,0.3781004,-0.70675254,0.8856651,-6.7894797,1.1290548,8.31418
-9.034136,2.852024,-1.5397357,-0.36029434,1.0606898,0.7400229,0.3340069,-0.72099686,1.7053792,-6.5824137,-5.215676,9.577598
-9.103251,1.091634,2.5785766,0.25752163,1.4447598,0.14443505,-0.030722737,-1.4289651,1.5632912,-4.2048626,-7.210424,7.1344137
-3.0736673,6.090423,4.857775,-0.24874687,0.4415326,-0.73017025,-0.07124996,-1.8412552,2.0316665,0.2923559,-6.807331,2.686919
-3.9675531,-0.7278731,17.18951,7.062641,-1.1606445,20.0,13.074856,-4.3273563,-5.055754,1.0410194,0.78156686,6.005049
0.16910961,-1.7795994,11.372141,4.8939147,2.308291,17.375723,11.210725,-6.28946,-5.3509088,-0.5048561,1.71982,-0.11760092
0.78029907,-1.4946408,7.3331633,6.3448415,3.8757777,14.957291,10.432116,-5.667679,-5.1804695,0.5398551,1.2982607,-0.39659345
0.9305012,-1.1048839,1.1475217,4.2456675,1.2441714,9.766356,6.6985397,-3.89081,-2.5540628,1.1928389,1.1235127,-0.5342411
1.1282816,-1.4306648,0.44869602,3.5978034,-0.02341342,8.430715,6.935233,-4.2217765,-3.2537143,1.2415571,1.0381413,-0.5095383
0.8409126,-0.3389992,1.318963,2.2206116,-3.5516748,1.7071373,5.1427474,-1.3221364,-0.6783566,0.68458307,1.300874,-1.2716029
-11.38858,-4.800853,-8.14903,-0.3953268,-5.191501,-0.7447456,-0.30320144,1.2508371,-2.2359877,-11.686026,-0.45877862,15.556691
-13.050685,-3.1611433,-11.76652,2.9810507,-3.9694114,1.10373,-0.56376123,-0.7508209,4.9121213,-6.7391396,7.877486,13.799357
-8.050722,-4.281069,-5.457654,0.5966277,-6.3256364,-0.5364739,0.9628198,1.2207675,0.6042234,-4.085549,3.61,8.971629
-5.1529803,0.5343497,-5.2490354,0.42176068,-4.042578,1.012609,0.48680878,-0.25219953,0.53821194,-3.7961187,3.904131,8.905516
-7.328002,1.7305708,-4.1547575,0.011542082,-1.2460651,2.1766472,0.39926672,-0.7218046,0.58159876,-6.27501,-1.9795235,8.217946
-9.281797,1.8679049,-3.676455,-0.118879795,1.1766741,0.9692035,0.16581613,-1.0855899,1.0865883,-8.822077,-2.6503944,6.6303105
-10.480787,1.9362109,-1.6857842,0.08285022,0.9233717,0.6468189,-0.71330273,-1.5388374,0.28777263,-6.206652,-5.0237713,8.808009
-4.0628467,3.6664743,-6.020424,-0.07901955,1.2892327,-0.6559522,0.5370774,-1.7075915,1.0712819,-2.2307286,-6.482328,2.5609384
0.06242752,-0.28153896,14.349525,12.002908,0.20926046,20.0,-3.4082174,-1.6435428,3.8667896,-1.5518446,-1.5023721,8.651845
-0.45263347,-2.0288095,9.854331,8.394649,1.79691,17.51563,12.203474,-4.7668715,-6.1988654,-0.8257557,2.768783,-0.43411463
1.2423524,-1.7913134,2.8408213,6.152247,1.8258481,10.14055,7.7675247,-4.1117687,-5.463716,1.5229225,1.394902,-0.2213631
1.0660839,-1.2083355,0.6722361,4.086031,-1.9395657,8.05509,7.408371,-3.8842769,-3.5191739,1.1597514,1.0079323,-0.26093912
1.0133877,-0.8687537,2.739745,3.85854,-3.1801753,0.34578645,5.3332653,0.48331547,-1.0489775,0.52644753,0.20064569,-1.5940108
-10.548472,-3.408433,-8.121502,2.7271693,-5.5578966,-2.8862996,-0.94671994,1.4402215,-4.70926,-8.466772,2.4626102,14.472723
-13.98312,-6.6275287,-9.902045,1.7567892,-4.9535837,-2.0969038,-1.0033185,-0.9630518,3.2608328,-5.9640527,5.624706,16.407734
-8.453513,-4.8469567,-8.026554,2.5349965,-5.9433203,-2.98603,0.6588185,0.8404369,0.44305733,-4.6068306,8.122919,8.442965
-6.430386,-5.1047907,-4.0080166,1.462893,-8.099156,-3.6897306,0.55117166,0.37479913,0.31926608,-1.785858,4.52331,8.934855
-6.5904202,0.3497795,-6.971885,0.6428697,-4.975466,2.5962143,-0.02209568,-0.9433818,0.9857631,-3.171855,2.7319481,13.062548
-6.912355,-0.29572964,-5.6455345,-0.3261397,-1.8023828,3.7273083,0.16589952,-0.83577514,1.4515233,-7.22784,-0.9081862,8.4345875
-11.2130375,1.9012042,-3.1397345,0.20260549,1.6866904,0.7532077,-0.028703868,-0.942996,0.63280004,-7.2506366,-5.2560873,8.267529
-3.9031153,3.6599112,0.020652533,1.1876566,0.39881945,0.3207283,2.3109412,-1.5664878,3.0094147,-2.2664454,-5.5242224,5.9729567
0.92502046,0.09585953,6.1224947,0.66777134,0.7568879,-1.3959899,0.025704384,-3.2109838,3.524055,0.80670106,-2.6370273,0.87986946
-1.993293,0.00289011,13.198279,9.137142,1.500658,19.702988,16.35372,-4.3273797,-7.23533,-2.0037434,1.549634,0.7173557
0.017618775,-1.4753165,7.502619,7.353585,1.051898,15.039218,10.727167,-5.7532296,-5.0079255,0.75438595,2.1692777,-0.47971225
1.5755353,-2.0981174,-0.08422351,5.7120075,0.9965813,9.513757,8.760074,-3.6506908,-2.1908207,1.1376922,1.2128706,-0.59306693
1.4003676,-1.0611748,1.6489966,3.8449714,-2.7642727,3.153562,6.569251,-0.49385786,-1.780183,0.8262923,1.2330072,-0.63751507
0.17692995,-1.2227407,5.0825777,1.8656312,-4.960052,-3.4458842,3.648401,0.45843554,-4.6037483,0.08827925,2.12669,-5.8442917
-14.777818,-1.6743107,-11.0784855,2.683513,-4.0947976,-1.4475402,-1.5035553,-0.96797156,5.145916,-4.331364,8.937015,15.791844
-8.210161,-7.223502,-4.989023,1.9235156,-6.7945595,0.8354604,-0.6586726,1.0709687,-0.18918307,-2.6898875,10.451482,11.869574
-6.9375544,-3.6861699,-4.4782796,0.49887633,-6.241952,-2.984344,0.52386665,0.25142556,0.62427706,-2.1501238,6.286788,12.137978
-8.361317,-1.5797565,-5.064714,0.46360654,-6.400226,2.7915857,-0.26675057,-0.8087785,0.36579138,-5.5421844,1.9866108,10.3476715
-5.253725,3.0356855,-3.7539144,-0.47581184,-2.3543382,5.157992,0.4595256,-1.0191147,2.0847616,-6.435248,-0.060357332,9.110601
-11.478491,-0.67279446,-1.6216297,0.2158339,1.976707,1.1317163,0.114350736,-0.8882737,2.5545332,-7.9568787,-4.5535088,8.11966
-9.454601,1.5328518,3.8811972,0.004269719,1.3144565,0.6850195,0.0049238205,-1.5714216,0.34061208,-5.737123,-5.2073026,6.8727937
1.4059963,-0.5975398,9.379108,1.1324887,0.7935083,-2.230805,0.41882133,-3.7015018,4.9566703,-0.3455944,-2.487752,5.8568277
-1.4148631,-0.27152395,12.889361,10.013383,-2.5496695,20.0,14.858275,-2.7937903,-9.627487,-2.326098,2.7964926,0.23515892
0.86120594,-1.9814186,6.6552386,4.6036363,1.4307895,11.493603,8.095316,-5.909589,-5.5300865,0.4699877,1.9747596,-0.7208022
1.403389,-1.8727088,0.380574,3.5814,-0.6735728,8.295404,7.3527308,-3.2866602,-3.0755787,0.8387821,1.0646348,-0.689203
0.9340452,-1.2861724,1.7358832,2.7027636,-4.6797814,0.91837764,6.0110264,-2.2557719,-0.33521888,0.69325304,1.5502312,-2.0517597
-15.888778,-2.5111806,-10.740147,-0.60905135,-0.78316903,1.0617118,-1.3016155,2.6625881,-4.16712,-9.303551,-1.4333229,15.047573
-13.952702,-4.938616,-10.243743,1.1597166,-4.898684,1.7037982,0.16286755,-0.87127924,3.1708655,-10.133495,3.4899402,9.124554
-7.98653,-3.5953784,-5.841427,1.1989973,-5.7262526,2.958983,1.0959744,0.99519426,0.3293752,-3.6542125,4.9954066,9.285528
-6.9464927,-1.9974285,-5.424322,0.17919207,-0.849568,0.36622226,0.15318775,-0.31948012,1.0453248,-5.093086,3.9764965,8.291307
-7.2375045,0.94972545,-4.030913,-0.032610655,0.102028966,0.8056891,0.35845232,-0.32573295,0.342627,-6.4083977,0.6386628,7.054797
-8.724334,3.3775868,-3.2189012,-0.1776824,0.6823057,1.2010057,0.04083395,-1.1989455,0.9691758,-7.968834,-3.9053278,6.1947155
-10.355889,2.12745,1.7062395,-0.18299508,1.6169901,0.36452365,-0.20209932,-1.4240856,0.44519266,-5.841481,-9.018646,6.6217313
0.37021363,3.040669,-5.984951,0.7443609,0.7869991,-1.5160234,0.3525715,-2.9536648,2.8868833,-0.07490885,-1.8725221,3.8383427
-2.511945,-0.16786957,14.428577,7.6679363,0.32227612,20.0,18.253199,-2.6171384,-11.176132,-0.8760495,1.8265085,1.9172173
-0.040031135,-1.628777,10.129341,6.8352675,2.9646003,16.235785,11.752325,-4.891081,-4.769207,-0.12158322,1.8165603,-0.44223326
1.8771732,-1.8765588,2.045373,5.1810303,1.4251658,9.9501915,8.786394,-2.9459693,-2.3754554,1.1634083,1.1078396,-0.47909725
1.1761724,-1.217449,0.40171802,5.222916,-1.4894689,7.280508,7.8769755,-3.4318,-1.1234313,1.4581585,0.4287647,-0.32899785
0.2372806,-0.6763215,2.1686435,2.7742488,-4.736354,-1.1593629,2.8244288,0.8384371,-5.3108845,1.0899303,2.499124,-3.703628
-14.2371435,-3.1482296,-9.411686,0.7328127,-1.5890818,-0.06880438,-1.8435864,-1.3500059,3.9419844,-3.824098,4.964423,15.277819
-11.047191,-4.507146,-8.271643,2.9021826,-5.941361,-0.8981087,1.191133,1.2035261,2.2591655,-6.081036,4.2503586,11.56452
-7.9572363,-3.2008805,-4.6273685,0.61570823,-6.884116,-3.802172,0.20354557,0.24737924,0.35598755,-2.3232563,5.032891,10.928013
-6.950885,-1.648075,-5.560594,0.42351836,-5.6674037,0.8258629,0.08353186,-0.5991144,0.33997875,-4.0515523,2.4498127,12.700744
-9.077961,0.5008974,-5.322805,-0.19941676,-2.1270685,4.8763103,-0.013174295,-0.81063414,2.0190077,-8.004333,-1.1338826,9.7028265
-7.1105328,2.3330278,0.16542065,0.08960366,1.3277032,1.0703361,0.5216092,-1.1942277,1.7952778,-4.3410034,-5.4807696,7.4537816
-9.097172,2.4290211,3.2824502,0.008264661,1.6126685,0.6020584,0.014095068,-1.4908686,2.3741908,-4.7181616,-7.5069985,7.1596994
1.2509485,0.2513001,6.324086,1.1368561,0.9690161,-2.1497078,-0.0077342987,-3.8135474,4.8450594,-0.58142686,-2.8200023,6.274685
-2.4491005,1.2529573,13.020993,9.19213,-0.1305685,20.0,19.031605,-2.776287,-12.634849,-2.0864267,1.9346218,-1.3187356
-0.86819303,-1.8099995,11.3445835,9.869046,0.98405194,16.249777,11.16919,-4.974048,-5.377563,-0.06905463,2.5592415,-0.5678999
0.88112855,-2.0272577,3.21992,8.146599,2.6513557,10.672677,8.8393755,-2.6554315,-3.380614,1.3517818,1.5382223,-0.33349144
1.5240468,-1.5906006,1.0002638,5.573129,-0.5130892,6.80329,8.63046,-2.7485962,-3.0500765,1.0705256,0.76502144,-0.13118911
0.40770674,-1.5107597,2.3520834,4.843536,-4.8435497,1.0872198,6.0762815,-0.8394854,-0.42579538,0.7062,1.7606044,-1.8860617
-13.802814,-3.4657216,-9.31536,-0.14644365,-4.54786,1.0888567,-1.9725466,2.1121607,-6.098137,-5.238369,4.456773,18.074005
-9.121115,-4.5396776,-7.583861,1.5613824,-6.011406,-1.705582,1.334883,0.35117984,3.1236887,-4.043207,3.2311456,13.661304
-7.8480577,-2.7493093,-7.3690357,1.7841763,-5.9897785,-2.40469,0.6748831,0.49963412,1.327287,-3.3186452,5.795038,12.249133
-7.830543,-1.9373082,-6.1600876,-0.03917253,-5.43783,-6.6300364,0.5236765,-0.26284146,0.542158,-5.552034,3.0900779,9.362078
-8.18891,-0.03995359,-5.430657,-0.78319085,-1.4868414,-2.190051,0.25051785,-1.0708702,1.1239052,-6.2910595,-0.6625422,11.041583
-8.828853,0.80830693,-3.192734,0.094311714,1.7707133,0.95699525,0.085869074,-0.62766266,1.7715864,-6.182728,-3.127249,8.466733
-8.439309,2.4262576,1.5409515,-0.07732093,1.5169578,0.2810459,0.25283027,-1.3621712,1.7866882,-5.120487,-8.70272,6.0111027
-0.009120166,2.8821106,-3.8511472,0.28094912,0.439561,-0.8438935,0.3349867,-2.971777,2.5887284,0.71448356,-6.582359,-0.99504685
-2.450725,-0.4090767,14.57544,9.689937,0.22815514,20.0,19.310392,-4.465407,-6.7280607,-0.9960966,1.7958841,2.9674072
0.30158156,-1.3764043,9.380719,7.060187,1.0679622,16.603325,12.362749,-5.3399916,-6.3243637,-0.22465372,2.0503736,-0.25118095
1.2458808,-1.4340811,3.9311523,5.182711,-0.10655522,10.628788,7.683541,-6.663701,-6.0056868,1.4525709,1.4938426,-0.3872797
1.1833017,-1.5811281,0.36358273,5.5400715,-2.6317794,8.33256,7.8872437,-4.008903,-4.871988,1.4210641,0.9729097,-0.342268
1.1227902,-0.24957633,1.2966733,2.7351253,-3.032174,1.5205348,5.941282,-1.8506299,-0.7773383,0.49505746,-0.30065966,-0.7198427
-15.730681,-2.334708,-11.279854,0.49514472,-1.2455947,0.30436707,-1.4588228,3.0933976,-6.4054875,-9.452644,-0.23210382,17.222637
-12.903032,-4.1143227,-9.988635,0.61791176,-5.6023493,1.4093289,0.2324934,-0.5365238,3.890318,-8.677109,5.651414,13.987629
-8.453406,-3.0798259,-5.7789335,1.5202348,-5.1674004,-0.85005236,0.76587987,0.99122524,0.79881036,-4.1268816,8.167097,9.9312
-6.834946,-2.4581265,-3.5186415,1.254072,-5.8256636,-1.260469,0.643288,0.4810053,0.22599404,-1.6151514,5.3152514,11.723015
-8.598961,0.24843907,-5.4110956,0.24367023,-1.7962675,3.2696986,0.16512227,-0.78910065,0.67520016,-6.8738236,2.924796,9.90208
-8.940994,2.3498693,-3.0861325,-0.14175367,1.0472956,1.2262473,0.2905879,-1.0155258,1.4609207,-8.242141,-2.174491,7.0377293
-11.138562,1.844015,0.52385795,0.07561445,1.512682,0.22839689,-0.23895186,-1.2746868,0.7831126,-6.0727606,-7.8483825,7.6621847
-5.277533,5.642162,0.20042586,0.043043673,1.3962162,-1.8384321,0.41365862,-1.9542031,1.0915756,-3.2556446,-7.101983,4.976614
0.8519883,-1.0163562,14.647898,12.375678,0.6248555,20.0,-3.4204483,-1.4921632,3.6074536,-1.3017054,-2.837007,10.202432
-0.891227,-1.9413147,11.962873,7.3459544,0.76402116,19.255169,11.569515,-6.111635,-4.775895,-0.5936456,2.940332,-0.24813128
1.3159182,-1.8767734,4.3924937,6.3697934,2.799557,12.013481,9.492757,-3.5939987,-3.9045203,0.9642689,1.2620401,-0.46068597
2.00275,-1.3110517,0.7685032,5.8593607,0.22271383,9.537052,9.000811,-3.4603348,-4.78936,1.3416632,1.0913682,-0.44582427
0.9360677,-0.62487966,1.693306,4.0765395,-2.210876,2.3893428,5.8767385,-0.6787673,-0.90914136,0.7744491,0.48055243,-0.21563482
-0.002603531,-1.3520634,4.201292,0.0016335845,-1.0876273,0.0063090324,0.9468602,2.4637115,-7.164553,0.32656646,1.7140145,-6.785603
-15.120325,-1.4305265,-11.65657,-0.077371955,-3.3121,-4.0504737,-0.823596,-0.93576574,7.54519,-4.6668487,7.253667,18.499641
-11.090126,-5.8651776,-6.825802,2.6486578,-6.197529,1.0758471,0.19464934,1.0737743,0.8169533,-2.8289564,8.637916,9.807329
-7.8766108,-4.7445793,-4.839966,0.6326121,-5.6717043,-4.458376,0.63163114,0.085033715,0.48460796,-5.2642612,4.965822,8.444205
-7.242838,-0.8387166,-3.8128655,-0.7981575,-5.690775,-6.0859294,0.5061759,-0.68450737,0.47172183,-4.922104,2.2947373,10.010105
-8.167322,2.8687353,-3.4254224,-0.384104,0.0906347,3.5240817,0.12902951,-0.9742296,2.9215076,-5.772227,-4.3027086,10.009678
-9.612577,1.102329,-1.6322514,0.5210173,1.3894236,0.94416046,-0.043202907,-1.1946487,0.21210712,-6.112727,-1.9988568,8.380321
-8.413117,2.5228424,3.6101525,0.009377956,1.4906671,0.10294819,0.039495707,-1.4792929,0.5944117,-4.0141573,-7.9680796,5.847173
2.9347644,-2.268371,14.305922,1.6020651,1.6817864,-3.6670218,0.086055756,-3.9588556,5.5783143,0.5168958,-3.514857,13.7519865
-1.0970879,-0.8574977,14.62637,9.430839,0.9087906,20.0,16.389746,-5.133272,-6.167357,-1.135803,3.1169872,0.08061838
0.9793811,-1.96809,6.4642477,8.258515,0.6870487,15.048507,10.993567,-4.975334,-6.38822,1.2428429,1.8113933,-0.60551894
1.5329114,-1.4801059,0.26439452,5.6072536,0.47033417,8.131856,7.2514725,-3.5166512,-3.840755,1.5449907,1.0688121,-0.3249066
1.0285596,-0.92496264,1.5453182,5.927364,-2.270444,4.8562226,7.368891,-2.1154952,-2.3834763,1.0613401,0.48507953,-0.47128236
-0.4009199,-1.2522929,2.7594051,0.5002165,-6.876459,-3.0015225,0.66312706,1.985435,-7.6187882,0.65239024,2.1322713,-6.0567884
-13.783858,-2.0978377,-9.447355,0.4070745,0.91801536,-0.47118333,-0.97771835,-1.1687993,4.800323,-5.531384,4.1933594,15.510294
-8.548735,-1.6062961,-6.677306,1.7573678,-5.074094,1.3810064,0.8583381,0.7360567,1.208439,-4.0186753,5.6238613,10.00952
-6.034164,-1.9987725,-2.9487934,0.13478288,-5.4601603,-2.3488426,0.51850796,0.006900415,0.3588159,-2.9424431,2.543797,9.187884
-7.731636,-0.7463783,-3.9688058,0.010980248,-1.462386,2.1593018,0.44043016,-0.3528757,0.24185155,-6.4734416,-0.97980356,9.419317
-8.343009,1.7527844,-2.511303,-0.37366462,1.2269901,0.8530853,-0.12441647,-1.2604811,0.551339,-6.051511,-3.0099907,9.130829
-9.788214,2.5330944,1.4953358,-0.03263855,1.1637747,0.2897992,-0.30661577,-0.66128135,0.55282974,-4.871006,-7.340975,6.5246196
-7.3032045,3.0448399,3.491941,-0.17528091,0.9221015,-0.29520333,0.04084015,-1.3948278,0.65096545,-3.1947472,-7.779504,5.269412
2.199884,-2.073225,14.592313,1.9652414,1.9746712,-3.4219055,0.51746273,-3.7558217,5.7199426,0.051207066,-3.8195367,11.143667
-0.3630538,-1.2835374,12.670685,8.239847,5.4924364,18.281853,15.577941,-6.7951555,-4.380316,-0.8492594,3.0732365,-0.04791212
0.9686735,-1.5490799,7.22726,5.02221,1.1522282,15.264994,11.130928,-6.4480104,-5.72879,0.1034314,1.3857374,-0.21623652
1.0610971,-1.1957135,0.08495508,6.089299,-0.395427,9.474431,7.194159,-4.0583067,-6.2382994,1.737433,0.80494785,-0.5973612
1.0007862,-0.9838575,1.1715987,4.789669,-1.7728205,4.0051856,6.2367764,-1.6405989,-4.1777635,0.82390046,0.7043632,-0.4530766
0.10407281,-0.7891903,0.6037185,2.2270777,-4.5446916,-2.3768544,1.5866975,-0.44800377,-1.9871317,-0.007297039,0.48952484,-2.8114593
-14.663046,-3.5538445,-9.833616,-0.14180645,0.9068272,0.79279053,-1.3574533,-1.1524929,4.950014,-6.577761,3.551734,13.889693
-10.947939,-4.3192673,-10.189926,3.265718,-3.8359978,0.5101973,1.1393607,0.5799751,1.4111518,-8.6129,7.079524,10.340614
-9.686135,-3.524393,-5.4654074,-0.2817901,-4.2488046,1.274461,0.28688145,0.08476448,0.77884924,-7.2604127,2.515892,8.349169
-6.788054,-0.20606124,-3.1692965,0.15731311,-1.8624363,0.6101432,0.3618698,-0.8755913,0.6611507,-3.8909976,-0.8469167,9.077962
-9.996378,1.8902994,-1.7830906,-0.18502975,1.3977184,0.6197672,0.07562244,-0.809952,1.1209015,-7.680694,-4.9281034,6.269838
-11.499276,1.9716103,0.6466528,-0.31833386,1.4407811,0.4415207,0.003739953,-1.3107595,0.97637844,-7.6568556,-9.421371,6.895817
-7.1140594,4.2288904,1.8862429,-0.5044537,0.8883667,0.10285187,0.21843767,-1.3586693,0.9203259,-4.5635133,-7.5265255,4.470367
1.4944758,-1.2299348,14.132096,13.121563,-0.29899192,20.0,-2.6730652,-3.3892593,4.65304,-0.9636946,-3.9354658,11.024757
0.022148818,-1.4680033,11.890772,9.467536,3.5435824,19.882423,14.73949,-1.5213897,-7.7678394,-1.757321,2.8110657,-0.05699277
1.302471,-2.0669906,5.2750425,4.1162357,2.1191647,15.729963,9.169088,-6.53849,-2.9159207,1.3521593,1.65097,-0.6486623
1.3837639,-1.6360443,0.35527313,5.4773197,2.695323,12.373322,8.763245,-4.499975,-2.9818733,1.5061464,0.87564063,-0.47389865
0.532812,-0.36736435,1.2719336,5.396776,-1.4914086,6.9865384,6.782053,-2.5031807,-0.60834026,1.216071,0.9611943,-0.5688515
-0.3951006,-1.4142873,3.47641,1.2914519,-4.827879,-1.2572185,1.2039441,2.4490619,-8.017288,0.66904616,2.5773444,-6.286055
-16.072548,-5.795228,-10.849972,1.0190259,-4.2046914,-0.523666,-1.4306035,-2.2414522,4.6235347,-6.6717796,7.052295,16.541245
-7.4515834,-6.052396,-4.3294606,3.3424864,-7.4595146,2.7300992,0.15235877,1.008782,0.5924648,-2.139506,7.77507,10.276389
-9.22571,-3.8034635,-5.4453263,0.4133658,-4.1953897,-0.31237352,0.0539124,0.24210238,0.4562958,-4.5732484,4.5914392,8.31542
-6.782453,1.748295,-4.45751,-0.1943784,-3.6145825,2.0716283,0.35935485,-0.77255225,0.7982109,-5.1599874,-0.6875254,10.159338
-8.714283,1.4044507,-3.896316,-0.5993,1.3641346,1.2402256,0.19974494,-1.1522596,0.67383206,-7.8300204,-3.1272874,8.663576
-9.51654,1.9450269,-2.3601885,-0.3735404,1.1374738,0.8081634,0.049114063,-1.3410301,1.7716898,-8.462471,-4.647098,7.5923142
-7.852628,3.8394341,4.469533,-0.025172979,1.2097347,0.8594971,-0.14955354,-1.2736883,0.61411,-3.939415,-7.2911963,5.0389395
2.8381095,-2.3507469,13.200398,1.3673778,2.1696393,-3.3425493,-0.042469025,-2.6432948,4.2029266,0.3939762,-3.9379988,14.166634
-0.4149804,-1.3039818,13.846252,7.0171285,6.998227,17.42605,15.503899,-3.2077057,-3.1335237,-2.2275987,3.05512,-0.13469577
0.883235,-1.736964,6.9470844,5.578096,0.70089245,14.380228,9.350144,-4.398702,-6.842889,0.73349607,1.6190367,-0.64018273
1.2985438,-0.98866844,0.90286785,5.9031754,1.9751129,10.71719,8.343482,-4.0254006,-4.2315683,1.3868446,0.81228995,-0.26881963
0.8806485,-0.5021018,0.9763403,5.638428,-2.2467725,5.691526,6.108924,-1.3903177,-4.3264675,1.3868433,0.41302598,-0.07369733
0.5652559,0.022261858,0.6320299,3.265686,-2.6193485,3.1442184,5.0733137,-2.0552664,-1.7168633,0.945101,0.17329836,-0.5026448
-0.17242122,-0.7180064,2.7163,1.0752785,-5.1604004,-2.8393784,0.5660598,1.9466512,-7.6345825,1.6007534,2.9961205,-5.2810383
-13.061866,-1.7029185,-10.87831,0.28551129,-1.5773457,1.9899588,-0.24022102,-1.170958,5.9614663,-5.4549823,4.3332863,16.874388
-8.939272,-3.1512406,-6.5736003,1.3538738,-5.8268585,-2.2326617,0.5893922,0.80998784,0.38421386,-4.103828,5.5593853,11.306425
-8.08221,-1.5291612,-6.1367507,0.007019043,-5.711134,-4.9836483,0.4407599,-0.5589888,0.69035983,-4.2965326,3.838083,12.81741
-7.308885,0.89911044,-5.3546653,-1.7029644,-4.015757,-6.2267303,0.3452065,-0.8517747,1.1639118,-4.7727294,2.098401,11.966154
-9.719172,2.720566,-3.7127438,0.022228718,0.7073314,0.5320735,-0.022396088,-0.7680793,2.760382,-6.5560465,-3.5985382,10.5231905
-9.695221,0.99211276,-0.1754067,0.13959956,1.8265142,0.4304049,-0.10701254,-1.1089416,1.6649396,-6.314711,-5.084272,6.4117393
-8.005863,3.6373491,4.8319206,-0.25114828,1.1192578,0.093153596,0.13456678,-1.9223711,0.25991964,-4.61567,-8.514079,4.0172195
2.3636365,-2.1565788,15.563176,1.7006545,1.5928473,-3.4305172,0.5873194,-3.6016955,6.063971,0.04204321,-4.4180794,13.489866
-0.8801196,-1.2193956,11.907295,8.037158,3.942985,17.179491,15.65154,-6.4621124,-5.3356466,-1.4485266,3.3570938,-0.16047072
0.41705394,-1.7490702,7.8298182,6.20603,1.4630829,17.719364,13.24697,-8.527096,-5.3857203,-0.50955963,2.0227122,-0.5423999
1.482172,-1.6513212,2.0157816,5.2394595,0.57140493,9.7139435,7.3179226,-6.3686833,-4.775405,1.3367963,1.2376769,-0.55492675
1.4732724,-0.947049,0.80981326,5.24602,-2.4493432,6.049406,7.3194227,-2.6674895,-5.2984433,1.0466304,0.69909036,-0.35903502
0.34707046,-0.56976265,2.9946887,5.240706,-1.9659532,1.684171,6.800679,-1.1021369,-1.2252743,0.3255037,0.39209008,-0.87879086
-11.980375,-3.46614,-9.132048,1.0428879,-5.949283,-3.266631,-0.05243802,1.4392285,-4.356864,-7.8900714,1.2040346,14.068646
-14.211063,-5.9837556,-11.4027405,1.6607594,-4.8556333,-1.2191464,0.4261999,-0.19469881,3.6747355,-8.725248,5.0359287,13.310995
-7.593873,-2.4550512,-8.087078,1.298218,-4.5998793,1.0771314,0.8714831,0.8492148,2.3835123,-5.693513,6.338068,9.989743
-8.7451935,-3.659778,-7.0078764,-0.04926707,-5.5507574,-1.8474221,0.06765425,-0.28715992,0.78597254,-6.2991714,4.243474,9.849892
-7.271603,-0.7170681,-6.746089,-0.5570026,-6.467991,5.9872847,-0.24659014,-1.0546439,0.98960006,-7.143535,3.2373416,9.16885
-8.911266,2.4420743,-4.7291265,-0.49858952,1.5512555,1.7261727,0.7315047,-0.64666677,2.9299781,-8.099954,-5.8471284,9.13639
-9.715441,0.25932032,-0.90941644,0.005251169,1.3771366,0.58342576,-0.2336672,-1.3939593,1.2535409,-6.6245713,-4.606576,7.2991924
-10.220857,0.20059621,1.2451546,0.3055097,1.4634941,0.57143354,-0.2520895,-1.1549573,0.7427656,-4.9808717,-6.075945,6.5680757
0.99282616,0.4835441,4.823304,1.000917,0.7621622,-1.900137,0.6554203,-2.673657,3.4838781,-0.23184335,-1.9101231,3.3456376
1.3057227,-1.1791515,14.447848,1.2089624,3.0304453,-3.0584517,-1.2648163,-3.0862813,4.245957,0.4496703,-3.598096,9.97014
-0.24823904,-1.2779846,14.247052,8.557717,3.8195486,16.483055,14.136319,-4.849471,-5.36154,-1.5364897,2.1978774,-0.11016607
0.2516455,-1.5085716,10.972181,7.0593643,1.0803585,14.9758625,11.016771,-5.0167956,-6.527035,0.08337939,1.9699473,-0.4387189
1.1546347,-1.6662443,1.2688284,7.621276,1.7905318,10.643744,10.117727,-3.113049,-1.7080622,1.0480225,1.3042936,-0.6340728
1.842689,-1.6409729,0.508137,5.5739303,1.9463758,7.398258,7.9866853,-3.253305,-2.2861533,1.2166637,0.78696704,-0.376379
0.6511904,-0.8358902,2.492455,4.8689117,-2.324987,2.1344526,6.991731,-2.1437783,-1.2559007,0.60167456,1.3171585,-0.9657197
-9.863916,-2.8006284,-7.4141493,2.1849306,-1.9653659,2.016837,-1.1116118,2.0647612,-5.9679537,-10.417791,0.47084785,15.334858
-13.213986,-5.682616,-9.703678,1.7256808,-4.3762093,-1.613416,-0.21261787,-0.7603295,2.9894974,-6.077028,6.4136086,13.847112
-8.25255,-3.8472316,-6.482454,2.193694,-5.7876906,-2.7175703,1.0021422,0.6733115,0.9135212,-4.7315626,5.180836,10.447699
-7.853454,-0.25580585,-4.7919807,0.15034544,-5.305803,-6.581949,0.30280507,-0.3874538,0.25936687,-4.8436327,4.635568,10.668819
-8.542092,-0.16809404,-3.796735,-1.0058043,-3.9757,-2.319769,0.09160447,-0.7673197,0.54673266,-6.210513,-1.5885451,10.611803
-9.170007,2.0224633,-1.4884776,-0.17930412,-0.88247836,3.0729685,0.39827335,-0.49609566,3.1519718,-5.2546635,-7.8128867,9.869354
-12.4131155,2.7553039,-1.1823379,0.041291237,1.8985102,0.86103773,-0.2719814,-1.0422959,1.5872669,-7.333317,-6.339038,10.221074
-10.016646,1.3871197,2.7148633,-0.03736484,1.4988654,0.33755016,0.080622435,-1.0219445,1.9957772,-5.8915935,-8.162434,6.892649
-0.65881467,4.3168,-8.728676,0.09557009,1.1576209,-1.0252817,0.7715988,-2.3310757,2.3805823,0.12972009,-8.83672,-0.5182564
-5.2864394,0.2120142,16.201708,7.8909206,-0.5191493,20.0,13.073943,-2.9714348,-5.6616936,0.39514065,1.9537375,2.7522144
0.72144145,-1.6069331,11.368802,5.8953466,4.291527,16.49433,11.431037,-6.2401085,-6.281109,-0.25113213,1.7393451,-0.23957926
0.6668011,-1.3604276,3.6127064,6.712401,0.6325402,10.989511,7.4179535,-4.0843997,-5.9867473,1.3848591,1.4359622,-0.7113017
1.5501845,-1.5464866,0.6877389,4.5141077,0.3668691,6.8274894,6.7967753,-3.1518254,-2.6052618,1.0618274,0.78575015,-0.30472612
1.0558212,-0.82622004,2.1900177,2.88527,-4.84618,1.1013662,5.4728036,-1.1209062,-2.0102615,0.51135755,0.46930838,-0.94993687
0.5076487,-0.4643216,2.3187149,2.072943,-5.3064823,-1.8637011,2.0148883,-0.39607215,-0.9628969,0.46476912,0.6167865,-1.6006565
-12.668376,-7.1586013,-7.4253845,-0.9663483,-0.77896285,0.5453048,-0.0861001,-1.4836414,6.2844343,-10.267312,-5.644397,17.80178
-8.7557535,-2.9291704,-8.475475,3.9895449,-4.394454,5.068692,1.3153787,0.7807493,3.4131274,-2.69951,7.508956,12.405162
-8.875593,-3.5556724,-6.59753,2.2392967,-3.8701463,1.3011127,0.16910374,0.83769476,1.9013616,-2.6226301,6.186798,9.185926
-7.5628715,-1.9930073,-5.8267345,0.39626515,-3.4921117,-1.9294353,0.4012245,0.113185406,1.5062315,-3.5048697,4.166753,12.27672
-7.7677956,-0.13848197,-5.92759,0.16195643,-1.7973864,1.5476242,-0.036503077,-0.89434695,1.7643228,-4.496046,0.41178226,10.220994
-8.39627,2.0376158,-6.355543,-0.41461658,1.1962216,1.388782,0.2437365,-1.0848207,2.1976848,-8.183819,-1.5579723,8.077282
-8.697961,1.6541162,-0.18984306,-0.23107803,0.73523414,0.61824226,0.244874,-0.7032695,2.7924104,-6.313663,-7.4275947,5.2543488
-7.534994,3.547943,2.5614867,0.11991975,1.4909389,0.15070629,0.08359051,-1.623579,1.2178209,-3.3498263,-9.6379,3.1598787
1.2632864,1.3369548,0.7060313,1.2391901,0.80944955,-1.861434,0.89769745,-3.7563841,4.5439353,-0.33817363,-2.146585,6.0573106
-4.9229813,-0.645751,15.229246,7.264208,-0.042760372,20.0,15.522274,-3.6291,-7.5847096,0.45258808,2.6319878,1.3884344
-0.42938358,-1.2894936,12.029155,6.1579933,5.861661,16.679386,14.736544,-4.9501524,-4.1116605,-1.8993297,2.280591,0.22501802
0.89730453,-1.8583698,4.1942744,5.807781,2.3536463,12.656728,8.500551,-5.4768853,-4.3791466,0.79001606,1.5099654,-0.7755358
0.62385917,-2.55333,3.9328504,3.6138344,0.07466948,6.0865774,6.1629796,-3.07858,-0.4738649,0.69292045,3.5720391,-1.9572868
1.3772471,-2.280577,3.0382905,2.465269,-2.648903,1.6114277,4.735074,-0.20077348,-0.6224508,0.48650563,1.3104515,-1.535151
-0.21523333,-1.729599,1.8012798,-0.06110385,-5.810059,-2.0947793,0.99970555,2.1253037,-8.963686,0.61607766,1.9061527,-5.3566656
-15.068875,-4.64954,-11.154032,0.6790712,-4.5819693,-1.5159854,-0.72649527,-1.342186,2.8912776,-8.093017,5.794035,15.065124
-11.783316,-3.4490616,-9.880041,0.56890416,-4.677715,0.82105947,0.5992093,-0.2754047,3.3194253,-8.280546,3.207155,12.364108
-8.090107,-1.4963415,-7.131748,1.1752474,-5.160042,-1.2018722,1.390115,0.4218552,3.2948663,-6.2582784,2.118959,10.790051
-7.6952357,-2.215694,-5.4102387,-0.52187145,-5.7367053,-3.7555676,0.34474945,-0.09977138,0.43800074,-5.4352803,3.5216584,7.8044095
-7.9282722,-0.9552113,-5.872068,-1.1886905,-5.17265,-3.8088012,0.43139672,-0.24582124,0.9623695,-6.8444567,2.9772186,9.69468
-8.429929,2.4235356,-6.22238,-0.17017257,-0.07465112,1.3771946,0.20767236,-0.8876231,1.6440778,-7.966186,-0.20221496,9.452424
-8.591642,0.7058631,-3.9394703,-0.28517032,1.0191312,1.5143967,0.1515379,-0.7809694,1.5787996,-7.922199,-1.0202241,7.687801
-10.829141,-0.39662248,-1.16352,0.14989185,1.3210311,0.60995245,0.22942606,-0.82155466,1.966468,-7.851883,-7.146444,6.115044
-9.92922,3.0793986,-0.22544885,-0.09489083,1.1348335,0.8586302,0.06439972,-1.2740788,1.309684,-6.9392204,-6.208343,7.7045536
-8.855586,2.0384476,4.787323,0.14614367,1.2585399,0.36365557,-0.09383607,-1.7177129,0.32221317,-4.0708256,-7.6969895,4.6930056
10.721825,-3.3203998,18.159248,7.3371267,-3.9142885,15.392375,12.618525,-6.1605287,-6.874686,2.761525,-5.054992,-8.092352
-0.76413584,-0.6765249,14.102085,10.973534,2.3783073,20.0,-5.5984917,-0.88600826,1.9038168,-0.53371954,-0.70323217,6.977667
-0.9226109,-1.7169585,8.187731,6.9933496,1.6957064,19.495955,12.588995,-5.7432494,-4.5089703,-0.48656946,2.5399625,-0.44290394
1.3483374,-1.1317067,1.7407458,5.7201266,4.418788,13.85772,10.098421,-4.912979,-3.246475,0.83228946,0.81852627,0.08418977
1.7092937,-1.7210531,0.37097752,4.0951114,0.47071123,10.601426,7.213813,-3.5433607,-4.962782,1.2504888,0.79463506,-0.6518012
1.066195,0.09464097,0.88291085,4.9562345,-1.4657768,6.7667513,6.815034,-1.1926119,-1.935407,0.8944973,0.1305598,0.016380668
0.93661517,-0.48362428,1.4682043,2.4355192,-2.3234377,3.1462746,6.7044177,-0.35410786,-0.090164214,-0.06693804,0.5472996,-0.86872125
-9.0071335,-3.176458,-8.168983,0.19173692,-2.328609,-2.4846098,0.4126531,2.4598842,-6.537658,-8.7114105,2.8978326,13.526376
-13.633021,-3.809473,-11.38057,2.4827476,-3.9615233,-1.099431,0.030615807,-0.5675633,4.6346035,-6.956469,7.182185,15.605598
-11.025863,-6.2828712,-8.574489,2.5811954,-5.9812403,0.15071571,0.7369232,0.5393307,2.5217288,-5.5190673,7.096671,11.701029
-6.7936087,-2.5358286,-4.927517,1.2975118,-6.373911,-2.7107882,0.59252346,0.4605875,0.29478335,-2.4803088,6.165765,9.989254
-8.139045,-2.0218287,-4.5056305,0.44246858,-6.1072383,-5.1732783,0.2997296,-0.00762403,0.28547087,-4.076092,3.6205997,9.75338
-7.6997824,2.0877292,-4.7867556,-1.2245679,-3.5770109,-4.6193204,0.2519362,-0.65869856,1.508336,-4.072198,0.4371724,12.091882
-9.480681,1.2247097,-4.5667105,-2.701952,-0.26687837,-6.3006797,-1.2181408,3.0173826,1.64598,-8.638233,-3.6541646,8.475051
-8.789906,-0.026659966,-1.1900897,0.04498911,1.8648713,1.2962201,0.20794308,-1.0655937,1.3482746,-6.747085,-4.4373627,5.6624565
-10.392002,2.750789,1.2935071,0.11118674,-0.8834727,0.9195819,1.4179732,1.2056966,1.5864803,-5.8503103,-7.4113674,7.303892
3.996691,1.3922024,15.323707,9.210944,0.7683017,9.524627,11.874686,-5.8262973,-8.273977,4.4649467,-0.9050508,-4.5062933
0.64918995,-1.3243906,14.837156,0.3166647,2.7005248,-3.5313988,-1.9020948,-2.383501,2.7657223,-0.5559821,-2.1450489,9.821643
-2.1032338,3.3521533,8.855703,7.189872,0.9676511,14.781498,11.959843,-6.0419936,-3.8660767,-1.6822548,-3.3006182,2.5388217
1.372963,-1.8897388,4.7819724,5.4374037,-1.005978,9.584952,8.744609,-4.0973177,-4.354303,0.8343295,1.7129459,-0.68197787
1.5194564,-1.4304354,0.5899602,6.673914,-1.0890512,7.92459,9.360744,-3.2804759,-5.257392,1.14529,1.1738973,-0.5682869
0.8013581,-0.7063545,1.4432027,3.7344272,-2.815802,0.1373229,5.9456587,-2.6485887,-1.9883968,0.47265816,-0.019029617,-0.0859375
-0.26092887,-0.42587852,1.3718216,0.8869097,-6.2564325,-3.4798315,0.8505508,1.0826879,-4.393667,0.9171438,1.6615353,-3.354988
-15.014585,-3.7565236,-10.827231,0.74942505,-3.4538674,0.21146357,-1.5422716,-1.50733,3.7314105,-6.7651033,7.695139,16.064342
-12.684118,-2.6822712,-9.645908,2.6917756,-5.504205,-0.53194094,0.67406225,0.016976595,3.9530082,-6.792321,9.082424,13.443375
-11.60238,-6.0042605,-8.002768,0.7334708,-5.905142,-2.3530412,0.7744832,0.9158075,1.460284,-7.597416,5.1085777,11.187477
-7.3343616,-0.19571114,-4.2902427,0.10847825,-5.961111,-1.4645735,0.5975628,0.043874204,1.7540373,-4.320431,1.0539782,11.868408
-6.7646313,1.3034095,-3.4652374,-0.37222186,-5.612611,0.84489655,0.19853997,-0.68525577,1.3203858,-4.5594068,1.9092499,11.143915
-8.070241,1.4251195,-2.156629,-1.0256134,-4.759403,3.7592473,-0.3541746,-0.81158805,1.195671,-5.4800167,-0.123060465,12.159566
-9.883599,2.5604448,-1.0910064,0.22044992,1.4408787,1.4195223,0.3366009,-0.7612791,2.663453,-6.213064,-4.2766423,9.691425
-11.285,2.564803,3.2097545,-0.14603162,1.6257529,0.6574905,-0.2512834,-1.663651,1.1708232,-7.3893795,-6.45008,8.142898
-0.6750546,4.770566,-11.063109,0.30214977,1.4211755,-1.2453558,0.35888386,-2.5004907,2.6787047,1.0220153,-5.8890133,-1.515863
2.9793696,-2.0783176,13.154433,1.3807125,2.5083761,-3.2737408,0.086411476,-3.4880729,4.834359,0.62232876,-3.5520763,13.357147
-0.7767942,-0.8635254,14.303305,6.5938473,4.9848633,17.620052,15.756799,-6.1576295,-3.729597,-2.0089412,2.9627714,-0.047730446
-0.64125323,0.74262905,2.6973407,5.4581327,2.6970818,12.699229,8.652501,-8.155155,-2.832125,-1.6819434,-1.7657604,2.3591676
0.21120882,-0.98123026,-4.776427,4.669847,-0.0671612,6.505999,8.563547,-3.7744637,-2.9094133,-0.07239246,3.9356513,4.0172114
1.0199783,-1.0352069,1.4520329,3.9335313,-4.359638,3.6852665,6.9907074,-2.6797245,-0.2571099,0.9448497,0.97523546,-1.5189848
-13.336701,-3.624748,-8.888665,0.6787641,-6.03898,-1.688014,-5.846834,-5.405129,6.2689314,-3.5534654,8.755928,16.397955
-10.970312,-2.7216866,-8.09622,1.047725,-5.218805,-2.2738261,0.0934968,0.26946592,4.003602,-4.237418,4.9946136,13.202198
-7.3303537,-3.3268573,-5.431771,1.8417021,-6.7023525,-1.3981307,0.9822631,1.081729,0.58481675,-2.127748,5.652639,12.344937
-6.7405696,-1.1897795,-4.0574365,0.07387984,-5.931614,1.2645369,0.18322039,-0.66696393,0.055327192,-4.4673405,0.73915005,9.799355
-6.473879,0.12737548,-3.9098935,-0.9310521,-6.52196,3.9900458,0.1586659,-0.539428,1.1263802,-4.430867,-0.16333377,9.852963
-9.33791,0.9809431,-3.2568607,-0.16343117,1.2878901,2.0305352,0.093604684,-1.3258903,2.67221,-6.5532155,-4.4654126,9.763649
-9.648941,3.087823,-1.5637708,-0.009135008,1.8488742,0.7820606,0.105080485,-1.2339277,1.7043347,-6.6199894,-7.024685,8.46891
-8.611829,3.6300924,3.7382174,0.027169943,1.5677774,0.6702845,0.17458797,-1.6421208,1.3523668,-4.133203,-7.1565385,7.309066
-3.9603965,3.45651,2.7324848,-0.24404478,0.80946803,-0.83055186,0.55925465,-1.9285724,1.6554344,-0.9174626,-6.2640085,4.4519677
-1.0839944,-0.12352443,14.260921,7.6094074,-1.1510918,19.695366,-3.7990408,1.0204916,-0.09423864,-3.2152138,-0.43291187,3.0854993
0.9116478,-1.5357885,5.981204,5.806215,0.20062137,15.336378,11.238223,-6.5989494,-6.0795817,0.4362589,1.973741,-0.55991524
1.3326128,-1.471086,3.6588864,4.4406133,0.2777468,11.509237,7.628655,-5.8310833,-7.3061943,1.2118145,1.4673183,-0.56945145
1.6303657,-1.5420308,0.723073,6.37101,-1.0346292,8.158035,8.594633,-3.3938148,-3.7018065,1.7301638,0.38827217,0.0062692165
0.9222436,-0.6616132,1.0717857,3.203662,-3.650535,1.4463099,6.007697,-1.8951875,-2.326534,0.46793628,0.37962437,-1.3230875
-13.8296795,-1.9535172,-11.892509,0.54803324,-1.6356828,1.5683746,-0.21796632,1.5667188,-4.6349497,-11.195256,-1.6281877,17.350342
-13.390691,-4.5284047,-11.765435,0.7406945,-2.660565,-0.15304065,-0.015454769,-0.39950013,2.8392754,-8.893912,5.7483196,11.255542
-8.961229,-4.026817,-4.4185495,0.26809895,-6.658729,0.14108944,0.5771551,0.77054703,1.1714653,-3.3814206,4.228751,9.949628
-7.7023654,-2.3017774,-4.8568406,-0.004450977,-4.211056,1.4689367,0.2548256,-0.13656914,0.20762995,-5.800684,2.486708,10.037445
-6.735259,0.4099859,-2.7153063,-0.3264413,-1.7840854,1.7100832,0.41438532,-0.42925572,0.91897243,-5.09885,-1.614185,7.364449
-10.112497,3.061894,-1.9998434,-0.9171057,1.2548723,1.3092089,0.20303625,-0.7967205,2.382009,-9.342052,-7.6745114,5.842853
-8.6792145,1.3725448,1.8135173,0.18125093,1.162836,0.7855923,0.010841608,-1.0844302,1.2252337,-5.1371417,-5.758831,6.2407904
-8.413882,3.383132,4.780426,-0.2954811,1.0132235,0.76789093,0.22810173,-1.5543375,0.61321306,-4.4120674,-6.3351474,7.366372
2.1721005,-1.514579,13.939919,1.713963,1.1505594,-3.0719414,0.5737877,-4.0948725,7.775963,-1.632618,-5.5922394,17.424671
-0.24105453,-1.1198835,12.932415,7.623295,4.3145094,19.459257,17.035507,-2.8058941,-11.700642,-2.047114,3.434379,0.753829
1.0505356,-1.6793604,5.2697945,5.543845,2.2392566,14.836982,9.093153,-5.169724,-6.8014107,0.58149815,1.4456022,-0.49883312
1.6100662,-1.4706514,0.31014848,5.2638,1.3196875,12.898767,9.474664,-4.768935,-2.7752583,1.2578636,0.91843355,-0.6088214
1.4508722,-1.1183519,0.30176175,2.9918675,-1.5647846,10.215822,7.852718,-5.0708904,-3.3800585,0.8986043,0.53348505,-0.5846417
0.8870946,-0.32715964,0.8858626,0.6932816,-3.005678,1.8455781,4.9862266,-1.417141,-0.69055116,0.035094023,0.6640339,-2.449157
-16.557766,-1.5430622,-9.059856,0.5292778,0.4489441,-0.07708049,-2.099189,0.83297634,-3.3701909,-5.285149,0.9215541,14.831465
-11.816004,-2.7949185,-8.975041,1.7356738,-5.612864,3.407698,0.94829226,-0.14549088,2.5993893,-7.8676443,4.3904915,10.405228
-7.90247,-2.6140842,-4.6796737,-0.07858139,-4.825634,-1.3082613,0.86825085,0.6131578,1.2539752,-4.302203,0.5718869,9.991428
-7.4529557,-0.6260991,-4.0075464,-0.3152642,-4.164872,-3.133215,0.14799702,-0.47343802,0.7499079,-4.6582527,2.3928444,7.268683
-8.655776,2.914021,-3.4999015,-0.6384571,1.0339592,0.13996017,0.115258574,-0.94766665,0.3426829,-8.009927,-2.2933707,8.036965
-9.038325,-0.67041636,-1.6596808,-0.35778058,1.0273225,0.55348897,-0.061959922,-0.99911976,0.27659938,-8.051051,-2.8895874,5.6376905
-12.238259,1.0566275,-1.259294,-0.16404974,0.63966155,0.7325902,-0.5555423,-0.93512344,0.5214116,-9.271959,-5.3237095,5.7252955
-7.9484735,3.3871574,2.133409,-0.053711236,1.5516415,0.2592032,0.07731962,-1.2595458,0.4656805,-3.8994446,-10.5563,3.7575095
1.9555721,-1.801041,14.375719,1.7751417,2.5044904,-3.3545904,-0.28302574,-2.8220096,3.9306116,-0.1214056,-3.5576277,14.201958
-0.721066,-0.9534645,12.297655,7.0619607,5.2422705,19.627232,14.879615,-7.538002,-4.2405467,-1.8128356,2.4146657,-0.143085
0.7824882,-1.4712257,5.955329,5.8192754,1.3608689,12.42098,9.353239,-4.2631893,-4.882615,0.4159845,1.529551,-0.5108261
1.9023373,-1.5957079,0.2922054,7.1568656,1.324527,7.9146776,7.414724,-2.5932934,-5.492876,1.7473774,1.0990639,-0.4708699
0.9122008,-1.0405849,1.9466372,5.7131715,-1.7103733,5.5485406,7.338485,-3.0097432,-4.667762,0.99028134,0.36826885,-0.22111571
0.605566,-1.0051671,4.1804323,3.0826988,-6.059311,-2.5765927,4.354922,-0.65848863,0.054318786,0.49358034,1.3691759,-1.8433805
-11.999398,-6.411815,-9.261952,-0.8831619,-1.0334988,1.1085794,-0.94185925,1.0830135,-6.0782104,-9.289983,2.2949684,14.998145
-8.261897,-3.0063744,-8.49815,3.6916156,-4.3054447,2.8529902,1.7051475,0.42641163,3.3133247,-3.7795112,6.007724,12.425897
-9.27384,-5.705382,-7.576893,2.428548,-4.9610553,1.6000577,0.91151595,0.9734266,1.0004671,-4.7952943,7.5467234,8.918644
-6.7530375,-0.87618744,-5.5439854,0.8427433,-4.720352,-1.1522982,0.25341284,-0.122813225,0.33647355,-2.3577702,6.228877,11.757208
-8.102988,-1.0222139,-5.7767844,-0.018502831,-1.4816787,2.59313,0.15294814,-0.6429398,1.4196173,-6.1849213,0.8629985,9.915962
-8.2555065,0.6996729,-4.768606,-0.12140226,0.95788205,1.0571101,0.051320434,-1.2125976,0.40822744,-8.038406,0.23441148,7.9275556
