ancorasir/BennettWheelLegRL/experiment_data/2023-12-27_22-40-32/joint_vel_env0.csv
Joint_1,Joint_2,Joint_3,Joint_4,Joint_5,Joint_6,Joint_7,Joint_8,Joint_9,Joint_10,Joint_11,Joint_12
-0.07531583,0.045743555,-0.103867486,0.03260152,-0.06096097,0.052885998,0.12904134,0.25897452,-0.42407912,-0.034173723,-0.25575155,0.32078663
0.0,0.0,0.0,0.0,0.0,0.0,0.0,0.0,0.0,0.0,0.0,0.0
0.21195672,-1.3084807,7.963517,-0.18668473,3.1902719,-16.580753,-1.1074784,-3.1453018,12.935915,-1.2067465,5.632464,-22.042511
5.7606807,11.5736,2.8879874,3.1972785,7.0665073,-3.7891614,-1.2428914,-6.720236,3.9223816,-1.0594072,-12.75294,-16.283903
4.006915,10.657965,4.325863,1.9163419,3.5026734,0.9682237,3.2130392,-1.5236986,1.7700979,3.472618,-21.19389,-7.3666105
3.5482666,6.50371,2.6190963,2.0654175,0.5201937,3.399505,3.3393211,-3.410688,4.69366,4.533166,-18.368004,-1.5473453
0.37909558,0.78633195,2.2748685,5.2010674,-2.207074,4.42576,2.3843708,-8.937512,16.52819,-0.12358092,-5.075073,4.0746465
-2.2651415,-7.7543297,15.937507,6.615851,-6.049992,8.919142,-3.4819298,-16.955698,46.731316,-8.991565,5.1455817,5.50334
-5.2917886,-21.809017,42.073055,9.771028,-13.032258,18.832623,-7.1503687,-15.503471,42.166084,-13.78021,17.97872,17.34324
-2.5714996,0.24002719,3.981028,-8.984007,11.312131,-14.561507,-4.653847,-4.948212,24.619757,-5.9067388,21.585342,17.503536
2.7964199,-0.5255718,4.3944325,-1.4407781,2.8555756,-4.014262,-10.58024,-6.958063,-0.01988646,6.382446,4.0656204,-14.065347
4.8881373,-2.0518336,5.139801,1.2604681,1.6887919,-1.3083276,-6.6443257,-4.0138984,-0.0074111335,1.6049013,2.773621,-7.5229955
2.3145356,-1.6311268,3.0722117,0.66201603,1.6860887,-0.324754,-3.684708,-3.3133361,-0.004756244,-1.1228213,1.7609613,1.1290033
0.86848277,-1.217295,0.6458968,1.7346301,0.035863575,2.4249377,-3.1253338,-2.054753,-0.07409687,-3.207328,12.212576,2.0481906
-0.7749797,-1.7106788,0.36265385,0.17558914,0.13829224,2.3865852,-4.206677,0.08643059,0.3416736,-3.1269052,9.401126,3.855967
-1.3083265,-2.2763383,0.4257019,-0.36208278,0.29357475,2.4146118,-5.482051,1.3745759,-0.008104529,-1.3892623,4.754506,4.7657156
-1.2485957,-2.524284,0.4565793,-0.19802429,-0.0794348,2.8435547,-5.2285957,1.9616656,-0.0045925565,0.3349652,0.40628296,2.212693
-1.2138696,-2.5554204,0.14725223,0.06998825,-0.041450024,1.9267361,-3.996761,3.5911129,-0.05843275,0.5997046,1.0736173,1.4502152
-1.403295,-2.083751,-0.8625095,-2.9818857,-3.1013372,0.27254438,-3.817127,3.74825,-0.010095529,0.24431345,0.95206845,1.6287315
-0.6747668,-2.193739,-0.9598685,-5.3052864,-2.0673883,-2.1741118,-4.5176454,4.994124,-0.011387518,-0.7007427,0.53981644,2.5479827
0.3093576,-2.2474391,-0.8123128,-6.5442967,-0.55427974,-5.5766253,-3.9905274,5.729497,0.0042786766,-1.8084755,-0.0051533543,3.5528183
-0.2686984,-1.6002201,-2.3373623,-5.193326,-5.178315,-6.653827,0.32141453,8.467846,-0.0030624368,-2.439608,-0.548157,4.688037
-0.36862534,-1.9538337,-2.2732227,-2.2708375,-7.6895123,-4.7268896,6.0883946,11.893516,-0.0016205771,-2.8864677,-0.86737114,5.7614555
-1.6150703,-3.6394413,-0.6591751,5.875107,-8.194317,2.5337387e-05,14.587152,9.742632,-2.3647099,-2.7202036,-0.94648683,3.7437007
20.879257,-8.984639,-0.00041813683,21.112066,-4.4207497,19.248156,23.659033,-8.014513,0.80279404,3.468507,-6.502282,17.754105
3.3581502,15.121854,-0.0003829499,-2.5318093,6.3560524,-3.5372508,2.6381948,-2.0800169,-1.9103019,7.232988,-12.587872,-13.0204115
-5.4938235,11.990995,-0.00015166512,-0.3547822,3.8787262,-0.10042281,0.6780974,-1.833715,-1.5016257,-4.5139513,-12.449053,2.467774
-4.2448344,4.9369707,-0.7262622,0.8918473,2.9909682,1.5325404,-1.2235653,-2.5557816,-0.30675614,-3.627526,-2.329822,4.0944886
-5.593112,-6.2660604,-2.2570872,1.6836587,1.2766685,3.066061,-2.2931988,-2.828847,0.75132155,-2.0606987,9.708559,7.078224
-7.3974195,-9.445392,-2.9354138,1.6689001,0.8636831,3.198346,1.4088972,-6.4332914,-0.114783525,-4.5850644,13.483121,4.8031926
3.1782384,-5.066413,5.2710733,-2.209977,-4.9276795,-3.1781132,0.96877193,-1.7643785,-0.13521698,1.7339777,5.4864354,-6.871651
0.33079344,-5.2778597,3.116966,0.09949355,-0.45859876,1.0617089,-11.289943,-4.5588293,0.0023382357,1.2423418,5.1766443,-2.0055192
0.51059204,-4.9974713,1.9963495,-0.8094046,4.8289027,-0.038668558,-7.9477153,-2.5789568,-0.015679907,0.35595435,4.7034273,-0.99929446
-0.52670586,-3.6267612,-0.24657518,-0.017432846,2.0034108,3.177782,-4.1699524,1.4530042,0.0051829657,-0.031175993,3.2320793,0.395125
0.2800355,-3.5405066,-0.39455718,1.157588,2.678443,6.7193117,-3.5251505,1.6213595,0.024577033,-0.7799396,2.84906,1.1893517
0.27942172,-3.376845,-0.87363017,-3.404042,-4.338801,-2.897896,-3.7741938,4.9611163,-0.00033514202,-0.5534389,2.7391405,1.3840178
0.77190405,-2.958888,-1.4705533,-1.9350176,-2.4572322,-3.747224,-2.7900803,6.0271025,0.008905974,-1.2421,2.0583894,2.6227238
0.8208503,-2.7304,-1.8348643,-3.4367855,-4.6435494,-2.686293,-0.2506179,8.495638,0.0016131431,-1.4988735,1.7145636,3.010657
-0.39200157,-1.188374,-3.5348494,-2.538267,-4.7766314,-5.5629735,3.8523147,9.934464,6.221258e-05,-1.4247484,0.94887257,3.9650178
-0.32322747,-1.256447,-4.7350407,0.67012554,-4.800491,-4.113538,8.332772,7.2984633,-0.7293626,-2.19343,0.34518093,4.6696467
16.56291,-1.3572788,-0.00035333,15.657945,-1.090951,21.424698,21.339296,-11.652472,0.5196578,2.1984453,-10.652854,13.762139
1.5386763,13.287322,-0.00036241522,-1.0879579,7.875706,-8.137748,-1.7436694,-2.422087,0.8086926,3.2560792,-11.270453,-6.4458194
-5.6090107,10.817164,-0.0001465138,0.33378422,4.1089206,0.445252,0.7192841,-1.760196,-1.9107618,-1.6527598,-7.8762054,0.74957585
-3.3308504,3.527406,-5.9616164e-06,0.3593971,2.7702894,2.1555817,-0.18428007,-1.8953466,-1.7572432,-2.3549657,-5.2735043,2.0907857
-3.0204403,-2.4507072,-2.4076464,0.3732346,2.5764787,2.3747745,-0.34284493,-2.535373,-0.7978723,-3.5286164,5.5312786,6.3097577
4.29262,-6.4305596,7.344885,-1.1203389,-3.1424994,-3.7142625,-1.810775,-4.087817,-4.3481674,4.598785,8.371533,-14.1715
0.21953934,-4.7086277,2.5501387,-0.9815687,4.550201,0.00883661,-7.3138905,-3.3033385,-0.0056825806,1.5635214,5.1271863,-2.7277758
0.15216294,-3.6980298,0.3389946,0.95492446,1.1315343,3.4101276,-3.7978466,-4.7045364,-0.015014378,-1.0599157,2.9442701,1.3432993
-0.57899296,-3.4774055,-0.67702824,0.8718338,0.41114295,4.226054,-3.256397,1.8572916,-0.0098971985,-0.42989105,2.976141,1.2704237
-0.018979354,-3.5478923,-0.7277354,-2.768933,-5.3578544,-2.7433314,-3.9641953,6.4632974,0.00058157276,-0.41671485,2.8195539,1.4577532
0.7798268,-3.124341,-1.5410558,-4.1755824,-2.7311554,-3.2841003,-1.4380066,8.002979,0.0014820555,-1.3173398,2.0986428,2.8140512
-0.32981026,-1.679629,-3.1315274,-3.3854065,-6.353085,-5.4698305,3.3321836,10.982514,0.00042247993,-1.4384283,1.0410744,3.6970668
-0.999457,5.1336737,2.6472254,7.6278014,-4.5883164,4.213372,18.326803,2.4178088,-3.3982692,-2.0260565,0.41260344,4.55806
5.7931004,10.247108,-0.00038761675,-2.5041156,7.6137547,-9.50186,-6.6832266,-7.2254767,10.954655,12.158095,-14.955787,-10.086959
-1.4451267,10.193425,-0.00028150552,-0.38074228,4.7451496,-0.70830375,0.63664883,-2.634091,-0.9795164,-0.54322284,-9.135843,-1.2439392
-3.3737118,6.970633,-9.311977e-05,-0.08331652,3.8427906,0.8446781,0.3328404,-2.3950717,-1.6555653,-3.199677,-8.052476,0.2700145
-2.8150756,0.5460453,-1.644169,0.92420655,2.6289518,2.3184574,-0.8223023,-2.4653006,-1.2517878,-3.418711,-1.9201587,2.7357862
-4.0638885,-5.170152,-1.5881715,0.5476662,2.1292553,2.7569897,-0.97957265,-2.708131,-0.62693214,-3.3641508,9.66856,5.5432544
1.1710315,-4.7463136,4.6323996,1.0858295,0.4337585,-2.1611094,3.1976178,-4.298978,-2.8108017,3.997795,5.9798603,-8.703404
0.5897714,-4.7231245,2.7206879,0.29230338,1.3144151,3.2490819,-7.8525105,-6.811984,-0.009536771,1.1592116,4.961551,-2.7680612
0.090532996,-4.195465,0.92907387,1.4616636,0.022414394,4.7535796,-3.6724203,-1.0438576,-0.0072403317,0.1225757,4.175695,-0.34111932
-0.12118709,-4.336102,0.6846663,1.2884105,-0.08707625,4.968807,-3.854163,2.7423952,0.003888666,0.32252792,4.13967,-0.19607106
-0.6566336,-3.1034727,-1.0621753,-0.18771246,-4.0934114,3.1045425,-3.1217067,5.199872,0.0038419296,0.10694052,3.1715,0.88097405
0.4894554,-3.3216076,-1.3908683,-3.0371914,-3.7736204,-4.7956395,-3.2909377,7.3629,-0.00019019435,-0.9272852,2.3838747,2.532894
0.48358876,-2.458299,-2.3722355,-4.301916,-6.770868,-4.907608,0.13114081,9.243711,0.00041306895,-1.4560288,1.3889091,3.5619228
-1.5405133,-2.5253663,-0.29045475,1.081339,-6.2522573,-5.418694,10.748793,9.23773,-1.057725,-1.8615876,0.03291908,5.242631
0.3311913,4.284832,-0.00015566198,11.091413,-2.7828662,7.0903573,21.048529,-1.2832919,-4.3646255,-0.039225757,-0.22239146,-0.19209279
6.029719,8.820492,-0.000420023,-0.9951978,7.266117,-4.6562386,-0.94166696,-3.8354251,1.4433228,8.062257,-11.950903,-7.8588624
-1.1218023,11.532434,-0.00024026865,-0.16658524,5.848644,-1.8197923,-0.20457599,-2.8611577,0.027683936,1.638558,-14.210433,0.6038664
-3.457769,9.678625,-0.00014888687,-0.10101065,4.477937,0.060670927,-0.09445034,-2.5618136,-1.1133065,-3.5825791,-10.4272995,0.8827508
-1.8722513,5.1040864,-8.350766e-06,0.3190754,3.6178977,1.6664068,-0.3680543,-2.5302417,-1.1364993,-3.38229,-4.229345,0.19714016
-1.3254238,1.1799899,-1.1747038,0.07981523,3.0354,2.147946,-0.2774029,-2.377329,-1.5192876,-3.8644712,-1.3507292,2.6489363
-4.450774,-4.5831895,-1.1080017,0.49788857,1.4112641,3.5487602,0.49313807,-2.4503517,-0.8475228,-4.240677,12.408526,8.529421
3.1223617,-6.0636797,6.1971893,0.7501916,-1.1140375,-1.5503939,-2.2351933,-9.724967,18.36206,1.5121374,5.860885,-5.8027053
0.7323539,-5.0534368,3.2894306,0.09096664,2.335082,2.7933097,-6.331989,-7.2606134,-0.009623388,1.0872883,5.320034,-2.8099406
-0.42934018,-4.2829304,1.2607269,0.8051233,0.25234675,4.475888,-5.327693,-3.1848686,-0.0012563579,0.37792376,4.372377,-0.76588905
-0.05743632,-4.6210866,1.2491485,0.7163414,0.29241136,4.4047594,-6.6215363,2.6687844,-0.0015047872,-0.05833675,4.0687933,-0.10724117
0.22712275,-4.2381926,0.45122656,1.8571205,-0.40887251,5.9147725,-1.8874247,3.29754,0.37954324,-0.5107371,3.3513162,0.9009962
0.09078708,-3.101535,-0.84889865,3.3174133,0.6182103,10.036401,-3.2995026,4.6707783,0.054574627,-0.5663686,2.9192166,0.8599835
0.24530946,-2.6652248,-1.8902258,-5.9008765,-4.8443913,-6.939188,-3.6108847,6.8299565,-0.0031379685,-1.24536,1.8435949,2.874163
-0.24756965,-1.9170206,-2.8349159,-5.111758,-5.314058,-6.825896,-0.71870387,9.1237335,0.0066158725,-1.2211733,1.4574217,3.4000292
-0.9716739,-0.8921077,-4.27196,-1.586102,-7.0228295,-5.1191144,6.710816,10.995627,0.00024034036,-1.9602991,0.20389268,5.0687747
-0.98186785,-1.107613,-3.951532,3.8617048,-6.336031,-1.8900939,11.483981,6.3536725,-1.5950603,-1.9248865,0.17455187,4.767482
12.408478,3.073803,-0.0004063656,-5.6299434,8.955546,-9.292934,24.176672,-16.870943,-2.706585,12.546624,-9.922411,-2.7140934
5.3779883,11.917723,-0.00037762552,-3.800597,10.172532,-9.389681,0.560828,-3.0434165,-0.3780949,6.370149,-13.04556,-8.447204
-3.9120064,14.361065,-0.00019881217,0.1634314,4.0348635,0.969929,0.5422345,-2.0356278,-1.7428511,-2.038768,-9.9429455,-0.034280095
-4.693028,9.812666,-2.6997783e-05,1.3595818,2.6981118,2.5725467,-0.49976036,-2.1476948,-1.681803,-5.009639,-8.269733,1.8013233
-3.4920583,-0.5645461,-2.0271327,1.2667681,1.7771945,3.3240955,-0.9561069,-2.467871,-1.1298372,-2.827162,0.40787488,5.3838806
-7.692706,-5.35095,-6.6251826,-0.42905274,0.38082847,-5.4535546,-1.7965125,-11.743541,29.798473,-7.252667,4.0665736,29.714005
7.9442706,-8.138184,12.526786,-1.5139738,1.270536,-1.2093345,-0.46917996,-2.827696,-1.3031772,0.6670245,5.740877,-5.181802
1.2192081,-5.5941887,4.0551267,-1.0686738,3.5821533,2.0777152,-6.8327804,-5.976016,-0.031868,1.3091372,5.520386,-4.430415
-0.3416391,-4.507206,1.3789914,0.30846852,0.7776602,3.8607125,-5.751333,-3.510782,-0.003287009,0.44369698,4.7471914,-1.4198581
-0.43146697,-4.4274564,0.82751673,0.61300933,0.35114095,4.5026617,-3.565381,-0.80410784,0.23405515,0.0014184304,4.2409787,-0.055767573
0.009426028,-4.7297745,0.6747779,-0.42509753,-0.56818676,-7.824831,-3.9997907,4.181122,-0.011260465,0.1398141,4.2380576,-0.33192235
-0.011976138,-3.2195747,-0.8895033,2.446573,-1.2690799,5.707207,-3.6215506,4.827562,-0.11168383,-0.43457067,3.334519,0.7810421
-0.2936633,-2.7825286,-1.5536134,1.6752598,-0.7818631,5.2079954,-3.4419656,4.6097884,-0.6582791,-0.3055229,3.386111,0.6695399
0.2232651,-2.19078,-2.5812612,-5.137752,-4.2047486,-7.078487,-3.635387,9.492318,0.0028219009,-1.1658214,2.141496,2.8731744
-0.4805089,-2.0320609,-3.2833388,-5.4672766,-9.374538,-7.8833303,2.4811642,11.9065485,0.010958672,-1.2126994,1.2348213,4.0157957
-1.3053088,-0.90197587,-4.706187,-2.0763698,-7.282825,-1.1188369,6.623635,10.374976,-0.0077673607,-1.4987019,0.29985958,5.484881
3.4360538,1.9154252,-0.00021090548,7.791519,-9.129559,7.687292,18.039497,-3.9386897,-4.1031966,-1.3397498,0.5889841,5.3057632
14.72388,1.0021014,-0.0004036188,-4.7153826,7.963292,-9.480728,-1.3671056,-4.884449,3.034652,15.057845,-8.199626,-3.560381
5.8065095,10.080047,-0.00039467,0.89999,6.0246787,-2.1317704,-1.6989166,-4.26674,1.5098246,6.124,-12.177928,-7.539564
-2.5108562,11.194536,-0.00031674205,-0.37870815,5.9064045,-1.1571459,0.43050134,-3.33595,-0.5869216,-1.3991313,-8.767469,-1.462909
-4.4905863,11.210707,-8.976807e-05,-0.7117977,5.145056,0.088305265,1.0114284,-2.6716158,-1.9046702,-4.8924227,-11.262869,2.0336185
-3.4990842,6.8805003,-3.3190445e-05,0.23578598,3.6438358,1.652836,-0.29090354,-2.7238204,-1.2091444,-3.7939034,-6.8231,1.8875843
-3.1304777,-1.4683329,-2.005414,0.08912302,2.5761926,2.5973594,-0.14238828,-2.469934,-1.5032332,-2.535024,0.97469115,4.165296
-4.2798605,-4.5312624,-1.848784,0.84754443,1.609803,3.3847792,-0.6814587,-2.453985,-1.0942158,-3.7377715,9.256705,7.717791
-8.170847,-8.534424,0.33941558,-0.72739786,-3.6051903,-2.0011368,0.6318536,-2.9870641,-1.1255425,8.320446,6.2553644,-14.449708
3.3561966,-5.8350115,5.6281104,-0.05915522,4.0737147,0.49292055,-4.2300034,-9.296357,27.637915,0.45168564,5.1178083,-4.7003565
0.5740698,-4.566266,2.2909114,0.37653974,1.9998442,2.785937,-6.5425124,-7.8065953,-0.017078884,0.5331441,4.65021,-1.8318436
-0.14887571,-4.477138,0.8616947,0.9403704,0.5155497,4.483173,-4.7199244,-2.2523963,-0.004153589,-0.086033136,4.2951717,-0.16014004
-0.63312286,-3.9552486,0.04271388,-1.0066696,0.5157872,-10.996585,-5.446854,4.1882706,-1.6047909,0.727633,4.69357,-1.034086
-0.48090526,-3.2449813,-0.9101608,-1.9970586,-5.0045877,-2.4207284,-4.5705914,5.8818173,0.0005214978,0.184034,3.7814374,0.2356529
0.40037704,-3.3581164,-1.4363865,-2.8615966,-3.7002327,-3.4689355,-2.3451765,6.986351,-0.00064574543,-0.75860035,3.157869,1.819105
-0.22287616,-1.7886742,-3.0319335,-3.3691885,-3.8399503,-3.5619466,0.82065177,8.441544,0.0007498488,-0.92853385,1.9834232,3.0248983
0.23273242,-1.7923808,-3.8060837,0.24162677,-3.4893527,-1.7553184,4.6387477,8.03658,0.66848046,-2.067506,0.78497034,4.4362726
2.045557,3.3303032,-0.00021170836,7.7591763,-2.4711607,5.2937555,16.791763,-0.7968254,-3.2940285,-2.0061693,0.7395963,4.3181777
7.4088597,10.541773,-0.00041819998,0.8085396,4.3737574,-1.2824053,-6.9241896,-7.574231,10.94897,12.555231,-14.38279,-10.158178
-2.2668982,11.275864,-0.00031602947,0.24625286,3.4295435,0.6746019,-0.10813,-2.285662,-0.70596534,-0.47616494,-10.042563,0.017505469
-3.3839202,7.8483906,-6.4913096e-05,-0.03986185,3.2274508,1.5569311,0.04236161,-2.2577546,-1.7619491,-4.9338236,-7.5963197,1.8282325
-3.790484,0.40762144,-1.840338,0.22923112,2.4197865,2.4828484,-0.14889188,-2.1497216,-1.8042095,-5.0614667,-0.2093779,3.5413692
-4.582025,-6.9710164,-0.8921312,0.69881487,1.0626782,3.4122,-0.64983696,-2.2380428,-1.1795,-4.6287265,9.781747,4.930026
2.6145575,-5.48446,4.914097,-1.9199075,1.0544481,-0.89629376,-4.492226,-2.3694463,-3.91317,1.1503146,5.433596,-6.346572
0.3941689,-4.7298427,1.9901922,0.28407255,1.7429944,3.2072709,-6.075181,-7.4801016,-0.012668587,0.14451152,4.535011,-0.7161217
-1.1300956,-3.9496903,0.14130726,0.1689936,0.9746161,1.6268634,-4.510832,1.2961304,0.00092423597,1.2997103,4.7907567,-1.0735149
-0.095295444,-3.3544931,-0.89531696,1.697412,-0.10064053,4.8269215,-4.504958,3.844306,0.24234682,-0.29991165,3.5602696,0.8280934
-0.4251496,-3.0634692,-1.40753,-1.7794842,-5.3518004,2.6049583,-3.6137316,6.2828994,-8.81812e-05,-0.3860363,3.2160497,0.82982516
0.19676414,-2.8022025,-2.0022492,-2.9302347,-5.396231,-5.6570053,-2.0053742,7.923229,0.0008967162,-1.001806,2.1704335,2.639316
-0.3166082,-1.6700505,-3.4751134,-3.6319091,-6.045754,-5.1259394,2.5097487,10.95291,0.007343739,-1.3064717,1.2093071,4.0585184
-0.4073435,-2.083735,-3.4497797,5.303186,-3.3194766,2.5794168,14.349778,4.9355474,-2.268777,-2.4398322,0.03900435,5.355305
6.362433,5.218869,-0.0003696223,11.130017,-6.743294,50.015606,25.780636,-10.490881,-9.090218,15.141154,2.7587783,-50.02412
3.7590191,11.25188,-0.000369523,-0.16827667,6.1492376,-2.6932907,-0.26175332,-3.3859615,0.60984266,7.014447,-10.632256,-7.927507
-0.5867603,11.530054,-0.00029639265,0.5757404,5.3462224,-0.9561807,-0.2386043,-2.6864042,-0.47451103,1.5388349,-8.43943,-1.7565538
-5.5913177,8.394826,-6.235475e-05,0.8726559,3.0582786,1.6882044,-0.4789062,-2.487989,-0.7375251,-4.6710863,-8.047679,2.7728589
-3.0379293,0.7508267,-2.1380992,-0.16818748,3.3354857,1.909307,0.25718293,-2.571235,-1.7279387,-5.0424414,-0.8194608,3.336962
-4.2588897,-5.1482215,-1.5911014,0.2633282,1.7790384,2.939206,-0.6305527,-3.3089263,-0.17557704,-4.154448,9.588373,4.240999
1.5621301,-5.9837646,4.9766583,-1.2275423,-2.6912384,-1.8456063,-4.9070024,-4.5450397,0.005341425,1.433368,5.501817,-4.481275
-0.20739658,-4.4128003,1.409999,0.17954916,1.8356497,3.1239636,-5.659924,-4.8911963,-0.0114951,0.7075117,4.7681637,-1.1881697
-0.1698509,-4.1335554,0.4956632,0.2784021,0.5152324,3.581347,-4.334476,1.3735888,-0.0014103893,0.10657548,4.1573105,-0.45984304
-0.3179577,-3.548346,-0.51231474,-0.39689338,-4.0577707,2.797773,-3.6689684,4.9692607,0.0054982016,-0.082141384,3.3569791,0.47434837
0.49216932,-3.1451247,-1.303795,-4.202101,-4.5198283,-3.7179458,-3.603147,6.741026,-0.00056963315,-0.90492475,2.7284157,1.8978935
0.10708918,-2.04746,-2.4882517,-3.892211,-5.2917004,-4.3241267,-0.21558079,8.143743,0.002252541,-1.0085597,1.9546981,2.5542617
0.096906096,-1.6741879,-3.4382954,-0.16618313,-4.077971,-3.4663327,6.2308784,7.2279344,0.8690303,-2.1484253,0.58212996,4.541048
-1.7606398,5.8483243,3.0618262,8.97704,-2.8008652,7.638992,17.626776,-0.26346004,-3.8282423,-0.6854114,0.5013816,2.7570992
7.1904316,11.63217,-0.00042201194,0.40271267,4.8817625,-2.0299897,-6.387991,-7.391127,11.013602,12.187481,-14.9989805,-9.101909
-2.2623901,11.506456,-0.00026792946,-0.16486153,4.2673116,-0.1012209,0.7056648,-1.8938144,-1.7244056,-1.7535664,-10.067906,0.4798992
-3.2907345,5.832216,-4.7572496e-05,0.9338839,2.9883382,1.8879694,-0.5042201,-2.184293,-1.3379456,-3.370468,-5.643462,0.65210193
-1.7628956,0.46207207,-1.2000098,0.9668939,2.1143036,2.7600107,-0.8247838,-2.3089602,-1.0716879,-1.5660939,0.42711803,2.6902304
-5.2244754,-6.686578,-0.92442137,0.92704475,1.3255441,3.427222,-0.07249457,-3.4635322,-0.09632625,-4.207902,11.907626,7.564751
1.8282356,-5.5106235,4.933451,-2.0558176,-3.4011104,-1.6552585,-7.160074,-3.0976093,0.00331843,1.9457703,5.4457965,-5.0393934
-0.3448229,-4.738472,3.0086515,-1.5679184,2.5236535,1.8215951,-9.016303,-4.724374,-0.019581037,2.5156145,5.283011,-4.1270022
-0.26279652,-4.263253,1.0084115,0.75333077,1.4061384,-1.6107225,-3.9464407,-0.6821588,0.0039543444,0.36912814,4.1029634,-0.59215224
-0.07178676,-3.8960104,0.0032012872,2.7495375,2.5251453,9.832056,-4.368987,2.7126038,0.0028899945,-0.21171743,3.4340467,0.84167343
-0.0610542,-3.3980622,-0.9307817,-1.8248484,-5.106956,-2.564454,-3.9203901,4.958211,-0.0010846527,-0.49937102,2.8711143,1.4386343
0.099561915,-3.0505471,-1.706655,-4.071324,-4.1563973,-5.219668,-2.3792834,8.605487,-0.0005355326,-0.75720835,2.1396134,2.7076168
-0.5359342,-0.9414439,-3.8557014,-3.0646176,-3.906552,-3.952719,2.146195,8.560751,-0.0010931194,-1.704373,0.7837474,4.156149
-0.43759096,-0.8712686,-4.0352235,0.32496935,-5.636673,-3.8755913,7.905707,9.826728,0.8735588,-2.6364222,-0.22567986,5.722327
14.339357,0.40881473,-0.0004216683,18.75221,-0.26732695,33.371956,27.994347,-11.394861,-18.700823,12.783052,4.954363,-41.22558
6.378635,10.311655,-0.00042953726,0.67305046,4.6629753,-2.5558474,-7.194565,-7.4297757,11.990194,11.212415,-13.375236,-11.504715
-3.1855617,12.06589,-0.00027844647,-0.2379782,5.276342,-1.4108436,0.8321339,-2.214593,-1.6261842,-0.96994466,-9.484257,-0.025381012
-5.88646,6.2475305,-6.2774096e-05,0.21268141,3.3376389,0.8711331,-0.3617406,-2.1651287,-1.0210245,-3.585971,-9.141877,3.882553
-1.1636728,-0.122042164,-1.3745611,0.7200039,3.368857,1.6801308,-0.99225515,-2.7391546,-0.739051,-3.337013,1.0646391,2.8042598
-5.424304,-7.154542,-1.7834255,0.4112629,2.209669,2.3224754,-1.3029054,-3.0325916,0.20658423,-3.6423852,8.126492,4.5788975
5.1237526,-6.533245,9.560833,-1.1260065,3.1952453,0.6352589,3.1349733,-3.9642313,-4.991845,5.05043,7.3045464,-12.220818
0.20820484,-4.8149905,2.6394556,-0.6674528,3.6273417,2.5810444,-7.78856,-4.6427064,-0.0027216459,1.6669205,5.3918324,-3.6481345
-0.08657323,-4.2846003,0.7367417,0.008459955,2.0827837,2.899317,-6.2149596,-2.5686424,-0.009742083,0.14751276,4.441398,-0.062396303
0.09079799,-3.627619,-0.61701405,2.1878655,-0.7117795,5.4111156,-0.5760738,2.3084626,0.4406488,-0.7718599,3.126687,1.4798226
-0.113429844,-2.7865012,-1.6774585,-1.7662089,-3.9439542,2.0875063,-4.6398425,6.694821,0.059151635,-0.8385207,2.968503,1.2606922
0.30491355,-3.082259,-1.9188844,-4.896162,-5.3518896,-5.611556,-2.5505807,7.665226,0.005599798,-1.1095904,2.0328698,2.9364076
-0.60156834,-1.6727581,-3.7107444,-2.9891694,-5.932218,-5.1299243,2.9270577,10.609202,0.0045794104,-1.5557204,0.7147051,4.600845
-2.9228125,4.6197453,1.0529467,6.8582134,-3.9035368,2.4341722,15.445819,2.2193384,-3.0335526,-2.2779176,-0.05483137,5.749748
7.262814,10.191348,-0.00042892247,-4.6850133,10.266056,-10.970302,-0.18525572,-4.6864653,2.7316804,12.658217,-15.211959,-7.847199
-1.1824336,10.744751,-0.00029409287,0.27298123,5.0796156,-0.3258429,-0.6063885,-3.3918557,0.68004054,-0.6944521,-11.587333,-2.8849502
-3.771192,6.9309835,-7.1661154e-05,0.08071339,3.2323527,2.091157,0.39593917,-2.5460596,-1.3452085,-4.7271385,-8.000693,1.9429183
-2.3512547,0.67304516,-1.9132658,0.31317252,2.2278388,3.0725057,-0.07796182,-2.554516,-1.561372,-4.5394435,0.1929771,3.6453462
-3.5209043,-4.4722333,-1.6140617,0.4173671,1.4564544,3.5077205,-0.6946326,-2.9021797,-0.58640146,-3.1454847,8.93169,5.452679
-9.444685,-7.602189,-0.7096301,-0.655419,0.16176355,3.804136,-0.62441295,-2.5878465,-0.53205615,8.829945,7.2060604,-16.762104
0.8339468,-5.0955443,3.4587822,-1.0332999,-2.6534507,-2.6251805,-7.3777575,-5.2618613,0.0014053679,1.1363946,5.064117,-3.889244
0.5225288,-4.496911,1.3088132,1.0192019,0.7650856,4.092041,-4.958945,-5.675412,-0.0138618015,-0.75425345,4.0984745,0.25925407
-0.75052637,-3.933534,-0.045220837,0.59883446,0.19382736,4.4481444,-4.8399134,2.2123094,-0.009825453,0.43249243,3.9525096,0.18079752
0.043379374,-3.8963194,-0.59382534,-0.6262524,-0.86167896,2.6096294,-2.7121396,5.0872197,0.02509934,-0.46422672,3.1950462,1.5217496
0.3123183,-3.2518144,-1.7454358,-3.283102,-4.7960286,-4.5084233,-2.4811523,6.3665204,-0.0005908925,-1.0087886,2.2304,2.9010434
-0.03191683,-1.7146599,-3.430396,-3.7903554,-5.506375,-5.429029,1.2249382,9.428657,0.0048928726,-1.5041476,1.2006141,4.1554613
-0.620327,-1.1404798,-3.9021184,-2.2411575,-5.7568645,-4.6245966,3.8068182,10.385817,0.0034046443,-1.3296324,0.9204428,4.2935843
2.6090956,3.1240454,-0.000203673,10.440269,-4.485842,7.170298,21.824717,-0.38443306,-4.9002786,-1.0763947,-0.3577668,0.71909964
5.4163675,11.276157,-0.00039252598,-3.6142008,9.735039,-10.148342,0.19194764,-3.4699466,0.7126579,9.468773,-10.995081,-10.273693
-2.7502563,9.643827,-0.00025271572,0.8175345,3.7066681,0.70930904,-0.6064817,-2.6008162,-0.09597922,-0.47080022,-8.371497,-0.11528086
-3.544952,7.1922703,-7.697403e-05,-0.44720432,3.3514724,1.2376078,0.636355,-2.3140495,-1.2995859,-2.5419397,-10.367883,1.8508933
-2.8224745,4.8727293,-1.02141985e-05,0.5234866,2.3195918,2.5071049,-0.19501324,-2.3344634,-1.0230874,-3.5649745,-7.4771495,2.1481426
-1.7188183,-2.8004694,-2.3217027,1.0982306,1.8710744,3.2703848,-0.83257395,-2.5790207,-0.9878271,-3.658135,2.6383953,2.678568
-7.562164,-9.724373,1.7775928,-0.084790096,-0.1529882,-0.045506656,5.0106435,-4.760272,-8.124073,-5.7330036,14.367322,5.0063605
0.5308758,-5.191508,3.699751,-2.1608508,-3.9524286,-3.5428913,-8.631654,-0.8479309,0.0018485533,2.369015,5.518284,-5.3050513
0.88696045,-4.8875685,2.4247298,-0.43807882,4.341425,0.26644492,-7.2289243,-4.5047674,-0.011252786,0.06923557,4.5024166,-1.3885608
-0.04968027,-3.002649,-0.42293924,1.37432,0.6990357,3.5402308,-2.8889744,-2.505623,-0.01605992,-0.64318556,3.0696225,0.266369
-0.19882514,-4.205529,-0.022662237,-0.35124958,-2.0116098,-0.35567105,-3.91874,2.2949672,0.020113688,-0.17883286,3.5179398,0.82881564
-0.55641544,-2.9439213,-1.392743,-1.4849694,-2.261127,-2.295646,-2.5705152,5.538226,0.0011991691,0.0419655,2.7965152,1.3538982
0.353964,-2.4327865,-2.3155098,-4.142942,-3.3847442,-4.40687,-2.6268969,8.689667,0.0026487312,-1.2297705,2.0524442,2.772536
-0.9565719,-0.9582398,-3.7349796,-1.5816662,-4.59165,-5.5307646,2.9777923,10.063952,0.0064298986,-0.8763538,1.3653888,3.139434
0.19572105,3.9680386,-8.1860635e-05,10.371832,-6.1220202,8.806672,21.526953,0.15216348,-4.6703167,-1.4540187,0.562435,3.9809859
6.234134,7.3130918,-0.00040375016,-2.0452657,7.900952,-9.037982,-6.9849887,-7.8152027,11.689373,12.613769,-11.019766,-9.519291
-2.7040396,11.140801,-0.00028573873,-0.109540485,4.2731695,-0.008163307,0.9540434,-1.8132685,-1.792272,-1.0160836,-10.58536,0.73211825
-3.2912426,6.7008295,-4.4315e-05,0.63830334,2.5561957,1.9226239,0.08631888,-1.7509439,-2.0961401,-5.0999804,-11.426428,1.0762103
-2.397585,0.8724515,-1.7120118,0.62132484,2.7092042,2.4305634,-0.19080508,-2.2013907,-2.0064502,-3.9478784,0.19120646,2.018189
-8.796205,-8.236454,-2.1423173,0.14733396,1.6189268,2.700196,4.4301906,-4.071871,-5.6331043,-2.5778594,11.594811,4.8747253
1.744016,-5.911411,5.3554077,-0.88607943,-2.7169669,-1.1653098,-7.2145653,-4.1595464,0.0013484524,2.165012,5.716873,-5.226428
0.3318146,-4.584211,2.0012581,-0.27153605,2.5237887,2.0039935,-7.3577857,-4.2001815,-0.012764871,0.6163077,4.475729,-1.7262199
-0.16728333,-4.145083,0.39428756,0.34281498,0.9295927,3.4669244,-3.3145351,0.6532659,-0.014727026,-0.2831704,3.617645,-0.020282611
-0.17759469,-3.7280304,-0.52640724,0.72829455,0.3642769,2.3655593,-1.6515975,2.7893593,-0.0027111103,-0.520751,2.9672532,1.2083026
-0.9049848,-2.1901455,-2.2097054,-0.21730545,-1.7791705,3.9403684,-2.223927,5.5955076,0.003336522,-0.33961663,2.3186886,1.6383456
0.17160848,-1.8583722,-2.8205254,-4.970401,-4.259216,-6.3083076,-2.9533987,7.243205,0.0027411662,-1.5690982,1.5570072,3.1654847
0.09856771,-1.1263218,-3.6213984,-2.897836,-8.170409,-7.172334,2.6931684,11.411184,0.0072739255,-2.1417108,0.6504723,4.3512144
-1.1369191,5.5256853,-0.115487374,7.246647,-4.429206,3.7234197,17.177961,2.9270205,-2.825881,-2.1255956,0.40167278,4.7267585
6.9421473,8.823865,-0.00044581026,-2.6780353,8.12705,-8.985008,-2.6918504,-4.308212,3.9558918,12.563557,-15.112337,-7.2485275
-1.664799,11.5058775,-0.0003196047,0.23416875,3.8894482,0.86927646,0.48651582,-2.4272285,-0.9059215,-0.6965494,-7.9887266,-1.8000067
-4.432406,9.965867,-0.00019938062,0.29001257,2.7639484,2.128844,0.500037,-2.372389,-0.9919271,-2.2542422,-8.797211,0.92494255
-3.0057747,4.1155515,-8.78855e-06,0.32961988,2.354371,2.9917235,0.2921619,-2.5520835,-1.4621884,-4.0541134,-6.757051,1.8032913
-2.1416981,-1.7426405,-1.983663,0.17773551,2.5424414,2.7709532,-0.33277094,-2.892256,-1.051702,-3.4450712,2.5553634,3.7580643
5.7551866,-6.3705063,8.530981,0.4647869,1.9592283,2.9183505,1.4297422,-5.14655,-2.264322,2.6081734,6.4544487,-9.467769
1.1070166,-5.191657,3.3937862,-1.0526305,0.93533313,-1.158364,-8.3885,-5.0337806,0.0015347216,1.3417379,5.631075,-3.73502
0.34442523,-4.5505514,1.1901989,0.9931919,0.81810594,4.0379186,-4.8599124,-3.1663158,-0.0036757104,-0.06692174,4.6573615,-1.0967739
-0.58825177,-3.9590275,-0.017231196,-0.37839574,-1.7658854,-2.8868814,-2.9852676,2.0679822,-0.042952944,0.51028585,4.1953464,-0.6669315
-0.08515805,-3.587859,-0.754388,1.2388651,-0.502179,3.9119601,-3.8368142,3.727148,0.0037418767,-0.40165585,3.144249,1.3076771
-0.045213692,-2.5494125,-1.8788304,-5.2390037,-5.1238446,-0.8873203,-3.603956,6.786426,0.0034916387,-0.7944396,2.5627663,1.401612
-0.7801979,-0.8512544,-3.8681488,-5.416304,-5.3562355,-6.356601,0.036898952,10.728398,0.015125626,-1.4252595,1.1132873,3.5439556
0.035333883,-0.6625225,-4.539529,-2.1767113,-8.861031,-0.9427242,6.226348,11.488169,-0.013001852,-3.1119223,-0.53984225,6.280812
12.949944,0.42642793,-0.00036813394,15.020193,-2.8774495,16.896431,21.85281,-10.879818,-3.4925508,6.363939,-7.5518346,6.9059668
2.2910573,11.950025,-0.0003886085,-0.1574139,6.12893,-2.6286683,-0.38470006,-3.3392017,0.52926874,3.2598774,-9.927694,-6.467724
-4.635256,10.236196,-0.00017646706,-0.24834311,4.344111,0.2344423,0.60966754,-2.4550061,-1.4735723,-2.4267023,-8.379067,1.3592366
-3.5655022,3.7216647,-2.8104238e-05,0.017169233,3.6261885,1.4289104,0.092387795,-2.4758813,-1.5997998,-2.714882,-8.33173,2.4463344
-2.0012574,-0.83829963,-1.6742327,0.8564986,2.2280407,2.9006298,-0.54001427,-2.377679,-1.4683677,-2.366417,0.31498244,3.354386
-5.58401,-5.358287,0.23919371,-0.016236052,2.9597683,6.620205,-0.087196164,-2.8562207,-0.8638656,-3.6132512,12.232641,5.900518
2.545459,-5.9727263,5.290544,-0.5628307,-0.78547335,1.9053807,-5.221401,-3.1306238,0.05289031,1.188724,5.379496,-5.2001567
-0.35050339,-4.5272174,1.4394466,0.13035159,1.8126025,3.1459842,-6.4130707,-4.980688,-0.0072858334,1.0076363,4.866393,-1.72565
-0.19669195,-4.4059324,0.3871471,0.47807333,1.25589,3.2775717,-4.234521,0.24003632,-0.0017946707,0.1617315,4.4338255,-0.3602011
-0.09478556,-3.2934752,-0.8354693,-0.25199246,-0.84652746,-2.1650033,-3.023691,4.268398,-0.008287899,-0.05333242,3.712621,-0.06994306
0.25545096,-2.8232315,-1.606417,-2.454882,-4.6994452,-2.3404772,-2.776938,6.332472,0.003098681,-1.1610698,2.3460758,1.8586764
0.14889304,-1.8293555,-2.695663,-2.9969745,-6.430922,-4.948762,0.4942091,6.9320083,0.0007327938,-1.6038313,1.4238194,3.1075804
-1.0437891,-0.5876633,-4.4281597,-2.114574,-3.1395857,-4.9999123,3.7981021,8.294398,0.007635438,-1.819825,0.37111205,4.86077
-0.5023107,-1.7436147,-2.6951084,3.4387774,-3.388835,-1.7873267,9.280992,5.5247045,-1.023568,-1.6839044,0.15513727,4.4896665
13.925052,2.972462,-0.00041825406,-2.7138813,8.47748,-10.124857,19.675014,-18.005568,0.033106826,10.36105,-9.252686,-3.8532395
0.100384705,11.629321,-0.000327204,0.8507049,4.471171,-0.4440062,-0.21383388,-2.06783,-1.0759226,0.9487866,-8.69067,-4.288342
-5.5139785,10.806158,-7.666706e-05,0.49830687,3.9537227,0.9421456,0.37931922,-1.9385973,-1.9642794,-3.2340107,-8.489337,2.9899075
-4.9770713,1.7420691,-1.8770199,1.0449294,2.7893252,2.228084,-0.72473073,-2.3791554,-1.0435735,-4.124707,0.23685193,6.0311494
-7.538147,-7.248077,-2.0100899,0.08342998,2.3778853,2.1900551,-2.8943346,-2.1351812,1.0492301,-2.3126075,12.415587,3.2404804
1.5932231,-6.155113,4.993685,-1.7429408,-3.3701866,-1.9782151,-6.575612,-3.8558009,0.0020888944,1.789414,5.661836,-4.544771
0.9351458,-4.731677,2.4305263,0.24134204,3.409945,1.5418279,-7.25268,-5.1809893,0.0001271274,0.5840072,4.8695264,-2.1399937
-0.11936899,-3.689209,0.43442988,0.6886371,1.0010751,3.300307,-4.6445184,-1.8181057,-0.012269324,0.15589498,3.8799708,-0.86742723
-0.795386,-3.45836,-0.8603876,1.1256627,0.34395885,3.9764562,-4.344666,2.4545138,0.040543236,0.15938029,3.793761,0.6109823
-0.23339811,-3.079762,-1.5576345,-2.323536,-4.182521,-3.2019439,-3.6372044,4.1010957,9.772571e-06,-0.37785095,3.2192693,1.3592678
0.974569,-3.4096253,-1.4177586,-3.1591418,-3.9835703,-4.374436,-4.1572614,6.8675747,-0.000473861,-1.3457886,2.8083527,2.2570124
0.23408468,-1.6579999,-3.2463078,-3.2274847,-4.272696,-4.7378387,-0.23287797,8.09714,0.0018812967,-1.656699,1.5794083,3.5331013
-0.13184851,-0.5308551,-5.6706934,-1.6543787,-5.885191,-5.2361236,7.0560203,9.904661,0.5592725,-2.326193,0.49401322,4.8053493
11.47267,-1.0483171,-0.000385642,18.787224,1.6592702,22.67377,23.146456,-10.921642,-2.559947,9.568832,-7.2376494,12.069477
1.4728515,11.712612,-0.00039189617,-0.51582897,4.724306,-1.5670797,0.8064711,-2.3986206,-0.6751102,7.274937,-11.538694,-6.871958
-2.9710772,10.348494,-0.00020258053,-0.22688559,4.036237,0.04643,0.57308006,-2.1856086,-1.3859025,-3.2430785,-10.389218,1.1045145
-3.7704637,6.476784,-0.51217616,-0.10399164,4.0097723,0.82923895,-0.06948238,-2.5365493,-1.3811029,-6.3829417,-4.6104317,2.111086
-3.7806664,-3.3687358,-1.2786725,0.32992473,3.299014,1.5936424,-1.1237044,-2.8917549,-0.591015,-4.714428,7.003385,5.3261833
1.3003485,-4.8813744,5.0020123,-1.7643113,3.4554732,-0.37977445,2.1070929,-3.5117779,-1.2267277,4.497708,6.173403,-9.572409
0.2458968,-4.915341,2.8844464,-0.63146806,2.2605622,2.4104714,-7.966854,-6.159712,-0.00838311,1.5504612,5.2787366,-3.3596675
0.3375159,-4.24183,1.097772,1.4879622,-0.09355308,4.634154,-3.0669842,-1.4180338,0.24644591,0.12765653,4.5765147,-1.3883014
-0.71840715,-3.9192526,-0.07234731,0.3473308,0.011725783,-6.7289443,-2.8926032,2.9490716,0.05035335,0.41839653,3.7673461,0.19994557
-0.17074016,-3.6619034,-0.78035873,-2.9935458,0.6214559,-15.275192,-4.1008,4.682073,-0.011676973,-0.26358065,3.0762491,1.4132475
-0.38479635,-1.994565,-2.8225875,-4.865913,-5.5566516,-7.4818673,-2.4979901,8.645213,0.005755948,-0.9818051,2.1545026,2.532821
-1.112996,-0.76802194,-4.494141,-4.674905,-5.68175,-5.1578565,0.4580555,9.920757,0.009970214,-1.5513443,0.8168782,4.4268007
-0.8843966,-1.0006053,-4.5443954,2.3496475,-5.442318,-2.8039079,9.49111,8.138852,-0.539133,-2.6228008,-0.24049959,5.8294787
14.489161,-1.793154,-0.00045155932,-5.261734,8.383701,-9.141445,24.58678,-15.778546,-6.223984,14.733783,-6.48861,-1.4151496
0.70436543,11.736397,-0.00041133643,0.09888166,5.670419,-1.5082412,0.27740598,-2.806369,-0.8388701,3.6260645,-9.289148,-6.5294294
-3.928797,11.085906,-0.00017876213,-0.10809007,4.345101,0.30668774,0.5185978,-2.2128937,-1.8319242,-4.214814,-11.654248,0.11155177
-2.9000535,3.4634306,-1.0785826,0.40514314,3.0627265,1.9560118,-0.2835935,-2.2674303,-1.9690716,-4.440071,-4.8483377,3.024177
-4.2048492,-3.4719596,-0.9080944,1.3324022,2.1435928,2.6974742,-1.825545,-2.9104571,-0.43724978,-3.7590308,7.99057,5.5516267
9.248231,-7.440471,12.90156,-2.4167585,-3.8543708,-3.8580353,-2.2425165,-0.30916008,2.2845867,2.153207,6.983537,-9.568301
-0.7209217,-4.923991,2.4822648,-3.76351,11.214569,-7.5021887,-7.7952914,-4.808285,-0.021957904,2.4115891,5.8737783,-3.059687
0.5713508,-3.8811982,0.54328,1.0241748,1.6846122,2.8608084,-2.4940977,-2.8336744,-0.017470941,-1.1482463,3.1932793,0.939103
-0.5671806,-3.3879964,-0.4068785,0.6494571,1.155489,3.287433,-2.981283,1.3867233,-0.014905967,-0.4733302,2.903126,1.245246
-0.5500788,-3.3441393,-0.9162297,2.2401922,3.1129866,7.230304,-2.6613004,3.9451818,1.0983957,-0.5465071,2.518307,1.7319002
-0.8356843,-2.585752,-1.8954138,-2.9034488,-4.544984,-3.448634,-3.3765895,4.4487314,-6.700843e-05,-0.30418086,2.2423625,2.122184
0.34436163,-2.04002,-2.8885658,-5.4913063,-3.020259,-5.9262943,-1.8704674,9.452668,0.0062329522,-2.1743999,0.8685304,4.5202675
-1.9952607,-1.8245583,-0.48589814,-2.092254,-9.597766,-4.424688,5.79398,11.048453,0.6909647,-2.0159192,-0.036312938,5.1902094
14.866667,-5.415193,-0.00037787086,19.80148,-1.0081266,24.602358,22.953867,-12.709316,-3.0873232,9.827277,-5.58942,7.132992
2.98655,12.642328,-0.0003692003,-0.23862271,5.5380063,-2.2844906,-0.41876996,-3.536854,0.69186056,4.008124,-12.794437,-6.214301
-3.5842166,10.922131,-0.00015612203,0.22023301,4.064513,0.18732905,0.35812476,-2.1656473,-1.590587,-4.315023,-10.228154,1.3414905
-4.138073,7.5144377,-4.12796e-05,0.107345045,3.7479832,0.97764075,0.49787334,-2.0650446,-2.3422859,-6.0965266,-8.130464,1.2937813
-3.6598053,3.7518718,-0.69458014,0.3922519,3.3611512,1.5346243,-0.13674189,-2.3432941,-1.7759423,-5.1569266,-3.3969507,1.7628819
-2.7834218,0.834471,-1.0456771,0.09947663,3.2189453,1.572067,-0.13605392,-2.4389098,-1.5432421,-2.3096912,-1.8908626,0.8033185
-2.8159256,-1.5559727,-1.488916,0.38504493,2.9593508,2.0363858,-0.40416107,-2.5032697,-1.3479834,-2.3934948,5.1062355,4.633973
-3.0988078,-4.1904545,-1.0213777,0.41014284,1.9036673,2.6027062,-0.83025557,-2.6984515,-0.61893123,-2.5410848,5.7339816,3.1807396
-6.1675334,-7.555183,0.9983855,-0.07998949,1.8191204,2.487398,-1.0702871,-3.2291267,0.15719694,-3.543838,12.095074,5.2969103
0.6689687,-4.7243915,4.7536054,0.736384,-4.3566284,-2.5627072,2.5406048,-1.5076569,-3.0258873,4.9513063,6.20082,-9.748583
1.2929192,-5.4996533,4.545844,-1.4020934,-0.99045295,-4.92652,-7.9453917,-2.9773602,0.1867355,2.0054595,5.4631433,-5.17525
-0.2662915,-4.895627,2.7885497,-1.5127599,3.243633,1.1243507,-10.013626,-4.6262507,-0.021947572,2.0430949,4.9534807,-3.145943
0.022562996,-4.2583566,1.4347407,-0.06822038,1.8861923,2.5368192,-6.893622,-4.74971,-0.0129458,0.68501514,4.314349,-1.3824272
0.023053579,-3.799428,0.4291741,0.9826043,0.75564873,3.716563,-4.930402,-2.6138248,-0.013461333,-0.18458363,3.5834851,0.04614593
-0.07307576,-3.394177,-0.5339539,4.342988,2.4297285,8.656963,-4.567479,4.647606,-0.017990343,-0.14829907,3.4564855,0.22549099
0.28438145,-4.0075355,-0.6242817,-3.5052192,-5.4747434,-3.3954208,-4.2419176,5.857919,0.00040930999,-0.64244604,2.981277,1.4845015
-0.1761351,-2.04027,-3.0664134,-5.130196,-2.9434297,-5.992557,-1.2482827,8.615827,0.0064002736,-1.4009147,1.6232806,3.5767133
-1.038829,-1.1655148,-4.170818,-1.223575,-7.6881013,-5.083433,5.997409,12.587966,0.86936504,-2.0339298,0.078692675,5.3849936
10.585189,0.59822917,-0.00030692195,14.337388,-3.9969003,12.249168,21.410877,-6.83893,-3.3579545,2.9110284,-7.138674,8.619584
4.42622,14.409511,-0.0003622264,-1.936238,6.948342,-4.097209,1.2628815,-3.502185,0.016850293,7.169269,-13.20784,-8.526255
-3.9452052,10.597352,-0.00016527652,0.5040893,4.904704,-0.34935194,-0.12319353,-2.5467572,-1.1909912,-4.085351,-8.1519165,0.9479276
-4.4020796,3.5797389,-1.4372559,0.8911945,3.8186483,1.4041119,-0.6000117,-2.4983919,-1.7360227,-5.9625883,-4.383659,4.0163903
-3.7669342,-4.1587725,-1.5695543,1.1365482,2.5978627,2.2905698,-1.4224114,-2.6409545,-0.65115386,-2.127811,6.109859,4.6892924
4.0580397,-5.7438827,6.6768203,-2.1609142,-3.768735,-2.0377774,-0.24632567,-3.4983134,-0.4588673,2.628172,6.5202203,-9.120872
0.8598461,-4.8093586,3.1447134,-0.55199987,4.129759,0.34645593,-8.794501,-4.3192816,-0.013274889,1.2215805,5.045695,-2.757105
0.21775764,-4.0698447,0.7477184,0.97002393,1.2089494,3.402036,-4.006499,-3.3604019,-0.015817977,-0.52325106,3.673687,0.066841185
-0.4590203,-4.3330717,0.3098799,-0.05781489,-3.4986877,-0.87503034,-4.4196906,2.4268572,0.0039072474,0.13812724,3.4762855,0.5970061
0.13543135,-3.7085075,-0.672003,-1.2529274,-2.7518322,-1.7132752,-2.573836,6.864772,-0.00028438028,-0.38560608,2.9566605,1.5858229
0.38034368,-3.6248136,-0.98334116,-2.6037414,-2.6812541,-2.5337727,-1.9274625,7.1399984,0.00026236265,-0.6630303,2.6273296,2.0809636
0.38983667,-1.997269,-2.6072574,-3.012245,-3.9094114,-5.435536,0.29485258,8.250039,0.0045396937,-1.6312132,1.3256569,3.4387274
-0.6949444,-0.87976205,-3.888488,-0.4723947,-3.714323,-3.6714907,6.9259624,7.622952,-0.4075489,-2.0548,0.15694758,4.7923474
-4.820137,2.6647964,0.11408953,6.5161805,-3.7215955,1.0528703,14.295874,2.3562784,-3.1062083,-3.0043733,-0.24872166,5.452772
10.208064,8.806467,-0.0004023441,-2.3870494,8.659978,-10.519177,-7.884331,-8.17272,12.878651,12.768493,-15.72636,-5.291527
-2.680281,10.77264,-0.00025514263,-0.74334335,4.771068,-1.2511032,0.4159871,-2.8221974,-0.12847787,-0.08578108,-11.508289,-1.260817
-2.3584604,6.8132606,-7.69958e-05,-0.24362364,4.225002,0.41270164,0.4165697,-2.5167718,-1.2611086,-4.1805573,-7.21018,0.013671631
-0.37734112,2.5137854,-0.9579165,0.5441957,3.4403672,1.8488224,-0.49872267,-2.5277028,-1.4399787,-4.5345235,-1.6632075,0.5305323
-3.0442786,-3.5172303,-1.5143253,0.96810865,1.5129093,3.349276,-0.42404354,-2.1289077,-1.4902737,-2.5806751,5.666434,3.0973258
7.7330656,-6.1018457,12.160801,-0.14414784,2.9318736,1.6726485,-1.3215182,-3.4528894,0.15140815,-4.442106,12.774068,5.0962796
1.5083618,-5.2747087,4.287284,-0.011856755,0.49251196,-0.6380342,-8.098819,-5.6933336,0.0014078037,1.545539,5.015302,-4.334482
-0.19594145,-4.599473,1.5641793,-0.15153578,1.3023473,3.4817448,-5.7990484,-2.1065514,-0.0004954636,0.7340765,4.629062,-1.2339859
0.27273226,-4.437247,0.861851,1.3943865,0.024957266,4.815163,-3.043886,0.08399703,-0.0073258188,-0.35726905,3.826855,0.31874955
-0.3034688,-4.137133,0.28116634,0.24539435,-1.635708,-3.6749845,-5.2140694,3.9008658,-0.0042871702,0.3323202,3.7365308,0.12797149
-0.7306657,-3.1636875,-1.0286541,-2.5291932,4.9905343,-26.82574,-6.2943554,5.756033,-0.000610081,0.7705982,3.6859896,0.35159716
-0.54585004,-2.1107564,-2.5120034,-5.570873,-4.4292073,-6.6833415,-3.478113,9.60588,0.0039190412,-0.39452055,2.522678,1.9453462
-0.58898246,-1.4772866,-3.5955567,-4.4316216,-6.910607,-6.662411,1.9714569,11.406588,0.0017838012,-1.4634309,1.0208515,4.0031137
-0.47255212,-1.2716087,-4.044585,1.6440952,-5.332608,-0.013917893,7.9566913,7.8898373,0.12101362,-2.285466,0.15404478,5.3377056
14.602334,-1.3430157,-0.00045435212,17.670645,-0.7797081,24.224073,24.93482,-13.15725,-2.936211,8.325617,-10.563318,9.250281
7.4976964,10.7457905,-0.00042683224,-2.4205313,8.453346,-9.62804,-2.310162,-4.1515245,3.3674312,11.628431,-16.295855,-7.8358526
-3.2025454,12.1347685,-0.00025932747,0.7811563,4.4356947,-0.12688293,-0.652665,-2.6828084,-0.07366088,-1.2085721,-9.836416,0.31947044
-3.4126859,6.804954,-7.571788e-05,0.697147,3.663161,1.6284044,-0.20662412,-2.4719315,-1.5537366,-3.4681232,-6.679082,0.85807437
-3.2017062,0.83945066,-1.9992785,0.14822051,3.4819074,2.0177157,-0.11390223,-2.690607,-1.3425357,-3.9712503,0.7081289,4.766697
-4.705268,-4.6539984,-0.85931736,-0.3146307,2.903033,2.7642183,-0.20537674,-3.3750746,-0.3486218,-4.0301275,8.876881,2.4129708
2.7210045,-6.3338623,5.5225067,-0.36328128,5.761604,1.0675907,-2.774827,-2.6696343,0.029860852,0.5329664,5.604073,-3.6408417
-0.20715895,-3.7150543,1.0140063,0.78213507,0.762099,3.6276038,-6.1976085,-5.961146,-0.014267515,0.3982442,4.2589045,-1.1842232
-0.57684857,-3.9601188,0.45806617,0.5003805,0.39886528,4.075524,-4.8355894,0.6092127,-0.0061800093,0.027478106,3.609992,0.2192455
-0.118261896,-3.606238,-0.11127032,1.2921383,-0.013398826,4.465647,-2.9156566,3.9624703,0.7487146,-0.08852728,3.4107327,0.41345078
0.49778634,-4.0385847,-0.49820238,-3.7907221,-4.7966704,-2.6024213,-4.2306876,5.236767,0.0010101348,-0.85902566,2.6372519,2.1069303
0.09486836,-2.6435132,-2.1528773,-4.375196,-4.7386684,-5.772494,-1.3712639,9.106937,-0.00015943538,-1.0385472,1.7377968,3.1821156
0.014932512,-1.7856026,-3.2465415,-2.262478,-6.8396025,-4.2375345,4.012696,10.529609,-0.0003376354,-2.0550692,0.45829475,4.614194
2.7702916,3.8387463,-0.00017271555,10.140685,-2.3382258,9.1912365,18.733776,-0.9434134,-3.490583,-0.853235,0.40842402,3.3030813
6.5271864,12.294964,-0.0004165838,0.37909183,5.0421576,-1.572103,-6.058232,-7.611149,11.012435,9.484304,-12.666235,-10.558892
-3.0838006,9.89303,-0.00028239086,-0.23724759,4.295525,0.30856586,0.99214226,-2.1814954,-1.3387046,-0.835652,-9.329339,-0.2971576
-2.641346,5.9159775,-8.890226e-05,0.47810385,2.5121832,2.4676223,0.21429414,-2.1186352,-2.0871,-3.8790798,-8.990691,1.3658607
-3.3201966,0.91544527,-1.6972992,0.5416938,2.6631331,2.7294042,-0.09872701,-2.375218,-1.8860347,-4.222979,0.4868514,3.1477966
-6.875389,-7.6780267,-1.0469884,0.6439712,2.4708347,4.1427264,3.6431777,-4.13398,-4.9616795,-3.163514,12.149078,6.9592433
1.1349083,-5.0931506,4.0352254,-0.9625674,1.9883507,-0.6491729,-7.2268395,-4.3339367,0.0013843919,2.2186134,5.4401298,-5.364475
-0.43577462,-4.426075,1.3986117,0.14372498,0.7335015,3.7965348,-5.6147394,-2.811117,-0.0076071974,0.95227194,4.8811154,-2.2830377
-0.28519592,-4.206718,0.35464954,1.209023,-0.4260624,2.8186316,-3.8258379,0.3848779,0.027422622,0.07858485,4.10128,-0.13490444
0.2196431,-3.744792,-0.45931426,0.23606956,-2.4960644,-5.3170424,-2.5783694,6.371378,-0.060886323,-0.14987898,3.6266778,0.15358591
0.22840701,-2.4136367,-1.9033755,-0.61019486,-0.9287087,-0.56917596,-4.093372,6.8388658,0.015299376,-1.1527086,2.1749384,2.300795
-0.15676355,-1.7403567,-3.1364212,-5.8210745,-5.7488523,-8.520835,-2.9767108,6.4316587,0.006868625,-1.7228358,0.921454,4.1175623
-0.47362527,-1.0793918,-3.8970642,-3.71302,-5.3813734,-5.2300706,0.07784067,6.9035645,0.008420595,-1.8323601,0.71181595,4.359669
-0.59546894,-1.3990695,-4.02892,3.016178,-6.1660085,-2.4106016,10.917088,8.60283,-0.858584,-2.328985,-0.097200304,5.7425036
12.614448,2.5974584,-0.0004213826,-5.8902082,9.312757,-9.597212,24.83979,-14.131534,-4.3992195,13.273252,-6.806718,-3.939665
-1.2751387,13.342391,-0.00026275445,-0.059296086,4.364678,0.3141589,0.8422773,-2.0252888,-1.9194837,1.3364049,-15.396891,3.4097192
-3.7023735,10.105354,-0.00013700474,0.22812702,3.2628868,1.8859822,0.3221913,-2.1071498,-2.2818015,-3.5222347,-9.567628,0.8430489
-3.2124026,2.2479422,-1.4318889,0.5319952,2.3159308,2.7099922,-0.69567686,-2.5928178,-1.3465673,-3.3942368,-4.928824,1.6312765
-7.70402,-7.7865515,-2.0346818,-0.11857188,1.8634964,3.030048,-0.92069197,-1.8179344,-1.8026363,-3.8565478,12.458713,8.545786
2.0954392,-6.091014,5.5254955,-0.977563,3.0960927,0.3953839,-5.760792,-3.110777,0.012723592,1.7484024,5.7144213,-4.773149
0.0882841,-4.656271,1.8954079,0.21170416,1.2251288,3.3496416,-5.5566893,-6.357437,-0.017141279,0.40382183,4.6246476,-1.827084
-0.32413712,-4.2498336,0.47722113,0.7958784,0.23886874,4.2776504,-4.4886165,1.8327124,-0.009528581,-0.19002816,4.0031276,-0.3454891
-0.3049239,-3.810393,-0.58057904,0.021296978,1.1083167,2.23979,-3.6578174,3.9518895,-0.0110516865,-0.20402849,3.6816628,0.6382232
0.50375694,-3.4372587,-1.0827665,-2.504519,-5.995612,-3.7179663,-3.1061287,5.8691545,0.0003173009,-0.7681362,3.0946724,1.4919492
0.10010429,-2.8383267,-1.911947,-2.9409733,-5.265471,-3.7678587,-1.3240225,7.57315,0.43060905,-0.7823162,2.656185,1.9863542
-0.6081103,-1.0739918,-3.7928917,-2.7674587,-3.9322982,-3.9431193,1.5653305,8.686877,1.02887,-1.3687114,1.3040743,3.5489135
-0.25658554,-0.4734376,-5.914915,-0.41452628,-4.9356093,-5.477758,7.3606844,8.308034,0.45969534,-2.7431962,-0.117477834,5.588358
13.78696,-2.0417671,-0.0003588415,18.198833,1.9087071,23.462374,22.272291,-13.577818,-3.2525678,7.672857,-6.2867875,11.543253
2.7278154,11.07142,-0.00040059804,1.0150579,4.0924816,-0.5569981,-1.0570979,-2.4664414,0.18431452,4.237687,-10.595391,-7.2180533
-3.1335328,11.762126,-0.00020110529,-0.16090187,4.7801013,-0.112610504,0.9705055,-1.9955235,-2.0132434,-3.6377513,-9.765993,0.8671995
-4.5190077,7.163129,-10.198694,1.030243,3.2739203,1.7385886,-1.0666306,-2.3560567,-0.73152155,-4.6588845,-6.1098804,14.757037
-4.7768497,-4.465428,-2.2597072,0.053473894,3.4241755,1.6976465,-0.55065507,-2.8165588,-0.6269682,-4.5797796,5.8013444,6.1028113
4.367538,-6.6313686,6.906747,0.65321875,4.0235724,3.4202306,-1.0671189,-2.9151802,2.4287307,0.7014801,6.0433145,-6.7127624
0.092465095,-4.5509186,2.105383,-0.36748615,2.4545555,2.1157565,-8.120635,-6.6372724,-0.012406293,1.1597987,4.9196715,-2.6353579
-0.21710397,-3.6585371,-0.0680026,1.1548077,0.6883004,4.093419,-4.473673,-1.1352761,-0.012638379,-0.27849466,3.7653599,0.31789216
-0.5929383,-3.1466527,-0.9958956,1.0325147,0.23497945,4.320448,-3.4825225,5.110426,0.57546866,-0.0049028657,3.5635202,0.43687606
0.23475978,-3.0833204,-1.1783978,-2.8947878,-5.1751456,-2.533984,-3.7421815,4.1055193,0.0012238394,-0.50443894,3.0832386,1.2540501
0.41344938,-2.7130198,-2.1938195,-5.0481415,-4.66735,-5.467647,-2.0288541,7.7694054,0.007033958,-1.1772666,2.3477328,2.5778883
-1.2254816,-0.5799098,-4.5243278,-2.9748583,-4.8267736,-5.4295573,4.0460234,10.847705,-0.00016511942,-1.3989516,0.93686724,4.005181
0.27522516,-1.9793316,-8.070112,5.460183,-5.5748906,0.700927,14.752039,4.040312,-2.6835623,-2.9477732,-0.4280174,5.8952417
9.36676,8.058317,-0.00041586056,-1.6040084,8.144792,-9.834081,-4.025762,-4.3008847,3.9369736,11.714893,-12.312175,-8.559226
2.8589158,11.4747925,-0.00041298533,1.3552816,4.680668,-1.1213834,-2.0351555,-3.3457048,1.4901296,4.177147,-11.143665,-5.8382297
-4.360532,8.862083,-0.00018985319,0.09634359,4.3910217,0.08343633,0.24738048,-2.4569895,-1.3314804,-2.876531,-9.352157,0.80708206
-4.3721175,6.179928,-0.8646876,0.26947066,3.9458997,1.1836188,-0.2504522,-2.7182443,-1.1061538,-5.2536526,-5.197966,2.5536
-2.7097435,-2.2131617,-0.9658342,0.4481822,2.9052343,2.0788555,-0.9528418,-2.9761581,-0.26891547,-3.4035382,4.47746,4.2520256
2.8434756,-5.8808107,7.4227138,-1.8182801,4.0285044,0.36870533,5.47276,-3.69916,-5.0379505,7.10061,8.455223,-15.924576
0.361725,-5.035316,3.062816,-0.86297727,3.0028133,1.6340585,-8.097833,-5.054545,-0.013490235,1.6161116,5.27967,-3.4407198
-0.21737888,-4.397112,0.83173996,0.33264533,1.1261395,3.753743,-6.0220933,-2.7932837,-0.012448365,-0.10601002,3.9937947,0.18895167
-0.60388416,-3.7994766,-0.30765992,0.8377121,0.016578436,4.4876385,-2.2239068,1.7362682,-0.0038420865,0.041977275,3.3829424,0.8464403
-0.19324552,-3.4186833,-0.9441128,-2.5724077,-4.1616273,2.0370953,-3.9135294,3.7041094,0.00043869857,-0.4433989,2.6892962,1.5777539
0.4490121,-3.0516293,-1.7619168,-5.073748,-4.2616286,-6.058325,-2.7957182,7.9764214,0.0064845234,-1.0525029,2.0967784,2.953657
-0.17979509,-1.4760004,-3.5549092,-3.380659,-4.6637583,-4.0221114,1.2234572,9.113878,0.0015039521,-1.4292612,1.2755935,3.7938795
-0.41421083,-1.2130209,-4.063924,0.7851142,-6.624578,-2.8010929,12.084526,9.743586,-0.7109361,-2.7537854,-0.28414428,5.880854
15.071871,3.0260444,-0.00039698638,-1.7403086,8.24509,-7.622921,21.752367,-19.69935,-2.3371935,12.801218,-8.433734,-4.568436
-1.6303133,14.13538,-0.00031744334,-0.47864094,5.740926,-1.860826,1.1775972,-2.0705445,-1.9757231,1.2490573,-10.437859,-4.0616236
-4.9791684,8.928392,-8.456873e-05,0.5821713,3.1496923,1.3332433,0.19599234,-1.896408,-1.7312987,-4.7446556,-9.264931,1.965417
-2.9949238,1.0086086,-1.9159604,0.79073036,3.5565627,1.712441,-0.3624053,-2.3029065,-1.7551236,-4.404061,-1.6129891,2.7732158
-5.0400777,-7.2784615,-1.3810694,0.89367473,2.4819171,2.2353034,-1.6351963,-3.2105443,-0.07267892,-3.766608,8.459092,4.585558
1.7598116,-5.5519686,5.053009,-0.8546939,-2.0147674,-3.6887271,-4.9335575,-2.5692587,-0.42936367,2.6384912,6.067546,-7.335935
0.20643905,-4.7573447,2.0151372,-0.5388072,2.8312488,1.7183758,-7.935167,-4.594697,-0.008225812,0.72843957,4.6535163,-1.9282966
0.27649346,-3.0689495,-0.19964392,1.7323741,0.012539774,4.087318,-2.8293445,-0.54142165,0.1028936,-0.58827263,3.1033762,0.27418014
0.17945424,-3.6809423,-0.37958407,0.6687901,3.0129533,1.8181663,-3.356984,3.6383157,0.11892771,-0.38149935,3.3617184,0.60827065
0.37072325,-3.300533,-1.0233363,-0.59127295,-2.7708087,-1.1421473,-2.266478,4.6216593,0.030448232,-0.5781024,2.8248918,1.4308318
0.026217615,-2.0544114,-2.7325993,-4.479795,-1.689282,-5.0406923,-2.2552378,8.418822,0.004973367,-1.0119017,1.7581834,3.2664676
-0.22352353,-1.127954,-3.8625126,-2.8898993,-6.825556,-6.519014,3.5507438,11.651626,0.00043018634,-2.0564063,0.42005965,4.8628573
4.1277547,3.1445584,-0.00021677336,12.727206,-3.4758232,8.420787,19.835054,-2.7591834,-4.2926574,1.2672055,-5.382538,7.622105
4.0661206,10.058733,-0.00035917578,-2.3614318,8.278591,-8.831402,-6.6656938,-7.7895136,11.257657,9.07781,-11.106788,-8.168676
-1.5992411,12.966749,-0.00024817872,0.5007007,4.5281672,0.45367607,0.25039136,-2.2052789,-1.6262562,-1.8911408,-8.569802,-0.5100394
-3.5224705,10.559517,-0.00012964872,0.18110707,4.0311546,1.199544,0.7266095,-1.9094896,-2.5572329,-4.9586883,-8.877753,0.9640109
-3.110205,3.5286129,-1.2697916,0.6011562,2.7454746,2.6123214,0.06821095,-2.0101295,-2.3053195,-4.142696,-4.716861,2.1288185
-4.2454853,-4.367328,-0.43384865,1.0078427,1.6812842,3.3575053,-0.7112844,-2.5894635,-0.97306615,-1.7635229,9.376992,7.8009777
5.6707306,-7.092815,8.8367,-3.7752137,-5.9910703,-6.1668806,-3.0222685,-1.0548047,-1.1257247,0.6762532,5.466699,-5.8809648
1.2730547,-5.8045564,4.139103,1.843968,-6.0951414,14.610346,-10.174806,-5.036509,0.002968707,0.65025115,5.040846,-2.4567935
1.2019277,-4.151802,1.149009,1.6338831,1.7655598,2.991505,-3.2077224,-3.249368,-0.01477813,-1.2657127,3.4899359,0.32854402
-0.91538924,-3.482417,-0.45447317,-0.09431559,3.1383677,3.3050513,-4.3244433,1.0055313,0.0026381267,0.2792275,3.352057,0.57543606
-0.07175428,-4.543693,-0.032855038,-1.13386,-3.4286838,-1.4078933,-3.5688977,3.0591779,0.00022027094,-0.050323263,3.5530317,0.7812359
0.03617867,-3.0324416,-1.5864844,-1.5419446,-2.4509778,-3.7123544,-1.6424683,7.818009,0.0008269949,-0.1947102,2.9028704,1.4504045
-0.4307175,-1.3436319,-3.3261507,-4.1629467,-3.7996488,-4.590086,0.9059114,9.510861,0.68024135,-1.1794608,1.3406953,3.253412
-0.8965237,-0.6911034,-5.469227,1.1987048,-5.813369,-4.5210085,7.6603646,6.7571626,-0.5411788,-1.8728609,0.30851796,4.3321137
-4.0023184,4.8619943,-0.03179421,7.3939714,-4.2443457,4.6865625,16.306366,1.177878,-3.2302027,-1.964825,0.24308245,4.313617
8.096243,10.430558,-0.00045568123,0.74063,4.4622674,-2.3133845,-3.313301,-4.048735,3.913391,11.615805,-15.182906,-6.0176115
-1.9609395,11.309489,-0.00023803959,-0.7030221,5.020186,-1.3413278,0.48728642,-2.6009245,-0.27478483,-0.90926373,-8.760153,-1.1751986
-2.7541323,6.839952,-0.000115823175,-0.19553238,4.2703686,0.5370806,0.22732835,-2.4975853,-1.1926168,-3.4680004,-6.4624333,0.88877517
-2.2126381,-4.0109687,-2.2766495,-0.31152064,-0.90563697,-0.15374121,2.7490244,-3.6163056,-0.6226468,0.16571292,-6.194476,-1.8461459
-4.5120397,-7.3289766,-0.876931,0.76372534,-0.67789686,0.21665978,-1.4344553,-0.047641486,1.6004663,0.4976924,-2.5216894,1.1388637
-0.6407542,0.5033,-0.20716576,-0.8776347,0.7940996,-0.87502444,0.15732026,0.58256173,2.6101365,-4.422313,10.211399,3.5279088
0.3439352,-0.6789652,0.9248159,0.32052606,-0.8300386,1.8169078,-0.07543659,-0.2970972,0.038638428,-2.6091504,4.7663183,-0.46074232
0.12305236,-1.2366858,1.1413437,-0.0749789,0.99145806,0.8343232,0.5727235,-0.59053415,-0.4987576,-0.6765706,-3.4770923,-1.4988987
1.8858663,0.061679523,0.36352313,0.686189,0.9726112,1.5024489,0.25811666,-0.44961417,-1.2019613,0.2788916,-4.477146,-1.8907336
2.2026827,1.6599935,0.5682623,0.4018643,1.245118,1.7632447,0.89407,-0.21439591,-2.0482485,2.6967535,-3.2689767,-0.19461136
2.209594,3.6376383,0.8121918,0.48793384,1.3309447,2.36342,0.66517496,-0.62437314,-2.4154973,-0.23929824,-0.22168776,-0.1403705
0.22083795,1.411263,0.40044796,-0.16416493,1.5367271,2.2278466,0.69094265,-0.9474101,-2.63837,-1.3007126,-0.69473135,0.25337029
-2.3537543,-2.8089087,3.992248,0.18401465,1.3534435,2.4838512,-0.07412436,-1.4713707,-2.0810666,-3.6334324,5.6794386,2.9880288
-0.5276701,-2.3389187,2.8763697,-1.1532276,0.6573032,2.0315917,0.22666807,0.042679384,-2.0266933,-2.1577997,14.007954,7.407121
0.37875485,-3.2397013,3.263725,-0.46782565,2.1032934,6.742387,-9.554193,-2.0779037,0.41356474,3.2761946,4.676847,-7.002814
0.43529224,-3.6331887,1.8484256,1.275169,-0.38952762,4.1161265,-4.4298143,-5.1461596,-0.00578209,0.06615487,3.2690125,-0.4932806
-1.0972724,-3.880001,0.75250006,0.27452025,-0.16552159,4.505195,-4.3883243,2.0741365,-0.0048649386,1.0439619,4.0399027,-0.72153157
-1.082606,-3.410011,-0.46880347,1.8351598,-0.85723454,5.748969,-2.1939352,4.125704,0.70519257,0.59159875,3.4295158,0.67873156
-0.3866324,-3.2854881,-1.0850384,3.0903938,-1.5138311,6.6587515,-5.39933,4.456541,-0.031560935,-0.4536378,2.5760286,1.37799
-0.3033622,-2.2096558,-2.4802732,-4.6182795,-3.5487742,-6.8263197,-2.755824,9.119663,0.01074534,-1.0503381,1.4707079,3.2667706
-0.28745782,-2.0484848,-3.1601577,-3.7751672,-7.74116,-6.906574,3.434615,11.888045,0.0029880395,-1.8182417,0.47132748,4.7485676
4.593028,-7.554545,2.9385471,5.6344976,-6.043518,0.20881507,14.9908285,3.75666,-2.3136048,-2.6723704,-0.30794492,6.0008574
8.852082,9.023932,-0.00039676856,-0.0044609904,6.8286233,-4.7399406,-2.504584,-4.118515,3.2190177,11.409803,-14.350673,-11.964562
-2.6299586,10.983921,-0.00032800157,0.4923664,5.1594777,-0.8913502,-0.42371446,-2.7642345,-0.08331879,0.20821002,-9.146241,-1.6893395
-3.446184,10.92681,-0.00021766988,0.20753427,4.873956,-0.014535042,0.078152016,-2.7553556,-0.85748637,-2.1675951,-8.993166,-0.22864538
-3.173549,6.464744,-2.9748466e-05,-0.0076489635,3.7368784,1.44552,-0.044403177,-2.655354,-1.459338,-2.9729178,-6.6361017,2.3078933
-4.659489,-2.0432823,-1.9670726,0.46238154,2.0723403,2.9560087,-0.52984715,-2.5297675,-1.0750262,-2.7643359,5.9114246,7.0522065
12.37071,-8.780612,15.587257,-1.2053095,-5.4237537,-3.4976554,-2.530825,-4.4253592,-1.3119797,-2.214766,5.894366,-5.652249
1.0485339,-5.330278,3.3083258,-0.3316632,4.1325865,1.0948355,-7.0099382,-6.919652,-0.007732723,0.5397551,5.0857553,-1.7853794
-0.4107101,-3.902287,0.67774755,0.6015501,0.33384758,4.0221796,-4.239595,-2.1096625,-0.016046042,0.06786977,3.8136246,-0.5326656
-0.98396236,-4.0373077,0.24917698,0.3034118,0.16107567,4.250768,-3.564904,0.95300883,0.48278272,0.11570107,3.505436,0.18581715
-0.51844835,-4.3540363,-0.03495099,-0.7061007,-0.07675066,-1.6201617,-3.4607632,2.306742,0.3279011,0.017011669,3.486911,0.848612
-0.102130175,-3.0715888,-1.2767305,-2.5676174,-3.655508,-2.7940345,-2.7751143,6.716691,0.0007204823,-0.37731928,2.7573228,1.454083
-0.5662621,-2.2300029,-2.6389303,-3.931662,-3.4806373,-5.731844,-0.99133927,8.3319025,0.009464201,-0.6768073,1.9386729,2.6578267
-0.7337504,-1.1048402,-4.098572,-3.0049615,-3.7432761,-4.8653765,4.5508533,9.546401,-0.0014699511,-1.9252679,0.39399886,4.907428
0.71828216,3.716676,2.6704588,7.191472,-5.7835417,3.3370087,17.548273,-1.1801108,-4.000846,-0.1598866,0.20698196,1.0011389
6.6689806,10.233404,-0.0004365443,-1.006651,6.3337708,-4.998006,-5.8228607,-7.1192083,9.228635,11.0963125,-15.592244,-7.2482657
-1.7924904,13.220159,-0.0002548052,0.42273957,4.3641887,0.22161281,0.13141102,-2.3938148,-1.1448128,-2.8278172,-10.555927,-1.3739102
-4.355843,6.6125226,-2.3951194e-05,0.4006148,3.1860576,1.8202482,0.21883367,-1.9553423,-2.3574283,-6.324622,-5.8238597,2.9449463
-2.197164,-0.5390061,-1.8214307,0.86407316,2.3978615,2.8025584,-0.67295635,-2.291393,-1.7175008,-3.6495533,2.5133538,4.1441917
-6.4343176,-10.942203,0.8550208,1.7189281,-2.6915205,-1.5524528,-3.0233319,-5.250517,-2.3419628,1.6060683,7.5764685,-10.605183
0.25009447,-4.7275853,2.693778,-0.17175648,2.2651982,2.4795492,-6.4394007,-4.98592,-0.012458697,1.5844913,5.5434604,-3.6652725
0.9996389,-4.5294657,1.2178128,2.421229,-0.030950844,5.156921,-3.0914223,-4.495539,-0.0062770266,-1.1604887,4.145059,0.40238082
-0.79158956,-4.077109,-0.104433686,0.5938499,0.67789304,4.254398,-5.604268,2.6846128,0.0045099594,0.41169208,4.263773,-0.1438936
0.1912666,-3.5135,-0.81682116,2.983729,3.50314,6.971965,-3.6511707,4.7067437,-0.0030691773,-0.6838992,3.2775478,0.9008587
0.13154374,-2.6922798,-1.9516808,-4.833736,-4.8733573,-5.9457145,-2.2761736,8.018494,0.0036473628,-1.163608,2.062314,2.5412645
-0.7632378,-1.4301119,-3.463094,-3.8680527,-7.7950187,-5.255441,2.612845,11.134984,0.0003787547,-1.2556,0.9333793,4.0445642
-0.71149945,-0.20904043,-10.656148,5.509148,-3.247573,0.45839015,12.525779,2.657478,-2.5760942,-1.3380984,0.5955073,4.5604806
14.179445,7.182443,-0.00044491072,-1.6592978,9.202184,-10.480856,-7.3227754,-6.332309,9.240255,6.955007,-13.437396,-4.0103064
0.11540862,11.04753,-0.0003288802,-0.16772076,5.4814405,-1.1210777,-0.069333896,-2.9597542,-0.5601814,1.6245271,-9.936819,-2.8979437
-3.8669643,10.117951,-7.8973186e-05,0.27385822,4.6808877,0.9719963,0.036147486,-2.5547247,-1.538401,-3.6372285,-7.367748,1.4809208
-2.6903603,-0.2617063,-1.7715393,0.6059178,3.0440605,2.5639014,-0.41127658,-2.3114276,-1.9331822,-4.1190443,-0.98556167,3.789417
-4.4089823,-5.3512354,-1.797741,0.26972273,1.3239809,3.519071,0.88958013,-3.6531198,-0.4184248,-3.4182215,9.560724,5.126847
1.9370778,-6.042812,4.7383046,-1.3239447,4.546015,1.2530339,-2.7526555,-2.653175,-0.01695999,0.39919245,5.533417,-3.8916109
0.009512216,-4.7893944,2.3586679,-0.65506727,2.993063,2.066921,-6.6685615,-7.0945497,-0.0140346745,0.68351877,5.3381324,-1.961212
-0.54914325,-4.0644846,0.160564,1.4239368,-0.51638585,5.30835,-2.1828601,-2.4404626,0.08993106,-0.57395685,4.3562164,0.119962424
-1.6563997,-3.8081956,-0.6020951,0.069746576,-0.13405952,3.0146344,-3.2130544,2.5463843,-0.0026505245,0.6785676,4.270846,0.21844041
-0.24157688,-2.6565073,-1.6407515,2.3419385,-0.5840315,5.37761,-2.997605,5.151034,-0.0027861847,-0.51378596,2.9583964,1.8868159
0.6878788,-3.2463713,-1.5300093,-5.0459056,-8.453096,-6.1536593,-3.7024217,7.0763025,-0.00022685947,-1.272418,2.3217566,2.847705
-1.4218308,-1.5418779,-3.7115102,-4.207972,-6.0910463,-6.8110285,1.3426192,10.719413,0.0020928476,-0.45934603,1.491302,3.6717398
-1.3634869,-0.60710436,-4.587986,2.9265532,-3.1466455,-0.26066887,9.532778,7.030945,-0.4038466,-1.6985786,0.16788869,4.9721317
14.476683,-0.8205894,-0.00042144454,-2.1632915,8.634937,-9.555526,18.412687,-15.3707,-2.314038,8.915119,-8.14259,1.9124081
1.9658006,10.187151,-0.0003894891,0.075994834,5.0504174,-1.2639924,-0.28368458,-2.8081849,0.013915643,6.170215,-10.31282,-5.618517
-2.712621,10.157883,-0.00020285399,0.057071675,3.726214,1.0082113,0.56210274,-2.0243034,-2.110159,-3.5362608,-9.66266,-0.14747798
-4.7996745,8.929719,-5.433362e-05,0.18891957,3.8676457,1.319063,0.57246614,-1.945782,-2.4867692,-5.964062,-7.452682,1.1974657
-2.4789436,1.2493004,-1.9526619,0.3475163,3.2462697,1.9067751,-0.08751804,-2.067819,-2.08794,-4.3416414,-1.9417372,2.641307
-5.112023,-5.7689996,-0.81811106,0.66685,2.0566137,2.6190412,-0.9988072,-2.5126607,-0.80781424,-3.650557,9.471592,6.950719
2.1071482,-5.7813416,5.4919972,-0.61918753,0.19032514,3.1792946,-3.5908096,-3.73199,0.6280788,1.8863976,5.5796657,-6.309416
0.05847419,-4.315043,1.6769042,1.3131146,0.06978156,4.7147355,-5.428092,-6.116842,-0.010239402,0.4430866,4.678593,-1.4944719
-0.9116152,-4.3622656,0.7657002,0.9159225,-0.60854006,5.4061813,-5.4785223,1.8836303,0.006138542,0.97420126,4.8450465,-1.5325189
-0.7688172,-3.5555975,-0.6658281,1.7721772,-0.9593705,5.858672,-4.1383743,4.3466363,-0.011498332,0.18579692,4.104889,-0.4448651
0.13730538,-3.46905,-1.1641966,-2.647898,-4.850958,-4.5120482,-3.4227564,5.6345115,0.0025563552,-0.7647993,3.1677067,1.3690207
0.6431805,-2.5199978,-2.3518512,-3.5287611,-3.4411983,-4.4742923,-0.96991765,8.705431,0.0008132225,-1.3918364,2.1144755,3.0560591
0.06661046,-1.7461237,-3.5170991,-2.4267232,-7.4596596,-3.4393573,3.6889913,10.831553,0.005431451,-1.9223794,0.80665356,4.5603175
-0.48468134,-1.0922151,12.948216,6.648792,-2.0400867,1.6507453,15.305776,3.3171456,-2.7418635,-2.1701617,0.07854973,5.4510403
8.420671,8.490907,-0.000477675,0.04748875,7.2206793,-7.9295316,-9.46228,-7.909493,13.451971,11.389905,-12.583835,-8.790753
-1.3857361,9.479655,-0.00032194692,0.4292274,4.1001043,0.012984633,-0.026678324,-2.4871576,-0.39437935,-0.10954057,-8.918214,-2.021106
-2.4688208,9.06163,-0.00020951705,0.4293461,4.137543,0.73656005,0.50628793,-2.3090222,-1.29153,-2.9045255,-7.498647,0.2709812
-3.16258,6.8300643,-3.5740784e-05,0.43079153,2.9699879,1.9450856,-0.06221041,-2.4606972,-1.0714113,-4.1803584,-7.3270965,1.6901978
-2.1472044,3.1959188,-0.90789646,0.70695215,2.6952188,2.4075081,-0.5334409,-2.639349,-0.95973235,-5.0899153,-2.5779076,3.1398609
-2.7119377,-2.390988,-1.5599496,0.7838987,1.7996212,2.8530712,-1.2021235,-3.0789502,0.14746685,-2.948823,6.450646,5.6731467
3.3535588,-5.746165,6.619467,-0.73423743,5.791419,-1.5240154,-1.1872026,-3.577254,1.061874,5.6738067,8.023599,-14.871348
0.14457351,-4.9670157,2.7552369,-0.731729,3.2897103,1.7501222,-7.0427127,-7.045964,-0.0025360445,1.1488268,5.0374966,-1.7448579
-0.08978684,-3.873575,0.5467285,1.0256252,0.36183983,4.041498,-4.2686214,-1.3317966,-0.010690397,-0.095411405,3.9402726,-0.33751905
-0.28831553,-3.6549342,-0.13415426,0.9654694,0.23464905,4.1877604,-3.808827,3.1651068,-0.013483509,-0.12672266,3.1833012,0.93878406
0.30424842,-3.7899644,-0.3606405,-3.577812,-6.96358,-2.9061165,-3.87455,6.3563437,-9.935396e-05,-0.6101384,2.801637,1.1121503
0.38298923,-2.4744513,-2.006399,-3.9534676,-3.8434806,-5.59036,-1.4272126,7.090405,-0.00030044466,-1.196947,1.9262111,2.6284292
-1.3194476,-0.8024052,-4.1441345,-3.790515,-2.6755657,-4.4742117,2.476412,10.584277,0.8860206,-1.294145,0.59467745,4.514043
-5.500999,0.6860524,-4.160798,4.7238083,-6.60228,0.60471815,11.499254,5.9171224,-1.214746,-2.6978655,-0.3502533,5.908568
12.991665,5.149471,-0.0004010189,-3.6065457,9.655031,-11.191031,21.22804,-16.614532,-1.4588618,12.755725,-14.053592,-2.7761388
-0.5940423,11.697538,-0.0002773716,0.47102383,4.6199036,-0.58409184,-0.670893,-3.1278858,0.40175983,-0.09842684,-11.282503,-2.4312122
-2.21022,8.738043,-8.388776e-05,0.15538529,4.379786,0.66947854,0.08350107,-2.7143831,-1.4240601,-4.2444673,-8.023018,-0.44776714
-2.7294548,2.096352,-1.0758128,0.48493686,2.687947,2.3163898,-0.7349887,-2.814625,-1.050448,-3.8914964,-1.6538897,2.0738747
-3.6165743,-4.160031,-0.6012113,-0.22814028,2.7352927,2.3497367,-0.76234657,-3.1305842,-0.73961544,-3.9437797,7.5174,5.2934055
1.3301324,-4.944761,5.5082006,-0.5347905,0.7198376,-3.5769196,0.48375934,-3.407835,-1.0915649,4.967603,6.1789927,-10.210816
1.9971852,-5.1274433,4.75552,-0.022987336,1.2657014,2.7365022,-6.63432,-6.4387803,-0.048121944,1.6655936,5.182991,-5.495571
-0.02711515,-4.143533,1.4595869,1.0878549,0.30796546,4.293125,-6.768242,-2.7324612,-0.39336953,0.1910069,3.9926467,-0.28554103
-0.37173668,-3.8143578,0.44443908,1.9346297,-1.0227617,5.55226,-2.148164,1.0336746,0.2018536,0.2979074,3.9198098,-0.44348484
-0.19851336,-3.8076544,-0.12991345,2.196348,-1.2011592,5.745218,-3.0458143,4.736903,0.0079072695,-0.3462864,2.9082947,1.2826724
-0.54905367,-2.76617,-1.5483874,-4.550107,-4.524359,-2.7885046,-4.229787,6.125039,-0.00049222494,-0.28115523,2.681359,1.490408
0.49077725,-3.3264828,-1.7372763,-5.493504,-7.1620235,-11.768075,0.24384631,10.521137,-0.7073054,-1.4645452,1.4396806,3.7077086
-2.4702227,-2.9145143,3.7257748,0.44106114,-8.069767,-4.2095575,8.926446,13.472297,-8.70254,-1.8782367,0.08053064,5.247942
3.8951528,3.0431592,-0.0002004724,10.225152,-5.338882,7.1434364,18.738146,-3.422345,-4.0899134,0.2996148,-0.005593851,2.5594125
4.969102,11.403504,-0.0003552484,-1.4356551,6.7535825,-3.5051177,0.17231104,-3.7817602,0.80690706,8.123568,-13.476389,-7.7484455
-2.2300894,12.397951,-0.00020272218,0.29576868,5.0444775,-0.023006968,0.06691949,-2.5870624,-1.536711,-2.9250085,-10.524015,-1.0858204
-4.221548,6.550371,0.45965147,0.72876847,3.0021362,2.0746126,-0.7031125,-2.6402702,-0.9418665,-3.7583427,-8.027021,1.8684638
-2.4802532,-1.4919286,-1.8571748,-0.20016702,3.3075588,1.9265771,-0.42599636,-2.8021095,-1.0977222,-3.5790803,2.0920005,4.549198
3.1206954,-4.9552326,6.67949,-1.356703,3.5719187,1.3881061,-1.3149238,-2.481382,-0.85791504,-5.2605414,13.425687,3.3338919
1.6309721,-5.057604,3.8812194,1.0952513,1.5878081,-0.35643965,-6.91433,-6.9257884,0.0026776858,0.8728551,4.8250475,-3.2949305
-0.40886572,-3.5658967,0.77173984,0.95072705,0.09019426,4.2487636,-5.380653,-3.398537,-0.0079303775,0.5321809,4.234083,-1.327477
-0.19076106,-4.3820815,0.5482993,1.4572823,-0.085990965,5.353578,-3.2452266,0.77006453,-0.0051999437,-0.21325071,4.0079875,0.74242437
-0.52000844,-3.5180774,-0.68936324,2.0493383,-0.9392117,6.022318,-3.08729,4.293744,0.0071061393,0.09457357,3.6465662,0.74408364
0.3447482,-2.8390687,-1.5469862,-3.1523292,-5.3529053,-2.2666698,-4.5776505,5.9573574,0.009619209,-1.3045479,2.1883602,2.1509438
-0.20911911,-1.8709354,-3.1405942,-5.5495377,-6.5386896,-7.4659324,-1.3892466,9.237619,0.0026412178,-1.6449381,1.2742586,3.7169573
-0.3922668,-1.2557961,-4.50085,-1.7836876,-5.907349,-5.245346,5.346148,10.4885645,-0.0038344264,-2.5382597,0.25648454,5.574097
7.6208205,2.2791286,-0.00027308147,12.637625,-5.1304374,10.983125,21.071865,-4.331148,-4.19007,0.88217384,-5.826715,8.179948
3.1060097,13.166494,-0.0003481428,-3.5011842,9.676087,-9.35377,0.10324195,-3.6065743,0.7967551,6.4087877,-13.67346,-8.4962845
-2.924694,11.562157,-0.00018637383,0.7143262,3.5875077,1.2274574,-0.118018314,-2.4714742,-1.3144343,-1.4045371,-12.08316,0.20388198
-3.78368,4.734518,-0.5932533,1.1557467,2.9732008,2.2459872,-1.1038343,-2.979763,-0.6720812,-3.8157864,-4.225414,3.4392667
-4.9813743,-5.3468013,-1.9926257,0.91589457,2.4509075,2.8373594,-1.3211483,-2.9663746,-0.559541,-3.8409932,9.651391,6.307796
3.0801985,-6.152777,5.9906917,-2.9621294,-5.925995,-4.716575,-1.0953968,-0.53178746,-0.27685526,1.6172261,6.0297647,-6.426563
-0.12932047,-5.073764,2.5099554,-1.5879955,5.551974,-0.62805325,-9.625736,-4.2206163,-0.0104670385,1.6222556,5.492199,-2.6172838
0.4167039,-4.125141,0.5964598,0.9090858,0.8719676,3.342378,-3.1468828,-1.4226073,0.07274713,-1.2086307,2.9737303,0.5887343
-0.6816898,-3.5264165,-0.62827724,-0.95154816,-3.0270855,-0.5110362,-4.102032,0.33995762,-0.0009467486,-0.100971356,3.0321567,1.167394
0.02887518,-3.6543477,-0.713542,-1.7531123,-4.185453,-2.9406466,-2.7519553,6.4580393,0.90799874,-0.34401423,2.8385508,1.2594845
0.02072518,-2.3066669,-2.2663798,-3.743945,-2.8683197,-5.8037558,-0.5597821,10.0245905,0.00065982854,-0.8092633,1.9837326,2.5892122
-0.7058159,-1.5539254,-3.3554132,-2.0293376,-6.6758995,-4.5741625,4.596037,10.419426,0.73041093,-1.4572186,0.6129206,4.2528925
3.0099945,4.391347,-0.00033639796,11.37872,-1.7972294,7.1542563,17.05983,-3.8051107,-3.7235315,0.026817214,-4.6323795,4.8830442
5.5690255,8.977295,-0.0003915797,-0.5297388,5.870572,-3.479122,-6.4574246,-7.9282103,10.736068,9.930941,-10.938839,-7.1424446
-1.7190216,11.860211,-0.0002812207,-0.053444263,4.4017353,0.18795389,0.50659144,-2.138462,-1.7364544,-2.0390673,-9.905336,-0.6474161
-4.6334867,8.3882885,-6.0592953e-05,-0.07936862,3.1060932,1.7056304,0.33547744,-2.0841787,-1.7827686,-4.2562075,-8.143448,1.0990573
-2.2122872,-0.7233891,-1.6098856,1.3783572,1.3254886,3.4769912,-1.0424258,-2.257431,-1.0587754,-2.8917646,0.97724694,3.029272
-6.650334,-7.912616,-0.82494503,-0.10362772,1.9490283,2.80723,-0.24850386,-2.70161,-0.8417305,-2.6103647,12.025299,5.6666527
1.9100422,-6.064124,5.2258077,0.31042027,4.407611,7.698315,-7.7810626,-5.0274887,0.08000587,1.4000431,5.755225,-4.7251053
0.08721773,-4.6175895,1.6635221,0.38741595,1.1397119,3.5785308,-5.1619153,-2.706934,-0.005965706,0.5630215,4.993065,-1.9104327
-0.64024323,-4.167882,0.32782146,1.0989494,-0.38125783,5.2038574,-2.495856,1.0060626,0.19586256,0.39184487,4.1938653,-0.22431093
-0.46681756,-3.5643857,-0.79904747,2.0001302,-0.9338168,5.925787,-2.9105568,2.8247914,0.007306285,-0.17770511,3.3713293,1.2860749
-0.49020016,-2.7632623,-2.08865,-3.0943422,-6.5956855,-1.6953008,-4.286099,5.179157,0.005937854,-0.941248,2.3546324,2.0740404
0.25083694,-2.0317452,-2.8776584,-4.6516743,-5.457018,-6.703101,-2.0846734,9.3786335,0.011149326,-1.668825,1.3484044,3.7468138
-0.20757875,-1.402585,-4.0633855,-2.3853362,-6.9817286,-5.711944,4.9299545,12.206255,0.0050037876,-1.9989697,0.5086836,5.3184524
4.415587,3.2550035,-0.0002679659,11.675718,-6.3064528,10.399829,19.697964,-4.030044,-4.324646,2.2512996,-7.5821037,6.951328
6.0466304,12.916986,-0.00033520168,-4.938739,10.603695,-11.105745,-4.1009755,-7.844854,9.569798,9.634728,-13.256947,-10.585108
-0.22053784,12.580521,-0.00031209696,-0.19360588,5.791036,-1.3436043,0.097845785,-2.9946885,-0.87421894,-0.5194032,-10.766526,-1.5675792
-4.0970597,10.490617,-9.115107e-05,0.497211,3.9393911,1.3218176,-0.20811303,-2.6620877,-1.5037472,-3.2718568,-8.555018,0.01949172
-1.6559381,1.6073563,-1.6236242,0.5257628,3.3837008,2.1776168,-0.6387048,-2.5776753,-1.9040623,-3.6086018,-2.870371,1.3679429
-5.533333,-6.359029,-0.7989892,1.31169,1.8635523,3.489208,-0.90257233,-2.959595,-0.7610045,-3.095802,12.070369,8.473737
2.6782258,-5.6256056,5.444265,2.3530087,5.468194,4.83298,-3.0970616,-4.418952,-0.77169096,1.8677729,5.8363776,-6.683779
0.41096896,-5.1743793,2.8213468,-0.09645738,1.2915735,3.3381991,-7.688595,-4.5117316,-0.008929823,0.7049172,5.159365,-2.5853102
-0.6302005,-3.983272,0.4336291,1.0497137,0.23172331,4.5143166,-3.3173077,0.8228982,-0.0005656872,0.40151146,4.1273212,0.06835719
-0.46034455,-3.7998745,-0.29172605,0.014857709,0.33371675,-9.616829,-2.1795313,4.1585846,0.5672297,0.10673869,3.6477823,0.44156373
0.4481213,-3.1871107,-1.0864294,-2.4001744,-3.645102,-11.317934,-3.7023892,5.9891844,-0.00040961738,-1.1379739,2.48606,1.84289
0.15168548,-3.244508,-1.8870424,-5.193372,-5.133023,-5.5632386,-1.7270248,7.6574993,0.0004966147,-0.9955648,1.9446394,3.2561417
0.63501024,-2.5148191,-2.8481243,-2.4894989,-6.598057,-4.020594,4.1101522,10.371131,0.0012909627,-2.1418605,0.6464751,4.766656
-1.5860144,6.981245,4.1095653,8.614704,-2.7048202,2.6706836,17.198463,1.7044253,-3.8257725,-1.4022382,0.56576896,4.383348
6.426823,7.851072,-0.0003969443,0.1820978,5.7498865,-2.4189641,-1.8436824,-3.9371448,2.5264046,10.808224,-11.897112,-7.408768
-1.4785595,10.069664,-0.00026453036,-0.18321444,4.727906,-0.12280777,0.42265666,-2.6072598,-0.38702655,-0.9124515,-10.278935,-1.9843508
-2.246948,7.8312554,-0.0001167068,0.18342933,2.930206,1.9105021,0.26241228,-2.0750704,-1.8340156,-4.0205626,-9.7284,0.021967053
-3.6504066,-0.49184743,-1.5142293,0.62157303,1.5719359,3.2358327,-0.12150801,-2.0399282,-1.8251626,-3.252705,-2.9563751,2.491745
-2.3035302,-3.510693,-1.0254551,1.2831515,0.7460233,3.8902383,-1.0780432,-2.4500616,-0.92543703,-3.3408315,6.497376,3.7881904
2.2164516,-4.9136252,5.4509583,1.4448452,2.6735635,9.658898,-1.4211802,-2.892857,-3.3244128,6.734986,7.836974,-15.644892
-0.56161505,-4.7192535,2.1244404,-1.1650965,2.3880782,2.14403,-7.975239,-4.578429,0.034735117,1.5936921,5.143163,-2.9457004
-0.38359755,-3.770239,0.23655932,0.8764317,0.405602,4.1367464,-3.8256414,-0.6398805,-0.0049145073,-0.1270411,3.7017348,0.17263868
0.20154653,-3.5971916,-0.116199695,2.027419,-0.3481493,5.0704374,-1.8826566,1.7680429,-0.0032152496,-0.76493734,3.3235202,1.0471683
-0.22851107,-3.8390276,-0.4592361,-2.832981,-5.7086363,-1.8187882,-4.9952774,5.612096,0.0073915627,-0.23306486,3.2676551,0.9551828
0.30412233,-3.088946,-1.6882718,-3.87991,-1.9360496,-5.2293534,-2.6788867,8.4407015,0.00052266894,-0.6734833,2.8248973,2.110046
-0.578186,-1.80487,-3.293554,-3.2962804,-7.188624,-4.520246,1.336885,9.93044,0.004409277,-1.3537389,1.1591061,3.809193
-0.60156536,-1.553944,-3.5356824,2.8542478,-5.883633,-0.018925708,10.8751745,7.2144394,-1.1946561,-1.8510181,0.2590027,5.0162587
12.594057,3.0047905,-0.0004073428,-1.9466277,8.513645,-7.3113837,22.328058,-16.477531,-1.400527,10.3147545,-9.952256,0.8771125
-0.5552019,12.304879,-0.00033298216,-0.5807984,5.482612,-1.804195,0.1429275,-2.6631293,-0.24246535,1.9272058,-11.574621,-3.4872046
-4.0052547,10.248577,-0.00012178169,0.094178654,4.2737355,0.73361903,0.12603815,-2.518242,-1.0630398,-3.575697,-8.275151,0.70367795
-3.000307,0.32056412,-1.6767765,-0.04829197,3.0287063,2.117252,0.39539012,-2.10418,-2.0148275,-3.7772694,-5.6667423,1.759699
-1.6133341,-2.06386,-0.39349532,0.8855637,2.329901,2.7977855,-0.82235956,-2.4253569,-1.1485472,-3.098005,5.194141,3.2923658
7.371072,-5.7937694,12.250518,-1.2965262,8.547858,3.5967336,2.5320442,-2.5532622,-5.2063746,8.447858,5.823137,-13.569828
0.41530955,-5.272513,3.762274,-1.7132204,4.298436,0.43486556,-7.8658953,-5.398761,-0.0065261507,2.0216289,5.440729,-3.391262
-0.16218427,-3.6789656,0.4681183,1.4991149,0.11803356,4.5403576,-3.086755,-3.2440848,-0.012282083,-0.10350159,3.9833658,-0.23502344
-0.95539683,-4.3156533,0.06778071,-0.09952997,0.6841209,0.8697644,-4.493565,1.5884999,0.3430145,0.5883853,4.5190616,-0.32279247
-0.050212387,-3.5612838,-0.7539994,-0.10789868,-0.21409672,-7.341458,-1.9022868,4.8300657,0.6861302,-0.40106794,3.384788,0.7505092
0.012932849,-2.491479,-1.9652978,-4.8392262,-5.57024,-5.248596,-3.8536363,7.7455826,0.00067250687,-1.0375727,2.2497056,2.0244608
-0.6389483,-1.7739633,-3.263605,-4.3914247,-5.386186,-6.5282063,-0.3396804,8.716267,0.7931022,-1.2076023,1.2556549,3.7264924
-0.3809746,-1.7093779,-3.4521518,-0.71614677,-7.9072213,-3.6117606,6.574673,10.886092,0.7787511,-2.6086912,-0.030386746,5.771575
13.471978,-2.8664308,-0.0004107193,18.563826,-1.3144591,22.066849,22.221956,-12.557502,-4.19268,11.168501,-7.8170485,9.042279
2.695611,10.711936,-0.00040817034,0.87891495,5.3802614,-1.3529449,-1.867677,-4.0581555,1.9767214,2.1899793,-12.327006,-5.7951546
-3.2997298,10.510172,-0.00017923748,-0.042798042,4.6268463,0.25939265,0.45728695,-2.6168838,-1.3502042,-3.5343282,-9.892141,0.5243747
-3.1906343,4.577513,-0.23469722,0.77385926,2.8611643,2.3324642,-0.3764777,-2.5510612,-1.4491931,-3.7601357,-4.0049257,2.0132132
-2.1655471,-0.9888818,-1.3291051,1.0140299,1.8923876,3.4071114,-0.3442193,-2.3165278,-1.6470506,-2.5434272,4.5871434,3.4691627
-9.12165,-10.144801,-0.20615816,-3.3053217,2.088798,-1.8158588,4.1025715,-4.808975,-6.3498383,8.718662,7.6072316,-16.878445
0.36898357,-5.9387183,3.9367633,-0.37926447,-2.6298459,-0.8597122,-7.4207926,-3.9062548,0.0017151069,1.9072137,5.904233,-4.0596824
0.30904645,-4.1623936,0.8415189,0.95121187,1.1731921,3.3935113,-4.2035365,-2.398197,-0.011881943,-0.33397427,4.1334586,-0.7689609
-0.07226449,-3.7646136,-0.20803985,1.0077586,1.1812481,3.8546858,-3.480001,0.26797837,-0.0098325955,-0.2912479,3.7876878,0.35618556
0.19301344,-3.796839,-0.55123776,-2.8440151,-6.172534,-2.878392,-3.934581,5.096714,0.58118385,-0.49591374,3.5431156,0.57257634
0.2866206,-2.9304461,-1.8121197,-3.7023954,-2.9563282,-3.7265577,-2.2473629,7.000389,2.2762804e-05,-0.8023971,2.5070496,2.5851808
-0.15876295,-1.8444744,-2.8561924,-2.7944198,-5.8603644,-3.8143058,1.8984509,8.224832,0.0013620781,-0.8767199,1.717185,3.033118
0.7758188,-1.7943957,-3.6259813,1.047754,-3.6231465,-0.19292895,7.766484,8.951282,0.20427932,-2.285511,0.46093038,4.8951316
11.4719515,0.629949,-0.0004142758,-5.078452,9.010664,-9.647782,25.557299,-14.366246,-5.6008587,12.841622,-8.503836,-0.27174234
1.2793198,9.546827,-0.00035130867,0.7792234,4.5382056,-0.70143026,-1.5469598,-3.1395528,1.3981737,4.4945917,-10.397467,-4.808371
-1.4917616,8.328815,-0.00020708548,0.044134803,3.4540653,1.191247,0.15583673,-2.4541128,-0.85233605,-1.9092865,-8.475553,-0.58278525
-2.5057573,5.5112705,-5.6637864e-06,0.2731891,2.4990222,2.4339936,0.2203403,-2.0627942,-1.9657164,-6.1343193,-7.1235347,1.2093066
-1.8253158,-0.6854175,-2.0210285,0.52380615,1.5315783,3.2595334,-0.223246,-2.2570715,-1.4891417,-3.3303924,0.59111446,3.0141017
-6.7990637,-9.230691,-3.2461517,0.1313988,1.5125189,8.184965,1.6818627,-6.069529,1.1469514,-5.3041096,13.53047,5.7793374
0.95860136,-5.28075,4.1396866,-0.2783216,2.9886267,2.6992958,-8.997207,-3.789526,0.0407322,2.4355457,5.6614504,-4.7792773
0.23806691,-3.9558678,0.7806528,1.061797,1.7363715,3.2685275,-4.9672537,-4.231255,-0.011626486,0.12132813,4.447222,-0.5123926
-0.6297466,-3.6554422,-0.5914685,2.3139958,1.4512459,6.172871,-4.7926006,2.5170195,0.025644299,0.06570725,4.112514,0.03407857
0.24763978,-3.8628836,-0.56212336,-2.617743,-3.8171136,-2.2610695,-4.1197367,5.1941667,0.00023691142,-0.80756646,2.7458873,2.0570686
0.19919439,-3.210645,-1.4804145,-4.063079,-5.1377664,-4.0100455,-2.0490484,7.498561,0.0001255906,-0.5187807,2.4957895,2.4572248
-0.31011036,-1.4574353,-3.29934,-3.302575,-5.0365357,-4.9604287,2.2971005,10.243789,0.0019118898,-1.3453114,1.0608437,4.157287
-0.5706194,-1.2917693,-3.7023842,2.1885262,-3.9415765,-2.0350704,9.764278,7.343504,-0.43949988,-1.7930762,0.32288283,4.9496126
14.335953,-0.08226778,-0.00039957114,-2.2964005,8.654198,-9.808411,21.016302,-16.06412,-0.6338463,9.325149,-10.042334,-0.6730673
-1.6887698,12.352958,-0.00032378244,-1.1719372,6.618096,-3.1933272,1.619952,-2.0577705,-1.9258691,2.5390785,-10.840399,-4.5005746
-3.3850918,9.661202,-0.00015304406,0.34224305,3.676634,0.59062713,0.08762162,-1.6057124,-2.075574,-4.1956224,-9.058016,1.7720326
-1.937881,3.7983096,-0.73883104,0.5834319,3.0250468,1.8306458,-0.3760343,-2.0338423,-1.5337044,-3.4692338,-4.9043913,1.841288
-1.6354396,-1.5228719,-1.2474216,1.1766173,2.2747915,2.5812237,-1.3229582,-2.3244653,-0.78397083,-1.7389715,5.528555,4.431115
-10.11878,-10.679852,0.9589285,-1.4621731,1.8325741,1.8122168,6.5932794,-3.4166038,-6.919161,8.97708,4.993445,-13.283219
0.47905353,-4.60729,3.1888554,-0.75168157,3.0820847,1.3188006,-7.9966965,-3.8802853,-0.015480589,1.7450584,5.0112643,-3.7356844
0.009579185,-4.1556106,1.1800541,0.9079097,0.61825764,3.878413,-5.5871196,-3.8582222,-0.012129508,-0.23690796,3.7995791,-0.2280527
-1.5842462,-3.7983851,-0.15704066,-0.003879115,0.00793986,4.421186,-4.1217337,2.630524,0.7047825,0.8303272,3.9002068,-0.46445894
-0.27533528,-4.047904,-0.16570124,0.06189086,-2.2737434,0.32932422,-3.2467787,4.9157257,0.0002564944,0.17361948,3.7273514,0.3481297
0.5409463,-3.8407836,-0.83665437,-3.2523432,-2.999221,-4.0187325,-2.9273038,7.104176,-0.00037549285,-0.7050961,2.7836266,2.1085465
0.7223068,-2.5923767,-2.4632988,-3.7061164,-3.898496,-5.8570733,-0.06747595,9.136185,0.00081856677,-1.8245554,1.2912364,4.142016
-0.81110764,-0.9637438,-4.0816007,-0.42255726,-6.333322,-5.664305,7.7215333,8.863497,0.43028358,-1.6548839,0.37520108,4.847772
12.541844,-1.6405957,-0.00038504082,17.402517,1.7560902,25.246033,23.007727,-12.696327,-4.2342443,10.816203,-8.245321,7.8190656
1.6677426,12.642135,-0.0003836213,0.5034139,4.2319064,-0.5714525,-1.1114913,-3.390437,1.7498991,4.34026,-11.539907,-4.9896226
-2.4185624,8.894795,-0.000200081,-0.3742437,4.1607885,0.20985208,0.5947099,-2.4546018,-1.148886,-3.7697685,-8.82678,1.1398945
-2.3710854,5.482696,-3.0571427e-05,-0.28298533,3.8066728,1.4485044,0.70434296,-2.2348695,-1.9724346,-4.246497,-5.0284095,0.77368784
-1.700601,-1.441743,-1.8331945,0.9627745,2.0094712,3.1800292,-0.3172844,-2.1216908,-1.9739133,-3.9618177,1.7008697,1.8650175
-1.7310828,-2.575329,-1.3861543,1.7032577,1.0645847,3.8925908,-1.1556314,-2.4489675,-1.0747211,-2.4597213,6.4765315,3.3801525
6.9086924,-6.592682,12.332825,-1.5892924,2.2394598,2.157949,3.2151008,-5.1197343,-6.293364,4.2891464,8.999127,-12.919043
0.77764726,-5.4321265,3.900287,-0.7630831,-1.8327577,-1.9099853,-10.580406,-4.1751704,0.0019438111,2.0334587,5.6134715,-4.4619317
-0.16872776,-3.970069,0.8760596,1.0698856,0.23081678,4.28796,-3.5339086,-0.8383841,0.32132077,0.5704767,4.494798,-1.1682526
-0.46018386,-4.163989,0.23739249,-0.12515041,-0.42752397,-4.4567285,-3.6609278,2.2212446,-0.032653198,0.42752278,4.008497,0.129472
-0.1685387,-3.249528,-0.9946428,-1.3553432,1.0313485,-11.8365,-3.0600393,4.923243,3.247126e-05,-0.2545158,3.0334194,1.4514185
0.10015108,-2.2628727,-2.265055,-4.6023517,-6.477308,-7.3393445,-2.8662014,6.6849594,0.003422573,-1.3284414,1.6431626,2.9803092
-0.5654097,-1.5802004,-3.4432118,-3.970584,-6.575355,-4.962658,-0.30438596,9.282975,0.004604197,-1.4790823,0.9083137,4.048309
-0.38748163,-1.9301192,-2.9183576,0.50769764,-4.7200046,-2.2606137,8.385379,8.120085,0.4361859,-2.4938054,-0.034925535,5.4283705
13.977094,-1.2303336,-0.00044956838,17.759695,-1.6766806,24.336342,24.689425,-13.427999,-5.1968656,7.187248,-9.109182,5.013116
0.35454896,11.966351,-0.00032787555,0.23803893,4.240884,-0.82155436,-1.0893748,-3.2212195,1.7384173,4.4093285,-12.004006,-4.685783
-3.617823,10.879055,-0.00022240111,-0.3454032,3.651363,0.30054942,0.44461942,-2.5207016,-0.20124996,0.20443654,-10.080485,0.20703974
-3.7041633,7.3936906,-6.347669e-05,-0.20898707,3.4883435,1.211375,0.27033302,-2.6352623,-1.0415511,-2.9036553,-8.86789,1.2594343
-1.8463486,-0.80324996,-1.8939081,-0.1959252,2.8848493,1.9979703,0.088291705,-2.5643153,-1.4941362,-3.4424987,-2.5519435,1.9743724
-1.4830409,-1.055514,0.056954384,0.45982614,2.4221504,2.7332323,-0.92663246,-2.9983351,-0.44969535,-3.60004,8.440429,4.7695093
7.2750044,-6.450338,12.563507,-0.7919825,1.011653,-0.14232641,-0.54792464,-6.354821,-1.3420169,7.4491453,8.009339,-16.443546
0.21144149,-4.7977366,3.0413115,-0.851091,2.0371761,2.2017043,-7.85712,-5.24074,-0.016634403,1.6510679,4.8441906,-3.288385
-0.04135807,-4.331171,1.2684379,0.22918475,1.0389673,3.4808898,-4.856199,-1.4247309,-0.041176036,0.26409116,3.8990304,-0.41027415
-0.481192,-3.4939625,-0.29532814,1.2949431,-0.00022659078,4.7135,-3.0828974,3.3766298,-0.00038889865,0.06925307,3.4504433,0.42405292
-0.3990624,-3.162041,-0.98964965,-0.8257779,-4.1286726,4.6067395,-4.6295943,3.2167344,-0.00036930363,-0.44829246,2.6471016,1.2147588
0.8515205,-2.9525208,-1.6491649,-5.056298,-4.095968,-5.7938266,-2.0135202,8.173223,-3.394042e-05,-1.6860228,1.8333825,2.9267309
0.21959637,-1.5631028,-3.2935252,-3.791165,-5.267096,-5.414873,1.4634793,9.451484,0.0064089797,-2.213629,0.7265216,4.3406386
-0.36138245,-1.6560085,-3.4465284,-2.499078,-7.334574,-5.1062493,4.71829,11.019903,0.0016447189,-2.0258265,0.40182704,4.884794
2.9825099,1.7988026,-0.00021726987,11.893727,-4.877854,9.490487,18.959898,-1.2175673,-3.9797037,-2.9487696,1.4604515,4.7674103
11.803813,0.46363088,-0.0004062539,-6.3997226,8.757208,-9.567598,27.381447,-16.633488,-6.167268,15.201241,-5.067684,-3.2689438
0.44260412,11.100604,-0.0003989403,0.22212073,4.8483253,-0.7510153,-0.22349942,-2.8122685,-0.32898647,2.6014776,-10.820521,-4.88973
-2.311911,12.095968,-0.00030796108,0.25771824,4.138469,0.29076457,0.33649734,-2.170417,-1.6294471,-1.6407076,-10.823701,-0.8867152
-5.3160143,8.38514,-3.677904e-05,0.13779408,2.9971788,1.8925942,0.55942667,-1.9373342,-1.9945308,-3.7526038,-7.484111,2.5629144
-3.3818135,4.5287914,-0.67562234,0.06337346,3.1324723,2.0181499,0.3264159,-2.147336,-1.9198848,-4.3758364,-6.483446,1.2643322
-3.084705,-3.7892919,-2.0125184,1.4542122,1.5158334,3.5415485,-1.1831923,-2.5231209,-1.0637461,-4.4757414,7.3030643,6.1213284
1.4278277,-5.2927465,5.6954947,-0.1264138,-4.2227035,-1.363004,1.5308347,-2.4803944,-1.8604785,7.6254926,8.20102,-16.238611
0.49597165,-5.0064826,3.1552727,-0.67385983,2.418337,2.4207127,-7.3923936,-6.821149,-0.009622868,1.5274063,5.4714108,-3.3411784
-0.09979966,-4.243827,1.0621241,0.65970224,0.72904193,3.9838688,-4.5111494,-2.0217185,-9.274483e-05,0.3156615,4.4052954,-0.7405528
0.20408577,-3.6468134,-0.08332192,2.120356,-0.3508131,5.062944,-3.4020069,3.9738517,-0.42203388,-0.38619608,3.4174871,0.8045336
0.45879632,-3.0088074,-0.94354796,-0.36783707,-1.9870923,-8.619064,-3.0131392,4.5669775,-0.0242218,-0.5494589,3.228052,0.7085234
0.73436475,-2.4819944,-1.8591585,-5.711813,-6.2862983,-4.550265,-3.0930974,7.9800057,0.00010505121,-1.6812916,1.8133615,2.6447718
-0.70593226,-1.3311292,-3.743978,-4.576851,-5.2814984,-6.3406167,0.9570071,8.29668,0.0019325595,-1.543346,0.8793624,4.254222
-0.38584277,-1.0314057,-4.2713356,-2.9645562,-6.6200304,-4.569685,3.2165496,9.972504,0.0018542465,-2.450856,0.17301065,5.277818
-3.0071306,6.6935472,-0.61643267,6.8704414,-5.1736403,1.992531,17.441797,4.579932,-3.2843094,-2.6295254,-0.25460425,5.669096
8.180912,7.680859,-0.00044403214,0.009945154,6.9113326,-8.000061,-9.899686,-8.113725,13.752939,11.630413,-12.31861,-10.174463
-1.2190907,10.101667,-0.00032279966,0.191759,4.5457015,0.07528743,0.80365115,-2.55029,-1.225954,-0.33123553,-9.132064,-1.5146946
-3.4611156,9.017786,-0.000102775375,-0.2324362,4.127549,0.81293356,0.8419179,-2.2086937,-2.4291131,-3.920391,-9.612057,1.5594999
-3.3303123,2.751447,-1.2427102,0.36834896,2.7815294,2.2748327,-0.09553746,-2.4818578,-1.3145753,-3.6564708,-4.352476,1.8035253
-4.275134,-5.8156204,-1.6385492,0.16496672,2.2195275,2.6408215,-0.43444684,-2.6690006,-0.9370397,-4.193145,6.2193904,4.9140515
-5.3060174,-9.668144,-0.9991766,0.5049343,1.5402195,2.9943302,-0.38647512,-4.410546,0.7240273,-5.7097063,12.131645,6.0067954
2.3149261,-4.9585524,4.4858537,-1.2818636,-4.070416,-4.6045675,-11.1729145,-1.7100272,-0.0019707778,3.5194438,7.393076,-12.254347
0.83842206,-4.245563,1.5250386,0.85853916,1.578602,2.7405357,-3.2555876,-5.3023214,-0.0060430896,-0.9664862,3.066881,0.82464194
-0.2961742,-3.4640348,0.3120469,0.57722354,1.0525051,3.1456568,-2.873288,-2.8584177,-0.01284109,-0.15080112,3.0305104,0.59547573
-0.6446771,-3.4759698,-0.3937515,0.61025214,1.3028685,6.6597157,-3.0058146,3.7430189,-0.0038372711,-0.1666567,2.6767843,1.4943752
-0.8730303,-3.2384179,-0.82899123,-0.48242217,-4.0597367,0.110822245,-3.971621,4.2542377,0.00022407004,0.066456184,2.6756473,1.435925
-0.15323861,-3.0154521,-1.5946635,-3.1934576,-1.9300085,-4.2359014,-3.4184487,7.6865287,-0.00040552125,-0.66921175,2.0752974,2.8316736
0.10991478,-1.8696294,-2.8337224,-3.5236182,-3.6597834,-5.0127697,-0.65578854,9.23176,0.004461321,-1.737015,0.99844867,4.0636177
-1.0677781,-0.83278936,-4.125536,0.39479727,-6.978517,-3.1936622,8.950771,11.250585,-0.3274185,-2.00203,0.05242721,5.187524
4.255339,3.343914,-0.0001792192,12.570804,-2.434148,8.724003,19.02336,-0.40420943,-3.5901036,-0.17827481,-4.3833723,9.784284
7.2016087,10.484846,-0.00040738902,1.1011689,5.9790087,-5.361358,-9.998524,-8.314958,13.747184,8.110281,-11.606966,-10.435786
-0.07380818,12.672426,-0.0003315325,1.2531115,3.4337604,0.71910655,-0.89237,-2.3607955,0.07279013,2.5602348,-9.379472,-5.48224
-4.5828643,9.232253,-0.00012387711,0.50384283,2.808515,2.000947,0.54179674,-1.6130326,-2.487695,-3.981669,-9.727222,2.5117943
-5.416873,4.260635,-1.9966577,0.9776062,2.3539586,2.580624,-0.035886526,-2.9846087,-0.8400433,-5.0987334,-1.7082025,6.298128
-5.1755586,-3.6898615,-0.91024256,0.7195489,2.5763702,2.4075503,-0.76886135,-2.6564095,-0.8743328,-3.4323173,8.164699,7.2980285
-10.476398,-11.924315,-2.5841446,-0.9541186,3.5465426,0.70316434,4.702464,-5.3971605,-9.449677,4.988654,6.185093,-11.160317
0.730145,-5.2178016,3.7222657,-0.86950034,4.515443,0.4983232,-7.9425097,-4.3796945,-0.018933307,2.3200588,5.773408,-4.489955
-0.31126958,-4.7113986,2.171173,0.74609816,3.7680948,8.595971,-9.327036,-3.603358,0.06300565,1.9207498,5.481039,-2.9716675
0.12434765,-4.1904488,1.257006,0.6514179,1.0261722,3.5900993,-5.948134,-2.8863275,-0.004188454,0.6485841,4.529615,-1.2426918
0.074641965,-3.7707243,0.25552258,0.9358805,0.7050241,3.784362,-4.102208,2.0606525,-0.0035217907,-0.08924781,3.58558,0.2699352
-0.11166416,-3.5251813,-0.2960027,-1.1212603,-0.040928032,-2.4317162,-3.082926,4.319642,-9.194994e-05,-0.10797477,3.2502997,0.6226317
0.16230689,-2.61463,-1.4589545,-2.586455,-4.654176,-3.3084695,-3.1007984,4.821931,0.012868305,-1.0291696,2.0977972,1.9744589
0.44783145,-2.4905324,-1.8442229,-3.1065433,-4.388907,-4.685614,-2.0863454,4.141814,0.0058999695,-1.4230787,1.8264253,2.6316953
-0.30037805,-1.7724346,-3.153061,-5.0126677,-5.1410975,-5.4498353,0.24558187,9.628122,0.010306062,-1.5350785,1.1734006,3.6025352
-0.52148384,-0.9165273,-4.050606,-3.4152381,-3.9851446,-5.9210873,2.719825,11.731515,-0.000730386,-2.2208936,0.27941346,4.9752693
-0.7823471,-1.8787224,-3.4076548,-0.4797094,-7.169039,-4.034975,6.662715,10.807258,-0.008763367,-2.4404736,-0.03551233,5.3580422
4.127109,-7.6393166,34.468575,5.5369296,-14.784179,37.992287,21.046642,2.5740824,-25.299387,1.60067,2.338418,-20.349014
15.561572,8.356485,-0.0003905103,-1.7976917,8.499042,-11.084481,-6.037533,-5.6537757,7.389807,10.040845,-12.80875,-11.294454
-3.1948094,11.138655,-0.00022878812,0.084890805,5.215665,-1.7959166,-0.23726487,-2.6726649,-0.39631286,-0.39658043,-9.028515,-1.078783
-5.2721677,10.3859005,-4.265435e-05,0.41063562,4.24797,0.30038187,0.094181255,-2.3542514,-1.3385767,-3.2443097,-8.374036,1.9424164
-3.0919888,2.664039,-1.1271224,0.19372548,4.2037244,0.673631,-0.13349608,-2.4497766,-1.8733214,-4.4915566,-5.7066765,2.1049535
-1.267395,-0.36950648,-0.89639544,0.814268,2.5966694,2.0849955,-1.2711076,-2.7627892,-0.53809845,-0.4375695,1.219414,1.2630816
-1.2808692,-1.6497191,-0.5713342,0.53280526,2.5561075,2.0973241,-1.2280949,-2.8635478,-0.36049655,-1.6913091,6.144678,4.002717
3.0297043,-5.8714004,6.504235,-1.5717809,3.8855205,0.5033352,2.2763746,-3.4207137,-3.369331,3.0377803,6.327035,-8.560453
0.54531026,-4.8783774,2.9225051,-0.52582633,2.3224192,2.2628956,-6.6612053,-5.2622337,-0.0064245835,1.2148669,5.0144753,-2.83893
0.19186099,-4.2974505,1.4554985,0.8402175,0.771248,3.8429942,-5.029992,-5.4364133,-0.011055483,0.11577263,4.3094573,-0.96382105
-0.5177205,-3.7835162,0.059292197,1.4601794,-0.26522183,4.945627,-2.9866323,0.5004178,0.26983392,0.106579125,3.694068,0.2776213
-1.2252711,-3.3410404,-0.59016144,0.3814103,-1.1016719,-4.1031933,-2.0152833,3.2365756,0.7313293,0.94038844,3.8851535,-0.3352148
-0.31650177,-3.6577024,-0.6807413,-1.9845872,-0.2904414,-11.078789,-3.3154762,4.4504886,-0.02425034,-0.094335005,2.749488,1.6310971
-0.5669035,-2.7471437,-1.7669283,-5.54682,-1.3509539,-21.861225,-4.489092,7.5652437,-0.0003230006,-0.055138353,2.8574717,1.441159
-0.19429906,-2.2454066,-2.6237478,-4.9722433,-5.9955397,-6.9141846,-2.1920984,8.486299,0.009683866,-1.1021309,1.7490646,2.8707047
0.016000014,-1.9178371,-3.222783,-5.494658,-6.383967,-11.670921,1.337652,13.163329,-0.00072138454,-1.9913865,0.6430659,4.581692
5.166593,-12.292017,44.26133,4.3019733,-8.967906,20.761362,17.102453,10.374627,-23.633003,0.7543571,1.6268412,-9.738159
11.588962,2.2715473,-0.00041939167,-6.0333343,9.014018,-8.940357,26.684324,-17.83483,-7.6116014,16.341034,-8.058611,-3.0744212
0.8232124,10.978852,-0.00034756743,0.23368484,5.218505,-0.41056153,-0.3672285,-3.313119,0.120096795,0.77766085,-9.772806,-4.9485636
-4.903348,10.296618,-0.00013539623,-0.13595115,3.2517676,1.4961354,0.23348202,-2.7075498,-0.6185862,-3.1646912,-11.093091,1.0970063
-3.9119332,1.5801567,-1.3464339,1.1264575,1.5019894,3.6213326,-0.32547992,-2.546484,-1.1631193,-4.311624,-4.1947556,3.147043
-1.8968718,-4.004957,-1.68618,0.91431624,1.9155014,3.550273,-0.7414995,-2.9375267,-1.0457883,-4.1207094,6.116727,2.8009646
-5.5098753,-7.238566,-1.8608803,0.8417074,1.341857,1.9073318,-0.6016183,-4.658616,2.8192148,-3.0846405,11.665591,5.831963
1.6802943,-5.852877,4.7145615,0.3765719,-1.816184,0.124061614,-6.8745456,-5.6695533,0.0021616772,1.9284778,6.015679,-5.5559864
0.861167,-4.6792674,2.3955178,0.92077446,1.530297,3.5432267,-7.1180067,-6.4826474,-0.0043146405,1.1381906,5.623049,-3.2553601
-0.3235008,-4.3525324,0.9930202,0.70428646,1.0196314,4.1417727,-5.716984,-2.807265,-0.0042052455,0.95778114,5.651539,-2.548766
0.18172692,-4.2154007,0.30177826,1.4075346,0.42780972,4.698769,-4.159482,1.4664809,0.0019170768,-0.04039798,4.7198515,-0.57136905
0.4978214,-3.3251567,-0.71709466,2.278907,-0.34053952,4.9751315,-3.870576,3.5460677,0.0026822435,-0.8610495,3.312843,0.82132834
-0.026082844,-2.1912663,-1.9840544,-0.42466354,-1.5640402,4.5734453,-3.2955396,5.588823,0.05134,-1.1155391,2.2661638,1.9809072
0.08294561,-1.8296032,-2.861591,-5.653182,-5.1896625,-6.403776,-1.6992886,8.11894,0.0034854524,-1.6925441,1.1831579,3.6290786
-1.2929527,-0.00043052435,-5.136574,-2.404826,-6.4271636,-5.6797338,4.5891404,10.479539,0.005282567,-2.0526876,0.19628146,4.9302726
-4.0796113,6.57167,-4.1457853,8.524503,-6.9710603,3.0136755,16.519327,0.81892145,-4.187752,-2.2411463,-0.1237718,5.078277
12.90398,-3.9102504,-0.00037660706,18.105007,1.5188129,26.986237,22.182455,-16.024094,-4.8274894,11.372458,-8.059713,5.943838
2.3076262,11.258168,-0.00039475487,0.049869824,5.051659,-1.5190035,-0.25898352,-2.750119,0.1651152,4.92604,-12.658787,-5.6485443
-3.3956165,11.152672,-0.0001786894,0.22944808,4.537455,0.11157663,0.2032342,-2.2826238,-1.1362624,-3.5794516,-8.928318,1.9189233
-4.2628236,4.4272175,-0.5422489,0.6546738,3.2208154,1.8073715,-0.61279255,-2.5647879,-1.0987653,-6.3947544,-4.881524,2.3347576
-3.914875,-3.3217046,-1.550614,0.5727804,2.481465,2.579054,-0.33689815,-3.3356538,-0.3377334,-3.5067875,8.385953,5.6513667
2.8765874,-6.162743,5.545527,1.0510397,5.9453335,5.534131,0.62077373,-2.8321345,0.2789919,0.4385577,5.923346,-5.3267503
-0.4911167,-4.6769366,2.1036868,-0.46697572,1.5122607,3.1392248,-7.177202,-6.577692,-0.02507131,1.4104196,5.2096257,-2.517774
-0.0134928655,-4.0948377,0.3862912,1.9047444,-0.3780981,5.286246,-3.0955975,-1.4747374,-0.006876368,-0.5915947,3.8584316,0.80781263
-0.25112587,-3.5710833,-0.61981183,1.7846024,-0.33092856,5.284051,-4.179289,2.7769148,0.008206969,-0.26007676,3.7187629,0.7456903
-0.37679315,-3.1616676,-1.1015822,3.4886189,1.0628023,8.382325,-5.47181,4.9422555,0.04535038,-0.49837497,3.110738,1.152681
0.38480693,-2.838139,-1.6960893,-5.187806,-5.227925,-6.513948,-2.4299943,8.383831,-0.0006853626,-1.2484238,2.1444635,2.5536976
0.31765,-2.2490761,-2.3920534,-5.4583035,-6.2955337,-6.283452,-0.67509705,9.047021,0.0010123155,-1.6603434,1.4322274,3.3617857
-0.30793867,-0.91857165,-3.818857,-1.56882,-6.3256454,-5.1056356,6.0079303,10.643461,0.0031924373,-2.0972946,0.27063906,4.713044
-1.3825097,-2.175943,9.25288,4.983519,-3.8940327,2.0446837,12.72992,6.845108,-1.8345791,-3.2115746,-0.32466793,5.7459683
11.285812,6.089872,-0.00039994705,-2.2173054,9.872184,-10.890202,-4.5714374,-5.299494,5.810964,11.588136,-12.485426,-4.684562
-1.6961625,11.7413845,-0.00014943181,0.16624026,4.680121,-0.3262119,-0.013278998,-2.6581,-0.245463,-0.7102467,-14.898873,5.5433483
-2.663951,9.027924,-0.00010724622,-0.16238719,3.6673613,1.311647,0.46562278,-2.482816,-1.5488368,-4.7417655,-8.773634,0.9962694
-2.2952077,2.9810336,-0.83167124,0.5241593,2.6489263,2.7373967,-0.07541346,-2.4204686,-1.6177411,-4.3641005,-0.19611704,1.1844971
-2.8624017,-3.768748,-1.2893353,0.8133889,1.4685842,3.6382473,-0.3984674,-2.5778427,-1.0039804,-2.3966022,7.2377925,4.691666
1.8160955,-5.081402,4.6668262,-1.8991435,-4.8940206,-4.014507,-2.998613,-2.5430157,0.6873888,6.5117726,8.370546,-15.216557
-0.36884898,-5.360248,2.6379511,-2.3541684,4.475476,0.7268474,-7.4939437,-5.898599,-0.05714585,1.6609322,5.5321174,-2.5671892
0.047208406,-3.3906944,-0.037869055,1.7184253,-0.28680125,4.5601892,-3.4269054,-1.4152997,-0.010696162,-0.53015214,3.4084988,0.23662305
-0.5907064,-3.8716602,-0.449444,0.6876348,-0.09418562,4.642697,-3.2513323,3.670201,0.43408194,-0.5118032,2.9156222,1.2856474
0.094365716,-3.952361,-0.7132501,-2.1270888,-4.406281,-1.5656749,-2.9811993,4.854236,-9.977154e-05,-0.68597746,2.6118221,1.9507622
0.12919486,-2.2910664,-2.5328586,-3.0837154,-1.6523575,-4.643281,-0.9120282,8.491948,0.0018852795,-1.4095021,1.6414845,3.128732
-0.580251,-1.2541033,-3.7879655,-3.5347912,-5.6253624,-6.1126604,1.7333009,10.397594,0.004887243,-1.8292624,0.6402272,4.34675
0.13317755,-0.8042279,-5.040453,-0.9989984,-4.0694604,-5.363314,5.2067223,10.250939,0.0021329476,-2.9516513,-0.06619334,5.8742843
12.952285,0.03143999,-0.0003962979,16.818134,-4.034441,16.363434,22.266485,-9.252111,-0.7054978,1.9686779,-10.759378,17.883564
1.7061719,13.128966,-0.0003521237,-0.7520614,6.514528,-3.2838068,1.0087557,-2.6106896,-0.5790512,6.2684746,-10.977525,-8.724378
-4.004695,10.656648,-0.00014638444,0.3049648,4.778563,-0.14422408,0.49604437,-2.0900815,-1.8175267,-2.7312603,-9.037419,0.34594947
-4.2002573,4.1518803,-0.36309552,0.7507151,3.166816,2.0048027,-0.16095772,-2.140361,-1.7272292,-2.487787,-3.479544,3.5627863
-2.8120008,-0.7340333,-1.4711361,1.1303734,1.7253904,3.1816106,-0.82970774,-2.2571113,-1.3543155,-2.807447,-2.0914268,3.261485
-4.0617228,-4.6720414,-1.9417185,1.1319854,1.2801874,3.5075676,-0.1417591,-4.0588684,0.4272244,-3.4960244,9.602069,5.359421
2.7460709,-6.528189,5.74221,-4.2881,-3.9688227,-2.5233676,-5.641087,-1.5526614,2.3570817,1.1451527,6.156748,-4.7366614
