ancorasir/BennettWheelLegRL/experiment_data/2023-12-27_22-40-32/joint_position_env1.csv
Joint_1,Joint_2,Joint_3,Joint_4,Joint_5,Joint_6,Joint_7,Joint_8,Joint_9,Joint_10,Joint_11,Joint_12
-0.0059272707,0.005897978,-0.0061379964,-0.0019347464,-0.0026072094,0.00074910803,0.00543171,0.0050414326,-0.0063717663,0.0028284825,-0.0021114878,4.4021257e-05
0.37165847,-0.0,-0.0,-0.28420356,0.0,0.0,-0.22905244,-0.0,-0.0,0.28356224,-0.0,0.0
0.34592095,-0.0013840138,-0.0012114169,-0.28980544,-0.0014293116,-0.00020741057,-0.24892403,0.0015844954,0.0019605444,0.29115623,-0.0009904264,-0.0002541897
0.2849243,0.1610377,0.14587688,-0.053131912,-0.0009683143,-0.04013215,-0.11890361,-0.15613416,-0.009611933,0.10672386,-0.17932831,-0.34544516
0.2692033,0.5269563,0.1770775,0.068883985,0.0054273666,-0.008296719,0.016499013,-0.27528962,-0.0036745379,0.027409937,-0.743204,-0.5251049
0.26251453,0.6519772,0.1557317,0.006042942,0.08195943,-0.100261256,0.019977665,-0.30935234,0.050247103,0.010444648,-0.91996807,-0.41309258
0.27230093,0.64135903,0.13104641,0.00062974094,0.13447624,-0.13741845,-0.004644876,-0.3513465,0.103240214,-0.021280343,-0.82615775,-0.31927386
0.26886514,0.58935654,0.09889376,0.020363407,0.17309366,-0.14454697,-0.038237162,-0.3982802,0.15267585,-0.058793064,-0.6512963,-0.35526615
0.26238716,0.53788686,0.07983059,0.042122282,0.2118588,-0.14153093,-0.06944394,-0.44948497,0.19389066,-0.11628414,-0.49458763,-0.28124544
0.23374254,0.48527813,0.05029299,0.053627245,0.24965203,-0.13338833,-0.092011064,-0.5031339,0.22773981,-0.18999872,-0.3501361,-0.21623744
0.23299707,0.4298134,0.055134103,0.07214309,0.27758098,-0.11437397,-0.12987494,-0.56231797,0.25532377,-0.18352237,-0.28640565,-0.2931582
0.294928,0.36054042,0.11493406,0.10562731,0.30166647,-0.082053736,-0.10001139,-0.7099698,0.28393534,-0.20472981,-0.21763279,-0.348367
0.34507638,0.2972153,0.15981208,0.13939811,0.3203488,-0.04245373,-0.16363615,-0.859806,0.37913242,-0.21852131,-0.14561361,-0.40410954
0.3935316,0.16528982,0.20354542,0.18546519,0.37368453,0.057457794,-0.5063136,-1.0800905,0.4000035,-0.22890155,0.025822869,-0.47607332
0.4240977,0.095640294,0.20910655,0.24469447,0.38445035,0.14870304,-0.60142946,-1.1425205,0.40000436,-0.24773276,0.11824439,-0.48000932
0.4306213,0.028339745,0.19900835,0.29761174,0.38956755,0.2571502,-0.65339285,-1.1245688,0.3902197,-0.2480559,0.21782798,-0.488032
0.4216674,-0.04188811,0.18260057,0.31449765,0.40391383,0.32414323,-0.7573322,-1.043816,0.3999961,-0.23724124,0.3194295,-0.49808368
0.40922758,-0.15894108,0.11794135,0.35646692,0.42441642,0.38229978,-0.94650817,-0.8693936,0.39999387,-0.23377565,0.49346718,-0.48410043
0.40628013,-0.19282302,0.060726076,0.34465808,0.46925157,0.16999906,-1.0746108,-0.75042665,0.40001193,-0.25152695,0.5527955,-0.4522455
0.38646773,-0.20969817,-0.015697338,0.26327872,0.5074311,-0.19871421,-1.2018415,-0.6074518,0.39993954,-0.27014014,0.5987999,-0.413679
0.36115557,-0.22485843,-0.09870122,0.0503358,0.36947274,-0.5434501,-1.2957051,-0.4122732,0.39996117,-0.29507923,0.6311624,-0.36326525
0.31017664,-0.24029109,-0.30388126,-0.25511545,0.034636077,-1.0723338,-1.3038405,0.07359441,0.40001655,-0.3778301,0.6521565,-0.18315579
0.29424468,-0.27730414,-0.2894774,-0.305121,-0.12388991,-1.1998414,-1.1974992,0.27180994,0.39992246,-0.42711237,0.64774466,-0.06660251
0.2958864,-0.32753703,0.009287042,-0.24766818,-0.28745985,-1.1865257,-0.93850607,0.39244276,0.31668383,-0.4623767,0.6454851,0.041871805
0.5586068,-0.44557813,0.40000024,0.01955376,-0.413556,-0.6257967,-0.53492004,0.334017,-0.0025012367,-0.33009195,0.66331166,-0.20566398
1.0098844,-0.07685973,0.40000024,0.14386663,-0.19989479,-0.44841084,-0.31374878,-0.045289204,-0.017487047,0.19228433,0.3570113,-0.90105015
0.9313539,0.44086108,0.40000013,0.17152229,0.010790142,-0.48095405,-0.3381796,-0.17899291,-0.008339456,0.24092786,-0.07537275,-0.91723937
0.69582856,0.8510268,0.37353638,0.192564,0.17115647,-0.43677834,-0.34976456,-0.3288833,-0.008616492,0.059273012,-0.4674499,-0.5619955
0.41847765,0.8310509,0.13330351,0.20662713,0.28621468,-0.3414528,-0.34114057,-0.51075166,0.06827519,-0.12756743,-0.3756121,-0.031348217
0.33699667,0.6940005,0.078053765,0.1843134,0.24598695,-0.45923147,-0.38253567,-0.6675406,0.29754907,-0.083308645,-0.2381446,-0.23810522
0.41059038,0.5597782,0.20352854,0.13875666,0.17124864,-0.57177913,-0.44957912,-0.71150714,0.3999853,-0.10570496,-0.12764233,-0.2988433
0.4557618,0.3654676,0.32395285,0.1262944,0.24036486,-0.51642627,-0.695455,-0.8945842,0.40000713,-0.109287694,0.05239289,-0.3475828
0.4723817,0.24789071,0.35832947,0.1460383,0.29782587,-0.44822925,-0.8264064,-1.033334,0.37425616,-0.1272225,0.16057518,-0.35259464
0.45902625,0.109399766,0.35813403,0.12136611,0.31379908,-0.43772998,-1.024486,-0.9834354,0.40000084,-0.12342953,0.30290696,-0.35719576
0.45174953,0.014946342,0.3455983,0.07239888,0.22711411,-0.43492234,-1.1552893,-0.8699708,0.40005252,-0.11933064,0.39958832,-0.3427296
0.451591,-0.12294227,0.30085954,-0.07456073,0.144666,-0.6126619,-1.3045042,-0.58088857,0.399963,-0.13266608,0.51965016,-0.26788428
0.4473913,-0.17399864,0.25815365,-0.1575641,0.07118614,-0.73834115,-1.3569349,-0.4092599,0.39997277,-0.14439338,0.56393975,-0.21579085
0.4426068,-0.21974134,0.20661813,-0.23196879,-0.027526591,-0.89445674,-1.3652095,-0.22402067,0.37967634,-0.16207208,0.599839,-0.1553028
0.40499416,-0.2918218,0.09908877,-0.28090987,-0.25387716,-1.0906575,-1.1271552,0.16635725,0.32680994,-0.21716851,0.63738626,0.001379333
0.3935585,-0.31027746,0.36773348,-0.13987674,-0.3244024,-0.93601996,-0.7897845,0.25460625,0.13535857,-0.26921788,0.6368337,0.10615445
0.8016051,-0.18847318,0.4000002,0.010082931,-0.20317622,-0.4897761,-0.26526922,-0.111883454,-0.0010902042,0.22714527,0.45026797,-0.5808177
0.8675263,0.26229203,0.40000015,0.017871877,-0.017120123,-0.52306145,-0.29340807,-0.2383929,0.019837128,0.4024088,-0.026781408,-0.72589564
0.7618449,0.67877746,0.40000007,0.018221019,0.116411135,-0.47647431,-0.28471568,-0.33974975,-0.026830578,0.27018794,-0.4539532,-0.61170334
0.6281745,0.9061537,0.33111972,0.022727672,0.23244943,-0.39400378,-0.2790689,-0.43934804,-0.084924094,0.06659845,-0.7018937,-0.5325407
0.5298215,0.85996026,0.10084442,0.05371936,0.33909157,-0.28750053,-0.29225957,-0.58015144,-0.08877586,-0.13638788,-0.58596045,-0.33866844
0.42255533,0.6187122,0.09705602,-0.0060087196,0.37391162,-0.3466517,-0.31170988,-0.786062,0.23437887,-0.23843615,-0.24073958,-0.09711479
0.4813289,0.43450218,0.25035796,0.026815651,0.4423308,-0.397175,-0.67374426,-1.0000764,0.39997846,-0.16274908,-0.032635737,-0.30437744
0.50365746,0.2691618,0.30826247,0.053339824,0.49721885,-0.2680241,-0.897743,-1.1848457,0.38961098,-0.15788648,0.14340168,-0.3509141
0.5090509,0.1174277,0.31555313,0.13427216,0.4601969,-0.0570709,-1.0053676,-1.1248426,0.39209703,-0.16865155,0.2998221,-0.37048295
0.48145485,-0.01964556,0.28298816,0.068280816,0.4175082,-0.3061344,-1.2227607,-0.877691,0.3999813,-0.16144268,0.44580337,-0.3601168
0.481551,-0.15535638,0.2270792,-0.14836809,0.25228316,-0.6751933,-1.4026104,-0.56076276,0.39996397,-0.18766396,0.55638784,-0.27816322
0.47068593,-0.22910705,0.10823296,-0.26150095,0.02722479,-0.9768908,-1.3749598,-0.11138795,0.39994913,-0.23396264,0.61771154,-0.14374751
0.39070055,-0.28058288,0.12217848,-0.23541321,-0.23315442,-1.143607,-0.9946372,0.24406062,0.29583302,-0.2856763,0.6416001,0.030927585
0.76522076,-0.2912596,0.4000002,0.049031217,-0.29260257,-0.39266434,-0.17070423,-0.056765415,-0.096309595,0.010939392,0.60069454,-0.56236464
0.9450608,0.25672883,0.40000015,0.039524928,-0.054181788,-0.5299651,-0.24994743,-0.21661294,0.012259519,0.26342154,0.018545276,-0.84704614
0.8023219,0.7410423,0.40000004,0.051056676,0.10599949,-0.5222401,-0.26617482,-0.32281294,-0.018831113,0.118437916,-0.49986947,-0.68667454
0.6170069,0.9582753,0.2651657,0.06832729,0.25137082,-0.4757735,-0.29541078,-0.4334154,-0.051618047,-0.034753837,-0.6682931,-0.49482253
0.4346987,0.83703053,0.06707266,0.094868205,0.35173082,-0.38190344,-0.3325776,-0.56484324,-0.03415952,-0.17821126,-0.4365597,-0.12516034
0.45054808,0.5652795,0.19877379,0.08192668,0.37005934,-0.39558887,-0.3832318,-0.82811195,0.37939996,-0.16187431,-0.17838025,-0.21689586
0.48571995,0.3839426,0.30663174,0.097844355,0.42852896,-0.2759596,-0.6662996,-1.1107292,0.40000188,-0.13314964,0.012671077,-0.3282682
0.48808733,0.21680921,0.34981745,0.15353696,0.43240282,-0.09024972,-0.9055237,-1.2388706,0.40000275,-0.121696785,0.1887601,-0.36186805
0.47678858,0.13161446,0.36260104,0.1536013,0.4369409,-0.06773695,-1.0334636,-1.1641033,0.40000337,-0.1063449,0.27488798,-0.37528566
0.46296903,-0.026675327,0.3632425,0.11515395,0.42902252,-0.25352612,-1.2237831,-0.93376356,0.39998743,-0.09919511,0.41716573,-0.366943
0.45830247,-0.14742583,0.31779638,-0.059029985,0.2977035,-0.6968365,-1.416813,-0.57255155,0.39999846,-0.11378126,0.52358174,-0.31087428
0.46329665,-0.2425338,0.22330832,-0.24895065,0.1167453,-1.027147,-1.4209361,-0.19230974,0.3999981,-0.15901008,0.59316015,-0.1809267
0.44823125,-0.3116527,0.08813068,-0.32550707,-0.16880791,-1.1999954,-1.2051419,0.20616022,0.39999756,-0.22583012,0.62198174,0.009754725
0.42269447,-0.31404275,0.3272044,-0.23156483,-0.3563528,-1.1324604,-0.88823587,0.34473157,0.23418468,-0.26390475,0.62614375,0.11342155
0.845649,-0.19803308,0.40000024,0.07121638,-0.32844526,-0.4609014,-0.33623022,0.021615844,-0.0668016,0.26309323,0.4383627,-0.68930125
0.91554886,0.11116311,0.40000013,0.06855008,-0.19854885,-0.5161705,-0.37123206,-0.0737761,-0.011663444,0.40913227,0.057756413,-0.7693539
0.8190999,0.54670423,0.40000013,0.035741813,-0.013656164,-0.5641345,-0.35580745,-0.18642767,-0.007544537,0.31993243,-0.3285515,-0.70686793
0.6578628,0.83037245,0.4,0.00794319,0.16145974,-0.55613154,-0.34931126,-0.3100586,-0.013687535,0.18034409,-0.6351102,-0.5767955
0.6145581,0.8896052,0.31620535,0.0021463572,0.24424016,-0.53444386,-0.3529102,-0.3707541,-0.027244749,0.080826804,-0.6959215,-0.5358125
0.5719923,0.84188974,0.20995001,0.0037031246,0.35590184,-0.441999,-0.3707502,-0.48292145,-0.06924923,-0.07902131,-0.7294443,-0.45709834
0.47865093,0.78631395,0.039040446,0.032298364,0.39227724,-0.30949423,-0.3889802,-0.5679472,-0.1067881,-0.20597832,-0.4933115,-0.17725477
0.42832878,0.6359315,0.11214979,0.012699932,0.370643,-0.3476732,-0.35742068,-0.7206975,0.10855833,-0.2167165,-0.27298772,-0.12423665
0.49347833,0.43681505,0.27268168,0.030743018,0.32618737,-0.47290096,-0.6771785,-0.94122976,0.3999725,-0.16055422,-0.06332313,-0.318085
0.4940885,0.32332894,0.31940767,0.019727748,0.3960088,-0.42140844,-0.86079645,-1.0765795,0.3931321,-0.14131872,0.058388297,-0.36229494
0.48837686,0.17884447,0.34224913,0.037384894,0.4314798,-0.29687804,-1.0083764,-1.1018454,0.39421508,-0.13692522,0.20998418,-0.39258093
0.48002172,0.022375626,0.3314934,0.07157428,0.428892,-0.22602066,-1.1323203,-1.0045637,0.39411992,-0.1427856,0.37008986,-0.3898824
0.45740566,-0.11045191,0.28347248,0.008082355,0.39772344,-0.4316747,-1.2973558,-0.81941205,0.39998028,-0.14087075,0.5092617,-0.3597597
0.4604183,-0.1687718,0.24902913,-0.053493164,0.30606058,-0.60182834,-1.3622683,-0.6728238,0.39999312,-0.1559628,0.5613214,-0.31962165
0.4557866,-0.25542292,0.13833629,-0.23020147,0.058849957,-0.92326796,-1.3693168,-0.2667814,0.40000138,-0.19644313,0.6347407,-0.19332232
0.4428027,-0.27717075,0.058687028,-0.2895488,-0.10089716,-1.0629942,-1.3074666,-0.038123634,0.39999703,-0.22706912,0.6520523,-0.11011201
0.4404566,-0.35463554,0.37908083,-0.14167155,-0.3850753,-0.98841774,-0.77064675,0.24886464,0.12778349,-0.30497393,0.654575,0.071907684
0.66917235,-0.32137164,0.4000002,0.06347127,-0.36981723,-0.4064437,-0.26930168,0.03344284,-0.07841273,-0.090642884,0.65225434,-0.3658427
0.9530486,0.07801933,0.40000024,0.014948608,-0.11504573,-0.5475157,-0.28547552,-0.12334197,-0.013883885,0.2849981,0.2298991,-0.83979744
0.9339171,0.314109,0.40000015,0.024517521,-0.030363021,-0.54672563,-0.29081917,-0.17920983,-0.022370491,0.27707285,-0.018280568,-0.82803804
0.76891744,0.75663644,0.4,0.024585437,0.1320047,-0.5209334,-0.27978072,-0.2827818,-0.06683622,0.16960718,-0.44050354,-0.7236085
0.6579212,0.9237747,0.26895773,0.021678234,0.22857618,-0.49065527,-0.2727266,-0.34430337,-0.109439574,0.047330514,-0.66174173,-0.5848592
0.52428675,0.9538848,0.11865359,0.049694333,0.31932074,-0.40448764,-0.29576272,-0.43806556,-0.13357504,-0.07487702,-0.64241844,-0.31915674
0.37847468,0.8346586,0.01370247,0.075577386,0.3492133,-0.33535588,-0.29196188,-0.53474057,-0.04761721,-0.17705947,-0.41769275,-0.07703633
0.38756436,0.5774259,0.16176337,0.07210952,0.32338288,-0.42332527,-0.4098003,-0.84912264,0.39254627,-0.13355467,-0.18816733,-0.18774275
0.41093203,0.47526163,0.23627709,0.07496883,0.36066118,-0.3987546,-0.5838861,-0.9731503,0.4000498,-0.10725081,-0.080346674,-0.25936705
0.43246937,0.31992182,0.3009506,0.097590424,0.42182922,-0.2897276,-0.8437546,-1.1393745,0.39999565,-0.09370397,0.08743447,-0.3203172
0.42257547,0.2238423,0.31258693,0.11749903,0.4295757,-0.18597475,-0.9645485,-1.1596291,0.3969908,-0.0791802,0.19759355,-0.3543351
0.4246338,0.13673767,0.32517898,0.12563804,0.42734206,-0.13716295,-1.0777982,-1.112222,0.400001,-0.08086655,0.28007287,-0.36605197
0.43219814,-0.01550715,0.32021707,0.12170082,0.41523263,-0.24947077,-1.2330648,-0.90697473,0.39997712,-0.08815349,0.43005228,-0.36695507
0.43557945,-0.09963453,0.27943352,0.005308018,0.40060657,-0.5936011,-1.3657832,-0.65318596,0.39997798,-0.10264284,0.51996577,-0.3333013
0.44300056,-0.16692232,0.20841983,-0.18283059,0.26565796,-0.8026712,-1.4358169,-0.39129633,0.39999485,-0.14114295,0.5801675,-0.24937582
0.41422454,-0.22465959,0.06274507,-0.3519797,-0.049449302,-1.0676723,-1.3341855,0.028813606,0.39999753,-0.19947836,0.6210221,-0.086067624
0.3987197,-0.2634528,0.048673447,-0.31494588,-0.19498366,-1.1341265,-1.1787858,0.24444032,0.3815419,-0.24796054,0.62106013,0.024837822
0.43040678,-0.28304633,0.4000003,-0.098114215,-0.36989287,-0.63422036,-0.6873998,0.2706283,0.06925674,-0.2090855,0.6596614,-0.18338245
0.84507245,-0.11785982,0.40000024,0.011493757,-0.18874572,-0.46399543,-0.25902218,-0.09915627,0.0016884588,0.20912638,0.41187397,-0.6497025
0.91806686,0.21206914,0.40000015,0.020112654,-0.055382878,-0.47836939,-0.29277673,-0.21095,0.052019868,0.35236573,0.05944903,-0.77133214
0.8582555,0.56521076,0.40000013,0.031851593,0.06888482,-0.45699358,-0.29459572,-0.3010716,0.037945118,0.27684847,-0.24668762,-0.74239564
0.7166148,0.86869687,0.3498701,0.030407233,0.19377615,-0.40604153,-0.2902907,-0.4000276,-0.011342345,0.053002395,-0.6172392,-0.61858594
0.6401506,0.9380731,0.2561074,0.039587542,0.26753932,-0.3525607,-0.30702862,-0.47530872,-0.03393888,-0.051933683,-0.70663315,-0.49400547
0.57202786,0.90490246,0.14167853,0.05299466,0.31620395,-0.29814327,-0.32836917,-0.5370448,-0.04812134,-0.12050937,-0.616091,-0.34365222
0.40345436,0.7760997,-0.055934392,0.06542096,0.36981878,-0.27179396,-0.3337637,-0.6998894,0.16430075,-0.25318193,-0.35689345,0.049413607
0.48194277,0.5365471,0.20033494,0.06473312,0.4138811,-0.28039968,-0.43495184,-0.9470823,0.39998007,-0.14966972,-0.15110424,-0.22508194
0.50944066,0.34198228,0.31237188,0.08271626,0.45042118,-0.12918556,-0.7088116,-1.1506522,0.40000162,-0.107042894,0.0548029,-0.34691602
0.50670654,0.2506266,0.34033176,0.10755107,0.44886395,-0.03599956,-0.8297034,-1.2069075,0.39999127,-0.0904675,0.15378645,-0.3808633
0.49763235,0.07854517,0.35981303,0.14727321,0.46742156,0.0050006965,-1.0137159,-1.1490492,0.39283338,-0.06413985,0.34621137,-0.41869536
0.5041143,-0.07877248,0.34129396,0.10909007,0.4755489,-0.10636991,-1.1920493,-0.9274682,0.3999385,-0.07377432,0.49997008,-0.39963567
0.47273114,-0.159635,0.2441473,-0.11676835,0.3075139,-0.62557745,-1.3547307,-0.5808845,0.39999342,-0.09085251,0.59837985,-0.33388516
0.4462626,-0.2310619,0.117308855,-0.32072932,-0.00542255,-1.0287882,-1.361164,-0.12712415,0.39999965,-0.14518507,0.6423417,-0.18629158
0.36863378,-0.25469634,0.2492082,-0.23097861,-0.3005308,-1.1088508,-0.93060046,0.28203046,0.2007518,-0.20979588,0.6476133,0.01842361
0.7927845,-0.1418838,0.4000002,0.07340435,-0.24038112,-0.4715739,-0.28290772,-0.01451342,0.0072388095,0.2503404,0.46492437,-0.6550606
0.8858101,0.33747414,0.40000013,0.047527328,0.010931726,-0.5912341,-0.3156985,-0.17102733,0.08006398,0.3526133,-0.11157312,-0.74381244
0.7618076,0.7418512,0.40000007,0.038139388,0.1849878,-0.56772697,-0.3076732,-0.29974806,0.07743415,0.19103721,-0.52042645,-0.6511318
0.6526658,0.91469055,0.338811,0.05761924,0.29640502,-0.46933624,-0.32100603,-0.41954833,0.043768078,0.023215363,-0.75162363,-0.52825224
0.5519619,0.8944862,0.13085236,0.08687578,0.36404648,-0.32715318,-0.33757782,-0.5311766,-0.0075323815,-0.12216013,-0.6301647,-0.2757294
0.41237542,0.6136561,0.123594895,0.06244347,0.29576802,-0.4668802,-0.36420304,-0.7852949,0.27541506,-0.1783775,-0.23150633,-0.11367801
0.4968472,0.38358852,0.3059711,0.027957162,0.22352809,-0.51323336,-0.6816521,-0.95079356,0.4000029,-0.1143073,0.014975984,-0.33146834
0.49999848,0.22048688,0.3447234,0.041105594,0.32596588,-0.4232104,-0.89423734,-1.0454388,0.3982634,-0.103058875,0.19206418,-0.36643273
0.48185948,0.07712586,0.32628882,0.04864039,0.32463554,-0.3790899,-1.0976317,-0.9875617,0.40000004,-0.10365465,0.3476522,-0.36617988
0.4683082,0.007566537,0.30450296,0.01567231,0.2749928,-0.4292766,-1.2041316,-0.9031776,0.39999396,-0.09860222,0.42569023,-0.35347793
0.4798328,-0.12762603,0.25209847,-0.07038625,0.120408595,-0.54739314,-1.3077238,-0.59969175,0.3999728,-0.12391982,0.5509946,-0.28573886
0.48796406,-0.21867678,0.14513291,-0.1940543,0.025544824,-0.76498574,-1.297164,-0.2733124,0.39997485,-0.17204371,0.6283382,-0.15631124
0.4729623,-0.27438378,-0.008540849,-0.28272787,-0.14393222,-0.9969015,-1.1471572,0.07080999,0.3999988,-0.24747497,0.6556309,0.028461898
0.47470555,-0.39540812,0.37548864,-0.23163995,-0.32091534,-0.9204074,-0.8328805,0.29058486,0.15442091,-0.2761896,0.69418514,-0.050649244
0.83658355,-0.29102743,0.40000018,0.07360208,-0.3226922,-0.3611621,-0.16824639,-0.045082375,-0.036960304,0.049434777,0.6113618,-0.5643572
0.9637768,-0.073689505,0.4000002,0.048247978,-0.16530338,-0.52425116,-0.22100785,-0.12848118,0.030470995,0.2105894,0.40048584,-0.74193466
0.9501818,0.37866622,0.40000013,0.07699211,0.033382725,-0.5493102,-0.24195148,-0.24852064,0.038375378,0.23939008,0.024620166,-0.83560985
0.7724666,0.77984476,0.40000004,0.09712047,0.1616428,-0.48938483,-0.24452485,-0.3492152,-0.0070889182,0.09111767,-0.4674649,-0.69589406
0.5924792,0.94558096,0.2071219,0.11909379,0.28064254,-0.40508035,-0.26416656,-0.46049467,-0.04712943,-0.048436325,-0.6583823,-0.42288035
0.35568973,0.7252811,0.009790148,0.13091697,0.36033028,-0.31016818,-0.25548932,-0.68917,0.0971364,-0.23280548,-0.3048418,0.016234005
0.4693411,0.48202902,0.21425508,0.09397298,0.23937717,-0.5011307,-0.4715032,-0.87984806,0.3999734,-0.17464784,-0.09341589,-0.21244846
0.50948954,0.3128833,0.29205027,0.11921425,0.3470334,-0.4189366,-0.75489527,-1.0724578,0.40000656,-0.15825218,0.09271167,-0.29192126
0.49617353,0.15754826,0.3050196,0.13520701,0.3724463,-0.29816124,-0.99361473,-1.0835812,0.39714265,-0.14660245,0.25479522,-0.32141376
0.4725273,0.0017573026,0.28615883,0.09493602,0.34679413,-0.3693248,-1.2010751,-0.8936157,0.39998835,-0.14366342,0.3986383,-0.29741696
0.4626711,-0.11081873,0.2178867,-0.061487008,0.25104693,-0.6523169,-1.3652666,-0.61576813,0.3999768,-0.16400017,0.5071031,-0.22690035
0.4513771,-0.18714584,0.10074966,-0.26676023,0.0607859,-0.9035375,-1.3961018,-0.212806,0.3999538,-0.22059655,0.56339544,-0.08763408
0.42123684,-0.2568652,0.054092,-0.3050834,-0.14640881,-1.0989263,-1.1454768,0.22695123,0.34059918,-0.31540483,0.5719817,0.11617775
0.6950492,-0.29346845,0.4000002,0.05862147,-0.28865764,-0.28620142,-0.24649623,0.057588737,-0.04996414,-0.13061579,0.6591536,-0.36581606
0.9882242,0.115963586,0.4000002,0.057795532,-0.044536114,-0.45243695,-0.22248511,-0.16623347,0.0020714754,0.2558881,0.26347017,-0.91581684
0.8560397,0.5570478,0.4000001,0.05309113,0.121821366,-0.44890714,-0.2177998,-0.2785776,-0.0054714666,0.25455657,-0.28672984,-0.81558126
0.6662806,0.87587935,0.31125385,0.06209369,0.24524064,-0.389149,-0.23400617,-0.39372566,-0.02346457,0.06816938,-0.6896184,-0.5397254
0.47779754,0.87354743,0.10595583,0.100172535,0.33224413,-0.27665344,-0.27008948,-0.5142949,-0.034933582,-0.09586339,-0.57138985,-0.30100778
0.38291937,0.6123559,0.11025822,0.11355814,0.344666,-0.28054082,-0.23235798,-0.75991285,0.15076374,-0.25046352,-0.15994233,0.04033709
0.42109546,0.52515095,0.19701438,0.10553548,0.4003028,-0.4008962,-0.38765302,-0.9020039,0.38616726,-0.15058935,-0.011021298,-0.20048255
0.45356062,0.3196832,0.3212496,0.09498343,0.3365761,-0.46623823,-0.82895267,-1.06796,0.39999586,-0.11382083,0.1810381,-0.28346762
0.46502593,0.14405768,0.35681728,0.096510984,0.40043512,-0.31520304,-1.0014601,-1.0538791,0.39999974,-0.11061625,0.34160954,-0.2911985
0.46364686,-0.014115908,0.3498984,-0.017520232,0.262768,-0.51738465,-1.2498722,-0.85564303,0.40000015,-0.11236713,0.4772206,-0.2699019
0.47932005,-0.15402049,0.3082405,-0.17415106,0.119915485,-0.83032566,-1.399025,-0.45819607,0.3999694,-0.13891545,0.57645327,-0.18103696
0.47619906,-0.24689934,0.2122361,-0.3212605,-0.13018927,-1.100644,-1.2725943,0.0069459137,0.37013876,-0.18565683,0.62763304,-0.039157573
0.50728273,-0.3444051,0.4000001,-0.08583954,-0.36905387,-0.8477302,-0.69077593,0.17061672,0.09205953,-0.23921788,0.6336498,0.033513065
0.9256158,-0.19521177,0.4000002,0.04392479,-0.2611852,-0.48960665,-0.38965788,-0.0772447,-0.036280923,0.09152014,0.5701746,-0.73985344
1.016845,0.06857635,0.4000002,0.045503706,-0.11569,-0.53990066,-0.4057697,-0.1618487,-0.026620388,0.21572827,0.29284576,-0.8854845
0.86013377,0.54986525,0.40000013,0.030743029,0.073666826,-0.5508438,-0.37793183,-0.26074702,-0.0710924,0.18039383,-0.16715899,-0.8023155
0.6934311,0.87368727,0.33526838,0.026655508,0.20925409,-0.49436575,-0.37034118,-0.3580202,-0.12512085,0.029368948,-0.5512097,-0.58610594
0.5608771,0.90249956,0.17726184,0.0613949,0.29728767,-0.37727636,-0.39498457,-0.4573395,-0.17161039,-0.115423836,-0.5477064,-0.31855318
0.38873136,0.6872881,0.076646164,0.045353543,0.32230204,-0.4503107,-0.39388955,-0.68977886,0.17453502,-0.16431734,-0.28507528,-0.12387515
0.4506348,0.568369,0.19219947,0.06192256,0.3097486,-0.4677878,-0.48951793,-0.7968447,0.3999783,-0.13608629,-0.16406211,-0.2521151
0.48874393,0.37563652,0.3023346,0.07360924,0.41635844,-0.38967323,-0.77216446,-1.0300889,0.40000555,-0.121337794,0.03433118,-0.3289037
0.4896101,0.21480566,0.33083078,0.12908159,0.4130543,-0.20541403,-0.95170796,-1.1242325,0.39592373,-0.12465864,0.19846953,-0.35633597
0.47139427,0.046730377,0.3422361,0.085313596,0.3543298,-0.34241682,-1.147601,-0.9704415,0.39999545,-0.11515941,0.35525936,-0.37007877
0.45522776,-0.095512465,0.3088926,-0.06349618,0.2283202,-0.6382468,-1.3474649,-0.66469026,0.39995104,-0.11056266,0.48928058,-0.32510582
0.46464628,-0.22352616,0.2421856,-0.23311622,0.052571364,-0.9020147,-1.4096466,-0.281688,0.39999974,-0.14439282,0.58053404,-0.21431425
0.44253665,-0.29078674,0.1055534,-0.29815632,-0.13613921,-1.087028,-1.2368532,0.1298793,0.38974708,-0.19390056,0.62427944,-0.048151407
0.5310539,-0.37638992,0.40000013,-0.0790529,-0.42327005,-0.85268897,-0.61940837,0.2498494,0.039043974,-0.19955406,0.57616967,-0.029683596
0.9027086,-0.05078716,0.40000018,0.038134046,-0.21411014,-0.47456437,-0.21795039,-0.178421,0.035351664,0.22268754,0.296686,-0.77012426
0.86608654,0.5189511,0.40000013,0.028196769,0.003839035,-0.57024103,-0.21811606,-0.2736602,0.0065704333,0.23393238,-0.22970833,-0.73904026
0.68529445,0.881802,0.34765786,0.06605851,0.14529401,-0.5263443,-0.24815255,-0.37474188,-0.035088003,0.045932688,-0.58608925,-0.532039
0.51169544,0.88804007,0.14492747,0.112426154,0.26283696,-0.44343626,-0.29968247,-0.485949,-0.07025115,-0.12372456,-0.52649504,-0.3170452
0.35794973,0.66595674,0.0976809,0.12215145,0.3295433,-0.38124016,-0.2917532,-0.73502964,0.20059825,-0.17713061,-0.22019494,-0.12105659
0.41437557,0.56340426,0.19925015,0.1235218,0.30855703,-0.4416013,-0.40422812,-0.8850589,0.40000212,-0.14971296,-0.109590404,-0.2368985
0.43943015,0.36487362,0.3223308,0.10687988,0.39912903,-0.3483027,-0.78648436,-1.0920045,0.39998797,-0.11145761,0.08809106,-0.34483647
0.44564757,0.1932556,0.36536315,0.13629794,0.43475,-0.20083319,-0.989259,-1.0975071,0.3828144,-0.107933246,0.25592965,-0.36922157
0.44412613,0.0400789,0.36133224,0.122964665,0.4178308,-0.25894463,-1.1578745,-0.90754867,0.39998764,-0.10849222,0.40760744,-0.35592145
0.44786617,-0.10080218,0.32451916,-0.0061938493,0.25714508,-0.5260961,-1.337321,-0.6776073,0.3999774,-0.12411367,0.5329503,-0.3026354
0.4543877,-0.21807799,0.24908637,-0.21065445,0.04355801,-0.82380205,-1.410802,-0.33873755,0.39994648,-0.16189326,0.61466354,-0.1902623
0.44912466,-0.27319142,0.11034299,-0.3353515,-0.18052392,-1.101136,-1.2324637,0.13682666,0.38166448,-0.23651235,0.6406145,-0.011425308
0.39873305,-0.32448334,0.26115465,-0.2636126,-0.32506463,-1.0651562,-0.9197542,0.28145003,0.21291505,-0.28690398,0.6364033,0.0980654
0.79063475,-0.2645635,0.40000024,0.09290047,-0.32881486,-0.40691188,-0.25046378,-0.041618045,-0.015345519,0.17829163,0.46579263,-0.59285015
0.8752206,0.19326644,0.40000013,0.09053267,-0.08583957,-0.53649324,-0.30446047,-0.19263051,0.056891285,0.3752801,-0.015911222,-0.7007257
0.73923624,0.5723699,0.40000007,0.08086022,0.10028668,-0.5436948,-0.2975888,-0.3123711,0.044584822,0.2832032,-0.43501619,-0.59546524
0.64668727,0.83078456,0.3593546,0.07419335,0.2560724,-0.49653122,-0.29362398,-0.42282206,-0.0063870354,0.09925379,-0.7112679,-0.55510986
0.6126732,0.889604,0.29060322,0.08161548,0.31772795,-0.45282167,-0.2991504,-0.47468606,-0.033788927,0.012697018,-0.7659371,-0.510838
0.511497,0.84006375,0.12371823,0.119616285,0.37981328,-0.31457242,-0.32087186,-0.57456636,-0.0746936,-0.12763521,-0.55354804,-0.29141998
0.42053702,0.6177394,0.12275695,0.07143973,0.35695034,-0.39645883,-0.326972,-0.86000013,0.24979465,-0.18102027,-0.18440539,-0.1326113
0.47643462,0.4397233,0.26712412,0.05489253,0.39126948,-0.3433487,-0.6926044,-1.0573356,0.39999458,-0.11343226,0.015978634,-0.31726477
0.49081042,0.34782985,0.31129846,0.066365846,0.41628897,-0.27677563,-0.8117754,-1.1371428,0.39999968,-0.10634136,0.10932104,-0.35198778
0.49232012,0.18423021,0.34160566,0.10920134,0.44363096,-0.13148995,-1.0000073,-1.1147579,0.39868966,-0.093879625,0.2866023,-0.3798949
0.4983591,0.032471802,0.33648044,0.13586351,0.4483155,-0.20104206,-1.1882523,-0.9706272,0.4000061,-0.09606898,0.44736695,-0.38492036
0.5012879,-0.09678361,0.29518616,0.059306778,0.44352108,-0.46348193,-1.3227985,-0.7312917,0.39999974,-0.112717204,0.57217836,-0.34712583
0.50828826,-0.18860526,0.20442997,-0.19440305,0.21841837,-0.83827883,-1.421649,-0.33058426,0.39999872,-0.16013189,0.645027,-0.23298354
0.49426845,-0.25682548,0.06206981,-0.36609912,-0.116242856,-1.1619298,-1.2724334,0.12666626,0.39999962,-0.23708934,0.6636621,-0.03053692
0.65600616,-0.38206467,0.40000015,0.02373049,-0.3615139,-0.6231732,-0.5734614,0.20501928,-0.022565536,-0.14883517,0.68942523,-0.23595452
0.9138044,-0.016200902,0.4000002,0.052496772,-0.15991785,-0.51802206,-0.36609647,-0.086723916,0.05108219,0.29191142,0.20838964,-0.74749935
0.85106003,0.49493542,0.40000015,0.034878954,0.04474999,-0.55206156,-0.3680283,-0.22702971,0.073321655,0.26396182,-0.31806484,-0.71226853
0.6704145,0.854759,0.3565277,0.024617106,0.19244021,-0.5074809,-0.37693754,-0.36059338,0.06385102,0.056108147,-0.60928226,-0.5265264
0.5788897,0.91406274,0.1774947,0.030323174,0.31881553,-0.42034155,-0.4042593,-0.4941896,0.03583624,-0.1368214,-0.5579059,-0.33855465
0.4300001,0.7359372,0.05285332,0.046680585,0.39293388,-0.34863248,-0.41233453,-0.6752606,0.16360103,-0.20219043,-0.2788445,-0.14511451
0.5178527,0.5232828,0.24677597,0.07319211,0.45022425,-0.36876327,-0.5912627,-0.95623654,0.3999552,-0.14303584,-0.045428,-0.3521235
0.5338142,0.34359542,0.33135912,0.11491749,0.46362033,-0.19657993,-0.8407507,-1.1571765,0.40000442,-0.12575808,0.14520913,-0.41428047
0.5187318,0.14278832,0.38771385,0.12306957,0.46192223,-0.08427893,-1.0751649,-1.1107343,0.39999175,-0.11267171,0.32085863,-0.42713007
0.4932887,-0.006470665,0.3775565,0.072996736,0.43230987,-0.4111876,-1.2921683,-0.90621144,0.4000012,-0.099323824,0.46517465,-0.41105068
0.50337744,-0.14126366,0.32934707,-0.041803613,0.30889398,-0.6811822,-1.424936,-0.660628,0.38223997,-0.13032113,0.57240564,-0.32560778
0.5064055,-0.23940362,0.22324541,-0.24914883,0.14433895,-0.9316997,-1.4326205,-0.26781192,0.39999807,-0.1776875,0.64535844,-0.18641597
0.47822988,-0.328606,0.13767731,-0.30113372,-0.19664487,-1.1423066,-1.1864433,0.20041004,0.36635605,-0.24750692,0.67172927,0.0059496337
0.6926141,-0.30567804,0.4000002,0.061985932,-0.2980434,-0.3741395,-0.338635,0.019558093,-0.022198493,-0.043720372,0.68312347,-0.4358858
0.9101888,0.08956252,0.40000018,0.02508293,0.0072673056,-0.606277,-0.31755754,-0.21219228,0.059509166,0.27575162,0.22506149,-0.7670566
0.85922843,0.5180844,0.40000013,0.044158928,0.16943754,-0.5804211,-0.33212337,-0.3253004,0.0517521,0.25102258,-0.24073157,-0.76443785
0.7961702,0.728814,0.40000004,0.05036138,0.23894662,-0.54775393,-0.33104122,-0.37686095,0.03195213,0.1674255,-0.43233454,-0.7102268
0.6447588,0.9359105,0.26895034,0.079955146,0.3340173,-0.43544737,-0.34024897,-0.47351095,-0.027220828,-0.057732783,-0.67810637,-0.4696325
0.4293998,0.8369775,0.021576364,0.13874686,0.350666,-0.3758654,-0.30590576,-0.6400963,0.07722238,-0.20618433,-0.3460159,0.061099295
0.4593197,0.53970253,0.20570292,0.09325316,0.20131591,-0.5301928,-0.5119489,-0.8036202,0.400048,-0.13507669,-0.09911049,-0.22615793
0.47508955,0.35241497,0.29929823,0.07624264,0.35059494,-0.4837219,-0.8170906,-1.0008278,0.4000068,-0.11242695,0.08568115,-0.28617185
0.47077835,0.20852381,0.3030902,0.12717825,0.36071977,-0.31842113,-0.9475584,-1.0741538,0.4000027,-0.1303753,0.22461276,-0.29069284
0.43635166,0.06896788,0.2790166,0.0709945,0.2950454,-0.42835814,-1.1534686,-0.9145909,0.39996696,-0.12430181,0.3586186,-0.27349406
0.4349871,-0.08043143,0.24795805,-0.059484616,0.17709196,-0.6836484,-1.3379977,-0.6474376,0.39995447,-0.14662829,0.46710792,-0.1949411
0.4357851,-0.18470682,0.16554685,-0.23292005,0.046050213,-0.9637109,-1.3572067,-0.23557797,0.39994618,-0.19218749,0.5339503,-0.06687531
0.41513285,-0.24932496,0.038166787,-0.29960355,-0.16543444,-1.1474601,-1.1179132,0.17356747,0.33010367,-0.25995836,0.55957633,0.11753341
0.59710795,-0.31089497,0.4000002,0.026911536,-0.35482454,-0.36130816,-0.3212384,0.050277904,0.005911212,-0.05016645,0.6128395,-0.2838549
0.9107609,0.05193576,0.40000018,0.018872889,-0.1383903,-0.47184792,-0.23938966,-0.14169121,-0.0071903076,0.34083897,0.20847714,-0.74567246
0.8444265,0.57101214,0.40000007,0.010567303,0.055501524,-0.49443284,-0.230292,-0.2550576,-0.030361244,0.2723979,-0.33028355,-0.7146134
0.6612492,0.91286063,0.34891206,0.0022414923,0.22583315,-0.47012454,-0.22373867,-0.36009786,-0.079250224,0.10298685,-0.71994275,-0.5958191
0.5257114,0.9039972,0.16656217,0.024072682,0.33131403,-0.378596,-0.25516924,-0.47407344,-0.09720042,-0.03467976,-0.70829815,-0.4324627
0.3709633,0.68623924,-0.009121655,0.051469333,0.41202593,-0.26057947,-0.23469837,-0.67260206,-0.016046919,-0.2471047,-0.34373468,-0.12463239
0.44255364,0.516192,0.19972964,0.009285133,0.350527,-0.40078884,-0.38463774,-0.95111746,0.39872226,-0.19676925,-0.05852251,-0.20330535
0.4767211,0.3286524,0.3143039,0.0009313229,0.41720572,-0.29815075,-0.77696806,-1.1307319,0.3999954,-0.16245335,0.12521444,-0.31101373
0.484021,0.16707578,0.3496917,0.03902655,0.45522404,-0.22602727,-1.006343,-1.1375473,0.39103535,-0.14710042,0.2946621,-0.34657496
0.47935095,0.018954774,0.34333816,0.067939356,0.46097657,-0.1517665,-1.160308,-1.0178094,0.3817673,-0.14537393,0.442381,-0.35307238
0.45014408,-0.081809565,0.27497628,0.03332783,0.39398256,-0.4498581,-1.3218231,-0.7675245,0.39999968,-0.14467022,0.5667021,-0.33271548
0.44619802,-0.1666889,0.17360006,-0.15047078,0.22899601,-0.81519264,-1.3965656,-0.39577746,0.39999983,-0.19070451,0.64384675,-0.22967167
0.42506856,-0.23586738,0.029117173,-0.34627572,-0.11978951,-1.0793154,-1.271257,0.07445003,0.399998,-0.26646504,0.6681335,-0.044965092
0.5426526,-0.31579414,0.40000018,-0.06915923,-0.35466528,-0.81075495,-0.6238174,0.27674422,0.03885675,-0.2836717,0.58457285,-0.01385066
0.93581945,0.014142315,0.40000018,0.029246248,-0.18430625,-0.5121689,-0.20916025,-0.13479008,0.033736467,0.1535627,0.2521765,-0.78372055
0.8689907,0.55444187,0.40000007,0.055988714,0.0014313823,-0.5280041,-0.214146,-0.237678,-0.008653899,0.12796418,-0.24199466,-0.79557735
0.68417245,0.8758745,0.3789894,0.091802835,0.13997515,-0.4820365,-0.23883736,-0.34547964,-0.05120379,0.029647615,-0.59488815,-0.65482944
0.5329852,0.93341917,0.16371751,0.12495417,0.2735047,-0.41418192,-0.27602896,-0.4635875,-0.08411332,-0.07018093,-0.6261293,-0.30971003
0.33839744,0.6825382,-0.013148461,0.13248202,0.29163614,-0.40131703,-0.2672529,-0.7061029,0.14028923,-0.2399075,-0.24169734,0.019375447
0.48234305,0.4538809,0.23484358,0.1169667,0.28979582,-0.4576974,-0.49928087,-0.91544193,0.4000031,-0.1464615,0.01427538,-0.29875433
0.4934498,0.2768129,0.30329654,0.11682056,0.3887662,-0.3669148,-0.8611054,-1.1236613,0.39999816,-0.12063257,0.20443475,-0.36383837
0.4915119,0.18908693,0.31781903,0.11896013,0.42358705,-0.3049865,-1.0070704,-1.1358063,0.39999712,-0.11660822,0.29113203,-0.37193376
0.48380497,0.029310381,0.31251252,0.13675575,0.4259544,-0.16824456,-1.1365225,-1.012642,0.39999497,-0.12561361,0.43778345,-0.36762986
0.4679746,-0.08722547,0.25141686,0.015025319,0.33750597,-0.57872015,-1.3251406,-0.71393955,0.3999671,-0.14304262,0.54891557,-0.30825743
0.47182107,-0.17816845,0.14627244,-0.2659667,0.17048603,-0.9140048,-1.4287914,-0.31666112,0.39999667,-0.20129079,0.6137388,-0.16745736
0.45991418,-0.21890655,0.07855848,-0.35540625,0.0002974337,-1.0551887,-1.3756435,-0.09622037,0.39997703,-0.23441114,0.6305225,-0.07817226
0.41606247,-0.2824479,0.19780101,-0.23973934,-0.18163446,-1.1111006,-0.9585317,0.29998845,0.28254896,-0.33652842,0.6275474,0.15535912
0.89209366,-0.28618214,0.40000024,0.10697531,-0.21365291,-0.39594036,-0.29194224,0.005502225,-0.08099522,0.09154805,0.5698639,-0.6645588
0.96688175,0.23244716,0.40000018,0.11708534,0.006639311,-0.49556372,-0.36005414,-0.13574828,-0.008928928,0.25131097,0.04186143,-0.84897393
0.7675002,0.75457865,0.40000004,0.11907819,0.16418016,-0.45870057,-0.34503868,-0.24829482,-0.036806505,0.14048633,-0.42669353,-0.70529544
0.57816774,0.9440201,0.2452552,0.13097715,0.28335157,-0.36815214,-0.34660295,-0.36700016,-0.07058032,-0.008573746,-0.5983689,-0.325313
0.3378334,0.74797684,0.04512475,0.15432772,0.33928853,-0.3252045,-0.31068647,-0.61107147,0.09430935,-0.115200914,-0.29696894,-0.13473283
0.47385308,0.49806947,0.21573704,0.09165244,0.2636438,-0.4659894,-0.51421905,-0.829487,0.39999092,-0.11078089,-0.06305454,-0.3213124
0.5077813,0.30309972,0.31301203,0.0946278,0.37797335,-0.3829388,-0.830025,-1.0664142,0.40000212,-0.090203464,0.14860019,-0.41254774
0.49825895,0.13258512,0.33407503,0.1062533,0.4305055,-0.26870072,-1.0764434,-1.0964191,0.40000123,-0.07951333,0.33211303,-0.43462327
0.49970025,-0.024354754,0.3240188,0.085565686,0.42620802,-0.34092414,-1.2766241,-0.8939768,0.3999979,-0.09202964,0.47614786,-0.4042842
0.5047135,-0.13095541,0.25570777,-0.07381885,0.33115286,-0.7106615,-1.4178898,-0.5380446,0.3999981,-0.122428045,0.5785895,-0.31945637
0.4879953,-0.1971284,0.12865967,-0.27111208,0.027711123,-1.0075909,-1.378812,-0.10732802,0.39999974,-0.17961372,0.6291847,-0.17524487
0.43268004,-0.2767897,0.22231404,-0.23437603,-0.25595203,-1.063571,-1.0337012,0.2780943,0.28904504,-0.26387322,0.63845265,0.017804576
0.7609502,-0.20638447,0.40000024,0.082898244,-0.25381553,-0.414929,-0.26622644,-0.03070626,-0.051147584,0.14714058,0.5068206,-0.6048747
0.8633545,0.22919112,0.40000015,0.07520306,-0.030772422,-0.53526974,-0.33860782,-0.18792182,0.060987446,0.36980408,-0.01587066,-0.7489902
0.7859018,0.6450479,0.40000007,0.07127415,0.138022,-0.52782667,-0.32947218,-0.2961736,0.030653171,0.2340369,-0.4847669,-0.6480544
0.6544544,0.89489233,0.32499504,0.08498012,0.26290017,-0.46024793,-0.33933705,-0.4006876,-0.014568773,-0.0045316913,-0.6795725,-0.56088495
0.5585633,0.8973426,0.15364778,0.099703655,0.36240467,-0.36164916,-0.36212933,-0.51399505,-0.03793294,-0.12428251,-0.55492216,-0.35207117
0.42304736,0.6780489,0.044511452,0.08939381,0.3586084,-0.40007225,-0.35075733,-0.73033136,0.17105404,-0.19415973,-0.24779476,-0.13748096
0.5030714,0.47085592,0.22343296,0.08343241,0.42609572,-0.38114125,-0.6209965,-1.0083089,0.4000029,-0.15478788,-0.041829955,-0.30463615
0.5199496,0.28520578,0.30020487,0.108754344,0.45901993,-0.22466736,-0.84501773,-1.160847,0.40000054,-0.13951674,0.1520418,-0.37660122
0.518016,0.11509444,0.31945777,0.1481883,0.44745275,-0.12544532,-1.0252588,-1.0734895,0.39758253,-0.12856431,0.34061322,-0.420833
0.5143637,-0.0321872,0.29991242,0.09788715,0.4274076,-0.4156598,-1.2772057,-0.8402625,0.39998522,-0.1368844,0.48692563,-0.4018143
0.5011912,-0.09207383,0.26655754,-0.016027706,0.35316893,-0.6174551,-1.3340218,-0.67527,0.39998183,-0.14119956,0.5456855,-0.3692293
0.4967822,-0.1977225,0.17139554,-0.20377615,0.12245096,-0.91782683,-1.3848493,-0.30771095,0.39996096,-0.18482135,0.62482643,-0.24440752
0.46563548,-0.2627249,0.033099372,-0.29770446,-0.1404918,-1.1999966,-1.17974,0.14358789,0.3803177,-0.24527164,0.6561588,-0.051978026
0.59793127,-0.37572587,0.40000018,0.07438857,-0.3174641,-0.51197624,-0.5238719,0.13285851,0.0014255698,-0.1410655,0.62926257,-0.21830274
0.88987464,-0.06914983,0.40000024,0.074195564,-0.06681799,-0.54771763,-0.38936427,-0.14785649,0.04750544,0.25021285,0.17409039,-0.73808074
0.8662443,0.4322346,0.40000015,0.09888982,0.103436485,-0.5306339,-0.40447128,-0.2648586,0.023994949,0.2413599,-0.2459093,-0.7687182
0.7054716,0.8470019,0.385948,0.109651685,0.22697482,-0.46007207,-0.40593508,-0.3670864,-0.04226774,0.06697854,-0.59780765,-0.55248785
0.5526236,0.9532963,0.17649564,0.13477372,0.30872825,-0.33764037,-0.40775466,-0.517725,-0.036132175,-0.08911953,-0.45743364,-0.21669108
0.41664216,0.8201681,0.07360901,0.15578587,0.33905077,-0.32166585,-0.33829695,-0.68919086,0.117909096,-0.106156364,-0.3053278,-0.15024701
0.44514552,0.6933951,0.09529635,0.15346724,0.33417425,-0.38965756,-0.39280716,-0.85864735,0.3427971,-0.102709495,-0.18105304,-0.258925
0.48441157,0.5791184,0.19655229,0.14630108,0.40593407,-0.3578566,-0.51232255,-0.9581223,0.40002668,-0.078727596,-0.058580246,-0.33611116
0.51319873,0.47339427,0.2670877,0.15995568,0.44331774,-0.29004344,-0.63431716,-1.0875778,0.40000188,-0.07203876,0.05261437,-0.38133267
0.5214406,0.37482068,0.3112088,0.18420629,0.45041767,-0.19600593,-0.74384147,-1.1766123,0.40000287,-0.06341178,0.15728013,-0.41289032
0.51294214,0.28159174,0.33610186,0.19232398,0.44847217,-0.18905857,-0.8922086,-1.166275,0.40000328,-0.050812114,0.2556913,-0.43137336
0.5045152,0.19193454,0.34825197,0.20024624,0.44383177,-0.20922332,-1.0456374,-1.1022817,0.40000728,-0.04690045,0.3431278,-0.43252143
0.49817052,0.105692536,0.34988993,0.15186489,0.41165864,-0.32065755,-1.1703196,-1.0101186,0.4000572,-0.050428953,0.41915932,-0.4149036
0.4935733,0.034358256,0.33247012,0.0881415,0.4065795,-0.48948672,-1.2626655,-0.8742195,0.3999692,-0.059377972,0.48387283,-0.38242808
0.49751636,-0.035194334,0.30869052,-0.019567708,0.32548723,-0.6318179,-1.3385408,-0.71867925,0.3999866,-0.079796195,0.5357898,-0.3315851
0.50176895,-0.096241556,0.2741185,-0.13023543,0.2162578,-0.74330956,-1.3961338,-0.55791706,0.39996895,-0.101612635,0.5797987,-0.27171075
0.5047427,-0.20324901,0.18058856,-0.2894803,-0.059797164,-0.9706756,-1.3722721,-0.2008201,0.38365588,-0.1529735,0.64382815,-0.12978405
0.45996544,-0.2911278,0.2172311,-0.20927556,-0.26262522,-0.9911678,-1.006616,0.18571743,0.264533,-0.22617026,0.6630387,0.060814667
0.7706912,-0.28592548,0.40000027,0.05085874,-0.24824618,-0.43750918,-0.37840512,-0.015372087,-0.06014328,0.048669428,0.4964013,-0.55869436
0.95150554,0.15338361,0.40000018,0.041191675,0.003121562,-0.5572093,-0.42226297,-0.15581675,-0.018162336,0.2644496,0.084341906,-0.82813513
0.8144941,0.6731019,0.40000004,0.048528153,0.18364303,-0.5363068,-0.41191548,-0.26203856,-0.053811975,0.18851829,-0.37845805,-0.7227641
0.6407612,0.9398552,0.2926421,0.067172244,0.31159905,-0.45105493,-0.4074496,-0.35738882,-0.11770555,-0.0337732,-0.65623516,-0.49789697
0.48238948,0.869851,0.09458429,0.104196325,0.37710398,-0.30898818,-0.4010983,-0.49227768,-0.08935221,-0.17866579,-0.49756542,-0.07084821
0.44553787,0.60666525,0.15379493,0.08906389,0.34820053,-0.4282017,-0.44381744,-0.8179258,0.37674797,-0.109044015,-0.23611255,-0.2784238
0.49838853,0.4067426,0.27178913,0.10395383,0.41069922,-0.29941165,-0.71485776,-1.0591091,0.4000027,-0.08865336,-0.002512481,-0.41458392
0.50509536,0.21186787,0.32224926,0.1412176,0.4480372,-0.13560303,-0.9556858,-1.1421566,0.39999762,-0.08395693,0.22005367,-0.47738037
0.5101321,0.05178459,0.31537336,0.19540043,0.45231208,-0.014446967,-1.055456,-1.0411618,0.39998797,-0.09159648,0.4128002,-0.49457532
0.50546193,-0.06807945,0.25706175,0.13693352,0.4517314,-0.39631772,-1.2453222,-0.772127,0.39998114,-0.11477442,0.55309296,-0.453168
0.50663674,-0.16719317,0.1666173,-0.1367644,0.16312388,-0.7469357,-1.382217,-0.44650722,0.39995822,-0.16159838,0.64018977,-0.34650835
0.511969,-0.24921033,0.04277533,-0.31137493,-0.058816537,-1.0754727,-1.3111852,0.031181915,0.39999995,-0.23023647,0.68045956,-0.17270742
0.49971104,-0.30122167,0.034917627,-0.29749602,-0.18044263,-1.1683878,-1.1208439,0.21287242,0.36403397,-0.27530372,0.6814231,-0.062319618
0.68033826,-0.30534658,0.40000015,0.010710254,-0.28614083,-0.38445315,-0.321258,0.03389972,0.013536642,0.0011766442,0.6575346,-0.3960049
0.8839727,0.11824656,0.40000015,-0.039869577,-0.0062245,-0.56527156,-0.30053803,-0.22663508,0.15223448,0.33145043,0.16562805,-0.7140307
0.87726986,0.33848256,0.40000015,-0.031774882,0.07127318,-0.55184704,-0.30340523,-0.2864237,0.1437185,0.28603756,-0.10217255,-0.748681
0.7763043,0.73357266,0.40000004,-0.029090894,0.21132864,-0.49436748,-0.29204193,-0.39799017,0.10421096,0.16413403,-0.47700295,-0.6855077
0.6795013,0.8900796,0.34359702,-0.01663962,0.32331145,-0.40087193,-0.30003303,-0.5123647,0.06576072,0.031714067,-0.7455311,-0.58925235
0.5719413,0.841123,0.12643497,0.012414986,0.39474902,-0.2595041,-0.31735963,-0.6197174,0.005128988,-0.13684925,-0.6288274,-0.27531293
0.460002,0.6173278,0.10636486,0.040973544,0.38912028,-0.3730605,-0.36065152,-0.84324944,0.278231,-0.22334845,-0.21821398,-0.1503876
0.5155866,0.41521978,0.26756385,0.0256844,0.43738273,-0.36042583,-0.7651145,-1.0414468,0.39999112,-0.16825862,-0.014786138,-0.3224607
0.5477202,0.22003923,0.34159976,0.057476386,0.47212198,-0.2049122,-0.94416714,-1.1715746,0.40000427,-0.1774946,0.16992252,-0.37074143
0.5362934,0.06483243,0.3367605,0.09106069,0.4613851,-0.20934115,-1.1069025,-1.0547442,0.40000352,-0.17289443,0.34096378,-0.3930798
0.5250782,-0.07275351,0.29942644,0.046580166,0.39586502,-0.39745986,-1.2758812,-0.86409837,0.4000521,-0.17576998,0.48523042,-0.36489066
0.5176828,-0.13710214,0.26904854,-0.0055307676,0.3522997,-0.4990673,-1.3280455,-0.75856966,0.3999986,-0.18152332,0.5443545,-0.3338457
0.5105451,-0.19061159,0.22466081,-0.07272323,0.270893,-0.68362284,-1.3714414,-0.6106205,0.39993924,-0.1925859,0.593484,-0.28932565
0.49777752,-0.24919033,0.0924205,-0.22664957,0.07291642,-0.9650364,-1.3857751,-0.2093405,0.39994445,-0.23482014,0.65919787,-0.16244394
0.47365648,-0.3053238,0.015289485,-0.30089086,-0.1746589,-1.1527079,-1.1149248,0.24849913,0.36623812,-0.31890157,0.6702399,0.044131648
0.6836713,-0.27877373,0.40000018,0.026580023,-0.30575973,-0.3632741,-0.2694052,0.012416641,-0.060859047,-0.029133957,0.6224935,-0.41106185
0.89411944,0.1419205,0.4000002,0.0036360268,-0.05377385,-0.5514382,-0.28324524,-0.2366346,0.042875234,0.2939877,0.112481825,-0.7507455
0.82360697,0.61425805,0.4000001,0.030692182,0.10208389,-0.53122634,-0.2974593,-0.3359978,0.013365245,0.24903646,-0.3512251,-0.7077625
0.7514721,0.78949684,0.40000004,0.039369572,0.16934264,-0.50250816,-0.3012091,-0.3845377,-0.014941426,0.15038165,-0.5340111,-0.6492921
0.58001757,0.9165366,0.19684567,0.06859028,0.26915452,-0.40444213,-0.31988713,-0.48177758,-0.07169749,-0.070271514,-0.6068484,-0.36657447
0.33568698,0.7164461,-0.00023668415,0.08974816,0.33269516,-0.32135722,-0.2808532,-0.6697739,0.05982738,-0.26668674,-0.28023568,0.0067981156
0.43979564,0.5144324,0.22296779,0.056826506,0.2686628,-0.41968426,-0.44596642,-0.819212,0.4000026,-0.18345693,-0.06972458,-0.24151726
0.44477123,0.35107237,0.2992585,0.059910968,0.3411764,-0.31901374,-0.788033,-1.026252,0.39999858,-0.1486987,0.10398645,-0.31534258
0.45106936,0.19326194,0.32247844,0.113393694,0.36903125,-0.15609007,-0.9267309,-1.0833621,0.40000203,-0.15268572,0.26642212,-0.3218606
0.4161646,0.055321947,0.29741943,0.06376691,0.30486393,-0.3338986,-1.1374571,-0.91607213,0.39998123,-0.13483766,0.41147515,-0.31258234
0.41786656,-0.08331922,0.25803483,-0.047412537,0.161749,-0.58995724,-1.3018197,-0.6911822,0.39996606,-0.15528928,0.5237648,-0.24026841
0.40664887,-0.18300144,0.16686039,-0.26584327,-0.013889813,-0.8989846,-1.3461227,-0.25245047,0.39997905,-0.18605968,0.6012902,-0.12507072
0.3862126,-0.24809317,0.038678847,-0.33075184,-0.18474358,-1.1412996,-1.161726,0.1864055,0.38480496,-0.27044743,0.6173196,0.06940086
0.5930673,-0.31495428,0.40000024,0.078633025,-0.4377371,-0.39880514,-0.3871465,0.14566788,-0.07944733,-0.15179671,0.64673936,-0.25212666
0.91046923,0.0960597,0.40000024,0.08550154,-0.18559848,-0.49177092,-0.2481471,-0.16619289,0.051136095,0.32316622,0.15198503,-0.80764407
0.81445116,0.57312477,0.40000007,0.08360401,0.004680962,-0.52747554,-0.25205123,-0.28177088,0.03829482,0.26281425,-0.34810668,-0.72543454
0.62498826,0.8231146,0.3397768,0.08053993,0.16298783,-0.50590295,-0.2483396,-0.38396445,-0.0068299677,0.10020683,-0.64948523,-0.54480845
0.55977434,0.84634894,0.20492202,0.0823177,0.30856743,-0.44959852,-0.2570052,-0.48768303,-0.06406846,-0.0561769,-0.7032625,-0.54245365
0.4364185,0.767132,0.04602839,0.104940526,0.38105607,-0.3309044,-0.26708642,-0.5770919,-0.11593711,-0.1652529,-0.5170265,-0.26737505
0.4018313,0.5953929,0.08870152,0.076829314,0.38680336,-0.3698717,-0.3133529,-0.81189746,0.274813,-0.22615767,-0.19482532,-0.092042506
0.46251938,0.40873018,0.2356126,0.086369015,0.43345937,-0.36366794,-0.72813654,-1.0537052,0.3999955,-0.17506483,-0.0014784392,-0.2557873
0.47284395,0.25253832,0.28488666,0.11460625,0.45980197,-0.22034739,-0.9208947,-1.184679,0.40000337,-0.16243906,0.15931606,-0.30507582
0.46668896,0.09831717,0.2979316,0.16176936,0.4374953,-0.06670314,-1.0174402,-1.0559494,0.39491433,-0.15766229,0.31017372,-0.3281643
0.4512203,-0.033923123,0.2746709,0.1194516,0.4260526,-0.36229467,-1.2328503,-0.8405392,0.39999917,-0.14844732,0.44843864,-0.3238535
0.44703534,-0.1546243,0.2120475,-0.09402996,0.28577262,-0.7218157,-1.3898622,-0.5304892,0.39993584,-0.17127201,0.55275553,-0.24915151
0.43672523,-0.23893194,0.098878294,-0.2827214,0.025742091,-1.0437793,-1.3602269,-0.1110135,0.39997688,-0.22093739,0.6121175,-0.11586835
0.41045,-0.3083659,0.29169366,-0.18775916,-0.25869715,-1.0279026,-0.9676454,0.19273566,0.25011113,-0.29521593,0.64138675,0.055169787
0.58448726,-0.32039738,0.40000024,0.10390311,-0.33682814,-0.37081048,-0.49666014,0.07584848,-0.009236991,-0.13592641,0.6362666,-0.2201492
0.8692791,0.054361295,0.40000024,0.0678701,-0.1008713,-0.5545973,-0.35563877,-0.18159772,0.09972264,0.314063,0.20662013,-0.77029663
0.8479852,0.48877525,0.40000015,0.049710717,0.08822603,-0.57818747,-0.34228197,-0.29815146,0.094583966,0.33401722,-0.2585874,-0.7296021
0.72238904,0.82621914,0.40000004,0.045702532,0.22766152,-0.5262705,-0.3254468,-0.39602503,0.03961159,0.1465486,-0.6106701,-0.6168896
0.6392293,0.91766715,0.2925122,0.08559567,0.31455004,-0.4113084,-0.35409892,-0.5003418,-0.006620088,-0.038410544,-0.66165006,-0.44700035
0.44833213,0.75481087,0.06697787,0.12857,0.3660161,-0.26370272,-0.32391095,-0.6916777,0.07409484,-0.20013559,-0.32558337,-0.045490373
0.4983063,0.52326214,0.20017552,0.096590705,0.32623076,-0.40511456,-0.50573504,-0.93020034,0.399967,-0.12807627,-0.10119234,-0.28117257
0.51264274,0.32977366,0.30397648,0.07524904,0.41190478,-0.36722067,-0.87982017,-1.0743114,0.3999969,-0.08591292,0.10547693,-0.37386915
0.50718576,0.17050375,0.32257432,0.10010186,0.4538651,-0.22462545,-1.0388718,-1.071498,0.4000008,-0.081853464,0.27734575,-0.39751083
0.48956454,0.01661695,0.31137797,0.1028473,0.46189144,-0.16330059,-1.1675537,-0.9326289,0.39999577,-0.08496847,0.4219014,-0.38439962
0.47890714,-0.102490336,0.2606458,0.025068961,0.42047805,-0.43507233,-1.3137399,-0.74375314,0.39999864,-0.104819916,0.5323217,-0.33687592
0.49619454,-0.21355146,0.18306783,-0.18115719,0.22501646,-0.777667,-1.4338106,-0.43031147,0.39995703,-0.15970993,0.6059559,-0.22113207
0.49577728,-0.24818502,0.11882527,-0.27048188,0.13653855,-0.9466517,-1.4280589,-0.25158462,0.39997616,-0.18943474,0.63179284,-0.14577714
0.4590873,-0.31797448,0.00055615435,-0.32670093,-0.18614866,-1.1921256,-1.1970035,0.16041552,0.34083217,-0.25927493,0.65434873,0.04043874
0.6761947,-0.2990575,0.40000024,0.13974237,-0.3010825,-0.361278,-0.33215111,0.11397903,-0.05361904,-0.08792482,0.6868238,-0.32528883
0.89816046,0.10887108,0.40000018,0.07807698,-0.03586798,-0.5804466,-0.30435875,-0.10751903,0.03156185,0.3152436,0.11317981,-0.75187355
0.7916653,0.55379635,0.4000001,0.09657368,0.10531525,-0.5536066,-0.32193685,-0.22221784,0.045852434,0.25926825,-0.34055325,-0.6584116
0.6591608,0.86681014,0.32703915,0.11661616,0.24392188,-0.48974308,-0.33773908,-0.34317663,0.023147283,0.062482953,-0.6133982,-0.5394322
0.52090603,0.86934084,0.14183547,0.14672245,0.3421012,-0.37734118,-0.36037475,-0.46021,-0.008259189,-0.11758821,-0.5288942,-0.31911308
0.38908696,0.6376737,0.11997824,0.12755035,0.31866726,-0.41485924,-0.3416412,-0.73763204,0.25427556,-0.1664415,-0.26341662,-0.11063969
0.4522055,0.4368684,0.27214512,0.12232395,0.3292234,-0.45798382,-0.59386015,-0.9440624,0.40000343,-0.12255127,-0.05571149,-0.26563308
0.464835,0.26302257,0.32359588,0.1539528,0.3894905,-0.32211587,-0.82679605,-1.1171913,0.39091754,-0.11714917,0.12603457,-0.31412736
0.44416568,0.10202945,0.3246032,0.16312295,0.3890522,-0.27619934,-1.0319102,-1.060464,0.40002325,-0.10306495,0.2957533,-0.33234018
0.44585726,-0.05489576,0.30192193,0.07481287,0.31402415,-0.4462686,-1.2371147,-0.85558,0.39120927,-0.10846377,0.44913286,-0.3074812
0.4595992,-0.18875048,0.23634416,-0.13257715,0.17166509,-0.7574782,-1.3665074,-0.50711274,0.39996865,-0.13803217,0.5661049,-0.22536586
0.4551506,-0.25537053,0.103023335,-0.28384578,-0.0697373,-1.0719292,-1.3350413,-0.04314636,0.3999995,-0.194136,0.62872994,-0.09045652
0.44040245,-0.3341675,0.40000048,-0.16262175,-0.34950176,-0.97504294,-0.8412302,0.24889109,0.17529881,-0.27843693,0.64808196,0.0877582
0.86770153,-0.15582126,0.4000002,0.033629216,-0.25336918,-0.48382354,-0.28444794,-0.10894417,0.018176224,0.17220715,0.44221893,-0.6363382
0.8924089,0.31180933,0.40000015,0.03267201,-0.029660368,-0.54983526,-0.3205066,-0.2609816,0.08467279,0.33763057,-0.02321092,-0.7630745
0.82648605,0.54944646,0.40000013,0.039539557,0.05334962,-0.54245734,-0.3247486,-0.3181943,0.07966506,0.280102,-0.26207447,-0.6796086
0.68994945,0.87052244,0.34861138,0.03962491,0.19994146,-0.4933314,-0.32528237,-0.42932338,0.03143771,0.0674991,-0.6436106,-0.5634247
0.56784976,0.9383073,0.15875605,0.0599625,0.31966007,-0.39663514,-0.33574542,-0.5309745,-0.038217843,-0.12159198,-0.5969636,-0.34325987
0.36464608,0.6523533,0.047295157,0.062568575,0.32909012,-0.35264245,-0.32109493,-0.815171,0.19707778,-0.18559292,-0.22261555,-0.11432641
0.49705857,0.415594,0.29456732,0.05176644,0.32232922,-0.47837394,-0.65441734,-1.0059575,0.39997658,-0.12585576,0.012549983,-0.31794629
0.51686513,0.21482202,0.36602366,0.055364314,0.4034107,-0.35651156,-0.918372,-1.1039286,0.37676293,-0.115844876,0.21345887,-0.36973718
0.5131861,0.03918934,0.372341,0.029299961,0.3748085,-0.38931787,-1.1551472,-1.0330383,0.40000033,-0.12236032,0.37634796,-0.36730966
0.49077445,-0.105763406,0.32055068,-0.07048963,0.22488621,-0.6104831,-1.3574438,-0.74350375,0.39996386,-0.12538423,0.51306516,-0.31144798
0.48151293,-0.20580973,0.21731031,-0.21772358,0.043872558,-0.8943112,-1.4013813,-0.33050805,0.39997074,-0.1628965,0.5999087,-0.1953973
0.45712602,-0.28095677,0.1318653,-0.27842933,-0.17409292,-1.1651288,-1.2176746,0.13128467,0.3610129,-0.23416497,0.6383952,-0.03148857
0.63210684,-0.3322699,0.4000002,0.10111185,-0.35811707,-0.37872866,-0.45644653,0.09455363,-0.0077858996,-0.08971931,0.64508635,-0.26343578
0.9081874,0.05540028,0.40000024,0.07408336,-0.1106181,-0.55074877,-0.40095496,-0.10226824,0.02794693,0.32705528,0.17816335,-0.73801553
0.8553346,0.54047763,0.4000001,0.07974366,0.08904314,-0.5726803,-0.4163905,-0.23181635,0.042886827,0.27680886,-0.25940773,-0.7437287
0.7035862,0.8803708,0.37770137,0.07516184,0.23368296,-0.52529335,-0.42639935,-0.3530516,0.015164236,0.0586727,-0.63812476,-0.5578192
0.51740533,0.9229091,0.15708034,0.088979505,0.34026712,-0.42607695,-0.4410005,-0.46495453,-0.018627346,-0.09821231,-0.5218641,-0.24356447
0.43390727,0.6439342,0.16835278,0.10320574,0.32548234,-0.4541417,-0.41848245,-0.72064924,0.26551795,-0.15266664,-0.21602218,-0.22872594
0.4862501,0.4331908,0.31848806,0.08141898,0.32818118,-0.52058154,-0.6967114,-0.9027558,0.400004,-0.11982504,0.0032125902,-0.35998628
0.48499444,0.26414475,0.36384106,0.103694014,0.38358366,-0.3915516,-0.9651551,-1.0471154,0.40000647,-0.11769618,0.17712396,-0.39947295
0.46769953,0.10596733,0.36578417,0.13145667,0.4051413,-0.23113209,-1.1205697,-0.9936727,0.3902635,-0.123101674,0.3295467,-0.3933825
0.44748923,-0.03510838,0.33550712,0.049673464,0.37370905,-0.4451639,-1.2769873,-0.7428423,0.39999402,-0.13359724,0.45473275,-0.3554394
0.44683644,-0.1358075,0.25540027,-0.1168017,0.2555338,-0.7893922,-1.393156,-0.43917656,0.3999774,-0.17510831,0.5402924,-0.2534523
0.45273468,-0.22177996,0.14364685,-0.28847897,0.002053487,-1.0384927,-1.3556929,-0.0883027,0.40000135,-0.24308741,0.5925217,-0.1028333
0.38253954,-0.25625178,0.34785208,-0.15462078,-0.23580077,-0.9623123,-0.8633748,0.24769887,0.1878546,-0.31451342,0.61236626,0.07683562
0.81036144,-0.14465804,0.4000002,0.09964243,-0.22762713,-0.46512038,-0.32589734,-0.0015201217,-0.02776463,0.12966704,0.45341235,-0.6979049
0.90109533,0.28615436,0.40000013,0.095548436,-0.026002234,-0.52302384,-0.35438082,-0.14176323,0.021522328,0.3121176,-0.029898068,-0.7886726
0.7508681,0.7347835,0.40000004,0.07960013,0.14687274,-0.5184518,-0.3392828,-0.25540578,-0.004389048,0.17612268,-0.47582683,-0.6601592
0.57133013,0.91159654,0.25841826,0.091066025,0.27284467,-0.45004836,-0.3538094,-0.37092227,-0.021345874,-0.01175341,-0.6416793,-0.45811683
0.49233267,0.87470394,0.16855466,0.10665489,0.31599018,-0.39185283,-0.3664871,-0.4287111,-0.029517299,-0.0968689,-0.57185,-0.29766515
0.36499342,0.6620919,0.10792339,0.13160856,0.3561047,-0.29122552,-0.34366634,-0.6519672,0.14590718,-0.16587752,-0.26634133,-0.14916934
0.45832267,0.45301393,0.28880325,0.12384408,0.36020818,-0.3202348,-0.5472863,-0.92808706,0.3999822,-0.12855424,-0.050243672,-0.33049974
0.446041,0.2574562,0.36896876,0.09822727,0.43286613,-0.2269811,-0.89192045,-1.11561,0.40000957,-0.08318961,0.1568025,-0.40681574
0.44637385,0.15321307,0.38257146,0.12849356,0.43859187,-0.11725197,-0.99176997,-1.1252704,0.3889809,-0.08417369,0.26372263,-0.41793603
0.45464852,0.024079906,0.378216,0.19067417,0.43089768,0.0058504036,-1.0868248,-1.056328,0.3999662,-0.08797179,0.40312198,-0.41554585
0.45705345,-0.109556414,0.3449223,0.13118923,0.4308133,-0.25018573,-1.2697701,-0.82285875,0.3885042,-0.094114974,0.5391604,-0.3835325
0.46025696,-0.2049578,0.26039556,-0.097802706,0.3451811,-0.745893,-1.4356627,-0.44564682,0.3999975,-0.13660404,0.623607,-0.29640466
0.45365855,-0.277244,0.13015799,-0.30351585,-0.02158172,-1.1534828,-1.3475673,0.05814917,0.39999864,-0.20421603,0.66098595,-0.13217916
0.47876808,-0.33779588,0.40000013,-0.12632187,-0.31439573,-0.920392,-0.75581616,0.28755823,0.08558832,-0.24766658,0.66342574,0.043038774
0.92986673,-0.1270073,0.40000024,0.036285467,-0.14341606,-0.5461478,-0.36830896,-0.087742835,0.036758535,0.20712867,0.47548878,-0.77162695
0.97417885,0.10948607,0.40000024,0.027026096,-0.026306575,-0.57791466,-0.36431852,-0.15561005,0.040571734,0.26818088,0.2080855,-0.85480154
0.85781056,0.57120526,0.4000001,0.032005697,0.1538441,-0.56286436,-0.3578421,-0.2699554,0.01535181,0.1946288,-0.25886998,-0.78910536
0.69961226,0.87740314,0.36050183,0.05503891,0.2727168,-0.47963294,-0.37627482,-0.38154918,-0.020488912,0.051651515,-0.6325902,-0.6201507
0.55105734,0.89561474,0.16885366,0.09299065,0.3583177,-0.35286665,-0.40112948,-0.50411975,-0.04725737,-0.10039242,-0.5303127,-0.21984528
0.45124546,0.67212105,0.09957146,0.0747302,0.33185005,-0.35294786,-0.39971066,-0.7552787,0.21620825,-0.109743476,-0.33162212,-0.21381152
0.52550346,0.60167426,0.2190409,0.0638341,0.38823205,-0.34738627,-0.36265063,-0.9826527,0.36642453,-0.11684489,-0.1468053,-0.31892365
0.54687566,0.49590167,0.3005472,0.09183012,0.40853804,-0.24596478,-0.548308,-1.1974065,0.398678,-0.13253282,0.1756025,-0.3906162
0.49986926,0.36556062,0.3515213,0.10986798,0.38491523,-0.08235256,-0.78301275,-1.2267624,0.40000096,-0.10879468,0.41337532,-0.3704399
0.4446689,0.20704015,0.38909632,0.10484137,0.40235692,-0.06803266,-1.0330606,-1.0985718,0.40000987,-0.07471381,0.5086611,-0.30933702
0.41008165,0.09250179,0.3849719,0.007732782,0.3272601,-0.46596384,-1.2591923,-0.8638556,0.3999994,-0.062306933,0.5762313,-0.24735172
0.4046288,0.011307155,0.37156272,-0.12781537,0.22299372,-0.6319966,-1.3929421,-0.66264325,0.40000057,-0.076934725,0.6116214,-0.17836492
0.39300898,-0.106208675,0.3206617,-0.33019322,0.019458648,-0.97096354,-1.4227866,-0.26068047,0.39999995,-0.116480015,0.650058,-0.042669855
0.3811785,-0.21001698,0.26239854,-0.38244388,-0.25003487,-1.1999946,-1.1381493,0.26188612,0.31254655,-0.20908791,0.64509434,0.16663744
0.7553569,-0.29974902,0.4000002,-0.0121062705,-0.38033736,-0.39861637,-0.18537277,-0.031170601,-0.07726599,0.073186226,0.5572959,-0.47621486
0.89289314,0.25718102,0.40000018,-0.04270073,-0.15264565,-0.5015178,-0.24927744,-0.22432141,0.09031876,0.32173753,0.03583661,-0.79095423
0.8461337,0.5021349,0.40000013,-0.039872162,-0.06455006,-0.51026016,-0.24989647,-0.2795748,0.07890156,0.25318003,-0.23219733,-0.7493039
0.6903539,0.87645596,0.39213413,-0.034253698,0.10444245,-0.49582803,-0.24951789,-0.38436744,0.023709891,0.07514976,-0.5889408,-0.6329691
0.5802028,0.92028195,0.21808377,-0.02669043,0.2593002,-0.44621855,-0.26516795,-0.4934099,-0.031424653,-0.05313676,-0.7168972,-0.5350582
0.467246,0.76387966,0.064046666,0.01749368,0.34014562,-0.33110288,-0.32072112,-0.6035927,-0.07195116,-0.17122799,-0.55396897,-0.30906305
0.42769763,0.58481437,0.14495271,0.0005873903,0.33992237,-0.3886575,-0.35724795,-0.80127615,0.24497771,-0.17706901,-0.15740691,-0.14013974
0.49773934,0.3900356,0.28715488,0.01505247,0.38891715,-0.34113392,-0.6846906,-1.0153766,0.3999946,-0.12419411,0.060694624,-0.34673625
0.50893325,0.22608007,0.32896793,0.05824301,0.4207782,-0.18836613,-0.9074323,-1.1683272,0.40000248,-0.123733655,0.22910856,-0.37039116
0.48598984,0.06381629,0.33360162,0.07623636,0.41874734,-0.114359595,-1.0886673,-1.0683985,0.4000036,-0.116453685,0.3786292,-0.36895043
0.45985988,-0.05673238,0.28871527,0.06881171,0.34762478,-0.36648488,-1.2827985,-0.8409536,0.39999422,-0.115790345,0.50020105,-0.33592242
0.46797103,-0.16709656,0.21573834,-0.0959311,0.25080416,-0.75106525,-1.4041274,-0.5215208,0.39996302,-0.15628281,0.58291477,-0.22354877
0.46889618,-0.21144417,0.1623435,-0.19124483,0.16199628,-0.89509434,-1.4145536,-0.3626406,0.39999792,-0.1842729,0.6105056,-0.1501465
0.44880664,-0.2702421,0.014857431,-0.33858228,-0.08722773,-1.1750249,-1.2796175,0.056563362,0.3999927,-0.2536265,0.6394582,0.03184083
0.5996934,-0.35008544,0.40000015,-0.07998435,-0.42702526,-0.80705875,-0.56362486,0.30090633,-0.022168437,-0.24433245,0.612039,-0.04763411
0.93601245,0.0019735063,0.4000002,0.07459301,-0.2063121,-0.4444545,-0.24101795,-0.04536675,-0.019559499,0.23546357,0.3032163,-0.74878806
0.8630874,0.4849135,0.40000013,0.06832492,0.012799906,-0.52010936,-0.27136227,-0.18624662,0.024775807,0.2702016,-0.14448069,-0.7501522
0.6906126,0.7831536,0.40000004,0.061726548,0.16881308,-0.4846041,-0.27162856,-0.3124302,0.013252637,0.12359644,-0.5544215,-0.6213691
0.6261666,0.84870124,0.3296276,0.06621504,0.23469377,-0.445455,-0.27682924,-0.37422466,-0.0041165175,0.032888066,-0.667931,-0.5309838
0.5284283,0.86524135,0.18403493,0.08719996,0.33311632,-0.33252525,-0.30562425,-0.5019756,-0.02834639,-0.09256829,-0.61363524,-0.315599
0.3595816,0.690314,0.010483125,0.12787807,0.3529201,-0.36759254,-0.30930138,-0.68475634,0.12092674,-0.25100225,-0.28703457,-0.028603857
0.47673464,0.4576642,0.26212725,0.11883054,0.36917612,-0.4848151,-0.51544636,-0.87956876,0.40000045,-0.16498293,-0.055323042,-0.28407702
0.49466637,0.2829315,0.3377929,0.12086703,0.4486169,-0.38276297,-0.8551333,-1.0929989,0.40000325,-0.14726785,0.12389293,-0.35071003
0.49970382,0.121455096,0.3474957,0.18794678,0.4424837,-0.1923983,-0.9853969,-1.1335943,0.3481618,-0.16163461,0.2863547,-0.36207455
0.47817183,-0.022526167,0.32044575,0.103723444,0.32179555,-0.42034522,-1.1953903,-0.9186584,0.3999852,-0.15524669,0.43797037,-0.35803318
0.4736403,-0.15244702,0.2635261,-0.08419616,0.15543592,-0.78806984,-1.3472977,-0.49952114,0.39995003,-0.17405765,0.55048907,-0.28318396
0.45294988,-0.23132387,0.14222951,-0.27741036,-0.071871184,-1.0609429,-1.3130634,-0.056548726,0.39997816,-0.21934831,0.60833156,-0.13959369
0.50225174,-0.30890265,0.40000013,-0.161211,-0.34998557,-0.9791057,-0.83518976,0.27435008,0.1875101,-0.23454204,0.58802205,-0.011924319
0.8984219,-0.090826675,0.4000002,0.007828037,-0.21821584,-0.4741723,-0.32380205,-0.12748945,0.07506084,0.21950516,0.37481654,-0.7146164
0.8728195,0.42938837,0.40000018,-0.0049526785,-0.0031641806,-0.5289509,-0.32943055,-0.26400506,0.09913881,0.29765153,-0.0986586,-0.7504563
0.7362668,0.82675976,0.4,-0.021802207,0.16847245,-0.51275104,-0.32071352,-0.3827604,0.067171134,0.11227313,-0.5426232,-0.6462931
0.6140986,0.93800735,0.24096872,-0.033531938,0.29775584,-0.4442985,-0.32317135,-0.4948063,0.016579475,-0.059621774,-0.7137044,-0.45137063
0.4228442,0.8013281,0.057652503,-0.005408947,0.37236977,-0.31850418,-0.30134523,-0.66101617,0.06570146,-0.21571898,-0.3746789,-0.076229036
0.46005663,0.56214905,0.22234039,-0.00078425184,0.34442753,-0.40426895,-0.43582824,-0.9444216,0.39998338,-0.14315012,-0.116065145,-0.2575629
0.4746532,0.36303037,0.34013966,-0.023281801,0.4021854,-0.29649344,-0.82307214,-1.1410203,0.3999932,-0.10207148,0.08336605,-0.35016695
0.5000361,0.19215965,0.38333586,0.06084366,0.3901298,-0.10080391,-0.90827465,-1.1783744,0.36004236,-0.11712677,0.2506519,-0.3758566
0.47625396,0.02592954,0.3858547,0.031104036,0.32987744,-0.29155105,-1.1078829,-1.0174052,0.40000036,-0.10103969,0.41165963,-0.3866683
0.46582928,-0.12823015,0.34826684,-0.09058612,0.2225735,-0.5967583,-1.3315746,-0.74686396,0.39997032,-0.11559059,0.5309464,-0.31184727
0.46319187,-0.2437255,0.25964117,-0.22875994,0.09697944,-0.9378654,-1.3901808,-0.34062827,0.3999895,-0.14875263,0.61373883,-0.18446292
0.4148115,-0.2957402,0.096718475,-0.35067394,-0.16426377,-1.1788261,-1.2191737,0.16295446,0.39165887,-0.19820444,0.64345413,0.0060506333
0.5912629,-0.3107939,0.4000002,0.04018043,-0.44826573,-0.5959799,-0.49007973,0.17617206,-0.045217298,-0.10152594,0.61067057,-0.22614619
0.9116392,0.090442665,0.40000018,0.07886102,-0.22484861,-0.5204085,-0.3312272,-0.14622833,0.088143185,0.28374234,0.14355603,-0.78861314
0.8989203,0.33864906,0.40000013,0.06888795,-0.09837725,-0.5634479,-0.32042453,-0.21286269,0.08298212,0.2733124,-0.10462433,-0.79679495
0.7625537,0.7351006,0.40000004,0.06925535,0.09056709,-0.5641635,-0.31994182,-0.33254346,0.048324037,0.10204127,-0.5067979,-0.6042862
0.60874957,0.93791425,0.24765913,0.070823774,0.25422367,-0.5184572,-0.31934342,-0.4402377,-0.0065548583,-0.0382428,-0.6493805,-0.44012767
0.46050078,0.8564584,0.087069824,0.11204326,0.34782094,-0.40454563,-0.33927754,-0.5644465,-0.01766051,-0.17190312,-0.43828857,-0.12302398
0.43716246,0.60080045,0.16075215,0.07973662,0.30190754,-0.45490283,-0.36107048,-0.82182425,0.2943914,-0.17255749,-0.16002369,-0.22211668
0.4785329,0.40291077,0.28832725,0.06804428,0.3196761,-0.46769762,-0.71835625,-1.0010837,0.40000376,-0.13760026,0.05011838,-0.3394191
0.49495816,0.22822256,0.33089715,0.101378664,0.38140598,-0.33690652,-0.9548504,-1.1178789,0.40000176,-0.15092622,0.22236255,-0.36328954
0.4751496,0.07492832,0.32686493,0.07227987,0.34012324,-0.37383378,-1.1587772,-0.9907696,0.39998788,-0.15541115,0.36143205,-0.35085744
0.47315803,-0.073883586,0.30922154,0.011424484,0.1851884,-0.50486535,-1.3098727,-0.74781895,0.4000004,-0.15871002,0.48991504,-0.307228
0.47910765,-0.1856275,0.24616872,-0.11606363,0.07048244,-0.6799401,-1.3273005,-0.39394474,0.39997172,-0.16980827,0.5958683,-0.22519809
0.47288105,-0.22378764,0.19180618,-0.21802838,-0.0046081315,-0.7871223,-1.2986987,-0.21545805,0.3999749,-0.18701336,0.6267705,-0.16101852
0.4558092,-0.27449718,0.06575592,-0.31702545,-0.18999356,-1.0567352,-1.106939,0.16938552,0.35732368,-0.26753196,0.63943803,0.0242743
0.60482585,-0.33320358,0.4000002,0.0064278985,-0.34591925,-0.40277505,-0.3445144,0.08311411,-0.044263277,-0.080776095,0.63887215,-0.30663154
0.90779996,0.038506467,0.4000002,0.015909422,-0.14029989,-0.5141694,-0.22440833,-0.24088076,0.10531654,0.3448209,0.1761297,-0.7921413
0.8341899,0.51469636,0.4000001,0.017201077,0.039883338,-0.53068286,-0.20784183,-0.33491313,0.06332604,0.2928474,-0.3123519,-0.6747193
0.654478,0.83146363,0.30631584,0.037720248,0.17721233,-0.48033023,-0.21111128,-0.42794165,0.0058453265,0.029437505,-0.63127154,-0.5467172
0.5716083,0.85000205,0.19024387,0.05185915,0.2937483,-0.40109202,-0.2269369,-0.52931553,-0.04930612,-0.084747486,-0.717737,-0.5138542
0.45321876,0.77173495,0.020701956,0.06263141,0.4002332,-0.3092501,-0.2562671,-0.6375568,-0.09050653,-0.21336506,-0.4977084,-0.27374837
0.44818494,0.57903767,0.14847042,0.035230465,0.3834053,-0.35675514,-0.30029178,-0.91013175,0.27589533,-0.25636852,-0.086860254,-0.11917821
0.49599934,0.3853305,0.2910251,0.017419565,0.4333442,-0.356946,-0.7110605,-1.1377944,0.39999592,-0.18928891,0.12630565,-0.31600326
0.4998154,0.21688357,0.33591968,0.042086095,0.45956424,-0.20707393,-0.937363,-1.2074066,0.40000105,-0.18826512,0.2788994,-0.32934564
0.48069215,0.070034705,0.33361724,0.07960349,0.44287762,-0.17846894,-1.1354145,-1.05577,0.40002918,-0.18660207,0.4082981,-0.31874606
0.4588634,-0.062471088,0.30076286,-0.0026057092,0.330675,-0.44783175,-1.3022494,-0.7858064,0.39999902,-0.18886967,0.52060246,-0.28032112
0.4548438,-0.12275263,0.27036318,-0.050138302,0.25359848,-0.54745185,-1.3325766,-0.6293865,0.39994434,-0.20223343,0.5639032,-0.23706354
0.45144272,-0.21056414,0.17432687,-0.22203268,0.11171614,-0.8622401,-1.3768942,-0.24215679,0.399951,-0.25171533,0.61898434,-0.10940957
0.44880214,-0.24113129,0.10931879,-0.30780283,-0.00998527,-1.0577495,-1.3215998,-0.010745126,0.3999874,-0.29210013,0.62759525,-0.020212086
0.4705119,-0.29033405,0.40000007,-0.12987909,-0.24452166,-0.90317345,-0.78288347,0.28177956,0.088410065,-0.3579962,0.6127539,0.13700335
0.8788317,-0.06059361,0.4000002,0.029135358,-0.036118433,-0.50782555,-0.24624613,-0.16802777,-0.03845624,0.16525774,0.471067,-0.66469187
0.91646403,0.39643276,0.40000013,0.047883708,0.121533096,-0.5090909,-0.27815408,-0.27867976,-0.023581358,0.2827924,-0.027405698,-0.8278689
0.7641988,0.7929257,0.40000004,0.07736001,0.23570591,-0.43687996,-0.2936413,-0.37508523,-0.061864156,0.1306031,-0.4671517,-0.6383752
0.54693395,0.8853319,0.16234243,0.12035575,0.32110074,-0.3218052,-0.30462733,-0.5125378,-0.067287944,-0.09402864,-0.48508954,-0.23216102
0.39542484,0.6565005,0.06460844,0.08312439,0.22985967,-0.47807306,-0.35304752,-0.7412755,0.2932609,-0.18436868,-0.19240734,-0.06265063
0.48529315,0.43387556,0.25381058,0.056530863,0.33341214,-0.45951262,-0.68383354,-0.9212221,0.40001336,-0.10155511,0.061988972,-0.3304652
0.49871284,0.25565982,0.3206834,0.06290285,0.43647435,-0.4064885,-0.99518555,-1.0534307,0.40000093,-0.089128114,0.23808812,-0.36232534
0.50007766,0.11944622,0.3070691,0.121061236,0.43960762,-0.23952621,-1.0713128,-1.0217112,0.40000314,-0.113023885,0.3720715,-0.3488278
0.47369462,-0.006834977,0.26249,0.08975581,0.38856325,-0.3875468,-1.2188226,-0.8635784,0.40000015,-0.12761663,0.48366973,-0.30251363
0.46107155,-0.11303842,0.19016029,-0.071467854,0.22720395,-0.6777922,-1.365913,-0.58283955,0.3999697,-0.1509038,0.5751526,-0.21479487
0.4564496,-0.2048985,0.085746676,-0.2940122,0.012498367,-0.98160356,-1.3468018,-0.15237421,0.40000057,-0.20501527,0.6268474,-0.06559138
0.40808547,-0.2782225,0.22862312,-0.19847165,-0.22212407,-1.0634003,-0.9569137,0.26130983,0.22227408,-0.29236457,0.6333768,0.13784242
0.90537316,-0.2809168,0.40000024,0.11741439,-0.24478881,-0.3798756,-0.29444495,0.028058175,-0.088773906,0.03577234,0.51642287,-0.6964082
0.9590712,0.2241094,0.40000015,0.11544769,-0.027612204,-0.51737076,-0.367198,-0.101402774,-0.007402338,0.2337772,0.017289907,-0.8485404
0.87357324,0.4901324,0.40000013,0.11709192,0.05526885,-0.5099397,-0.3616206,-0.15824786,-0.012599195,0.221105,-0.17171234,-0.80942076
0.67481,0.84801364,0.38204414,0.12663426,0.21256746,-0.4652455,-0.3655134,-0.27858198,-0.03928794,0.08088376,-0.55348027,-0.64668465
0.5546296,0.89394385,0.19208878,0.15513761,0.31911123,-0.35906348,-0.39005828,-0.40732408,-0.058860052,-0.06684234,-0.59145087,-0.28640392
0.34753752,0.6455489,0.06241369,0.119248375,0.3744649,-0.3432002,-0.36161846,-0.70559305,0.21205607,-0.1403995,-0.2839695,-0.09345728
0.47174126,0.40569702,0.28345382,0.091616325,0.3757709,-0.3835211,-0.61439604,-0.9434748,0.4000228,-0.112978876,-0.0650425,-0.27423638
0.48185325,0.23129524,0.3417298,0.104483664,0.4428554,-0.25984424,-0.89553416,-1.1646316,0.4000006,-0.09180306,0.12224634,-0.33543718
0.47509226,0.0711571,0.35152882,0.12162455,0.4625722,-0.19776362,-1.131459,-1.1003885,0.4000023,-0.07660432,0.2973874,-0.3703549
0.47280315,-0.057474315,0.3152406,0.09175845,0.42464608,-0.30868247,-1.2693183,-0.84100705,0.3964205,-0.09040754,0.4337449,-0.35307905
0.4796154,-0.16559164,0.25226587,-0.10116512,0.22691543,-0.66548556,-1.4057015,-0.534519,0.39997274,-0.11984725,0.53746796,-0.28958422
0.48110256,-0.24439347,0.14248931,-0.29624656,0.066611186,-0.95555484,-1.4298198,-0.17986332,0.39999342,-0.16349483,0.6106274,-0.16895048
0.4609658,-0.298592,-0.0025857321,-0.34753436,-0.17366762,-1.1633629,-1.2143979,0.18141297,0.39999962,-0.24179865,0.634596,0.016533636
0.67699146,-0.4452824,0.40000018,0.05111592,-0.35796338,-0.44730353,-0.46604204,0.15240537,-0.07777152,-0.14194584,0.6696915,-0.229191
1.0123723,0.0034035586,0.40000024,0.08161385,-0.11609357,-0.50173837,-0.35053828,-0.14379972,-0.009938153,0.20822284,0.24370767,-0.8564026
0.88784087,0.5476978,0.40000013,0.098206885,0.061531622,-0.5152168,-0.36738274,-0.25264406,-0.01878877,0.21759683,-0.18415941,-0.7929623
0.66842043,0.8930366,0.33232063,0.10597716,0.19205926,-0.45224816,-0.365476,-0.35667783,-0.0666827,0.047167268,-0.5461107,-0.5868564
0.49660635,0.88724613,0.16056044,0.12748607,0.2820919,-0.34184268,-0.36550444,-0.48144415,-0.0874883,-0.11465087,-0.5194977,-0.23986337
0.41150984,0.6228457,0.10912182,0.14271492,0.30645946,-0.3717965,-0.39764267,-0.7549113,0.28338018,-0.1255451,-0.23861872,-0.20901893
0.47215956,0.39880103,0.2702975,0.11782935,0.37371016,-0.37964398,-0.6877166,-0.95852464,0.4000008,-0.09915821,-0.018079456,-0.34621564
0.4870135,0.21970555,0.3240037,0.1561641,0.40835798,-0.22229505,-0.9220132,-1.0935475,0.39999223,-0.09834455,0.16894798,-0.39081997
0.46948287,0.071316786,0.3182318,0.15564968,0.40382135,-0.25897652,-1.1301926,-0.9997038,0.38543636,-0.08841761,0.33320013,-0.39441517
0.45518735,-0.07268007,0.28812906,0.05761293,0.27205628,-0.46792012,-1.2952751,-0.7927988,0.39988062,-0.0933501,0.47125697,-0.367224
0.4477803,-0.18369476,0.20812312,-0.12914224,0.11905886,-0.71089685,-1.3747768,-0.45170334,0.39994556,-0.119141534,0.5775938,-0.28774032
0.4552372,-0.25894177,0.08684136,-0.28999016,-0.09618843,-0.9927452,-1.3339211,-0.06035581,0.39999536,-0.18599632,0.63158584,-0.14504877
0.43689445,-0.30785197,0.16168557,-0.22112142,-0.26294103,-1.0921822,-0.92223185,0.28702512,0.25511998,-0.27349454,0.6442342,0.043349054
0.81581074,-0.2065319,0.40000018,0.075383805,-0.24066009,-0.42363703,-0.27984247,-0.05457557,-0.008161786,0.13829371,0.48905072,-0.5995599
0.91202027,0.2893736,0.40000015,0.076330826,-0.017320076,-0.54539573,-0.35115242,-0.19642021,0.05998233,0.27138588,-0.042096667,-0.775251
0.7287065,0.7514001,0.4,0.07321399,0.14624473,-0.5318215,-0.3501183,-0.3090873,0.036538888,0.12948316,-0.4804274,-0.64195883
0.5927617,0.8812769,0.30376107,0.061221145,0.27110028,-0.46678358,-0.3487758,-0.42222366,0.0049860994,-0.02635943,-0.67976016,-0.48943573
0.45283437,0.84619606,0.06976693,0.11476134,0.36136118,-0.36106193,-0.36634514,-0.53207517,-0.025706941,-0.17821604,-0.44626895,-0.1497392
0.4284946,0.62784666,0.13450462,0.101361,0.43729866,-0.3404213,-0.3740827,-0.8338724,0.33796257,-0.18198794,-0.17902917,-0.19745167
0.46761718,0.4426681,0.26033714,0.13460636,0.4656315,-0.18208349,-0.640883,-1.0958931,0.40000063,-0.13544141,0.026996307,-0.33188948
0.4598189,0.26878977,0.31875983,0.17067997,0.4739604,-0.07785696,-0.91617215,-1.1583784,0.39999384,-0.0930057,0.22907574,-0.4098639
0.47651625,0.09506396,0.3497847,0.22510421,0.47362316,-0.0012781054,-1.0851302,-1.0502431,0.39997435,-0.091907024,0.405472,-0.4273959
0.46275023,-0.040012795,0.3195341,0.13675232,0.443266,-0.34653583,-1.2861524,-0.8397005,0.40006107,-0.08959677,0.5462431,-0.40429965
0.4685931,-0.1481549,0.24501218,-0.072686516,0.28467384,-0.74536663,-1.4270847,-0.5042289,0.39997116,-0.13210624,0.63371485,-0.30638415
0.45396888,-0.23075868,0.12895782,-0.25372413,-0.049517952,-1.0539273,-1.3598745,-0.039428376,0.3999998,-0.18289916,0.6824711,-0.15906723
0.41715592,-0.2930654,0.26619983,-0.22400232,-0.3630719,-1.108344,-0.8966691,0.30905387,0.23653369,-0.27468473,0.6849849,0.055387177
0.87645173,-0.23576127,0.4000002,0.07193794,-0.2967645,-0.4392282,-0.332996,0.011353163,-0.021175787,0.19691686,0.49927533,-0.6700439
0.93798155,0.25164378,0.40000018,0.042386323,-0.048963476,-0.5827455,-0.36243212,-0.12909639,0.03478752,0.2984281,-0.014537828,-0.8113047
0.7717694,0.70238763,0.40000004,0.04887593,0.11606074,-0.5664395,-0.3709534,-0.25018126,0.033575214,0.1775238,-0.44482324,-0.6857245
0.66512036,0.92142355,0.32644278,0.051628742,0.26101384,-0.5124582,-0.3949728,-0.37837154,0.012737054,0.0065818247,-0.70361406,-0.52643824
0.5361832,0.8458434,0.14772783,0.07144141,0.36080337,-0.40570477,-0.41864353,-0.52568007,0.01125003,-0.1598107,-0.51474184,-0.16233832
0.45159706,0.6229232,0.14851977,0.065252334,0.36839193,-0.4563947,-0.44945058,-0.7231386,0.33723682,-0.14745069,-0.25537515,-0.21799515
0.5046986,0.43350923,0.2772731,0.07622548,0.44853157,-0.35231933,-0.73043025,-0.9774328,0.399998,-0.13253582,-0.06229927,-0.32784683
0.5146259,0.2584955,0.32800335,0.12586828,0.46019086,-0.17698082,-0.8913221,-1.135115,0.38105887,-0.1336355,0.12035677,-0.37560415
0.49985126,0.08366437,0.34078714,0.17128257,0.44783682,-0.07339127,-1.0486604,-1.0721235,0.3918245,-0.12785406,0.29893088,-0.40004972
0.48631194,-0.029575959,0.31004867,0.16334796,0.42821762,-0.22752449,-1.2094516,-0.9202923,0.38917997,-0.11809213,0.43941346,-0.40081796
0.48512906,-0.10593354,0.27855435,0.07838855,0.41411865,-0.50002074,-1.3468674,-0.74901056,0.39999184,-0.12221772,0.52474,-0.37885913
0.4892695,-0.21877246,0.1952688,-0.18788728,0.21605712,-0.9142872,-1.43668,-0.33122975,0.4000016,-0.15438129,0.62453824,-0.28144038
0.4653571,-0.2650701,0.027435033,-0.32329327,-0.06968897,-1.2000005,-1.2730246,0.092915125,0.39441213,-0.21947713,0.66337824,-0.09911942
0.5552532,-0.3513408,0.40000015,-0.091303,-0.41453514,-0.7974296,-0.6578104,0.2642969,0.064256884,-0.19142547,0.63166463,-0.086073056
0.946013,-0.116345294,0.40000024,0.03942066,-0.26445204,-0.4754987,-0.39747742,-0.06490221,0.056284957,0.21987915,0.31126013,-0.72799987
0.89698595,0.41209742,0.40000013,0.04023836,-0.03919184,-0.52690184,-0.39711574,-0.20181672,0.052629463,0.2179793,-0.17308328,-0.7729237
0.6755536,0.85089755,0.40000004,0.063338794,0.13939326,-0.49830404,-0.39715946,-0.31182992,-0.010545378,0.039090548,-0.5392507,-0.61834186
0.58440256,0.9737283,0.23158804,0.09601449,0.29151863,-0.42634454,-0.4227321,-0.4225936,-0.07342157,-0.076238506,-0.6283358,-0.35137534
0.34119996,0.74382657,0.011868765,0.1325132,0.36072093,-0.34889963,-0.41735354,-0.61471397,0.07936868,-0.1269234,-0.3669485,-0.13603936
0.45142117,0.5082041,0.23168015,0.12445154,0.4042319,-0.39392585,-0.5806389,-0.845829,0.399995,-0.09717178,-0.13115823,-0.3092445
0.46716887,0.3218369,0.2956863,0.16939394,0.4477158,-0.23199059,-0.84169734,-1.0820436,0.4000024,-0.094569385,0.07645289,-0.38002124
0.46560782,0.15063356,0.31510678,0.21681662,0.45311227,-0.07139283,-1.0527003,-1.0609351,0.399988,-0.09435976,0.26328588,-0.40918043
0.4615062,0.007228323,0.29465532,0.23301925,0.46818158,-0.1361333,-1.1795704,-0.9044329,0.40000334,-0.09804523,0.42096618,-0.3971066
0.4522387,-0.1043376,0.2310444,-0.010563435,0.2985274,-0.59937125,-1.3668557,-0.5951424,0.39995968,-0.11566593,0.5406293,-0.3434752
0.43794104,-0.1771698,0.11344207,-0.19841723,0.053950064,-0.9249836,-1.3581773,-0.21958001,0.38145775,-0.15618607,0.61961156,-0.23144224
0.39150122,-0.2665973,0.1064748,-0.27379444,-0.24006738,-1.1217186,-1.1682854,0.1659591,0.36564913,-0.22217894,0.65453506,-0.06049562
0.5838514,-0.304822,0.40000018,0.019304553,-0.2950698,-0.40324318,-0.43056965,0.074219674,0.012792256,-0.07157564,0.6265842,-0.26489583
0.87963885,0.05964153,0.4000002,0.0352968,-0.054919574,-0.5575407,-0.30868226,-0.20636775,0.103985704,0.34641054,0.15816233,-0.709082
0.82974774,0.5242291,0.4000001,0.047894068,0.12499542,-0.5578446,-0.30340493,-0.3105288,0.07632708,0.32685766,-0.35543877,-0.68678224
0.7025266,0.8498198,0.36767936,0.06956194,0.25217643,-0.48878777,-0.3057762,-0.40835875,0.02249382,0.10884515,-0.65015817,-0.52169955
0.63967544,0.9087991,0.2559076,0.072698265,0.30951852,-0.4417222,-0.3025391,-0.45695645,-0.014315825,-0.014255357,-0.6612612,-0.42741662
0.44115332,0.81115973,0.07862811,0.11325523,0.369284,-0.29983547,-0.27091518,-0.6366487,0.03912674,-0.20275638,-0.3718093,-0.062450383
0.45513928,0.5248454,0.20163524,0.08262092,0.31091174,-0.39823946,-0.4325716,-0.89703053,0.40005428,-0.14404963,-0.11954271,-0.2665646
0.47980377,0.32816997,0.30908033,0.07472045,0.3891445,-0.38619387,-0.8018126,-1.0746815,0.399993,-0.1006803,0.097888336,-0.38944522
0.49418178,0.14700048,0.35074854,0.095757104,0.43625027,-0.28958887,-1.0759645,-1.0825793,0.3999977,-0.10880244,0.27416956,-0.40749437
0.49124977,0.0014399161,0.33311957,0.13419567,0.44970068,-0.13510881,-1.1448433,-0.9564557,0.35851032,-0.11696114,0.42783627,-0.40442586
0.490347,-0.12311856,0.27910158,0.100088924,0.41521844,-0.30192396,-1.2658777,-0.76554894,0.4000269,-0.13865988,0.5537076,-0.3620978
0.47363037,-0.21300179,0.1766355,-0.12095785,0.25870723,-0.71986717,-1.3806318,-0.42873433,0.39999917,-0.17383598,0.63728726,-0.26735315
0.43752524,-0.2764478,0.030322446,-0.31026363,-0.1124017,-1.0798335,-1.2300043,0.10646363,0.38521644,-0.23022133,0.6676449,-0.09776847
0.5744042,-0.3670078,0.40000015,-0.015280991,-0.37155136,-0.7679564,-0.58161706,0.20921467,-0.0134635605,-0.18698594,0.6606571,-0.1873926
0.92925066,-0.034005214,0.4000002,0.0986641,-0.19985515,-0.5101377,-0.3325459,-0.13109058,0.020844186,0.1867671,0.26576346,-0.76766914
0.89266473,0.4580432,0.40000013,0.10516745,-0.0032157623,-0.53415275,-0.32607922,-0.24294996,-0.004869296,0.18572415,-0.20546183,-0.7732964
0.69801944,0.8548153,0.4,0.1230554,0.13978915,-0.48638198,-0.32782912,-0.3409558,-0.06179577,0.040939163,-0.6046109,-0.60239446
0.56850594,0.935332,0.21108572,0.14908439,0.25429648,-0.40225607,-0.35006952,-0.4770628,-0.07772936,-0.080129296,-0.566753,-0.28434765
0.37915894,0.67473465,0.05727356,0.1611798,0.25885195,-0.43458536,-0.3769457,-0.7125895,0.2495856,-0.122176915,-0.23665227,-0.18979737
0.47922197,0.4340286,0.2806868,0.10377872,0.24559027,-0.48747066,-0.5813288,-0.874681,0.40000343,-0.097833,-0.023003137,-0.32014406
0.47504118,0.2556829,0.34331983,0.099269904,0.34345707,-0.39181897,-0.88209355,-1.0438936,0.40000087,-0.07334924,0.16078211,-0.36471146
0.470936,0.0822398,0.3669104,0.0898072,0.3784282,-0.30316672,-1.1241125,-1.0175735,0.39998853,-0.073584735,0.31762585,-0.35832846
0.45987603,-0.0684692,0.3482741,-0.0057172044,0.28734985,-0.5026126,-1.290498,-0.8171821,0.39997435,-0.08183588,0.44038358,-0.31004235
0.46358025,-0.1858877,0.2870969,-0.122456364,0.17933221,-0.7746256,-1.3879235,-0.49239907,0.39999822,-0.10892676,0.53371084,-0.2185595
0.45523688,-0.25993454,0.1692421,-0.3019596,0.0111901155,-1.0461295,-1.3507743,-0.10104329,0.39998776,-0.15770046,0.58849746,-0.07275228
0.39672717,-0.3189284,0.20176671,-0.2824574,-0.2532869,-1.1420285,-0.9961766,0.2703961,0.25154075,-0.2318229,0.60021585,0.11689329
0.8129936,-0.25904825,0.40000024,0.11620435,-0.24285574,-0.4031004,-0.2669279,-0.07274874,-0.09069063,0.131979,0.49125868,-0.5901498
0.9459778,0.25435126,0.40000013,0.11407041,-0.0061300723,-0.541111,-0.34476748,-0.22488573,-0.0010958457,0.25238487,-0.07176653,-0.7951257
0.7704551,0.70745766,0.40000007,0.12517704,0.1595521,-0.519944,-0.33879614,-0.3195783,-0.05553354,0.1407303,-0.48016813,-0.70446485
0.63859165,0.93561673,0.32791343,0.1403919,0.29811317,-0.45199865,-0.34250703,-0.41460964,-0.12068181,0.014617665,-0.6794925,-0.5065724
0.47163564,0.86696815,0.12664226,0.18803139,0.36648038,-0.31913507,-0.35629654,-0.5504881,-0.08752081,-0.13529527,-0.44627595,-0.094376564
0.42243487,0.58136356,0.18663575,0.11632991,0.3740135,-0.38345766,-0.4084444,-0.8768001,0.35325533,-0.09576165,-0.22743912,-0.19632085
0.46124104,0.37007585,0.31555936,0.1236835,0.45338985,-0.25654012,-0.715221,-1.1189964,0.3999992,-0.062924154,-0.010566858,-0.3157022
0.4647293,0.19957145,0.35364246,0.17123568,0.4730449,-0.117367096,-0.96031624,-1.1777922,0.39999193,-0.047014315,0.17979,-0.36607513
0.46433955,0.043917492,0.35511756,0.23005487,0.46824542,0.04119438,-1.075841,-1.0684949,0.38432062,-0.04224806,0.34683853,-0.3791749
0.46464345,-0.08371845,0.32198277,0.21494552,0.49488777,-0.16823383,-1.25217,-0.8562799,0.39999866,-0.044240206,0.49155757,-0.3760312
0.45593995,-0.17272753,0.23049246,-0.096564,0.35208,-0.67804605,-1.3967749,-0.5202085,0.39999917,-0.079499274,0.59055257,-0.31215376
0.4509148,-0.2502048,0.100387536,-0.34295782,0.006710645,-1.0416278,-1.3490217,-0.10371793,0.39999464,-0.15472624,0.63521034,-0.15681563
0.36750793,-0.2828027,0.26724502,-0.25172132,-0.3457949,-1.1261156,-0.8929311,0.2864107,0.16977964,-0.2217755,0.6443298,0.048060898
0.7753021,-0.13721605,0.40000024,0.08403919,-0.3120256,-0.39052278,-0.32975295,-0.021046815,-0.021877011,0.23512748,0.44010666,-0.6146177
0.833089,0.3457214,0.40000015,0.032690782,-0.05246217,-0.5487159,-0.34536943,-0.16515371,0.020799546,0.3266908,-0.10621505,-0.7208774
0.7195761,0.73787344,0.40000004,0.027462652,0.12653084,-0.5331838,-0.3408265,-0.2879462,-0.0024496226,0.21519193,-0.55199695,-0.59576845
0.5884542,0.9359638,0.23822862,0.044817004,0.27015856,-0.46234676,-0.35593805,-0.40240613,-0.04985348,-0.003027606,-0.74582595,-0.39394134
0.44477028,0.8545897,0.060682125,0.07844169,0.359806,-0.3399155,-0.37678948,-0.5356674,-0.036998685,-0.19235103,-0.4615978,-0.09271706
0.44719362,0.618879,0.15532106,0.08491969,0.39544353,-0.37743077,-0.45696145,-0.82441705,0.40001997,-0.15995544,-0.15765496,-0.22900061
0.48363686,0.4344295,0.27811453,0.1071436,0.45353317,-0.24206653,-0.7174603,-1.1045644,0.40000188,-0.110213384,0.054261733,-0.35403928
0.48693076,0.23933001,0.34726527,0.15645105,0.45249224,-0.044568527,-0.91671205,-1.2020515,0.38926822,-0.09024618,0.25225845,-0.39955986
0.46512753,0.06363184,0.35776654,0.15923057,0.46078688,-0.17412767,-1.1464137,-1.0329387,0.40003985,-0.07780894,0.41534746,-0.3897132
0.4667372,-0.080009095,0.3263486,0.02908268,0.3095047,-0.5524799,-1.3285334,-0.738681,0.399968,-0.106805466,0.52125204,-0.31501427
0.46122417,-0.17978339,0.2435635,-0.21293567,0.08399224,-0.9350421,-1.3926331,-0.29291567,0.3999981,-0.15033546,0.5823438,-0.18194793
0.42380986,-0.25755492,0.14135343,-0.30531055,-0.18828905,-1.1999848,-1.1879495,0.12617917,0.3783914,-0.2151998,0.59881586,0.008395572
0.5659079,-0.3006426,0.40000024,0.054689452,-0.35521355,-0.4868149,-0.47399473,0.0753386,0.022868728,-0.08366634,0.62731963,-0.21611919
0.912214,0.096928164,0.40000018,0.061857216,-0.10329,-0.5218043,-0.328285,-0.20786469,0.10344314,0.30748218,0.11472005,-0.7520615
0.85081667,0.5743772,0.4000001,0.04936816,0.09399268,-0.5482715,-0.32912198,-0.33365026,0.09914475,0.26213813,-0.39463913,-0.69613826
0.6802385,0.8942797,0.34653538,0.035037022,0.26132104,-0.5140998,-0.32098898,-0.44491202,0.046470627,0.04347715,-0.6721982,-0.5571008
0.5482097,0.9228094,0.17557397,0.05004585,0.3438692,-0.39710957,-0.32564944,-0.54255074,-0.012535613,-0.105362564,-0.61150926,-0.3622551
0.40195328,0.7042029,0.05468243,0.08794341,0.3665509,-0.30602548,-0.31781107,-0.69714993,0.06577605,-0.27880052,-0.21541007,-0.06788744
0.48325098,0.5025134,0.2496141,0.06730061,0.29385436,-0.44283912,-0.5647764,-0.91807324,0.39996105,-0.20470214,-0.0025304134,-0.30037892
0.4887171,0.32966274,0.33452034,0.061073363,0.3814624,-0.34766942,-0.8567431,-1.1185919,0.39999634,-0.16923712,0.17679799,-0.3571558
0.47178698,0.17015888,0.3647981,0.06223201,0.41614035,-0.25937787,-1.0618703,-1.0609837,0.39999625,-0.15067504,0.32944793,-0.36977798
0.46096718,0.024095317,0.36493385,0.07164187,0.430271,-0.18709682,-1.1773919,-0.93842906,0.399998,-0.14456548,0.463661,-0.3606629
0.45111012,-0.10238825,0.33003286,0.05419507,0.41228124,-0.27333757,-1.265157,-0.7530244,0.39999884,-0.1533979,0.56921947,-0.31381232
0.44329274,-0.19540776,0.24336874,-0.16934678,0.28722644,-0.7540354,-1.3790377,-0.43013906,0.39998475,-0.19579557,0.6258219,-0.19015378
0.40676516,-0.25323614,0.11539235,-0.37882835,-0.093009986,-1.0993053,-1.2823584,0.03918718,0.39999825,-0.2646621,0.63558,-0.002851893
0.55823666,-0.33370286,0.40000018,0.022414235,-0.32364795,-0.5303358,-0.5780882,0.14202978,0.032325733,-0.123549365,0.6390308,-0.19539052
0.9035211,0.0053776256,0.4000002,0.03531229,-0.09862736,-0.5120578,-0.27545694,-0.17379162,0.12631029,0.37307647,0.16337954,-0.6832149
0.91895807,0.22521658,0.40000018,0.02736278,0.007709359,-0.5355071,-0.2783406,-0.24594033,0.13859445,0.41270927,-0.09981123,-0.74082565
0.81443113,0.65180135,0.40000007,0.008731495,0.19811687,-0.5312299,-0.27281237,-0.37805587,0.11678064,0.24945475,-0.532417,-0.6801423
0.6204693,0.8957794,0.28446707,0.0029699595,0.32764512,-0.45757395,-0.2745172,-0.49312317,0.06736907,0.0025459968,-0.7430105,-0.5184872
0.52538735,0.87822586,0.10193668,0.025784234,0.40598738,-0.3340693,-0.30814514,-0.61218077,0.03268303,-0.16119286,-0.5508327,-0.26179412
0.4361262,0.6561902,0.09161121,0.0034273057,0.40856117,-0.3914161,-0.33883363,-0.8145559,0.2721745,-0.23704576,-0.1561586,-0.14782323
0.49798724,0.46921492,0.23876311,0.02177708,0.4505762,-0.3518655,-0.6719721,-1.0271964,0.4000238,-0.16988002,0.072117336,-0.3856355
0.5134833,0.3048085,0.30019283,0.06600202,0.46096495,-0.18938126,-0.89577174,-1.2171234,0.40000048,-0.17042907,0.238319,-0.41628277
0.4953167,0.13929534,0.32342112,0.08739391,0.468003,-0.05782835,-1.0945333,-1.0737525,0.39996645,-0.1568992,0.4008598,-0.42747524
0.49245062,0.0032794839,0.30190134,0.108338356,0.4684401,-0.073102824,-1.217869,-0.8524859,0.39994165,-0.17152399,0.52573353,-0.38758156
0.48028135,-0.10140412,0.23486537,-0.019228041,0.42232883,-0.47199094,-1.3664279,-0.6150661,0.3999807,-0.19599308,0.61656135,-0.306902
0.4736834,-0.17187671,0.12193397,-0.22497942,0.17457952,-0.9432975,-1.4315656,-0.21721013,0.3999594,-0.25984085,0.65646744,-0.16397984
0.4651111,-0.19648266,0.046835717,-0.3087562,0.01630173,-1.1200079,-1.355568,0.020141246,0.39998373,-0.303924,0.65930796,-0.06455071
0.5049228,-0.3074927,0.4000001,-0.13796507,-0.3043283,-0.91208446,-0.80805165,0.2971057,0.15350775,-0.31626385,0.5874103,0.0140696
0.84205794,-0.082039125,0.40000024,-0.020921651,-0.1257614,-0.48040196,-0.24398929,-0.13057971,0.026714725,0.23220819,0.30142793,-0.6031966
0.85894656,0.4347909,0.40000013,0.00052443764,0.047633547,-0.49101675,-0.26601785,-0.24802159,0.045977272,0.33953214,-0.1499478,-0.74456054
0.7478606,0.80247855,0.40000004,0.026534336,0.1921878,-0.43901902,-0.27070656,-0.35115728,-0.0007113413,0.17004347,-0.5732948,-0.6208446
0.62578404,0.9361002,0.25626627,0.06542783,0.30453536,-0.34232536,-0.29652205,-0.46519563,-0.03970935,-0.015875448,-0.6969931,-0.44033727
0.3672537,0.70392126,0.030885367,0.098472945,0.35698307,-0.2651248,-0.27457342,-0.67321426,0.05218847,-0.20904653,-0.34158862,-0.06849973
0.43238452,0.5200301,0.20511717,0.049736384,0.22626126,-0.5160352,-0.48454067,-0.8697313,0.39999178,-0.12061992,-0.09604373,-0.22982608
0.47741085,0.32904038,0.31325698,0.033927463,0.34821263,-0.4569226,-0.8329031,-1.0232595,0.4000024,-0.09477966,0.10556272,-0.33247828
0.48668584,0.17112415,0.3387872,0.06775576,0.3760815,-0.32011533,-1.0190825,-1.0626076,0.39999732,-0.10333929,0.26424277,-0.37690967
0.46327773,0.014022273,0.32443374,0.028201267,0.3238096,-0.39095497,-1.1808481,-0.9438403,0.40004575,-0.10135301,0.41369268,-0.36519137
0.46058926,-0.049580835,0.29857302,0.037747,0.31969005,-0.4491845,-1.2358522,-0.83359826,0.39023808,-0.11084855,0.47642064,-0.3393578
0.46993223,-0.16630998,0.2326458,-0.09899474,0.17169581,-0.7250239,-1.3571496,-0.5071781,0.39997104,-0.14124723,0.58010215,-0.2574014
0.47917092,-0.21704382,0.18787993,-0.20650364,0.05871121,-0.84272844,-1.3844968,-0.30890092,0.39996704,-0.16658598,0.61625355,-0.19487329
0.4645197,-0.27820674,0.048207775,-0.3467634,-0.1528386,-1.0912535,-1.2081331,0.13772552,0.3909591,-0.22976036,0.6501103,-0.024298247
0.41900426,-0.32727847,0.1656573,-0.2563152,-0.24399364,-1.0466183,-0.95683026,0.26841834,0.25586838,-0.2754368,0.64738536,0.077758476
0.8402752,-0.28409228,0.4000002,0.07854355,-0.27627504,-0.3833214,-0.23511642,-0.034289315,-0.055671055,0.034322973,0.53786063,-0.5598514
0.97464615,-0.05559638,0.4000002,0.05509203,-0.11673564,-0.544167,-0.28523722,-0.10993254,-0.0020127185,0.1791943,0.300841,-0.74912465
0.93859005,0.47139117,0.40000013,0.07280079,0.08919013,-0.5727445,-0.29800838,-0.22634256,-0.0067830062,0.21458554,-0.06984276,-0.8478009
0.7401323,0.85482824,0.38976538,0.08483869,0.22439869,-0.5138971,-0.29971987,-0.3310981,-0.044298403,0.05803839,-0.5130532,-0.6442662
0.57030785,0.97519225,0.14352694,0.10613715,0.3304987,-0.41530994,-0.3230328,-0.4455356,-0.06785928,-0.1150205,-0.57232654,-0.322868
0.35655376,0.69143325,0.022210574,0.09980774,0.3603575,-0.39952195,-0.33328924,-0.7754081,0.22893931,-0.16621074,-0.26501492,-0.13557152
0.47970238,0.46161819,0.26261443,0.035736136,0.36052775,-0.42977834,-0.6496401,-0.97779244,0.3999984,-0.118698604,-0.046930503,-0.32441017
0.509166,0.28064823,0.33181792,0.07675731,0.4045536,-0.28758904,-0.84941506,-1.1369264,0.39999804,-0.12227091,0.14098051,-0.39004204
0.48499542,0.11768577,0.34272876,0.1003103,0.41611397,-0.18332236,-1.0440913,-1.1216974,0.3999988,-0.105475925,0.31324837,-0.40699247
0.4861145,-0.038930528,0.33305028,0.083958395,0.39376256,-0.29309726,-1.2301867,-0.9329043,0.40009114,-0.112505406,0.45885187,-0.3798575
0.48394164,-0.0998232,0.30646524,0.035077192,0.42055464,-0.45800093,-1.3161836,-0.7743857,0.39999828,-0.11974329,0.5187459,-0.35322508
0.4787024,-0.20238093,0.21778686,-0.17152102,0.28032583,-0.8226768,-1.4263091,-0.42893898,0.39996418,-0.147109,0.6139505,-0.25550482
0.4640215,-0.270047,0.07638123,-0.32721367,-0.023139019,-1.1628885,-1.3034319,0.04048466,0.39539862,-0.20632173,0.6579992,-0.085967556
0.5030062,-0.3605896,0.40000015,-0.14222123,-0.34476,-1.0245926,-0.7785468,0.29806077,0.11313167,-0.23307696,0.64197457,0.008150487
0.8948887,-0.16045931,0.40000024,0.02862611,-0.20399897,-0.53714526,-0.32373998,-0.054839432,-0.035326507,0.21305762,0.43516865,-0.71807516
0.91130203,0.31848735,0.40000015,0.040692143,0.024428723,-0.5855132,-0.33984166,-0.18506311,-0.036030695,0.22072026,-0.03737458,-0.8172053
0.76779336,0.74602133,0.40000004,0.045230933,0.20047963,-0.55725765,-0.3441517,-0.2990451,-0.07582643,0.09165015,-0.4581349,-0.6952671
0.68383855,0.8821098,0.3469605,0.05892923,0.26236933,-0.514132,-0.36065537,-0.35662976,-0.091007546,0.01166066,-0.5789072,-0.5716626
0.52572304,0.9016954,0.12496523,0.09059953,0.35136434,-0.3883741,-0.3860371,-0.4750538,-0.11756555,-0.12009934,-0.5067828,-0.23560047
0.4268143,0.6106012,0.13525517,0.11107147,0.35575363,-0.45115277,-0.40278357,-0.72903025,0.28875667,-0.1446503,-0.22476497,-0.18088704
0.46250987,0.4956452,0.22652785,0.10000315,0.2941533,-0.564422,-0.5409975,-0.8130509,0.39998198,-0.12690386,-0.1145599,-0.26012215
0.49734,0.28019252,0.34178188,0.110558346,0.3396985,-0.533507,-0.8631304,-0.99615425,0.40000755,-0.10523337,0.09606863,-0.33506855
0.5055073,0.20015584,0.35747233,0.12419727,0.37111118,-0.47429243,-0.9522162,-1.0281993,0.40000346,-0.10905149,0.17740329,-0.3515673
0.49437937,0.050216865,0.35667485,0.06830298,0.32901838,-0.45318106,-1.171267,-0.9366931,0.40000886,-0.106371574,0.32513177,-0.34544083
0.4900742,-0.08778862,0.32796234,0.030165242,0.33018985,-0.47397742,-1.29609,-0.77406955,0.39999905,-0.11696093,0.44663927,-0.29954767
0.48951173,-0.20042063,0.25865233,-0.13213949,0.2026076,-0.7443319,-1.392641,-0.51482004,0.3999803,-0.13501416,0.5482865,-0.21492557
0.49891305,-0.24492972,0.2069051,-0.21433195,0.13777757,-0.8754574,-1.3914081,-0.35232753,0.3999461,-0.1631087,0.58210796,-0.14789404
0.4928313,-0.30729163,0.07355823,-0.29504842,-0.100964926,-1.1427999,-1.2082465,0.07504002,0.35774118,-0.22594799,0.62322986,0.0041466253
0.43631634,-0.34566978,0.27272466,-0.17950894,-0.19998465,-1.0074506,-0.89533645,0.20327868,0.19984806,-0.26065424,0.63295704,0.088282935
0.8595722,-0.28902033,0.4000002,0.10148964,-0.16117172,-0.515717,-0.29799664,-0.086479224,-0.015361457,0.08384357,0.5391219,-0.61983675
0.95522255,0.09510614,0.40000018,0.12722193,-0.03278691,-0.55398935,-0.34401026,-0.17119794,0.026036823,0.28590736,0.18888229,-0.8168928
0.8982619,0.4511135,0.40000013,0.12985945,0.09230037,-0.55134153,-0.33147585,-0.24222286,0.0014754689,0.25928912,-0.14161375,-0.7893271
0.8189682,0.65355223,0.40000007,0.1402976,0.1561261,-0.52310556,-0.3299283,-0.28742403,-0.023724854,0.18013747,-0.35404164,-0.6922349
0.649585,0.8890454,0.3150156,0.16926207,0.26300466,-0.43384823,-0.32961836,-0.43633193,-0.04967991,-0.0014773092,-0.5609184,-0.46107525
0.5427828,0.90219474,0.17700726,0.18810253,0.30939204,-0.37699923,-0.33240086,-0.5005785,-0.054914653,-0.09434832,-0.46726522,-0.26841873
0.412991,0.7789676,0.06419288,0.2011296,0.35156402,-0.31876832,-0.2950345,-0.6296083,0.042907868,-0.2189905,-0.28878465,-0.05195781
0.46398672,0.5219708,0.2016101,0.12705411,0.27565324,-0.48043945,-0.457679,-0.83367723,0.3999867,-0.18770634,-0.07901042,-0.28028437
0.48218066,0.40421525,0.26932952,0.11726952,0.3159681,-0.45415547,-0.6443927,-0.9200481,0.40000322,-0.1700959,0.04480109,-0.34318143
0.47550523,0.25652477,0.29791653,0.13909985,0.3649494,-0.3315266,-0.8892748,-1.0673786,0.39999992,-0.15824637,0.21016793,-0.38694456
0.4751314,0.17894575,0.3045771,0.15437281,0.3828689,-0.25985655,-1.0097173,-1.0628408,0.3999991,-0.1619863,0.28733268,-0.38786414
0.45819396,0.032766648,0.29054675,0.12962312,0.37556,-0.30526307,-1.1981199,-0.8878174,0.40006164,-0.16122349,0.43105638,-0.36962256
0.45141846,-0.030002117,0.26788932,0.08972756,0.33894205,-0.42029756,-1.2667342,-0.7703536,0.39996585,-0.16794106,0.49017346,-0.34439936
0.46372995,-0.097791724,0.24714428,0.031881433,0.26817945,-0.5479729,-1.3221333,-0.6253359,0.39996198,-0.18924844,0.5391147,-0.2985081
0.4806209,-0.16635013,0.20223856,-0.07056852,0.18511383,-0.7859981,-1.3625841,-0.3959003,0.39997125,-0.21769084,0.59127706,-0.22448957
0.49049556,-0.23112588,0.103527024,-0.24221812,0.0069386447,-0.9769096,-1.3148736,-0.07136293,0.39996013,-0.2667319,0.63792765,-0.091359116
0.44498357,-0.31196475,0.16106737,-0.26804572,-0.22172037,-1.0340084,-1.0050472,0.29590532,0.29801655,-0.34736538,0.64827603,0.10626903
0.69096774,-0.33514142,0.40000018,0.016899582,-0.32472083,-0.33691582,-0.3297274,0.119309686,-0.058473594,-0.11752836,0.61677676,-0.3706374
0.93445355,0.018146934,0.40000018,0.0029773645,-0.13930705,-0.49312848,-0.21168983,-0.17002364,0.03429428,0.22426584,0.24324036,-0.85037184
0.8583859,0.5236354,0.4000001,0.009711719,0.036744665,-0.5139176,-0.20105445,-0.26036397,0.0009638452,0.27293473,-0.3386176,-0.7476474
0.76688737,0.7153337,0.40000004,0.017357584,0.11162101,-0.502815,-0.20641524,-0.30951032,-0.019686682,0.17718036,-0.53980386,-0.67754865
0.5803792,0.9095882,0.23570651,0.035517823,0.25105578,-0.45724127,-0.23022433,-0.41494092,-0.05034361,0.0023275763,-0.7189619,-0.50053227
0.43964535,0.768312,0.057762533,0.07672505,0.34847897,-0.36450198,-0.2891771,-0.53188676,-0.063874856,-0.16173953,-0.53730494,-0.32425857
0.39222085,0.66393733,0.04369669,0.095121704,0.38064316,-0.32396966,-0.2823427,-0.6272271,0.025578825,-0.2573651,-0.33074275,-0.08138957
0.43352973,0.49635097,0.19930722,0.03502965,0.34630632,-0.3782996,-0.44594476,-0.9381089,0.40010637,-0.18858154,-0.11972079,-0.19423418
0.4470053,0.40584928,0.2552436,0.04844628,0.39839205,-0.3880425,-0.6253238,-1.0615294,0.39997494,-0.16318353,-0.024394883,-0.26503295
0.46583652,0.2521665,0.30061877,0.08724628,0.42695507,-0.24745053,-0.8615885,-1.1836741,0.4000041,-0.15651545,0.14338888,-0.3297185
0.46224076,0.15456766,0.31032884,0.112261385,0.42641664,-0.138669,-0.9871503,-1.1290698,0.40000218,-0.15334433,0.24377881,-0.35009408
0.46226576,0.017333016,0.3100805,0.15155064,0.42020535,-0.01752541,-1.0963514,-1.0064055,0.39699107,-0.15782827,0.3740487,-0.34877402
0.45486546,-0.049724475,0.2934309,0.13872,0.42242098,-0.16268569,-1.1814245,-0.8872432,0.3999888,-0.15879907,0.43955487,-0.33638674
0.43614557,-0.13969953,0.21100466,-0.0015675713,0.35894862,-0.5837426,-1.3610529,-0.6072162,0.39998287,-0.1701107,0.54634047,-0.27540383
0.45243758,-0.2346681,0.11146955,-0.24924946,0.13970414,-0.95269215,-1.4213004,-0.2489643,0.39997905,-0.23032941,0.6092048,-0.13454281
0.40335208,-0.28201854,-0.018935306,-0.36171567,-0.16155702,-1.1766448,-1.1772538,0.23410763,0.35786244,-0.31661952,0.6141187,0.080632724
0.65040296,-0.27353063,0.4000002,0.100135684,-0.36959815,-0.3565179,-0.34349898,0.1475249,-0.055220515,-0.14701134,0.6347357,-0.33104652
0.9785856,0.19490477,0.4000002,0.09841921,-0.15983012,-0.46120778,-0.2978614,-0.056453414,-0.024640862,0.2801103,0.12924649,-0.8741517
0.85339326,0.60491705,0.40000007,0.09782474,0.009783376,-0.48432568,-0.30378497,-0.1704164,-0.008021957,0.27460554,-0.33030343,-0.72877187
