ancorasir/BennettWheelLegRL/experiment_data/2023-12-27_22-40-32/joint_position_env0.csv
Joint_1,Joint_2,Joint_3,Joint_4,Joint_5,Joint_6,Joint_7,Joint_8,Joint_9,Joint_10,Joint_11,Joint_12
-0.005875716,0.005831888,-0.006029485,-0.0019376343,-0.0026053367,0.0007467621,0.005427717,0.0050437995,-0.0063939695,0.0028465977,-0.002087105,-3.5916648e-06
0.23275167,-0.0,-0.0,-0.28638044,0.0,0.0,-0.18219212,-0.0,-0.0,0.35229787,-0.0,0.0
0.17394756,0.012338349,0.02577475,-0.20006023,-0.019938437,-0.048063513,-0.13048628,-0.004440969,0.037074205,0.2436177,0.011733364,-0.05469953
0.32868135,0.1861275,0.16133967,-0.103880875,0.14095807,-0.353595,-0.21868095,-0.20814918,0.18131281,0.13438807,-0.07084494,-0.58169353
0.4634031,0.5411983,0.2587864,-0.04136496,0.29427156,-0.3540083,-0.1657249,-0.29839286,0.14543779,0.1947742,-0.66320974,-0.89027536
0.5186753,0.73277146,0.22968325,-0.015086465,0.30559704,-0.23863222,-0.06322651,-0.30458018,0.017257638,0.2991967,-1.1269616,-0.8862208
0.51873183,0.81794363,0.14919546,0.06413145,0.2669085,-0.09745346,0.05250861,-0.3680186,-0.06963043,0.3354536,-1.3238586,-0.7475251
0.38939282,0.81861407,-0.015240506,0.14829506,0.19388035,0.0030590354,0.15807228,-0.4868407,-0.006009135,0.21567991,-1.264315,-0.61659515
0.11593102,0.6609357,-0.082353,0.24677424,0.084713474,-0.027865363,0.19169569,-0.6216829,0.16964246,0.01373044,-0.93504614,-0.25468397
0.10266447,0.6379162,0.022995735,0.24741389,0.17433468,-0.2691506,0.14754295,-0.67727864,0.35888547,-0.12935299,-0.46597067,0.06902098
0.09668482,0.6391464,0.09734433,0.16150634,0.25451517,-0.38403472,-0.027112996,-0.76897115,0.40000197,-0.10308947,-0.3171863,0.03354551
0.18790668,0.6071424,0.19859695,0.17410788,0.2975712,-0.43007672,-0.21639404,-0.87229306,0.40000683,-0.05112379,-0.25941226,-0.14731327
0.2506865,0.5760189,0.26321402,0.19404452,0.33632407,-0.44801408,-0.32078335,-0.9490335,0.4000039,-0.054981858,-0.20085424,-0.19744271
0.31250918,0.5172892,0.32381722,0.25670266,0.37271944,-0.40011352,-0.48868412,-1.0639237,0.39827278,-0.13799365,0.1450709,-0.27571332
0.31194592,0.47800988,0.34261212,0.27060956,0.37845746,-0.35626557,-0.58935434,-1.0686933,0.39876905,-0.1869769,0.3499239,-0.2807802
0.29525378,0.42957968,0.36129358,0.2672609,0.3848123,-0.3105068,-0.72141767,-1.0388116,0.40000346,-0.20484108,0.46411857,-0.23645228
0.27443382,0.37793562,0.37661496,0.26303715,0.38546044,-0.25718784,-0.8526655,-0.993264,0.40000364,-0.19995058,0.4956211,-0.19808672
0.23358,0.26424038,0.40393007,0.23160909,0.3815137,-0.21379574,-1.0925372,-0.84737563,0.40000108,-0.1796707,0.54068553,-0.13126564
0.21481505,0.20932423,0.40937263,0.17487542,0.348347,-0.2531768,-1.1850519,-0.76293474,0.40006837,-0.17301889,0.5629263,-0.100316696
0.201837,0.15736774,0.40515143,0.061296646,0.32586783,-0.39062238,-1.2849979,-0.6559744,0.40003523,-0.17849365,0.57881653,-0.056673553
0.20109937,0.10965677,0.39237735,-0.08045877,0.3379778,-0.6144969,-1.3757542,-0.530355,0.39999256,-0.20378867,0.5843072,0.0067800945
0.19829611,0.030356256,0.33317712,-0.3785475,0.22396518,-1.0446589,-1.4755609,-0.21672021,0.40000027,-0.2823839,0.57549524,0.17092274
0.19159213,-0.009380823,0.29117197,-0.46251675,0.04341656,-1.1680351,-1.3825725,0.02099205,0.3999995,-0.33786672,0.55871177,0.28164026
0.17332722,-0.10409921,0.33968642,-0.36989102,-0.15160349,-1.2000002,-1.1273674,0.27239817,0.25190827,-0.41355854,0.5352187,0.4072657
0.45825455,-0.28984317,0.40000024,-0.025241725,-0.31069905,-0.65147865,-0.6397538,0.28547436,-0.0862562,-0.2901891,0.59882575,0.024724646
0.9967668,-0.005782023,0.4000002,0.08681157,-0.14573912,-0.40225935,-0.20194672,-0.16369805,-0.031941533,0.2961809,0.30471304,-0.9273886
0.88031065,0.56143856,0.40000013,0.05891854,0.049763553,-0.4587626,-0.17240301,-0.2526817,-0.07161646,0.25174013,-0.2759508,-0.8205439
0.6518992,0.9027517,0.33416796,0.07607517,0.18357919,-0.4323424,-0.19723986,-0.35877466,-0.085444964,0.04443101,-0.62767106,-0.5400703
0.4527876,0.86760455,0.113113806,0.11205354,0.29020512,-0.35897163,-0.24377903,-0.49453253,-0.064140484,-0.089209236,-0.49652314,-0.21592969
0.30549243,0.689788,0.033341974,0.14788264,0.30858004,-0.2912537,-0.20755169,-0.65677845,0.027039412,-0.18197756,-0.24872094,-0.009577601
0.35987288,0.60398686,0.12237545,0.108033076,0.26095122,-0.42292997,-0.20440498,-0.7936805,0.26891014,-0.13196705,-0.13810757,-0.17291039
0.41484696,0.4347854,0.25401536,0.03754881,0.16409092,-0.5422948,-0.5491459,-0.90562564,0.39999783,-0.10073967,0.032643102,-0.28355062
0.41849878,0.30568486,0.3148612,0.033427447,0.21942022,-0.473149,-0.79473287,-0.9932082,0.40000805,-0.08011801,0.1539043,-0.30715612
0.4340762,0.15706348,0.34513688,0.04711501,0.2983017,-0.39932567,-1.0123092,-1.0133021,0.40000916,-0.09522988,0.2810035,-0.30546412
0.4336679,0.06578829,0.3392506,0.058717933,0.32906708,-0.34630588,-1.1218494,-0.967949,0.4000556,-0.1025602,0.3642318,-0.2962744
0.43496644,-0.060982168,0.3027777,-0.027835086,0.2847581,-0.5352816,-1.2908059,-0.75432134,0.3999849,-0.1160821,0.4843414,-0.2601525
0.44845697,-0.122399256,0.27731946,-0.07539183,0.2320602,-0.660096,-1.3645092,-0.6246974,0.3999991,-0.1357815,0.5330667,-0.2192781
0.46258944,-0.17837791,0.24326704,-0.15413731,0.13364302,-0.7231639,-1.3870009,-0.45264533,0.39996344,-0.16205381,0.5712332,-0.16394763
0.46029216,-0.25687686,0.13289048,-0.2978896,-0.06824057,-1.0728949,-1.2819482,-0.04476182,0.3999617,-0.20760499,0.6295618,-0.03078366
0.44954303,-0.28058842,0.06107582,-0.3040732,-0.18187125,-1.195975,-1.1284077,0.140657,0.34361014,-0.24440116,0.6409407,0.056632016
0.6559465,-0.41013882,0.4000002,0.07756185,-0.38288495,-0.46023166,-0.3880283,0.110141575,-0.0720658,-0.22354655,0.6233656,-0.15439665
1.0031762,0.05965113,0.4000002,0.09117656,-0.14158224,-0.5294211,-0.3428652,-0.06296413,-0.070852414,0.15243267,0.1599284,-0.81188697
0.86107516,0.5861262,0.40000007,0.11653078,0.034455102,-0.5546843,-0.36468282,-0.16349787,-0.07237225,0.15252244,-0.21493436,-0.7709092
0.6575703,0.8306226,0.39999998,0.13055475,0.17568235,-0.5088697,-0.3615373,-0.26052183,-0.1188958,0.053941634,-0.53705025,-0.6190871
0.53553563,0.8755005,0.18230867,0.16445535,0.2741619,-0.40971336,-0.3851988,-0.37178743,-0.13456744,-0.097791955,-0.52470994,-0.29635355
0.36435154,0.66249347,0.07812569,0.13177367,0.30144915,-0.45601726,-0.3983976,-0.6530956,0.19877948,-0.16597894,-0.20270239,-0.122565866
0.44832712,0.44664317,0.25357231,0.0727085,0.2752045,-0.5046912,-0.6628833,-0.8346017,0.4000072,-0.11865738,0.02854969,-0.31513956
0.46172938,0.2873921,0.3012806,0.09341097,0.35760686,-0.40607312,-0.89276826,-1.0654436,0.40000623,-0.12327575,0.18764162,-0.3380061
0.44324458,0.14190035,0.29106203,0.12863201,0.37924403,-0.24528144,-1.0345016,-1.0653199,0.39999518,-0.132295,0.32801902,-0.323265
0.43214408,0.00022812432,0.2639987,0.057855748,0.28257486,-0.4213549,-1.2225599,-0.8501446,0.39996108,-0.14324303,0.4555358,-0.28659648
0.43848896,-0.12871902,0.21115512,-0.122181185,0.14204147,-0.66206264,-1.3542844,-0.52225024,0.39993885,-0.1690674,0.5577445,-0.20005785
0.43049943,-0.2102552,0.1029468,-0.30906576,-0.078243,-0.98600286,-1.3234564,-0.09633996,0.399969,-0.21502028,0.6178288,-0.070245914
0.42367962,-0.27876222,0.37903795,-0.21161418,-0.36402634,-1.0117973,-0.8201867,0.2798601,0.17762843,-0.30088466,0.63285273,0.117114455
0.8508847,-0.10076796,0.4000002,0.062134378,-0.2735419,-0.40267733,-0.27570677,-0.068415456,0.022375248,0.18220639,0.4394999,-0.7160883
0.90083414,0.35210797,0.40000013,0.048265494,-0.062394597,-0.5240301,-0.32598877,-0.20032547,0.07016961,0.29925346,-0.07021446,-0.8322249
0.7598258,0.7395125,0.40000004,0.03816068,0.10069319,-0.5169099,-0.3123431,-0.30595684,0.02816271,0.183154,-0.48379248,-0.72466785
0.6431528,0.88185173,0.31277707,0.050609685,0.24131192,-0.46281525,-0.32957494,-0.41567415,-0.018768033,0.021342332,-0.7159839,-0.5498422
0.4907222,0.82082325,0.11234802,0.07482321,0.34291017,-0.3630267,-0.3584123,-0.5261545,-0.052541234,-0.13463135,-0.5008533,-0.28926396
0.41630903,0.62062633,0.13817863,0.07675144,0.38428023,-0.3275402,-0.31495702,-0.7555374,0.16954911,-0.20986314,-0.1831246,-0.11733106
0.47816974,0.4335099,0.2872987,0.08779968,0.41220608,-0.28943917,-0.6287816,-1.0635896,0.3999946,-0.15150984,0.021174809,-0.28946593
0.4867764,0.2583162,0.35672882,0.12276824,0.43518865,-0.12638043,-0.89380246,-1.1992987,0.40000263,-0.1152259,0.21266748,-0.36434975
0.48940915,0.16885255,0.3774368,0.14606944,0.43696642,-0.057765853,-0.99508876,-1.1552612,0.3999965,-0.106429785,0.3024572,-0.38009584
0.4764235,0.016963216,0.3734072,0.14164416,0.43942666,-0.2092695,-1.1675329,-0.95840454,0.4000004,-0.08884454,0.46105397,-0.3844624
0.47506586,-0.12463888,0.33289352,-0.012590051,0.2968323,-0.5640814,-1.3311934,-0.66705006,0.39997125,-0.10248437,0.58117586,-0.32241955
0.4876044,-0.23160845,0.24907556,-0.20477642,0.047744475,-0.84050596,-1.3891159,-0.30875912,0.39996532,-0.14401329,0.6606515,-0.2075894
0.46613237,-0.32005474,0.14412598,-0.31045833,-0.29797497,-1.166888,-1.1257964,0.1476583,0.31671634,-0.19776449,0.69069064,-0.03556813
0.47053546,-0.3383116,0.40000007,-0.13409983,-0.39758697,-0.9598124,-0.7289942,0.22146802,0.07210817,-0.21877773,0.68456453,0.014794788
0.8662846,-0.09880325,0.4000002,0.027619816,-0.23472376,-0.55921066,-0.37669936,-0.02223358,-0.05650356,0.22229405,0.38434595,-0.6685181
0.8901058,0.18832247,0.40000015,0.02380046,-0.086449966,-0.6101844,-0.39144024,-0.110259116,-0.029158873,0.3222411,0.03985577,-0.6966526
0.8008872,0.5503591,0.4000001,0.02376499,0.08055112,-0.62252456,-0.4071484,-0.21949841,-0.032670014,0.26095644,-0.40482825,-0.66130024
0.6742363,0.8642316,0.4,0.03175673,0.23193224,-0.5778779,-0.42401075,-0.3309289,-0.058291703,0.13417925,-0.6879652,-0.61300945
0.6443321,0.922962,0.34934914,0.036350034,0.3001572,-0.541445,-0.43544382,-0.3860239,-0.07887877,0.044443592,-0.74583435,-0.5191356
0.5027363,0.8756493,0.084983654,0.05184785,0.3760102,-0.41711232,-0.44079238,-0.4933061,-0.11075476,-0.13653162,-0.53528994,-0.1546985
0.4424887,0.68446237,0.0945062,0.065045476,0.37661803,-0.44564983,-0.44914758,-0.76167125,0.32934538,-0.13185932,-0.27310866,-0.19193609
0.47932628,0.5575293,0.1933382,0.07163291,0.4257737,-0.39732516,-0.56949174,-0.94139355,0.39999974,-0.10967764,-0.13763505,-0.27772024
0.48422068,0.38096705,0.27202114,0.100104555,0.4581542,-0.23742926,-0.8583468,-1.1718397,0.4000013,-0.08624243,0.054462533,-0.34763342
0.47637853,0.26806757,0.30413488,0.108165264,0.46631154,-0.15987901,-1.0211729,-1.156506,0.40000156,-0.07452488,0.16799115,-0.3728679
0.48082608,0.11627141,0.3302596,0.14770345,0.4649987,-0.01878409,-1.1498202,-1.029575,0.39976203,-0.0763306,0.31100655,-0.38128668
0.49678826,-0.038759317,0.32895815,0.15217695,0.4820838,-0.15960214,-1.2852149,-0.85079104,0.4000469,-0.09004627,0.4515248,-0.3621976
0.4880644,-0.14403999,0.26632905,-0.057067327,0.40112248,-0.6508566,-1.4541259,-0.5888036,0.3999986,-0.1048357,0.55723834,-0.30547088
0.48420852,-0.18893118,0.21730354,-0.18662544,0.2891826,-0.8496809,-1.4869506,-0.40110996,0.39996594,-0.123842426,0.59484386,-0.24867718
0.46211442,-0.24586542,0.07436762,-0.33930847,-0.04137407,-1.1327645,-1.3518744,0.03945819,0.3999994,-0.18930145,0.62840325,-0.08133973
0.42009974,-0.29403108,0.12666243,-0.28847662,-0.20164445,-1.1872599,-1.1332989,0.22118458,0.30473554,-0.22876404,0.63100564,0.015528187
0.7130113,-0.29252943,0.40000024,0.09256333,-0.2649365,-0.315178,-0.25805852,-0.05472884,-0.09654141,0.04057638,0.51837796,-0.44589615
0.9017783,-0.06422991,0.40000024,0.027650548,-0.06339606,-0.5120072,-0.3187896,-0.16846827,0.012474855,0.20717993,0.2714023,-0.6966251
0.87710935,0.54606396,0.40000013,0.018204246,0.1503754,-0.55349725,-0.31314206,-0.27499563,-0.022161689,0.2164027,-0.24120815,-0.7401021
0.78682053,0.7899359,0.40000004,0.03651863,0.22014368,-0.5212092,-0.32258034,-0.32499588,-0.046224173,0.121523395,-0.44845998,-0.6630311
0.616422,0.98807204,0.24794656,0.08437204,0.32196677,-0.4133978,-0.35710353,-0.42945015,-0.09087895,-0.04432614,-0.64333034,-0.37569243
0.46381354,0.918181,0.077982225,0.10547786,0.35948715,-0.3721691,-0.37573773,-0.54937625,0.055634033,-0.17449778,-0.5162106,0.036944743
0.42226297,0.62445486,0.14131072,0.087695226,0.35434967,-0.3867546,-0.38656315,-0.7933137,0.32169178,-0.14152056,-0.27338588,-0.21387708
0.46818775,0.51407546,0.23803553,0.08783849,0.4011792,-0.3397152,-0.5060094,-0.9209642,0.4000204,-0.12541325,-0.1655596,-0.30133522
0.49529925,0.32506323,0.33072475,0.118606366,0.43656686,-0.19024272,-0.8084552,-1.1491872,0.40000108,-0.115936875,0.030686123,-0.38935095
0.49171537,0.23156966,0.35709563,0.13094579,0.44516528,-0.10310803,-0.9096779,-1.1782801,0.39651933,-0.10975416,0.12598412,-0.41247112
0.49070936,0.06576999,0.3867239,0.16205327,0.44202408,0.017764118,-1.0323896,-1.1001894,0.3999798,-0.10421545,0.2897858,-0.4394724
0.49051964,-0.029618114,0.37980542,0.18784413,0.45061725,-0.05979376,-1.1359739,-0.9715004,0.38221347,-0.10451236,0.3916654,-0.44281083
0.48179272,-0.091101915,0.3555865,0.15702498,0.43708527,-0.21431325,-1.2094309,-0.85831946,0.34393013,-0.10156099,0.4683193,-0.440533
0.47801387,-0.19822448,0.27815193,-0.043683097,0.36141434,-0.7093076,-1.3970691,-0.52894944,0.40000033,-0.119524844,0.5926276,-0.3828007
0.47358516,-0.26623464,0.19309996,-0.21336628,0.11395449,-0.9812322,-1.3857725,-0.20132315,0.39999777,-0.15208764,0.6507038,-0.290121
0.4412995,-0.3083615,0.06946171,-0.30501732,-0.11835995,-1.200001,-1.2336111,0.1377926,0.39998877,-0.18188985,0.685801,-0.16045211
0.46237823,-0.40173757,0.4000001,-0.14230944,-0.4991454,-0.9478191,-0.67673457,0.28818145,0.11330269,-0.24464615,0.69854224,0.046159476
0.70202816,-0.38424695,0.4000002,0.067378774,-0.51492167,-0.32231084,-0.35704318,0.07631398,-0.003218307,0.015241794,0.68859094,-0.40718532
0.93864745,-0.19794828,0.4000002,0.02488287,-0.3231559,-0.49391368,-0.3969374,-0.05532374,0.070697166,0.26996318,0.4309297,-0.7112985
0.9513008,0.20690599,0.4000002,0.031628292,-0.10785587,-0.55391103,-0.41365138,-0.19451196,0.09191049,0.31324473,0.06252665,-0.8223871
0.83015174,0.57814944,0.40000004,0.009180612,0.056770604,-0.5685228,-0.38366395,-0.28777725,0.056364946,0.23215067,-0.30170992,-0.7464834
0.708261,0.8536075,0.40000004,0.0019027801,0.18859981,-0.5420851,-0.37442803,-0.37323365,0.014259638,0.091024265,-0.58479375,-0.6548524
0.61032414,0.9496248,0.22775994,0.0063716746,0.3071819,-0.47338527,-0.38659492,-0.47254518,-0.028103817,-0.030060215,-0.72448117,-0.4800356
0.5125154,0.8777003,0.1295745,0.026827818,0.35285875,-0.38952523,-0.40064505,-0.53558135,-0.059636354,-0.1321173,-0.58450425,-0.20971335
0.36242396,0.7523532,0.021009315,0.038225196,0.3256909,-0.448837,-0.38422292,-0.6203851,0.04638769,-0.2062992,-0.42426234,-0.015200127
0.4292932,0.6069697,0.17521939,0.028373858,0.34167832,-0.47864467,-0.39660132,-0.76143235,0.3710303,-0.15806986,-0.28187752,-0.17959066
0.48494756,0.4357646,0.29192427,0.044990744,0.42108887,-0.39147472,-0.6249375,-0.9757259,0.39999583,-0.14634177,-0.10897079,-0.28689277
0.4936056,0.2555607,0.35216376,0.07898536,0.45148337,-0.22941907,-0.89357406,-1.1698055,0.40000153,-0.1340319,0.08109179,-0.351929
0.49016818,0.17178635,0.3619675,0.10697932,0.4509856,-0.13080789,-0.9960756,-1.1528665,0.40000123,-0.12711902,0.1742615,-0.37135592
0.4678295,0.02529277,0.34656227,0.066191316,0.4233356,-0.37142205,-1.2033762,-0.93602175,0.3999665,-0.10966982,0.34452346,-0.39222315
0.46688727,-0.10697405,0.29889885,-0.055916637,0.23330548,-0.6239667,-1.3571057,-0.6574342,0.39996585,-0.12439861,0.48145342,-0.3463211
0.47524288,-0.20836267,0.20670044,-0.20231113,0.06828643,-0.84910244,-1.3786424,-0.31539088,0.40000156,-0.16403861,0.5772441,-0.23940508
0.4605328,-0.27717736,0.08064409,-0.28299552,-0.15073258,-0.9596903,-1.2470345,0.046332795,0.38759586,-0.22225572,0.62329686,-0.080108054
0.4867974,-0.35887814,0.4000001,-0.104548395,-0.26126787,-0.7743636,-0.7355954,0.20943348,0.184592,-0.30473134,0.6467972,0.09863884
0.9221886,-0.1427895,0.40000024,0.0053720293,-0.12119242,-0.5262151,-0.28996736,-0.17556079,0.017608827,0.14377716,0.4065444,-0.7133537
0.92764884,0.33996347,0.40000015,0.012310217,0.04698124,-0.5496597,-0.3339717,-0.30351314,0.065698124,0.33313805,-0.1316868,-0.7881724
0.7867989,0.7630614,0.40000004,0.0014892564,0.19497295,-0.5225455,-0.33112794,-0.40533713,0.022163961,0.19206677,-0.5550122,-0.66192394
0.6342209,0.93294644,0.24207978,-0.0024308688,0.32390884,-0.45384762,-0.33400995,-0.50269353,-0.042588644,-0.01641132,-0.72477514,-0.50026023
0.4385382,0.7879336,0.048170682,0.035912488,0.37891,-0.31674856,-0.35362142,-0.58954096,-0.099865586,-0.19804013,-0.42254397,-0.21777368
0.4584092,0.5533323,0.1955188,0.030745953,0.37781358,-0.35285056,-0.37432745,-0.86494905,0.29886496,-0.20686647,-0.13420627,-0.2302756
0.50515795,0.35786787,0.32280472,0.024992393,0.39819983,-0.28773227,-0.72106004,-1.1274835,0.39999756,-0.17951657,0.061696343,-0.34491712
0.49998498,0.180517,0.36902112,0.046922732,0.44062284,-0.14776734,-0.9510651,-1.19992,0.40000153,-0.14652681,0.2593116,-0.39898697
0.4876034,0.031330846,0.3569813,0.089052625,0.45805842,-0.13667856,-1.1613678,-1.0316823,0.3975056,-0.13147923,0.4322591,-0.41148686
0.48037893,-0.03271268,0.33382183,0.053834822,0.44082943,-0.28750312,-1.252859,-0.90175694,0.39999062,-0.13389902,0.50282705,-0.3985871
0.47584283,-0.15133649,0.26360902,-0.07371101,0.23866124,-0.6197001,-1.3896713,-0.59080184,0.39996943,-0.16419195,0.60653204,-0.31877008
0.4835234,-0.2464526,0.1569487,-0.2530037,0.006967777,-0.9292547,-1.3725696,-0.16615617,0.39997455,-0.21590838,0.6721002,-0.17538191
0.4549516,-0.34328434,0.18707882,-0.24602203,-0.25628328,-1.0237993,-1.003362,0.23945722,0.29000378,-0.30634427,0.6842914,0.03130501
0.6253412,-0.3368986,0.40000018,0.052756734,-0.3692859,-0.40687633,-0.44018897,0.14766523,-0.012656029,-0.16100973,0.63329417,-0.35628822
0.89961916,0.0036950484,0.4000002,0.037143834,-0.15356368,-0.55045074,-0.2983681,-0.13099557,0.08349123,0.21130866,0.19697192,-0.7486208
0.91750747,0.2572992,0.40000018,0.045956034,-0.042973172,-0.57806927,-0.305267,-0.19365634,0.08789848,0.28174314,-0.022516547,-0.76697314
0.7511734,0.68196446,0.40000004,0.07570809,0.1183094,-0.5563985,-0.32700035,-0.3097881,0.08352779,0.19346066,-0.41237175,-0.5926973
0.581032,0.88727784,0.23515733,0.09202062,0.2489295,-0.48841843,-0.3442483,-0.4270705,0.05281192,-0.02181155,-0.6192678,-0.40346354
0.4173859,0.7781007,0.08940743,0.11018468,0.32976174,-0.36909035,-0.346176,-0.5631346,0.05065208,-0.19708826,-0.383042,-0.10080624
0.42382628,0.5482939,0.20481564,0.07954653,0.29926816,-0.41008875,-0.44502008,-0.8612213,0.39999285,-0.13593493,-0.14960372,-0.23978548
0.43886393,0.35859537,0.30824992,0.073169224,0.39502624,-0.31901014,-0.760783,-1.0657911,0.3999976,-0.09376698,0.05417671,-0.3346986
0.4431865,0.19564526,0.34075502,0.11351254,0.42307907,-0.16393906,-0.9932732,-1.1063105,0.4000035,-0.08327034,0.23201832,-0.37277284
0.44124413,0.033793215,0.34808162,0.11709473,0.43713135,-0.23333557,-1.1761233,-0.95189995,0.39998958,-0.08001952,0.39068738,-0.3802028
0.45075533,-0.09091314,0.3062369,0.0073982202,0.29301545,-0.5225372,-1.3521526,-0.67268825,0.39998153,-0.10235138,0.513721,-0.33493957
0.45983014,-0.19245541,0.22660673,-0.2037809,0.09634957,-0.7965479,-1.4085683,-0.33378902,0.39996272,-0.13874064,0.6044412,-0.24084792
0.45204866,-0.26271278,0.101556614,-0.28911602,-0.14085822,-1.0043228,-1.2392143,-0.025426844,0.38135254,-0.196574,0.6526675,-0.09839826
0.43637285,-0.31176353,0.37328836,-0.12784056,-0.28651893,-0.8407608,-0.7160239,0.22751778,0.14347236,-0.2688369,0.6678367,0.07877409
0.882851,-0.063564606,0.40000024,0.03054989,-0.17772,-0.5289232,-0.2795214,-0.1315569,-0.0010473212,0.13717598,0.37827495,-0.68526393
0.91173786,0.42973977,0.40000013,0.015768342,0.0195034,-0.5815122,-0.30996594,-0.27059293,0.057327878,0.28203863,-0.18066658,-0.7898056
0.74739194,0.827615,0.40000004,0.031480126,0.16938715,-0.5512904,-0.31253535,-0.3633602,0.009424563,0.11752197,-0.5267319,-0.661817
0.64768076,0.92667514,0.28515387,0.055427466,0.29226813,-0.4794361,-0.33798075,-0.46486747,-0.034506988,-0.022338511,-0.66839206,-0.535218
0.4705641,0.8307786,0.05963661,0.08066414,0.37652525,-0.3635582,-0.32166907,-0.60482675,-0.0045692804,-0.18116713,-0.4046086,-0.123877876
0.46302938,0.5648786,0.18350396,0.0767699,0.34388202,-0.41912982,-0.438071,-0.9036582,0.4000021,-0.1625296,-0.12656982,-0.19815806
0.47370854,0.46997178,0.25289834,0.06060075,0.37279317,-0.3705053,-0.63313395,-0.9931678,0.39999512,-0.12308173,-0.023695942,-0.2771487
0.4805387,0.2838569,0.33680478,0.069092445,0.4211527,-0.28538102,-0.90963566,-1.1242895,0.39998978,-0.09518028,0.158833,-0.347875
0.4714448,0.11731426,0.3584588,0.09348743,0.42763686,-0.2553007,-1.1139133,-1.0573784,0.40005144,-0.08554667,0.32033595,-0.35684994
0.466824,-0.02515296,0.33849338,0.07916615,0.4030202,-0.38130108,-1.2688099,-0.88436025,0.39999926,-0.08881257,0.45641285,-0.32807225
0.4727354,-0.16150066,0.29154783,-0.088981375,0.21396492,-0.70399386,-1.4156244,-0.58438736,0.3999598,-0.11487056,0.557093,-0.24277097
0.46377707,-0.23712067,0.1720272,-0.266428,0.05148115,-0.93961465,-1.3847811,-0.20535553,0.39999953,-0.16780521,0.611156,-0.09628106
0.40773115,-0.29325905,0.12873927,-0.33364338,-0.19211617,-1.1692227,-1.1550919,0.21277113,0.3849847,-0.25567034,0.6163914,0.10634033
0.6050955,-0.33787936,0.40000024,0.02545534,-0.42448097,-0.48773786,-0.4249907,0.17945701,-0.047228143,-0.15530209,0.679605,-0.30718064
0.917605,-0.14830628,0.40000024,0.109119155,-0.30102152,-0.45010737,-0.25326422,-0.059954777,-0.01635697,0.15911077,0.45440283,-0.74659204
0.93863595,0.3574601,0.40000015,0.13346726,-0.10945048,-0.5076183,-0.298691,-0.18946183,0.020655705,0.2582837,-0.053691056,-0.8664442
0.723788,0.764413,0.40000004,0.13456951,0.06753869,-0.51873803,-0.29263672,-0.2937601,-0.011906954,0.1450624,-0.49136302,-0.6589151
0.57535535,0.89201385,0.26179585,0.14602064,0.22345209,-0.4817621,-0.31054452,-0.4052412,-0.045072023,-0.045818027,-0.5938912,-0.45923322
0.4222608,0.7318648,0.09002345,0.18671966,0.3213484,-0.38656154,-0.36586228,-0.53727454,-0.032106664,-0.19035758,-0.3471837,-0.22516905
0.39935935,0.5900624,0.14199986,0.14683886,0.3280236,-0.394942,-0.34569746,-0.68228155,0.13594364,-0.18921831,-0.21418433,-0.17000453
0.46818426,0.3933134,0.2973634,0.131185,0.385621,-0.3642989,-0.61170137,-0.93573904,0.40002674,-0.1358745,-0.00095912843,-0.3602899
0.47881177,0.21247666,0.3654981,0.12992589,0.46430802,-0.30678514,-0.94720304,-1.0873972,0.3999984,-0.1085497,0.19694863,-0.4271583
0.50291955,0.040248394,0.3782176,0.19192664,0.47275275,-0.123248555,-1.0473578,-1.0713105,0.36916715,-0.13236311,0.36545807,-0.4256325
0.48823908,-0.077356294,0.32449892,0.12226041,0.37938702,-0.35608983,-1.2100139,-0.8507687,0.40007618,-0.13926151,0.5079085,-0.40861803
0.49106815,-0.20254,0.25870594,-0.104864225,0.20932272,-0.70332116,-1.3774294,-0.533235,0.3999873,-0.1699846,0.61105156,-0.3247062
0.4680009,-0.28391173,0.13073255,-0.31330106,-0.032308634,-1.0448174,-1.3273678,-0.08507443,0.3999987,-0.21169098,0.66710544,-0.17440565
0.40656555,-0.33637547,0.3057795,-0.23916166,-0.2932043,-1.0812,-0.8991971,0.28253025,0.24990512,-0.28396836,0.67519724,0.034215298
0.80498314,-0.13521022,0.4000002,0.05914043,-0.21076614,-0.45244917,-0.31718346,0.0022565676,-0.025264578,0.2475035,0.47876534,-0.6223036
0.89908266,0.34333172,0.40000018,0.030928351,0.058017533,-0.6001928,-0.36790413,-0.1545467,0.0517911,0.34252667,-0.08775994,-0.7977236
0.7547187,0.7266396,0.40000004,0.028671036,0.22583614,-0.56674355,-0.36695778,-0.28064603,0.046346717,0.20930898,-0.5407818,-0.6416395
0.6329277,0.8945972,0.2571758,0.038769465,0.34374097,-0.4706409,-0.37742943,-0.40142393,0.009400295,-0.02634676,-0.71301174,-0.4759528
0.528053,0.8170328,0.122890115,0.06589576,0.41312125,-0.32929605,-0.40395448,-0.5210271,-0.02377911,-0.2075716,-0.47940207,-0.22603974
0.36321762,0.6944813,0.03350676,0.070100285,0.42691424,-0.25098005,-0.3754678,-0.6276693,0.100298755,-0.22908583,-0.28770068,-0.076609015
0.4658161,0.4903569,0.24610357,0.07288186,0.38881776,-0.39423782,-0.54258,-0.8532986,0.39998978,-0.15025538,-0.06243693,-0.3374936
0.489345,0.30435392,0.3339483,0.09438165,0.41841245,-0.2900417,-0.86415476,-1.1002433,0.40000635,-0.13926062,0.12932476,-0.40215316
0.48218212,0.12752974,0.36272925,0.11931962,0.42254803,-0.21264526,-1.0740733,-1.1140006,0.400002,-0.1359664,0.30237147,-0.41317528
0.47164622,-0.03269295,0.35351995,0.074292265,0.40475342,-0.31142446,-1.2622291,-0.9142569,0.40002748,-0.1313379,0.4556285,-0.39111063
0.47332594,-0.17285912,0.30328858,-0.04585982,0.24951184,-0.58011526,-1.358152,-0.6493087,0.39996722,-0.15311268,0.5696788,-0.31369907
0.47432518,-0.26192617,0.19178993,-0.2306325,0.049403034,-0.92539006,-1.3853989,-0.25959066,0.39997345,-0.19744258,0.63972896,-0.1742248
0.4631516,-0.29061434,0.117635705,-0.29750195,-0.08482634,-1.053918,-1.3184838,-0.03759825,0.39997816,-0.222303,0.6615101,-0.09135092
0.4968664,-0.36366525,0.4000001,-0.13361266,-0.37161613,-0.9579581,-0.7372894,0.28645274,0.09325608,-0.30772242,0.66005373,0.08376926
0.869757,-0.12833765,0.4000002,-0.0033582635,-0.19324993,-0.5064506,-0.22689019,-0.05272307,-0.030060899,0.20040464,0.46151885,-0.722218
0.86778045,0.3124508,0.40000015,0.008476539,0.018116815,-0.5702574,-0.2537974,-0.17339204,-0.012966436,0.3076027,0.03238431,-0.77180564
0.73534435,0.7118163,0.40000007,0.012595214,0.16498321,-0.53467244,-0.25310197,-0.28075606,-0.030239077,0.23160066,-0.39594674,-0.65344894
0.6742997,0.83338755,0.40000004,0.016791722,0.22125548,-0.49730664,-0.25712976,-0.33387843,-0.04355099,0.1545145,-0.5895181,-0.5656252
0.5721658,0.8925594,0.207028,0.039055143,0.32437876,-0.3959989,-0.2728114,-0.44186226,-0.07971227,-0.036649115,-0.6813444,-0.4367437
0.336917,0.6826747,-0.028460093,0.07133783,0.37491,-0.30312902,-0.23803908,-0.6520215,0.035193,-0.24734129,-0.28586087,0.016475491
0.4397167,0.488624,0.18032375,-0.0068039005,0.18974978,-0.5818552,-0.46158978,-0.803738,0.39999425,-0.17121296,-0.08606814,-0.21720535
0.4589646,0.39021242,0.23800354,-0.0031298376,0.20749721,-0.4845052,-0.63164383,-0.8794199,0.4000107,-0.16147208,0.008362658,-0.26063162
0.4842873,0.23790604,0.271323,0.039631132,0.28137168,-0.37865216,-0.832169,-1.0476284,0.40000507,-0.17729363,0.16219959,-0.28784624
0.47822493,0.087502755,0.26786572,0.05380977,0.2541949,-0.37548026,-1.0466934,-1.0030689,0.40002057,-0.1827519,0.30885762,-0.28629148
0.46965012,-0.055667903,0.23837101,0.015678868,0.30722097,-0.43435204,-1.1889229,-0.82907647,0.39993772,-0.18653168,0.44268855,-0.25513396
0.46285057,-0.15391473,0.15821667,-0.13828632,0.17448758,-0.73148644,-1.3560838,-0.49009702,0.39996782,-0.20516098,0.5450442,-0.18107356
0.44632474,-0.22191773,0.036360193,-0.2782375,-0.029708358,-1.0215927,-1.3283169,-0.070749916,0.39997604,-0.24734603,0.607263,-0.058403358
0.43970567,-0.31656322,0.40000007,-0.1407799,-0.35720536,-0.9122377,-0.7561802,0.23452634,0.10296784,-0.31383088,0.6319821,0.10290692
0.87150085,-0.16974114,0.40000024,0.029736796,-0.21225919,-0.46905082,-0.19240725,-0.14919761,-0.022490097,0.21047781,0.48267445,-0.6968264
0.88977385,0.31572425,0.40000018,0.023149746,-0.0043398375,-0.538379,-0.23787312,-0.29650941,0.054986432,0.34160253,-0.023965493,-0.7666861
0.750432,0.7277619,0.40000004,0.039039005,0.13476753,-0.5036838,-0.23374277,-0.38209212,0.0019173193,0.1690201,-0.53004336,-0.62850827
0.62595195,0.90300417,0.24520664,0.07157226,0.24364468,-0.41958144,-0.25100413,-0.4737227,-0.061143886,-0.030772261,-0.7037872,-0.46483946
0.3972698,0.7630686,0.05237045,0.10776942,0.3347945,-0.31304044,-0.21519937,-0.6647285,0.03688685,-0.20744976,-0.381291,-0.033945803
0.44480354,0.563358,0.151122,0.04480743,0.23772304,-0.4732554,-0.40575567,-0.86250246,0.39999306,-0.14501595,-0.15142916,-0.1827686
0.4888865,0.3623394,0.28432733,0.016506217,0.35434672,-0.41421816,-0.78690755,-1.0518373,0.40000096,-0.107818045,0.048255783,-0.29120737
0.5004205,0.18932125,0.32907996,0.03272354,0.40844962,-0.29065272,-1.0125253,-1.0806588,0.39999497,-0.1101284,0.21126617,-0.32590866
0.49627537,0.02801312,0.32877985,0.057797182,0.429749,-0.14910588,-1.1452767,-1.0009243,0.3999996,-0.1184243,0.35734132,-0.3224346
0.46795085,-0.08850213,0.2700386,0.058205564,0.44011953,-0.28484344,-1.2514089,-0.7874963,0.39997682,-0.11897683,0.4822769,-0.2921959
0.45903003,-0.16776457,0.16824801,-0.104839854,0.33934966,-0.6657827,-1.3878177,-0.5057795,0.3999656,-0.15709642,0.56644046,-0.20171607
0.44527858,-0.2187916,0.03029189,-0.2840542,0.03338985,-1.0587585,-1.366826,-0.0634115,0.399997,-0.2173677,0.6145503,-0.06333167
0.44051185,-0.28011534,0.29929817,-0.17389344,-0.2510212,-1.0340039,-0.8753162,0.28748757,0.20019168,-0.3110964,0.62459964,0.13247491
0.8338338,-0.17540468,0.4000002,0.050518338,-0.16536742,-0.43009996,-0.31911597,-0.056106195,-0.024061304,0.20512217,0.45562917,-0.61177903
0.9116936,0.31969255,0.4000002,0.04270549,0.042591322,-0.51493853,-0.36254084,-0.18599206,0.024943558,0.3203617,0.007835767,-0.77918816
0.8351346,0.54887587,0.40000015,0.042698395,0.11558685,-0.49449524,-0.35566917,-0.24146838,0.017689398,0.28699997,-0.19977286,-0.7268283
0.6741748,0.86040694,0.4,0.054914184,0.22819802,-0.405611,-0.35346633,-0.35574242,-0.013619271,0.096424066,-0.60132223,-0.58872235
0.5860494,0.9113531,0.20375252,0.072248615,0.3282614,-0.2886822,-0.36303824,-0.47212443,-0.06127025,-0.07191213,-0.6913117,-0.36624184
0.39205253,0.70120823,0.03356846,0.0853895,0.39046192,-0.23427658,-0.30886507,-0.7205425,0.14967008,-0.15483293,-0.33835796,-0.07151947
0.49891812,0.48746103,0.2292474,0.08683257,0.40393358,-0.38186055,-0.55298513,-0.9238866,0.39997882,-0.10714315,-0.116662584,-0.26963124
0.5224148,0.29383802,0.3134186,0.102114156,0.4751126,-0.24986573,-0.8805412,-1.1190616,0.40000212,-0.08941816,0.08835655,-0.3484107
0.51719415,0.13335998,0.32531807,0.15046254,0.47617337,-0.08354509,-1.0480732,-1.0990318,0.399963,-0.078714356,0.27081382,-0.38853544
0.51542383,-0.019897869,0.3142829,0.16180755,0.4791266,-0.029477198,-1.2119788,-0.94090784,0.39994952,-0.079887934,0.4274754,-0.3838316
0.5170429,-0.13076742,0.25534034,0.060553774,0.44986796,-0.41249812,-1.3615589,-0.71179307,0.39999694,-0.09719222,0.55205595,-0.34557554
0.4993348,-0.2039409,0.14073175,-0.22041781,0.25035116,-0.8419499,-1.4332913,-0.31762615,0.39999634,-0.1352434,0.6302724,-0.24551153
0.4670793,-0.25609842,0.02765711,-0.36043486,-0.11454642,-1.1999996,-1.2750665,0.16417268,0.39998803,-0.21816441,0.64663243,-0.058518473
0.6446882,-0.3714548,0.4000002,-0.008558982,-0.40507898,-0.58498996,-0.5429993,0.15564346,-0.010242204,-0.14691186,0.62926847,-0.21777289
0.98285115,0.020622859,0.4000002,0.06359487,-0.21273842,-0.48185796,-0.3839135,-0.12324887,0.039242495,0.20744489,0.2775545,-0.8449506
0.86309594,0.5139064,0.40000013,0.057599217,-0.012476216,-0.51295555,-0.3777486,-0.24628569,0.02804873,0.18898761,-0.16687298,-0.7672798
0.6875253,0.84375936,0.40000004,0.045239046,0.1611698,-0.4904618,-0.36289364,-0.35715196,-0.022010032,0.086273335,-0.5505534,-0.63342404
0.57669103,0.8995574,0.25709084,0.06301027,0.27748144,-0.40129822,-0.3724027,-0.4585264,-0.07987394,-0.0068586967,-0.7240626,-0.43801033
0.42536193,0.7945085,0.063147716,0.1035552,0.33830333,-0.27483097,-0.3765724,-0.5989028,0.0035682747,-0.17320082,-0.44074088,-0.029326215
0.45861965,0.55086154,0.23112501,0.07828658,0.3102624,-0.37164074,-0.4775861,-0.8619388,0.4000698,-0.104667544,-0.19935028,-0.1828606
0.4852833,0.35975927,0.3386615,0.083128266,0.39581,-0.2736795,-0.7939244,-1.049939,0.39999697,-0.06178466,0.0032072915,-0.29986015
0.48198473,0.17776972,0.38023812,0.10056394,0.4530233,-0.15516739,-1.0338246,-1.1150527,0.40000215,-0.03831597,0.1979391,-0.3530953
0.48423907,0.027262378,0.36760235,0.120587215,0.47530794,-0.122915424,-1.175631,-0.99238217,0.39997983,-0.04009909,0.3644321,-0.36389735
0.48623836,-0.09958958,0.32134014,0.014383783,0.4365128,-0.3505583,-1.3554206,-0.74701166,0.39999953,-0.062916584,0.49074864,-0.33122343
0.48773712,-0.18829067,0.22893672,-0.18054627,0.2052813,-0.6863867,-1.4117805,-0.4371957,0.39994597,-0.11086179,0.5699413,-0.23279652
0.4878119,-0.25205946,0.09841946,-0.2971305,-0.024889838,-1.0520601,-1.3280321,-0.07052187,0.3999991,-0.18772244,0.6049843,-0.06693821
0.4107182,-0.28903925,0.11526184,-0.28035325,-0.18692508,-1.1821213,-1.0479299,0.24898778,0.3328698,-0.26057276,0.6108861,0.12889424
0.74189764,-0.32592523,0.4000002,0.02803466,-0.28521156,-0.41901872,-0.20713034,-0.05365433,-0.08020892,-0.01306836,0.52029127,-0.42436025
0.9723284,0.18501307,0.40000018,0.05275717,-0.082030095,-0.50623375,-0.26357752,-0.17395025,-0.031406164,0.22919635,0.08704915,-0.8678591
0.83891004,0.6695062,0.40000007,0.06877048,0.091162704,-0.50405365,-0.26464877,-0.270963,-0.07343133,0.17371564,-0.34508008,-0.76579803
0.58801013,0.9245102,0.25453454,0.10434313,0.21266222,-0.43532053,-0.28735024,-0.36874685,-0.110004336,0.006284764,-0.6029414,-0.43670955
0.36660987,0.7718584,0.049303208,0.13248196,0.31624117,-0.3420271,-0.26132828,-0.58364284,0.035398867,-0.18292701,-0.38181055,0.043204296
0.42161718,0.5022819,0.2143206,0.072780095,0.2101097,-0.5082682,-0.46045688,-0.8259523,0.3999884,-0.1404544,-0.1654319,-0.18656053
0.440522,0.4021859,0.27561456,0.048551794,0.27900326,-0.4704355,-0.61011946,-0.92826736,0.40001473,-0.11808334,-0.05941268,-0.24382223
0.4596767,0.24081236,0.32347426,0.080787405,0.3403084,-0.35119247,-0.8702302,-1.0864085,0.40000296,-0.10930152,0.11497218,-0.311254
0.42812565,0.098541334,0.30991745,0.09545879,0.352887,-0.32685444,-1.0703944,-1.011478,0.400051,-0.08277864,0.28442433,-0.33900088
0.41652414,-0.034956288,0.2645466,0.034996316,0.3150557,-0.45314163,-1.2420309,-0.8400334,0.3999664,-0.08811582,0.43187013,-0.31052083
0.4292426,-0.10078993,0.23614529,-0.031047706,0.23955089,-0.5972917,-1.3424573,-0.6997376,0.39995944,-0.10970287,0.49047774,-0.27037093
0.44303423,-0.19430369,0.132475,-0.20186104,0.103646904,-0.86363554,-1.392428,-0.3391394,0.39993706,-0.16240938,0.5758642,-0.14870973
0.43803206,-0.24552052,-0.02008693,-0.31239247,-0.15719703,-1.1250585,-1.2268686,0.05466509,0.3874275,-0.24258687,0.6149591,0.016548652
0.5649163,-0.36879113,0.4000002,0.052621335,-0.36358538,-0.40635303,-0.4956582,0.14476232,-0.040801547,-0.108491905,0.6418107,-0.20539187
0.89299625,-0.0015616141,0.40000018,0.09943305,-0.19876271,-0.46342155,-0.29942188,-0.19814624,0.06488653,0.35040218,0.21290486,-0.77451354
0.8416939,0.46158406,0.40000013,0.09553981,-0.024696965,-0.48932186,-0.29098806,-0.29947412,0.040601593,0.36371627,-0.27839184,-0.7138479
0.6999354,0.8327492,0.3403724,0.08739464,0.1418943,-0.47859704,-0.28922546,-0.40514112,-0.0060897805,0.10101672,-0.62184066,-0.5588204
0.5409542,0.8992422,0.11614796,0.097354636,0.28205156,-0.42569494,-0.32298467,-0.52218324,-0.033098567,-0.11958621,-0.5768517,-0.32927775
0.40536308,0.65984976,0.091101244,0.079408616,0.33156905,-0.4034487,-0.31496614,-0.74203026,0.1985923,-0.21497159,-0.2370088,-0.099152364
0.47313,0.46933138,0.25245687,0.0781684,0.41669014,-0.31393686,-0.596839,-1.0014886,0.39999428,-0.15320842,-0.029799946,-0.28633454
0.49324924,0.28790987,0.32916895,0.10997206,0.45374587,-0.16140415,-0.852438,-1.1649024,0.39556047,-0.12785141,0.1690848,-0.3714952
0.4830719,0.118186876,0.3558824,0.14537881,0.45346266,-0.040951148,-1.0267535,-1.0816981,0.3746606,-0.10677321,0.3493481,-0.4163725
0.47629228,-0.032231443,0.339483,0.12495886,0.47344902,-0.17237206,-1.2240075,-0.9111528,0.39998204,-0.104147546,0.5022262,-0.40295118
0.4673597,-0.13765053,0.2600166,-0.031064386,0.32897615,-0.59983414,-1.3669866,-0.6222451,0.3999771,-0.13231252,0.60436577,-0.32155997
0.4395297,-0.19285065,0.11257234,-0.26741225,0.09927845,-0.9081988,-1.4138558,-0.19363564,0.39999565,-0.1838398,0.6605384,-0.1746567
0.38577917,-0.27048486,0.04767867,-0.3112359,-0.23024948,-1.1273857,-1.174565,0.20705025,0.34511057,-0.27455097,0.66429347,0.038861215
0.65713876,-0.30932176,0.4000002,0.018587304,-0.3811172,-0.35529175,-0.36588264,0.079843454,-0.01457711,-0.043525197,0.6782991,-0.33922762
0.9749116,0.08939514,0.4000002,0.044225134,-0.13871571,-0.50565237,-0.2839773,-0.24285191,0.080252044,0.3120955,0.2539363,-0.85533303
0.87363213,0.62073797,0.4000001,0.053382546,0.059240773,-0.5250674,-0.27755558,-0.3458052,0.035586383,0.22844331,-0.2474448,-0.8224902
0.71389335,0.92184114,0.33224434,0.056302764,0.20645168,-0.48401293,-0.28202873,-0.4435349,-0.03250082,0.007468832,-0.6713105,-0.60962903
0.54432464,0.9156767,0.111918174,0.10318551,0.30202982,-0.37988216,-0.32641283,-0.5587146,-0.053496048,-0.13222818,-0.49836257,-0.268914
0.44040504,0.65506446,0.11334405,0.08435798,0.32827502,-0.46974266,-0.38229638,-0.768149,0.3148703,-0.16143009,-0.15658002,-0.22231169
0.48754454,0.45615563,0.26433945,0.06526701,0.23414783,-0.5190625,-0.689046,-0.91338354,0.40011415,-0.11853225,0.050467774,-0.34510902
0.50732756,0.28266597,0.3222573,0.07574291,0.35833192,-0.4522852,-0.9169044,-1.0936221,0.4000064,-0.12511855,0.22073704,-0.36455765
0.50725883,0.20937224,0.3239136,0.09543119,0.3808155,-0.38520867,-0.9940413,-1.0836009,0.40000096,-0.13529886,0.28995174,-0.35647532
0.49646297,0.06181826,0.3092535,0.12226812,0.3860954,-0.27336004,-1.1033967,-0.97771764,0.38342088,-0.15356247,0.41615313,-0.32423657
0.4540067,-0.0447947,0.24134152,0.02300197,0.3100792,-0.52001005,-1.2636228,-0.75726944,0.39996943,-0.15266755,0.52278423,-0.2658659
0.44136852,-0.12949485,0.1399978,-0.17900713,0.16910632,-0.8644526,-1.4048315,-0.41768125,0.39998108,-0.19735925,0.5877225,-0.13737814
0.4087844,-0.1857912,0.015098241,-0.36978948,-0.13367383,-1.1445434,-1.2965499,0.05098285,0.38738438,-0.2793707,0.60265523,0.05818527
0.52818847,-0.30973887,0.4000002,0.028607003,-0.4108318,-0.5001035,-0.53954405,0.1560064,-0.036849424,-0.15086366,0.6519058,-0.23826921
0.8910307,0.013925957,0.4000002,0.09208406,-0.2044968,-0.43090063,-0.2516882,-0.20640677,0.08162431,0.32737187,0.20986576,-0.74711925
0.8113909,0.51844597,0.4000001,0.09059061,-0.021174086,-0.45978373,-0.24153475,-0.3116657,0.052793447,0.2852233,-0.3327191,-0.6588985
0.7290579,0.70446354,0.4,0.09314693,0.059093483,-0.45053324,-0.23824638,-0.36105695,0.02130016,0.16121045,-0.534444,-0.5989973
0.6474333,0.81938654,0.35317674,0.09861711,0.13327429,-0.42891428,-0.2406475,-0.41197506,-0.010624135,0.03763087,-0.6425521,-0.53468686
0.5773251,0.86419535,0.3001025,0.101162165,0.20028009,-0.40001306,-0.24401551,-0.4639151,-0.038091708,-0.028242357,-0.69315034,-0.5099796
0.5100968,0.8752314,0.1663079,0.1100285,0.26111847,-0.3609326,-0.25146955,-0.5149774,-0.06411725,-0.084333904,-0.63227046,-0.37220943
0.44290596,0.81229514,0.10226709,0.12105578,0.3039854,-0.309007,-0.2652834,-0.5684866,-0.08122259,-0.13985218,-0.5109406,-0.29105127
0.31951404,0.7009095,0.005697999,0.13090095,0.33711362,-0.25169212,-0.2527665,-0.6515224,-0.019669931,-0.22054347,-0.31526843,-0.064436205
0.36051533,0.6072863,0.1387371,0.10790782,0.29280978,-0.36806422,-0.22041573,-0.7473391,0.12601447,-0.1995316,-0.18259607,-0.07511355
0.3935152,0.51203114,0.22660854,0.10321361,0.29248947,-0.42913035,-0.3616079,-0.8654206,0.36555827,-0.15819478,-0.081191264,-0.18344787
0.4038686,0.41515586,0.29088753,0.09340909,0.3415188,-0.39023235,-0.5815226,-0.9605408,0.39999655,-0.12700023,0.016380252,-0.24966134
0.40575448,0.3272469,0.32928434,0.08860123,0.3827849,-0.34252942,-0.76204693,-1.0598112,0.3999976,-0.10786212,0.105724126,-0.28628024
0.41272727,0.24493346,0.3509833,0.10575733,0.40311006,-0.27335665,-0.8948768,-1.1258233,0.40000078,-0.10453798,0.18789318,-0.30459467
0.41438743,0.091566436,0.35650867,0.15004298,0.40119874,-0.20369586,-1.0907038,-1.0534577,0.40004432,-0.099557124,0.34762347,-0.32409853
0.40684757,-0.059873413,0.3354179,0.03660717,0.2893199,-0.44178438,-1.272716,-0.79598224,0.39998883,-0.10185825,0.48592544,-0.30354646
0.40139693,-0.16934511,0.25111246,-0.17743613,0.1917684,-0.8107495,-1.3804169,-0.43633357,0.39999726,-0.13087836,0.58180696,-0.20329972
0.37264356,-0.23744157,0.10702642,-0.34987274,-0.14263603,-1.0578531,-1.256014,0.071695544,0.3899637,-0.19770461,0.6152707,-0.02867559
0.4833158,-0.30167195,0.40000018,-0.071227916,-0.4200161,-0.7564616,-0.59366244,0.2383501,0.031865876,-0.17817731,0.57365346,-0.030422686
0.8976087,0.045175977,0.4000002,0.040166486,-0.25146028,-0.46709815,-0.2068947,-0.17957775,0.07991452,0.27391854,0.20719504,-0.72567195
0.86304015,0.568422,0.4000001,0.035958026,-0.027563406,-0.528254,-0.2020234,-0.3007998,0.058103763,0.23465264,-0.26508665,-0.7339639
0.64707273,0.891995,0.31142503,0.06425733,0.14446563,-0.5039713,-0.2189227,-0.4069279,0.0063238433,0.011552917,-0.6049358,-0.48042226
0.4715862,0.9004198,0.123255685,0.095234334,0.28653187,-0.4376653,-0.24387863,-0.51666385,-0.043257475,-0.14488316,-0.55367595,-0.26489162
0.3496105,0.6716854,0.065845355,0.06925683,0.27360824,-0.42434245,-0.22321732,-0.77239573,0.20587829,-0.13895307,-0.19670017,-0.12644765
0.43728602,0.47742617,0.23694241,0.029208526,0.21059865,-0.44975752,-0.55489755,-0.928377,0.40000325,-0.09969747,0.0063747773,-0.28152168
0.4557495,0.30039936,0.30651906,0.04615138,0.3019298,-0.35242128,-0.8398856,-1.1006036,0.4000024,-0.09305621,0.18154739,-0.32296667
0.44539136,0.12925082,0.3264047,0.055159245,0.2922662,-0.3344406,-1.0458158,-1.07368,0.40000233,-0.09457405,0.33122438,-0.31680346
0.42713332,-0.01951035,0.30572554,-0.010513048,0.15100944,-0.5074103,-1.2358875,-0.80273443,0.3999701,-0.09272581,0.45931327,-0.27389717
0.4322974,-0.092135206,0.28807145,-0.063144244,0.09846187,-0.58939177,-1.2862263,-0.64510417,0.39997578,-0.104378864,0.51275104,-0.2333935
0.44349822,-0.19465345,0.2091254,-0.21720484,-0.024292696,-0.87774664,-1.3196652,-0.26201367,0.39997938,-0.14563568,0.5885688,-0.119262785
0.4179094,-0.24784671,0.07241933,-0.3207535,-0.22144093,-1.1004071,-1.1453544,0.118211694,0.35521856,-0.20474826,0.6201607,0.038208146
0.35125554,-0.28509226,0.27481675,-0.22467504,-0.3220102,-1.0626981,-0.8789842,0.22533914,0.19321524,-0.25859204,0.6164653,0.14152259
0.7480135,-0.19731776,0.4000002,0.06742372,-0.30773097,-0.41493395,-0.2253678,-0.06810956,0.0004261564,0.20581016,0.39415604,-0.4960138
0.79415643,0.26510105,0.40000015,0.04442677,-0.08970284,-0.5293823,-0.2767691,-0.22423741,0.09264205,0.39731634,-0.18668088,-0.61351323
0.7089464,0.66465735,0.40000004,0.03322924,0.092274964,-0.5424625,-0.27030674,-0.33872992,0.075084046,0.27094895,-0.55120873,-0.5764443
0.65789646,0.85492206,0.34517878,0.04342771,0.2547554,-0.5049026,-0.28516567,-0.45045257,0.032321498,0.05873628,-0.74285704,-0.5226132
0.53861684,0.838059,0.13648148,0.06643329,0.35802555,-0.40480995,-0.29941872,-0.5481757,-0.022758765,-0.10422803,-0.6512027,-0.39246732
0.41690928,0.67905563,0.032151815,0.11255195,0.39922643,-0.30344903,-0.29693195,-0.67596394,0.035217892,-0.27534315,-0.3007776,-0.048570234
0.48792264,0.49001756,0.22274065,0.09921078,0.40075722,-0.32708678,-0.5134983,-0.9789676,0.39997452,-0.18209253,-0.05873426,-0.2325136
0.513653,0.30217877,0.32803452,0.10324398,0.45244393,-0.1988746,-0.8532661,-1.1476285,0.39999944,-0.14150411,0.133305,-0.3319186
0.522197,0.20738366,0.3573092,0.123214334,0.4602648,-0.11033423,-0.9457189,-1.1566209,0.400004,-0.13823807,0.22290373,-0.34923518
0.5200777,0.11948929,0.37076467,0.14706984,0.45650458,-0.030910634,-1.0094966,-1.1161851,0.39997363,-0.13090152,0.30744466,-0.3597406
0.50098234,-0.033591833,0.36231056,0.14877822,0.48244712,-0.16133809,-1.2182354,-0.9506298,0.399978,-0.10879362,0.46065366,-0.35602832
0.48383746,-0.14303768,0.29471126,-0.026105588,0.3966824,-0.63677,-1.4333545,-0.63789797,0.3999795,-0.111551434,0.5784695,-0.30204794
0.47126818,-0.22667235,0.1791486,-0.26544523,0.1210595,-1.0186718,-1.4548565,-0.17683023,0.40000042,-0.15795699,0.64577174,-0.17700766
0.42125848,-0.29798666,0.12150929,-0.31447637,-0.15642065,-1.1999425,-1.210818,0.23879251,0.3751591,-0.22608253,0.6711809,0.009063461
0.6505759,-0.3455044,0.4000002,0.1016654,-0.39293495,-0.33846906,-0.3832432,0.13413677,-0.031012785,-0.094669014,0.6523579,-0.23167777
0.873267,-0.16068183,0.4000002,0.054347284,-0.2474587,-0.47812203,-0.27893513,0.007057173,-0.05255834,0.17421423,0.4369904,-0.6534632
0.9038077,0.35794538,0.40000015,0.058709454,-0.021000918,-0.5907973,-0.33935928,-0.13175933,0.010629931,0.28433976,-0.094646566,-0.72610724
0.73796123,0.7375004,0.40000007,0.08650018,0.14104743,-0.55880904,-0.35874122,-0.24856691,-0.011868197,0.14734223,-0.4656719,-0.64676785
0.5885283,0.9250034,0.24498236,0.11063358,0.28065497,-0.48539835,-0.38161415,-0.37332326,-0.036161866,-0.023526117,-0.6227284,-0.37836558
0.44149703,0.8549428,0.085795164,0.12867202,0.35815,-0.3828352,-0.38321784,-0.5431229,0.06398404,-0.16345479,-0.37754655,-0.01441405
0.48084167,0.57883066,0.2042413,0.10786638,0.33124205,-0.48505482,-0.50562406,-0.7884949,0.4000532,-0.1305646,-0.13750462,-0.27779862
0.5155972,0.4036277,0.30152577,0.13070576,0.41480318,-0.3804306,-0.7533542,-1.0634278,0.40000355,-0.11689566,0.05093957,-0.351675
0.49037156,0.24668951,0.32999393,0.1557359,0.42656884,-0.21752018,-1.0013467,-1.1250545,0.4000055,-0.10040494,0.21286145,-0.3785357
0.48248497,0.093936786,0.33709708,0.18346353,0.42754024,-0.14213282,-1.1291654,-0.9897784,0.39966848,-0.09723105,0.36469442,-0.3774149
0.4881369,-0.06552731,0.3285478,0.07071625,0.36735225,-0.41237468,-1.307577,-0.78756464,0.39999905,-0.10820837,0.49787548,-0.34134588
0.49719605,-0.19554675,0.27016783,-0.12810163,0.18888402,-0.7563236,-1.4097332,-0.44556156,0.3999576,-0.14145027,0.5885143,-0.23786436
0.49764818,-0.28050482,0.15621334,-0.28774235,-0.07304363,-1.0378473,-1.3308586,-0.023147216,0.399971,-0.20340408,0.6313302,-0.078549676
0.53113836,-0.33943123,0.4000001,-0.10264999,-0.273272,-0.86556655,-0.7714286,0.25575015,0.12486621,-0.25059986,0.6309639,0.055969052
0.95399916,-0.074961446,0.40000024,0.039126977,-0.15337932,-0.50786203,-0.28922132,-0.1286198,0.005146189,0.14514974,0.4311713,-0.7441248
0.9174229,0.41305217,0.40000015,0.019511577,0.05018902,-0.54502505,-0.31963134,-0.29034725,0.105649464,0.2722516,-0.040675845,-0.8270372
0.7950394,0.76230246,0.40000004,0.019916238,0.19231795,-0.49495542,-0.30371967,-0.39159882,0.05506648,0.14382103,-0.4902908,-0.70017195
0.6473822,0.9489971,0.24795988,0.04747784,0.2952333,-0.39164484,-0.3166755,-0.4949408,-0.0025478536,-0.03775031,-0.6483242,-0.50018007
0.45336324,0.805458,0.052195422,0.07831201,0.3766048,-0.30211136,-0.29210064,-0.681778,0.09629705,-0.2195161,-0.373299,-0.07707749
0.4777924,0.54130113,0.20486411,0.06250933,0.38842407,-0.36162627,-0.44620445,-0.9304073,0.3999911,-0.15539043,-0.13407773,-0.22105889
0.5062924,0.35675588,0.30597863,0.08331617,0.43484294,-0.22489859,-0.7390082,-1.1381391,0.3999983,-0.12146362,0.062570654,-0.33187246
0.49624825,0.18125154,0.34358478,0.12017443,0.443487,-0.048645638,-0.9927148,-1.1478033,0.3900237,-0.098859094,0.24891244,-0.38600937
0.4917492,0.011726993,0.34667426,0.14884242,0.45458972,0.0145483455,-1.1140182,-1.0130707,0.38710633,-0.08920303,0.42638952,-0.40871754
0.5021735,-0.108763814,0.29864538,0.106777206,0.45175076,-0.1774082,-1.2358949,-0.7440374,0.40001428,-0.11338891,0.54843694,-0.35989237
0.50077564,-0.19495127,0.20133731,-0.17164937,0.30044904,-0.7480363,-1.3982058,-0.44287944,0.39999822,-0.16079724,0.6180024,-0.24257407
0.49222308,-0.22257487,0.12998174,-0.27526268,0.1690791,-0.88636374,-1.4146359,-0.29433504,0.39998087,-0.19365095,0.6368033,-0.16126393
0.44142607,-0.31115073,0.092383705,-0.29532897,-0.18984108,-1.1280743,-1.1458759,0.10362217,0.33167598,-0.26476893,0.6531024,0.029839683
0.713044,-0.28337073,0.4000002,0.06720337,-0.2819582,-0.32875228,-0.30860123,-0.01438514,-0.04270802,0.011369675,0.6108821,-0.43618372
0.95660853,0.19412391,0.4000002,0.01169588,0.014864993,-0.5522532,-0.33786348,-0.28214657,0.07806922,0.2883062,0.109902084,-0.8180548
0.8525856,0.6772948,0.40000007,0.010270647,0.17952052,-0.52464664,-0.32613322,-0.38261172,0.016030822,0.21857676,-0.38771886,-0.7597657
0.7003202,0.94943696,0.32173586,0.03307835,0.2974041,-0.4382522,-0.35142156,-0.48996755,-0.038567103,0.02915166,-0.67418283,-0.60143507
0.4799234,0.8591066,0.0810029,0.05833353,0.37739018,-0.3142213,-0.35683593,-0.6331092,0.03181517,-0.12528646,-0.4350869,-0.0696797
0.46782124,0.59586066,0.18770194,0.039005104,0.32756546,-0.47402596,-0.46477374,-0.84876764,0.400023,-0.061321385,-0.18678482,-0.22650953
0.50474674,0.3952637,0.31495234,0.03237527,0.42832804,-0.38007632,-0.7616075,-1.1153374,0.39999953,-0.032756798,0.014689339,-0.32933742
0.5058859,0.22491468,0.35712874,0.07213858,0.43132368,-0.24024871,-0.98877865,-1.1473007,0.3999996,-0.0301177,0.18619107,-0.37480655
0.48386195,0.061859556,0.35148215,0.051038492,0.42244726,-0.29855976,-1.199405,-0.9796636,0.40001154,-0.028237196,0.3464689,-0.36874026
0.4885755,-0.073238194,0.3091656,-0.028324986,0.28085276,-0.51174426,-1.369295,-0.7389088,0.3999673,-0.052066673,0.47698268,-0.31763962
0.4925022,-0.13389218,0.27657726,-0.09716352,0.16400498,-0.62183803,-1.411896,-0.57630134,0.384643,-0.06840397,0.5302786,-0.27802628
0.47194144,-0.20454809,0.15370418,-0.23740655,0.027475724,-0.8703021,-1.3842814,-0.22592251,0.3776143,-0.101923674,0.6092814,-0.1641892
0.45068568,-0.24212953,-0.009212803,-0.31898513,-0.17607555,-1.1259556,-1.2046807,0.17031659,0.37249497,-0.1851911,0.6296954,0.022174254
0.62144965,-0.40893012,0.4000002,0.06998428,-0.35577053,-0.44344604,-0.47577667,0.124378294,-0.02082336,-0.08224771,0.6677007,-0.20891237
0.9529913,-0.044799518,0.4000002,0.11265781,-0.19385779,-0.49010465,-0.31493813,-0.123554796,-0.025812756,0.28507832,0.26511285,-0.7900582
0.9058025,0.5145176,0.40000013,0.119686686,0.0037520146,-0.52196246,-0.30808392,-0.22828849,-0.0453722,0.24903001,-0.16833036,-0.788583
0.705633,0.86142564,0.37060705,0.124598615,0.16167687,-0.4921129,-0.3073659,-0.33111677,-0.08437966,0.055304665,-0.57304287,-0.6180164
0.5313173,0.9128345,0.15003726,0.15498874,0.29054278,-0.41665882,-0.34504297,-0.44869494,-0.09476507,-0.11405829,-0.52902097,-0.25224409
0.39803597,0.60665846,0.1113587,0.10213846,0.28951618,-0.4250249,-0.35855424,-0.71504027,0.30493793,-0.15992948,-0.20155826,-0.17108093
0.46151206,0.40179878,0.2608887,0.104613446,0.36612958,-0.40768418,-0.64915484,-0.99653316,0.40000036,-0.13690932,-0.0040653422,-0.29121733
0.45720693,0.23853616,0.29616746,0.12503588,0.42285946,-0.27382696,-0.91889375,-1.1352515,0.4000015,-0.121471316,0.17314407,-0.33141047
0.43835297,0.101344325,0.2770933,0.16085155,0.42328313,-0.18907762,-1.0973079,-1.0020418,0.39166933,-0.1112895,0.3367265,-0.35094497
0.43648043,-0.02584901,0.23647432,0.09206262,0.37309313,-0.3941265,-1.2716457,-0.79191184,0.39998126,-0.11755413,0.48233837,-0.32992917
0.44647843,-0.14017436,0.16617501,-0.10674633,0.17978317,-0.72463256,-1.3800584,-0.49450034,0.39997864,-0.15005952,0.59012014,-0.25020406
0.41900164,-0.19743104,0.025196057,-0.2680373,-0.055476625,-1.0434511,-1.3024294,-0.05471512,0.39995512,-0.19270234,0.6549689,-0.12399912
0.3651641,-0.2733083,0.12709741,-0.24131598,-0.3538156,-1.0579041,-0.8801973,0.2913502,0.23182222,-0.29295695,0.65289074,0.0896488
0.82592344,-0.2209179,0.4000002,0.07848673,-0.3240734,-0.38519007,-0.232283,-0.00093724916,-0.07089313,0.16926377,0.5154109,-0.63395226
0.93274367,0.015712665,0.40000024,0.07599633,-0.19326499,-0.4971114,-0.2863403,-0.07746455,-0.02024468,0.30632025,0.2501374,-0.76732796
0.8400243,0.49287757,0.40000013,0.10024873,-0.0045931903,-0.5174205,-0.31037593,-0.2000435,-0.014189971,0.29245353,-0.20003895,-0.7419218
0.6554387,0.8512525,0.3181667,0.11281965,0.15685412,-0.48759243,-0.32542485,-0.31645203,-0.045648053,0.07958395,-0.5577346,-0.55889785
0.5099033,0.9096901,0.13651758,0.13727126,0.28028336,-0.41135153,-0.36320686,-0.43866763,-0.05652875,-0.093598805,-0.55866325,-0.30931854
0.38483715,0.65488434,0.08719144,0.12300693,0.34158558,-0.3822305,-0.3188624,-0.66162926,0.12784946,-0.21981084,-0.23501056,-0.09082196
0.46620864,0.44624346,0.26113132,0.1125019,0.3765274,-0.41492897,-0.57875836,-0.92211586,0.40000126,-0.16206615,-0.009157135,-0.2981268
0.47655493,0.2629461,0.33230773,0.1201466,0.44264135,-0.2895791,-0.9165791,-1.0834559,0.4000016,-0.14534299,0.17377345,-0.34726965
0.45471808,0.102772765,0.3376729,0.14443429,0.45641276,-0.11892166,-1.0709195,-1.0450048,0.39999935,-0.13040166,0.3380183,-0.36176386
0.4465554,-0.043664396,0.31522325,0.10062053,0.44304833,-0.2999898,-1.2713926,-0.8875116,0.39997727,-0.13509564,0.47181135,-0.3271058
0.446364,-0.16353576,0.25258997,-0.057382483,0.26803085,-0.64606464,-1.3974662,-0.6077519,0.39998487,-0.1600036,0.5719931,-0.24620657
0.46453264,-0.25882536,0.15100978,-0.24825267,0.07467601,-0.93210876,-1.4238162,-0.20356676,0.39994857,-0.21578424,0.6377443,-0.1064574
0.40970105,-0.33098638,0.13329364,-0.31975186,-0.23034555,-1.141724,-1.1140188,0.25716788,0.331919,-0.2900434,0.6562566,0.082078345
0.71769494,-0.2849032,0.4000002,-0.036839206,-0.35125315,-0.42780578,-0.20146827,-0.0023581218,-0.06664158,-0.021854188,0.6276388,-0.43287396
0.9400479,0.26201788,0.40000018,0.0039395024,-0.15625978,-0.49319923,-0.23566237,-0.2772705,0.057301708,0.2900437,0.10569971,-0.86665833
0.7616835,0.74729955,0.40000004,0.004900212,0.008034461,-0.4909711,-0.21133994,-0.3595624,-0.008946487,0.17769736,-0.40101406,-0.67822945
0.61073464,0.9260887,0.25376466,0.03597457,0.15136905,-0.43957636,-0.22832741,-0.45490876,-0.06731082,-0.030017406,-0.6208923,-0.49349627
0.40578583,0.7768305,0.06495272,0.081215344,0.2616488,-0.34892195,-0.23662992,-0.6017137,-0.02585031,-0.17782797,-0.39228052,-0.21735662
0.3968798,0.54584473,0.17642961,0.06449306,0.28614378,-0.45213723,-0.31447756,-0.84873253,0.32301015,-0.19497734,-0.1255559,-0.180699
0.42683893,0.34235436,0.307202,0.04522051,0.33431768,-0.4308652,-0.70623124,-1.0312902,0.40000233,-0.1513817,0.072004974,-0.29859287
0.43783462,0.19361266,0.332143,0.083630435,0.3790899,-0.2993968,-0.9101326,-1.1360234,0.39020175,-0.15358901,0.22613434,-0.32136744
0.44392952,0.050039876,0.32843393,0.086797185,0.3551253,-0.3037074,-1.1143762,-0.99857706,0.38244438,-0.15794232,0.37334156,-0.32462296
0.45500818,-0.09156128,0.30152985,0.06772021,0.32437032,-0.37298074,-1.2274836,-0.81629723,0.40003636,-0.17028388,0.50629723,-0.29256538
0.46461856,-0.20635983,0.23203757,-0.106753156,0.23628664,-0.692291,-1.3618487,-0.5139215,0.3999651,-0.19441429,0.6056551,-0.20362699
0.46509147,-0.27048773,0.10052195,-0.30646735,0.008079696,-1.0386407,-1.3175546,-0.018337218,0.39996493,-0.25907817,0.64769024,-0.04046773
0.51245254,-0.34833926,0.40000013,-0.13926251,-0.32297218,-0.9287546,-0.75046873,0.30136937,0.07432163,-0.26710224,0.61758447,-0.0035429988
0.8624841,-0.110182926,0.4000002,0.007306583,-0.1753298,-0.4926582,-0.23092787,-0.16079053,-0.027065635,0.23127359,0.34924832,-0.6926874
0.88299906,0.4258562,0.40000015,0.005770237,0.03724271,-0.54098934,-0.27751547,-0.31332904,0.034619868,0.30028677,-0.09269572,-0.7728699
0.82301664,0.673427,0.4000001,0.010055658,0.12690409,-0.5300713,-0.2708552,-0.36060098,-0.00075841043,0.21261309,-0.30094588,-0.7243421
0.6678667,0.9306987,0.31046027,0.032399453,0.25448245,-0.45205018,-0.27167737,-0.44827852,-0.084371336,-0.0030845879,-0.64091825,-0.56482357
0.50688046,0.90840715,0.08043165,0.07139971,0.34154204,-0.33018327,-0.26743013,-0.5646612,-0.06881767,-0.12798038,-0.5287811,-0.17147179
0.4054891,0.6170298,0.11735791,-0.0018289112,0.28483102,-0.53234977,-0.3231873,-0.7949408,0.29995766,-0.14125131,-0.20665857,-0.13637616
0.4567586,0.47754923,0.23394084,-0.020329997,0.16234441,-0.5088649,-0.5412174,-0.9097344,0.3999962,-0.1234189,-0.07989419,-0.22478397
0.48268476,0.3079459,0.3166111,-0.0009213423,0.2663393,-0.4509917,-0.7746952,-1.0685679,0.4000058,-0.108880036,0.086164825,-0.27306432
0.4771419,0.1570227,0.32604048,0.031034373,0.3117608,-0.3236868,-0.95719707,-1.0337036,0.4000406,-0.10972657,0.23746982,-0.29010093
0.46063596,-0.009942718,0.32153252,-0.050569456,0.23876762,-0.44372395,-1.207387,-0.9091706,0.39998662,-0.10446735,0.3817691,-0.26991755
0.46493098,-0.1571522,0.2833732,-0.073255315,0.13955623,-0.6152931,-1.3171906,-0.636806,0.39993975,-0.117234714,0.501422,-0.20792533
0.46357468,-0.2407266,0.18352938,-0.24864571,0.021610236,-0.8955582,-1.3519492,-0.19550115,0.3942621,-0.151758,0.5770115,-0.09690683
0.43655044,-0.28671414,0.035917215,-0.30196038,-0.20868294,-1.1855781,-1.1669929,0.16762972,0.3527199,-0.22232087,0.6009726,0.06654029
0.3868647,-0.31366885,0.30506504,-0.1923616,-0.34008756,-1.0277448,-0.8667462,0.24794392,0.1973153,-0.2619195,0.6040904,0.15182059
0.79088145,-0.14136606,0.40000024,0.061995804,-0.29037184,-0.46194553,-0.27917346,-0.043410596,-0.07533329,0.1897514,0.41553712,-0.5806044
0.8647123,0.35971037,0.40000013,0.05933339,-0.100869365,-0.5255784,-0.31797025,-0.1759268,-0.015510957,0.32294136,-0.06270284,-0.75643003
0.7571421,0.71707875,0.40000004,0.041350123,0.08092669,-0.5373795,-0.31166285,-0.29056033,-0.03332151,0.19925644,-0.43517736,-0.6831066
0.632334,0.80371976,0.33943656,0.036769528,0.038391553,-0.56911004,-0.28377104,-0.32285923,0.0064968946,0.10652479,-0.72573537,-0.67768514
0.46457687,0.5669853,0.04689282,0.041573647,0.032549888,-0.6126471,-0.25017318,-0.51532125,0.15375842,0.1433259,-0.9192884,-0.6552891
0.45780522,0.58651775,0.059444677,0.007497554,0.070946515,-0.66490906,-0.22812225,-0.52411956,0.18983099,0.034687992,-0.6965079,-0.5247638
0.47489765,0.5701536,0.09337677,0.0073994063,0.063939214,-0.6463077,-0.2137392,-0.6023632,0.22640996,-0.08391934,-0.31141782,-0.50535274
0.48356935,0.52799416,0.14296634,-0.01187563,0.10939529,-0.6464453,-0.2053846,-0.6405318,0.23806359,-0.1341284,-0.3469506,-0.61233824
0.5153375,0.49368712,0.17654514,-0.0076486855,0.15902466,-0.62737477,-0.20346752,-0.67391,0.2267883,-0.15308365,-0.5086543,-0.62945473
0.5715344,0.5141036,0.21979982,-0.002532813,0.202904,-0.60517323,-0.19565043,-0.6951584,0.20088916,-0.102283865,-0.6116517,-0.6320224
0.672613,0.6331276,0.24951558,0.0038429594,0.2757804,-0.5496041,-0.17791261,-0.7281549,0.12910941,-0.08441045,-0.70142555,-0.6549165
0.6878786,0.7285878,0.18352148,0.0045672623,0.34198073,-0.47258377,-0.15818058,-0.7664356,0.040020514,-0.13199672,-0.7475528,-0.63289654
0.57881045,0.74935824,0.033334866,0.0037589204,0.4044987,-0.38095114,-0.13920727,-0.80976194,-0.058615282,-0.23681465,-0.5810798,-0.5074782
0.5585039,0.6336826,0.07606594,0.012894291,0.43838668,-0.28221226,-0.16400808,-0.9125346,0.09773518,-0.35887855,-0.13519394,-0.087777674
0.5625228,0.58148843,0.1382497,-0.009915143,0.42545605,-0.28367382,-0.3445661,-0.997641,0.32459232,-0.28960842,-0.057701033,-0.21024662
0.598628,0.42903352,0.25706902,-0.0045928815,0.4340805,-0.16215032,-0.67592835,-1.229109,0.4000009,-0.24724352,0.09719758,-0.32593825
0.58469236,0.2729312,0.31647372,0.031245694,0.43055117,-0.044085745,-0.88268626,-1.2481306,0.4000051,-0.2068422,0.2610196,-0.3793219
0.55547804,0.11355245,0.33483523,0.078711145,0.422167,0.1163157,-1.021607,-1.101556,0.3801699,-0.17350036,0.4244079,-0.39445662
0.5287853,-0.023514815,0.30749342,0.077745,0.4647521,-0.14519985,-1.2448589,-0.8938305,0.40001523,-0.16169912,0.5574889,-0.36364686
0.509573,-0.13708407,0.23938827,-0.07829317,0.37800756,-0.64042073,-1.4325137,-0.58935326,0.4000012,-0.18065211,0.6463811,-0.2783124
0.50156045,-0.21814807,0.12421122,-0.29877537,0.07808282,-1.047523,-1.3923382,-0.08289118,0.39999846,-0.24158701,0.6862311,-0.123002045
0.44432065,-0.2864466,0.23823842,-0.23014778,-0.2599927,-1.1769104,-0.96742374,0.28151166,0.25058958,-0.31215072,0.6941391,0.080558166
0.93184054,-0.2443977,0.4000002,0.09960519,-0.27176723,-0.522877,-0.3422834,0.025182858,-0.047166143,0.09088032,0.53365576,-0.6931827
0.9455528,0.23576246,0.40000018,0.1252246,-0.05838653,-0.57943267,-0.38830522,-0.115176596,0.017145418,0.24926053,0.0155411465,-0.82184833
0.88048714,0.47782356,0.4000001,0.13284397,0.039215002,-0.5839009,-0.39561254,-0.17900935,0.017872917,0.21982886,-0.19713636,-0.8100474
0.7346624,0.83314526,0.4,0.12379083,0.2152819,-0.55946976,-0.3907966,-0.297552,-0.028165989,0.07443045,-0.59609574,-0.6896466
0.56849927,0.9333218,0.18725434,0.13759768,0.33524933,-0.4682289,-0.40728468,-0.40924114,-0.07380723,-0.065657556,-0.56736106,-0.2737129
0.36407062,0.71856993,0.057784714,0.11138095,0.30360818,-0.50199896,-0.4315563,-0.65941626,0.26946527,-0.13314505,-0.27799067,-0.17500563
0.48309618,0.4748147,0.28534415,0.08755301,0.33846304,-0.49344587,-0.6384124,-0.9060057,0.4000026,-0.13810629,-0.06598375,-0.28456682
0.49474007,0.30507994,0.34818512,0.11797094,0.39029348,-0.35839447,-0.8682965,-1.0981661,0.4000021,-0.13204843,0.10628485,-0.3283612
0.48254862,0.22195686,0.36059096,0.12959443,0.3920907,-0.27251402,-0.963775,-1.0895643,0.399704,-0.12856047,0.18315062,-0.3377788
0.45493937,0.051189654,0.36724693,0.11118828,0.3751038,-0.2848116,-1.1567545,-0.96474904,0.39266238,-0.11703015,0.33744836,-0.33812624
0.4495752,-0.09485508,0.33792824,0.057553332,0.32372606,-0.49723536,-1.2916069,-0.7241539,0.39996436,-0.12359282,0.46985108,-0.30159268
0.44159517,-0.2112211,0.26714125,-0.14307456,0.15305538,-0.8584823,-1.3834343,-0.37120843,0.39998996,-0.1455557,0.56457293,-0.21740234
0.41190672,-0.27727824,0.12994401,-0.28980637,-0.035072718,-1.1649398,-1.2993826,0.03290228,0.4,-0.19223723,0.61564577,-0.07422605
0.403992,-0.34788573,0.39649475,-0.20738052,-0.3513325,-1.0994502,-0.8080797,0.29934406,0.16638955,-0.25517306,0.6221265,0.08783475
0.8504768,-0.18671,0.40000024,0.051453717,-0.19951364,-0.5020529,-0.31581366,-0.14248261,0.020902293,0.26427454,0.40486324,-0.6098663
0.889584,0.36146247,0.40000013,0.06460274,-0.023151567,-0.53101295,-0.35330057,-0.26877308,0.05065768,0.33916083,-0.18887703,-0.7098542
0.73677117,0.8070032,0.4,0.0707998,0.14989634,-0.5088259,-0.34259787,-0.36745223,-0.015348467,0.10874477,-0.56118333,-0.5796237
0.59068716,0.9275699,0.20995827,0.10062786,0.26302865,-0.41468814,-0.3551204,-0.461989,-0.08871001,-0.1003439,-0.60299504,-0.3694402
0.31637728,0.73619103,-0.01583176,0.11360731,0.28735858,-0.4186689,-0.36197945,-0.73546857,0.22542645,-0.11963136,-0.29958886,-0.14842638
0.43631876,0.51601326,0.21492955,0.09510473,0.3804661,-0.35813344,-0.5460917,-0.90492237,0.39999482,-0.07662259,-0.07496468,-0.3188615
0.47157693,0.32558307,0.29437035,0.15191214,0.41622138,-0.19226821,-0.7657353,-1.1325321,0.40000138,-0.08575589,0.12360895,-0.37578943
0.4678063,0.15120506,0.31762636,0.15661345,0.40879577,-0.20458934,-1.023849,-1.0816683,0.3999965,-0.08040486,0.30765462,-0.40028137
0.45381442,0.0013728372,0.29757705,0.11709628,0.388945,-0.2926311,-1.2307259,-0.89060634,0.4000714,-0.07698021,0.46604723,-0.3902427
0.45530427,-0.12221011,0.24154228,-0.064012095,0.30901757,-0.6561988,-1.3615593,-0.58454293,0.3999773,-0.10699803,0.5742014,-0.32319835
0.42377907,-0.19111218,0.11783195,-0.2911959,0.048454646,-0.96656346,-1.3346596,-0.14048146,0.39999974,-0.13729088,0.64407074,-0.20227094
0.36707538,-0.30336428,0.17802677,-0.24024007,-0.25770023,-1.0916452,-1.0054837,0.20643865,0.27550367,-0.20344558,0.6657433,-0.014573646
0.729497,-0.21365885,0.40000024,0.10222688,-0.29765266,-0.40362406,-0.31173828,-0.03325453,-0.035524797,0.062264215,0.4805456,-0.51528686
0.91102195,0.24164471,0.4000002,0.050638914,-0.010658559,-0.60880506,-0.38715556,-0.22053272,0.08600088,0.26026303,-0.020504264,-0.77018815
0.80303216,0.74371636,0.40000004,0.05677981,0.19967945,-0.6151152,-0.3970145,-0.34405342,0.05908873,0.17431562,-0.42651197,-0.6882752
0.6562252,0.9669071,0.26574287,0.082661524,0.35992488,-0.5493073,-0.42064756,-0.45434168,0.0041298536,-0.045753945,-0.6476609,-0.48668438
0.5079092,0.82830685,0.11531379,0.12160195,0.42182535,-0.40377906,-0.4313833,-0.595764,0.007996712,-0.19993459,-0.41674635,-0.08296332
0.5379589,0.5740826,0.18162762,0.0753428,0.38162962,-0.45903525,-0.49060124,-0.83622813,0.40001857,-0.17634985,-0.17876634,-0.3753571
0.5545818,0.47527546,0.24227077,0.06776663,0.43943137,-0.4177141,-0.6179989,-0.96370155,0.39999542,-0.16919032,-0.06973137,-0.42978525
0.57271045,0.29441828,0.29765207,0.12186634,0.4565259,-0.24013138,-0.78475255,-1.1961908,0.3868085,-0.19140606,0.12783064,-0.46951923
0.5272102,0.12890767,0.29635057,0.13123554,0.4474048,-0.123109564,-1.0104783,-1.1245756,0.39999583,-0.17616189,0.3177125,-0.4896933
0.5010155,-0.0020894473,0.25308147,0.16603358,0.45083553,-0.086341806,-1.154368,-0.9217529,0.40001705,-0.17440496,0.47647816,-0.46136618
0.50629,-0.11700673,0.18762468,-0.025425773,0.26493606,-0.56065226,-1.3436936,-0.64471895,0.39996904,-0.20682588,0.58491135,-0.3701528
0.48523217,-0.21702987,0.08569538,-0.267247,-0.024445066,-0.97902197,-1.3852546,-0.2278332,0.3999444,-0.23248382,0.6585328,-0.23516971
0.44208714,-0.279234,0.017069101,-0.28432357,-0.24379581,-1.0797293,-1.1482536,0.20878144,0.36015552,-0.2958431,0.67766774,-0.04323741
0.65044963,-0.30921602,0.4000002,-0.034032967,-0.3257043,-0.4641179,-0.39312348,0.03428544,0.005094028,-0.08838984,0.67142785,-0.3679541
0.9609382,0.045650456,0.4000002,4.5101133e-05,-0.13051072,-0.5420712,-0.2865792,-0.27578664,0.09862547,0.31992692,0.23444659,-0.80005944
0.89664066,0.5219627,0.40000013,0.016367594,0.037078366,-0.54042125,-0.2964769,-0.3799666,0.06892737,0.27284718,-0.25995758,-0.75628674
0.81008315,0.7270094,0.40000007,0.016614424,0.1206045,-0.52607125,-0.28834403,-0.42512032,0.028666442,0.15684439,-0.44827437,-0.7043523
0.6297742,0.94802326,0.25809684,0.017628657,0.26741084,-0.4696989,-0.27428958,-0.50759345,-0.059223797,-0.04866943,-0.6742623,-0.5434831
0.49416232,0.8792904,0.07521066,0.061696593,0.36028764,-0.3630544,-0.29945296,-0.61990285,-0.060316402,-0.19895564,-0.48052886,-0.16124173
0.4500408,0.6091685,0.14160778,0.07309168,0.39698502,-0.30772159,-0.3319402,-0.92676955,0.3599944,-0.20077083,-0.21354155,-0.20270865
0.48828855,0.41734654,0.2688047,0.09280211,0.43884146,-0.16364084,-0.61014515,-1.1889957,0.4000026,-0.1625996,-0.010907038,-0.33025903
0.47472095,0.23834047,0.32460725,0.13124907,0.4301982,-0.012524735,-0.86385727,-1.2397927,0.39999965,-0.12552515,0.18657711,-0.40505216
0.4426122,0.080376945,0.32542825,0.13315168,0.4460288,-0.17141262,-1.0865221,-1.0539243,0.40000463,-0.09941208,0.36580616,-0.43760327
0.43385446,-0.06353531,0.29225722,0.025393145,0.32761335,-0.52111053,-1.2848316,-0.82927674,0.39997676,-0.114016265,0.5079932,-0.4120985
0.4488147,-0.17841423,0.21727325,-0.11994093,0.17659412,-0.76803344,-1.3873434,-0.51322067,0.39994153,-0.15172423,0.6174892,-0.32480735
0.44819036,-0.25561878,0.08990462,-0.31064367,-0.10410608,-0.9899434,-1.3161284,-0.06025219,0.399998,-0.20996918,0.6735841,-0.17181578
0.42983088,-0.32667637,0.2126514,-0.19605574,-0.2677755,-0.99230397,-0.87337923,0.2619884,0.2402122,-0.29487213,0.6846032,0.037191793
0.82920796,-0.19937494,0.40000024,0.072309434,-0.22238585,-0.5225602,-0.23959377,-0.0626359,0.0067962618,0.14110655,0.5306437,-0.6563053
0.88419074,0.2538389,0.40000018,0.0950481,-0.037942175,-0.56980044,-0.3047908,-0.20725764,0.09838221,0.3346204,0.07540366,-0.79888713
0.8422467,0.45705926,0.4000001,0.10359426,0.04725387,-0.56449735,-0.30267274,-0.26098576,0.08787592,0.28970176,-0.10997113,-0.77386475
0.7175661,0.7790463,0.40000004,0.108102806,0.19596303,-0.52139145,-0.29261017,-0.36489654,0.045312803,0.13659723,-0.4853528,-0.6467218
0.66853404,0.88196284,0.34760123,0.12173035,0.25757527,-0.48290515,-0.30667338,-0.42353013,0.034261737,0.022733424,-0.5783948,-0.5404279
0.54934835,0.8705819,0.17084964,0.152168,0.34001508,-0.37302923,-0.342947,-0.54266626,0.02437452,-0.13416122,-0.52377856,-0.29067525
0.42181706,0.66983455,0.09450991,0.1231189,0.3667384,-0.38300344,-0.32990378,-0.77333957,0.26312998,-0.17346986,-0.1915809,-0.1264348
0.4984089,0.45933232,0.27006346,0.107375234,0.40153083,-0.42391205,-0.60853815,-1.007533,0.3999907,-0.11128479,0.03720806,-0.3397307
0.51022536,0.2877518,0.3293769,0.13171232,0.4594674,-0.29393396,-0.86321014,-1.1916592,0.40000185,-0.10061367,0.21772052,-0.38100913
0.49677467,0.12595153,0.3432036,0.16025984,0.46256554,-0.21494414,-1.0795921,-1.1045094,0.40000084,-0.09847131,0.3692555,-0.37911597
0.49694613,-0.024685774,0.33193132,0.082816005,0.3891779,-0.39264986,-1.2804849,-0.8721145,0.3999746,-0.110746436,0.4971025,-0.34643525
0.5077974,-0.14345492,0.27644697,-0.09995974,0.2399466,-0.76017964,-1.4060374,-0.55815417,0.39995834,-0.14469767,0.58988243,-0.2616883
0.4791478,-0.20924231,0.14961386,-0.3069468,0.055748135,-1.0245409,-1.3545378,-0.114982076,0.39823055,-0.18673873,0.64325774,-0.1243991
0.39205587,-0.28493333,0.19711274,-0.30292296,-0.26775563,-1.1058226,-1.0728589,0.27042976,0.32681277,-0.27231032,0.6430132,0.08821203
0.6950212,-0.278908,0.4000002,-0.0006860877,-0.30756634,-0.37659603,-0.20563789,-0.031843565,-0.01636642,0.10010102,0.46536028,-0.46009743
0.83380103,0.24092345,0.40000013,-0.02611344,-0.07065565,-0.5123193,-0.2517928,-0.18031277,0.05668626,0.3723504,-0.12618484,-0.66970176
0.75558,0.69113666,0.4,-0.010897509,0.10479014,-0.50326073,-0.26535422,-0.30142888,0.039061014,0.22321357,-0.5605318,-0.62664
0.64509237,0.9081124,0.33532962,0.002286726,0.25187328,-0.4477661,-0.29143506,-0.42526862,0.0067941365,0.03002497,-0.7836491,-0.50101805
0.504765,0.8798372,0.08133155,0.01429933,0.3620587,-0.34970206,-0.32586572,-0.55010986,-0.02512445,-0.16093133,-0.5869158,-0.26840332
0.40490255,0.67464656,0.10861156,0.0005951126,0.3975741,-0.37654427,-0.32309857,-0.76766807,0.2142847,-0.21691445,-0.22901782,-0.10843444
0.4511705,0.58336526,0.20309404,0.0073313806,0.41741505,-0.3187695,-0.4506171,-0.9291259,0.39998206,-0.1801425,-0.12958343,-0.2254509
0.47893336,0.4007214,0.3215875,0.022627357,0.45740193,-0.20408344,-0.78814876,-1.171469,0.39999774,-0.13773958,0.06115411,-0.33418673
0.46682534,0.2380394,0.36391506,0.08054557,0.444416,-0.008290426,-0.9616304,-1.187907,0.39339864,-0.10789022,0.23959309,-0.38507757
0.45865482,0.07069795,0.38362038,0.115167566,0.435767,-0.009701409,-1.120517,-0.990092,0.40000883,-0.10013307,0.3961117,-0.39707512
0.43136793,-0.04776897,0.33789742,0.0038118055,0.42212722,-0.4301111,-1.3106066,-0.7430582,0.39999953,-0.09235594,0.5233898,-0.36276805
0.45792553,-0.17832436,0.28668717,-0.21106431,0.19706571,-0.8256082,-1.4496958,-0.40938646,0.39999902,-0.14381523,0.6055171,-0.25593346
0.43553805,-0.2696455,0.16870958,-0.36616975,-0.10440527,-1.1465844,-1.3026037,0.043605063,0.3995627,-0.192896,0.6481837,-0.09103521
0.468836,-0.33640832,0.4000001,-0.1648956,-0.3905425,-0.98946446,-0.73965496,0.2860105,0.1058149,-0.20823409,0.61989963,0.020619366
0.8570136,-0.09908909,0.40000018,-0.020633975,-0.18438219,-0.5159962,-0.27811345,-0.105395794,0.013483329,0.27601147,0.38614655,-0.618474
0.8922817,0.41323557,0.4000001,-0.016128074,0.04095798,-0.5563908,-0.2869784,-0.23706393,-0.0019854684,0.26832414,-0.13450816,-0.7652869
0.7139281,0.8480782,0.39802948,0.0010438571,0.19569549,-0.51124334,-0.3009349,-0.34931564,-0.034524463,0.13593386,-0.5502028,-0.6264133
0.5755349,0.947154,0.18420202,0.013366042,0.32435456,-0.43228742,-0.32684213,-0.46510783,-0.070865415,-0.051894806,-0.6909875,-0.39154026
0.3779065,0.7557919,-0.036609806,0.028719747,0.40703285,-0.3513236,-0.3318633,-0.6193692,0.051475123,-0.27209184,-0.35603994,0.051203858
0.479588,0.5453766,0.1737759,0.0611981,0.4386628,-0.4069253,-0.50909173,-0.9211892,0.39997143,-0.18694462,-0.13342859,-0.23761816
0.49289656,0.39397937,0.24178465,0.098584615,0.45704308,-0.25658506,-0.76400596,-1.1381764,0.40000033,-0.15400198,0.04726006,-0.34084338
0.4874172,0.22435704,0.2769437,0.15472086,0.44984165,-0.054976217,-0.9530115,-1.1664592,0.40000433,-0.14169802,0.23122609,-0.37997586
0.4709952,0.06510892,0.2759822,0.18428165,0.4597784,-0.0067692557,-1.0797759,-1.0019319,0.3999991,-0.12512551,0.40194675,-0.3787883
0.45365784,-0.057067998,0.22398737,0.109106585,0.46279427,-0.3868827,-1.2883554,-0.7498968,0.3999905,-0.13729736,0.5241043,-0.33238432
0.44812658,-0.14258514,0.12392256,-0.13779807,0.225192,-0.8569192,-1.4062339,-0.39721432,0.39999694,-0.18728667,0.596752,-0.2196471
0.42235756,-0.20734774,-0.027604932,-0.31210348,-0.04791283,-1.176164,-1.2896341,0.06705564,0.4000009,-0.25911698,0.6300032,-0.03796011
0.52112925,-0.3177534,0.40000018,-0.09426438,-0.34211865,-0.8683895,-0.6653666,0.31300563,0.0490631,-0.28141204,0.596762,0.0083513595
0.86795294,-0.009002595,0.40000018,0.027897676,-0.12284264,-0.45642674,-0.21746445,-0.118578404,0.025432127,0.19964297,0.26278883,-0.7051206
0.8213205,0.53769004,0.4000001,0.03549423,0.08314954,-0.5153361,-0.24586506,-0.23897044,0.02694777,0.21569206,-0.31154978,-0.712345
0.6582825,0.90101177,0.35415143,0.073237576,0.22835714,-0.45774412,-0.2824802,-0.36345157,0.010541289,0.090913154,-0.6327311,-0.49930015
0.46106893,0.8903781,0.10697424,0.11958714,0.33597332,-0.34992918,-0.324263,-0.49760085,-0.002185016,-0.09978412,-0.48751795,-0.14412783
0.38347584,0.6187396,0.1502851,0.087897345,0.29924262,-0.47729063,-0.31554073,-0.76385945,0.29284397,-0.097074874,-0.15852088,-0.19322689
0.4344112,0.41222557,0.2958931,0.03394905,0.24640045,-0.52845806,-0.6766964,-0.90415925,0.40001056,-0.06040768,0.052014638,-0.30474293
0.4585299,0.22705807,0.35826465,0.046237424,0.34380502,-0.4417825,-0.95932144,-1.022937,0.3952726,-0.077196576,0.21240315,-0.3284513
0.44571307,0.08769792,0.34332097,0.05522774,0.31749478,-0.3933628,-1.1408958,-1.0038874,0.4,-0.08807807,0.3450305,-0.314638
0.4359317,-0.0586932,0.31825963,-0.008984243,0.23540209,-0.473839,-1.2869985,-0.81126213,0.38695434,-0.09475768,0.47197452,-0.2812451
0.43846747,-0.18126303,0.25682813,-0.17363599,0.13756387,-0.7700036,-1.3676705,-0.42463827,0.3999447,-0.11760231,0.5701085,-0.19604987
0.41818184,-0.25509578,0.13963686,-0.31921205,-0.14913149,-1.0768583,-1.2662816,0.030692857,0.39131457,-0.15885441,0.62332696,-0.06334387
0.4564057,-0.33244866,0.40000018,-0.13013104,-0.37542197,-0.895629,-0.7605442,0.23430988,0.12905203,-0.1969009,0.59266615,-0.01717368
0.8587032,-0.14081015,0.4000002,0.026969401,-0.17424081,-0.5222508,-0.29848912,-0.1918004,0.023496313,0.22727787,0.3689057,-0.65328306
0.91834295,0.3588661,0.40000013,0.026047423,0.01829304,-0.55563784,-0.32197636,-0.31822026,0.03253785,0.31281215,-0.10988765,-0.7760287
0.74296314,0.80974764,0.4,0.028036825,0.16913183,-0.51949686,-0.31493884,-0.41154632,-0.025123172,0.14328443,-0.5016342,-0.6640043
0.59769195,0.96240515,0.24735169,0.05382137,0.27566382,-0.426429,-0.32840028,-0.50386894,-0.08333589,-0.050335024,-0.5989256,-0.44890976
0.406156,0.7889326,0.03628231,0.07769856,0.34812358,-0.30270168,-0.31288806,-0.6487441,0.016996514,-0.22726585,-0.37261507,-0.0338385
0.47378668,0.54865336,0.1999309,0.07326823,0.34808514,-0.36409625,-0.4859567,-0.92323935,0.40016052,-0.17769518,-0.15273736,-0.26508045
0.5043722,0.34481856,0.32261208,0.060047887,0.44585124,-0.26559588,-0.7994217,-1.142334,0.40000007,-0.14172338,0.058908932,-0.37000328
0.5083107,0.16996662,0.36166137,0.115655914,0.44386694,-0.073691145,-0.9593044,-1.1607293,0.3899088,-0.13365598,0.24457839,-0.41302526
0.47679844,0.016082758,0.35026607,0.14470902,0.4415262,-0.012638941,-1.0999905,-1.0373428,0.39999926,-0.106967695,0.41788924,-0.42528546
0.4581796,-0.11059322,0.292269,0.09013418,0.41712838,-0.35386348,-1.2691083,-0.8352267,0.39999843,-0.1209771,0.5425616,-0.37238634
0.45036379,-0.1989869,0.18550976,-0.11537975,0.25022563,-0.79343355,-1.4200072,-0.46281537,0.3999976,-0.16570762,0.6218153,-0.25742045
0.44115764,-0.2706799,0.04555975,-0.2893896,-0.040906228,-1.1677341,-1.3226702,0.027392585,0.3999914,-0.22674313,0.6650642,-0.08095925
0.49818605,-0.35955667,0.40000015,-0.10742402,-0.37396848,-0.8863061,-0.724385,0.29264265,0.06251607,-0.21703614,0.6092246,-0.0702447
0.84131134,-0.12296643,0.40000015,-0.01151715,-0.22599366,-0.47290534,-0.28691584,-0.11051592,0.0267311,0.22424132,0.31832135,-0.67762256
0.88468575,0.21683846,0.40000018,-0.048456624,-0.054034077,-0.5572124,-0.30064473,-0.21981391,0.07024981,0.2992031,-0.015534575,-0.7222667
0.7812305,0.72683674,0.40000004,-0.039235175,0.1266894,-0.5424423,-0.30822313,-0.33842087,0.02725168,0.18379545,-0.47473115,-0.68348396
0.66145504,0.9731531,0.29740936,-0.0143667385,0.27959517,-0.47780815,-0.33876437,-0.45421177,-0.028148623,0.012791772,-0.718859,-0.56257856
0.4888754,0.91218936,0.06615872,0.018882198,0.39003783,-0.3658915,-0.34797817,-0.590316,-0.029667763,-0.14948876,-0.5154995,-0.20245647
0.45208362,0.6290393,0.1655329,0.05573624,0.40224865,-0.3198572,-0.3488577,-0.90909636,0.29734296,-0.18930273,-0.17815614,-0.22219053
0.5043462,0.4244828,0.31617975,0.07144322,0.43253735,-0.30719766,-0.75066966,-1.1247306,0.3999939,-0.150565,0.032117132,-0.36976388
0.49540898,0.24320962,0.37623623,0.08662468,0.4666828,-0.15249097,-0.9852987,-1.1756331,0.40000147,-0.12184316,0.22443593,-0.4231996
0.4814033,0.08067229,0.3851929,0.1264579,0.47467852,-0.08422132,-1.1256224,-1.0514891,0.3858008,-0.11074058,0.3922538,-0.42828092
0.48765624,-0.051503297,0.35360685,0.08961731,0.41570055,-0.40268612,-1.2940944,-0.79643834,0.39999807,-0.13198397,0.5207692,-0.39266145
0.49207416,-0.18731141,0.2955415,-0.1378182,0.16054912,-0.7146313,-1.4063613,-0.51772493,0.39997768,-0.16689758,0.61487126,-0.29403922
0.50279325,-0.29795247,0.19468811,-0.32351702,-0.12079002,-0.9749011,-1.3410113,-0.08823955,0.3999646,-0.22885555,0.6631662,-0.12922269
0.4793462,-0.29930386,0.37952536,-0.17166173,-0.27168623,-0.96099794,-0.8660972,0.27180004,0.18792643,-0.29719663,0.68022263,0.060878742
0.85396254,-0.11468352,0.4000002,-0.011186129,-0.10074677,-0.5791335,-0.30619022,-0.08250422,0.014633924,0.19837818,0.47611946,-0.62094766
0.9103031,0.3115977,0.40000013,-0.00816785,0.10144517,-0.6140851,-0.3290567,-0.21289478,0.057715174,0.330658,-0.026463507,-0.7834661
0.80785733,0.7078558,0.40000007,-0.005559014,0.25152498,-0.5737343,-0.3217677,-0.31559733,0.024653109,0.19781612,-0.4913559,-0.70840186
0.67952204,0.89588815,0.30195737,0.012005554,0.35943398,-0.48250058,-0.33436647,-0.4166085,-0.027684638,-0.006360251,-0.7562399,-0.5607322
0.5527056,0.8370743,0.114909895,0.063653804,0.4049609,-0.33201435,-0.36627933,-0.51351714,-0.075752884,-0.1581407,-0.5801947,-0.3598201
0.46192017,0.5965482,0.1097193,0.065028355,0.37220383,-0.3225898,-0.3243019,-0.8355797,0.2347185,-0.17893471,-0.20317839,-0.120452024
0.4956381,0.41328484,0.23650098,0.06063963,0.3877323,-0.375272,-0.69705224,-1.0215186,0.4000365,-0.10449239,0.003427055,-0.31699285
0.5016911,0.24495086,0.2846627,0.08293095,0.42439097,-0.23308776,-0.95034534,-1.1529537,0.40000072,-0.09882599,0.1771269,-0.36507216
0.50500274,0.16978964,0.2875472,0.11825737,0.42097104,-0.13684838,-1.0119554,-1.126689,0.3999997,-0.10387202,0.2581601,-0.37029514
0.50318295,0.014531326,0.28319678,0.06254917,0.37281096,-0.33672377,-1.2162769,-0.9302673,0.39999437,-0.108156845,0.40844253,-0.36200416
0.50498253,-0.12506673,0.23777089,-0.11978098,0.27031207,-0.70576304,-1.3902373,-0.6039076,0.39994875,-0.12407313,0.5339258,-0.29705402
0.49972633,-0.21804167,0.13210051,-0.29272234,0.04136706,-0.99673694,-1.399442,-0.19057308,0.39997715,-0.16917814,0.60793424,-0.17266881
0.4573432,-0.30082676,0.10791212,-0.318014,-0.2571597,-1.1999166,-1.1335286,0.23596385,0.32210743,-0.2255861,0.6376744,0.003776864
0.7063934,-0.3096226,0.40000024,-0.013991885,-0.30471286,-0.48191693,-0.22951637,-0.063172996,-0.030480074,0.04882317,0.5822372,-0.4101976
0.9130751,0.22005577,0.40000018,-0.033980727,-0.06698964,-0.58282584,-0.2512606,-0.20612188,0.021533405,0.3326365,0.062354743,-0.7576181
0.8019153,0.714817,0.4000001,-0.022173094,0.11352411,-0.5805009,-0.26538786,-0.32088527,0.0123236,0.22511178,-0.3653208,-0.67852
0.6237644,0.9146691,0.30462715,-0.01939621,0.2568753,-0.5243651,-0.26437572,-0.42104968,-0.037683077,0.0498629,-0.7075447,-0.5482701
0.53482777,0.9210355,0.11530916,0.012638097,0.35881847,-0.41785154,-0.28588465,-0.5169444,-0.09572042,-0.13064992,-0.6801162,-0.38350183
0.35646924,0.72663814,-0.006096901,0.03737608,0.36589536,-0.38035807,-0.28209612,-0.7006114,0.09864024,-0.24044332,-0.34125564,0.027223354
0.4737992,0.5132791,0.21147856,0.033876915,0.38361907,-0.43346807,-0.5783093,-0.96634614,0.39997295,-0.14785855,-0.10512687,-0.2848136
0.51214373,0.33647373,0.29191026,0.0769321,0.43705896,-0.2944844,-0.7581327,-1.197505,0.40000364,-0.15037578,0.08075674,-0.34289062
0.48828954,0.1686817,0.30963716,0.11005445,0.4462569,-0.13757233,-0.99243194,-1.1917789,0.3868995,-0.125283,0.2679571,-0.38188583
0.4751548,0.013654912,0.2953092,0.14040986,0.44711247,-0.0886309,-1.1353334,-1.0042166,0.38296378,-0.120539814,0.43229076,-0.3840261
0.47315094,-0.10206898,0.23638302,-0.00097342755,0.35589412,-0.51191056,-1.3043242,-0.7147816,0.39996523,-0.14864367,0.54661673,-0.33366376
0.46076724,-0.19054289,0.13306618,-0.24431378,0.13698712,-0.9056597,-1.3913723,-0.3315256,0.39983743,-0.19041272,0.62024945,-0.21978523
0.42811805,-0.26402816,0.023260955,-0.36547953,-0.14967074,-1.1822095,-1.2364258,0.13865356,0.39069402,-0.26493302,0.64599,-0.02853001
0.56631786,-0.3110631,0.40000024,0.03892444,-0.3977661,-0.486805,-0.48497355,0.17210978,-0.0033590784,-0.09640328,0.65464985,-0.23539272
0.90068716,0.014076178,0.4000002,0.056850888,-0.12656476,-0.53916943,-0.34231195,-0.13724388,0.09530379,0.30480042,0.18930168,-0.7282891
0.83625734,0.51576835,0.4000001,0.055323947,0.08023914,-0.56379586,-0.34325668,-0.2687603,0.09101962,0.2336194,-0.320313,-0.7041085
0.67466545,0.83278286,0.37097594,0.074447595,0.21644467,-0.4983854,-0.3515739,-0.38099104,0.047262467,0.051569987,-0.6439319,-0.5450025
0.55581456,0.91757655,0.1806333,0.09558949,0.32212958,-0.39052325,-0.35385793,-0.48248917,-0.019082619,-0.097416796,-0.61976486,-0.39869446
0.33029285,0.70369184,0.0015007466,0.09818755,0.35338557,-0.32730368,-0.33106393,-0.68933517,0.12186721,-0.21485232,-0.32880804,-0.019547421
0.4427011,0.4760572,0.23408534,0.0492514,0.24654046,-0.48822042,-0.57779217,-0.88504165,0.399986,-0.13677494,-0.089879274,-0.28164163
0.46763772,0.2836832,0.314385,0.061194025,0.34287566,-0.38795415,-0.83740664,-1.0396806,0.40000203,-0.13114953,0.10494851,-0.35394016
0.46294132,0.13594466,0.31204203,0.102351494,0.37789363,-0.24639153,-1.0379924,-1.040652,0.4000113,-0.13361542,0.27208313,-0.36996922
0.4523109,-0.0058130743,0.28902102,0.04585351,0.32897326,-0.3909839,-1.2176533,-0.8798399,0.38614538,-0.1318355,0.4257673,-0.3652005
0.45428574,-0.12922555,0.23065412,-0.09460566,0.1590072,-0.63020605,-1.3422023,-0.5750872,0.39995933,-0.15395145,0.5427935,-0.2957165
0.46514478,-0.221756,0.1345696,-0.21556912,-0.032775994,-0.8454906,-1.3254732,-0.27156842,0.39995325,-0.19620188,0.6231014,-0.17879838
0.47232145,-0.3075243,0.055412743,-0.2705393,-0.2499658,-0.98692375,-1.123719,0.1389653,0.37533674,-0.26346648,0.66170776,-0.012857754
0.63870054,-0.2922115,0.4000002,0.038795955,-0.30007023,-0.34078866,-0.33917126,0.05431384,-0.04518615,-0.07645819,0.6665687,-0.35022327
0.85847294,0.08331192,0.40000018,-0.018237166,-0.016251996,-0.6044882,-0.33230355,-0.16986799,0.061747577,0.31757724,0.15610984,-0.71695375
0.8345624,0.49904382,0.40000013,-0.004154216,0.15180394,-0.6006523,-0.35850167,-0.29034165,0.08325937,0.34414795,-0.2592651,-0.70885074
0.7329462,0.808286,0.4,-0.0049925596,0.28629142,-0.5384397,-0.3501237,-0.392699,0.03750645,0.12520906,-0.5818268,-0.6177855
0.64149404,0.91238225,0.26613984,0.015181962,0.36054838,-0.42065254,-0.3617867,-0.49154094,-0.00928868,-0.03978854,-0.70697665,-0.4670176
0.4245401,0.7283887,0.0640039,0.053723235,0.39464536,-0.26460886,-0.31324342,-0.68036824,0.04463043,-0.20432475,-0.32183057,-0.04417219
0.49674946,0.50455564,0.22161694,0.049473044,0.30051214,-0.43281722,-0.4862562,-0.9685827,0.40010446,-0.11652086,-0.06067149,-0.24158779
0.5137596,0.32682106,0.3085068,0.04496415,0.41128662,-0.3476264,-0.83750385,-1.1471791,0.39999866,-0.0686154,0.14247821,-0.33265826
0.5097421,0.17423514,0.31102672,0.08708676,0.41944876,-0.28214774,-1.0320903,-1.1488113,0.40005213,-0.06431008,0.31682077,-0.3501449
0.5062538,0.023562223,0.28920847,0.0347833,0.3943468,-0.40789935,-1.2498475,-0.9281839,0.39999875,-0.07928432,0.45488304,-0.30776823
0.5164895,-0.11743625,0.24624011,-0.12311594,0.19889475,-0.6506294,-1.379266,-0.6437888,0.39995456,-0.10216085,0.5644443,-0.22034873
0.51184505,-0.20222788,0.14320743,-0.28202698,-0.012818413,-0.99038136,-1.3651068,-0.22307765,0.39999974,-0.13531771,0.6360786,-0.090212665
0.48122537,-0.28094965,0.08130996,-0.28192437,-0.24584213,-1.1298463,-1.1137859,0.15348715,0.3416192,-0.19558324,0.66253173,0.0862758
0.6921047,-0.3469251,0.40000024,-0.002620503,-0.3638499,-0.4872653,-0.26066053,-0.009858797,-0.045565978,0.008152814,0.6492881,-0.33846676
0.94129175,0.11186479,0.40000015,0.021307586,-0.14368969,-0.58802015,-0.3015917,-0.27881306,0.09064543,0.3156525,0.14432512,-0.807955
0.81330866,0.6175786,0.40000013,0.026474275,0.044370074,-0.6097213,-0.28196967,-0.35923415,0.022935877,0.20244086,-0.3395685,-0.6801274
0.694271,0.9255051,0.35264474,0.042557694,0.18912868,-0.5736303,-0.2962576,-0.44953087,-0.026333759,0.021019598,-0.6402229,-0.5732574
0.60412675,0.9470606,0.17082672,0.055987205,0.3174569,-0.5044528,-0.3111277,-0.5408362,-0.08289474,-0.114732385,-0.6418116,-0.42189172
0.35770613,0.72883475,-0.024318345,0.08397922,0.3819419,-0.3913207,-0.27588338,-0.7298552,0.078964226,-0.23826498,-0.32437915,-0.010459411
0.4699911,0.5443242,0.19371103,0.049765702,0.33701345,-0.43625498,-0.44772905,-0.8994399,0.39999914,-0.14763767,-0.12127302,-0.25752798
0.4908815,0.3628819,0.28518125,0.06115086,0.4009181,-0.31746003,-0.7880362,-1.1282122,0.40000033,-0.13675432,0.056930024,-0.32187837
0.48158497,0.19990695,0.31068057,0.10169913,0.3750969,-0.18120421,-0.97778416,-1.1346122,0.39659998,-0.13750738,0.21520777,-0.3464708
0.4503271,0.034086287,0.31127197,0.091526195,0.36356297,-0.33008462,-1.1630554,-0.94795537,0.3999659,-0.114296705,0.3785849,-0.35426825
0.4519903,-0.116120666,0.2853601,-0.02105074,0.21739867,-0.5878858,-1.3335971,-0.64363045,0.39996323,-0.12549768,0.5034593,-0.29898772
0.4614297,-0.2361575,0.20934027,-0.2047364,0.075064264,-0.9163936,-1.3774862,-0.25735515,0.3999584,-0.16283135,0.5854344,-0.17437299
0.4445275,-0.3037549,0.07162157,-0.31706706,-0.1801144,-1.1711409,-1.1848698,0.1369974,0.377546,-0.22610462,0.6165842,0.005540202
0.5610161,-0.31409857,0.4000002,0.09700838,-0.35115153,-0.3475794,-0.42485803,0.05404982,0.022317162,-0.06637847,0.6263347,-0.25654772
0.85692763,0.10269293,0.4000002,0.07609855,-0.13690534,-0.5080617,-0.29827192,-0.21000777,0.10596821,0.3671017,0.114146255,-0.69325924
0.8095649,0.56064427,0.4000001,0.06534537,0.04691006,-0.5318132,-0.29331657,-0.32855058,0.10785216,0.3229895,-0.338447,-0.6809712
0.6998175,0.8465946,0.40000004,0.049149413,0.2125523,-0.50517917,-0.2739781,-0.4331964,0.05522738,0.14185342,-0.64728177,-0.5939967
0.60889095,0.906093,0.22936715,0.06185228,0.33313084,-0.41509667,-0.27135575,-0.52685344,-0.021375787,-0.06489412,-0.7224144,-0.4768274
0.5751707,0.86334175,0.17748134,0.09476877,0.36024782,-0.34010747,-0.29198766,-0.575837,-0.047285665,-0.13286413,-0.6099371,-0.39022776
0.42686796,0.6575106,0.050969098,0.1188586,0.40876585,-0.20296437,-0.28628182,-0.7851814,0.09751711,-0.25687632,-0.27772513,-0.057532053
0.5115905,0.45037708,0.2474343,0.111701645,0.42844442,-0.35580507,-0.6087982,-1.0237166,0.39995626,-0.1753963,-0.060082726,-0.2953637
0.530844,0.2741172,0.32619372,0.14087021,0.45973545,-0.20296456,-0.8562055,-1.1507752,0.39683852,-0.14362697,0.13605696,-0.3844848
0.52055347,0.10470499,0.35389233,0.16334693,0.47433946,-0.08743063,-1.0564872,-1.0723984,0.39997342,-0.11780012,0.32138646,-0.42514557
0.5136647,-0.041274697,0.33492526,0.15628849,0.49764448,-0.19959223,-1.2094635,-0.88576674,0.3999976,-0.115348704,0.47415245,-0.40982804
0.5166584,-0.15092802,0.26718703,-0.007005327,0.3831124,-0.5428492,-1.3344197,-0.63537467,0.3999876,-0.14938746,0.5725705,-0.3262909
0.49624383,-0.22654526,0.14843073,-0.23600064,0.09035829,-0.88163775,-1.3867902,-0.26757923,0.39997628,-0.19797684,0.6253006,-0.18530096
0.47875622,-0.29810894,0.048036925,-0.30384526,-0.15378216,-1.0973833,-1.2032382,0.17793383,0.39394072,-0.2819693,0.6389711,0.013026227
0.6665388,-0.32458472,0.4000002,0.109455034,-0.32324067,-0.32095683,-0.39364633,0.13614765,-0.01913235,-0.18744263,0.63526094,-0.27625686
0.9292442,0.10074391,0.40000015,0.04968919,-0.075528674,-0.53072834,-0.3256906,-0.05943852,0.010112321,0.24590947,0.10106543,-0.8002325
0.8767822,0.34688914,0.4000001,0.04637282,0.002009777,-0.5330322,-0.32797405,-0.11902539,0.026226299,0.28437665,-0.15423198,-0.7632393
0.7093928,0.7545118,0.4,0.035895407,0.15266237,-0.5063013,-0.31641093,-0.23520708,0.014618423,0.18468961,-0.58279294,-0.6384933
0.58204806,0.8737445,0.28949577,0.028077004,0.28427565,-0.44260862,-0.3157915,-0.35225743,-0.019125596,0.04206563,-0.7987572,-0.5046734
0.5520266,0.8684905,0.11359981,0.04517561,0.38172552,-0.33707094,-0.3485805,-0.47451797,-0.043637414,-0.11040613,-0.63859487,-0.35022986
0.39677516,0.6637196,0.09747437,0.046917614,0.3973594,-0.320678,-0.3426922,-0.7721033,0.24066108,-0.174276,-0.21640013,-0.07620461
0.4708365,0.4733899,0.27916968,0.039762434,0.41379178,-0.36301535,-0.67483836,-1.0223119,0.39999184,-0.1033767,-0.020691505,-0.26125404
0.4776691,0.29349464,0.36001357,0.049740802,0.45443606,-0.2614656,-0.95745236,-1.1732374,0.40001252,-0.077544324,0.15144272,-0.32419375
0.47237423,0.14386058,0.37341794,0.09337524,0.45943037,-0.13309152,-1.0987974,-1.0898596,0.40000308,-0.0660043,0.3089566,-0.34134787
0.4581167,0.005379847,0.35315314,0.09175969,0.46466595,-0.24407694,-1.2606486,-0.9204608,0.40000045,-0.06401988,0.44502088,-0.3282768
0.471648,-0.12360399,0.30549952,-0.10393388,0.31616595,-0.6459845,-1.4434077,-0.62803763,0.3999601,-0.102199316,0.54484665,-0.25501394
0.47778568,-0.19799115,0.19383019,-0.28864372,0.11288111,-0.98682934,-1.4260938,-0.21935362,0.39999357,-0.16909565,0.59908926,-0.119882256
0.47152346,-0.23126914,0.12654734,-0.3654934,-0.054396905,-1.1254845,-1.3440619,0.01217633,0.39999807,-0.20564397,0.6136756,-0.032283127
0.5108872,-0.33974418,0.40000015,-0.16738738,-0.33962435,-0.91893595,-0.82037514,0.28108922,0.13855225,-0.25012758,0.5872795,0.053519633
0.69692665,-0.32803616,0.40000018,0.03604944,-0.3382381,-0.299459,-0.29118207,0.023616415,-0.044643432,-0.0023910857,0.63340676,-0.40269303
0.956734,0.08960511,0.4000002,0.003793153,-0.06528676,-0.51497954,-0.31374523,-0.2368432,0.07163422,0.32016736,0.2158532,-0.8131119
0.9292073,0.3516274,0.40000015,0.009314489,0.024153966,-0.5188094,-0.31456333,-0.2896275,0.055786517,0.315276,-0.042841725,-0.81084275
0.76741356,0.77698606,0.40000004,0.0059205,0.17316814,-0.4823029,-0.295344,-0.38034523,-0.014134279,0.18727724,-0.48445874,-0.64997494
0.6806937,0.9110353,0.34694853,0.005370067,0.24144691,-0.4512549,-0.2901137,-0.426666,-0.046896275,0.09304213,-0.6393637,-0.5977059
0.55928445,0.8846055,0.14403962,0.048717394,0.31752726,-0.32844675,-0.3246161,-0.5288528,-0.09193179,-0.09186435,-0.62871194,-0.3203041
0.40221617,0.6836418,0.027641404,0.049496356,0.33418033,-0.37818822,-0.31688645,-0.7323428,0.19199327,-0.21549605,-0.23397043,-0.08840687
0.47713012,0.48846003,0.19763592,0.06009758,0.39544475,-0.29904282,-0.60663456,-0.96616673,0.39999416,-0.14718851,-0.012288065,-0.29257336
0.4818278,0.30721316,0.2759145,0.062854,0.45070767,-0.16491206,-0.89852893,-1.1144161,0.40000144,-0.11060825,0.18491961,-0.37111196
0.48067626,0.14402206,0.29913282,0.1044847,0.46473816,-0.02409998,-1.0650092,-1.0490047,0.39996675,-0.097723044,0.36112586,-0.40011108
0.48873314,0.021771254,0.26872498,0.14419298,0.47589868,-0.07389805,-1.1906501,-0.86557496,0.3999403,-0.10400204,0.5131318,-0.39386746
0.5146432,-0.08376289,0.20696954,0.00075598207,0.42327067,-0.47972277,-1.3547751,-0.5962639,0.39997268,-0.15122314,0.6156637,-0.32048863
0.516801,-0.17111218,0.10249549,-0.24729969,0.15334706,-0.9063811,-1.3911297,-0.24617037,0.40000007,-0.20991333,0.6746527,-0.18733941
0.5051069,-0.19496673,0.021265497,-0.33319512,-0.00018491522,-1.0250751,-1.3370116,-0.03726416,0.39999765,-0.25035957,0.68441635,-0.09142146
0.46154186,-0.24535732,0.31260648,-0.25376996,-0.3166467,-1.0502199,-0.89975506,0.35876566,0.23570703,-0.3493061,0.6769626,0.1295183
0.8902928,-0.19402651,0.4000002,0.05914764,-0.27173704,-0.40718403,-0.2304742,-0.061905652,0.01149479,0.1622371,0.54485494,-0.7057166
0.9049657,0.24412285,0.40000018,0.05584521,-0.06172633,-0.5040261,-0.29968554,-0.22237292,0.12198961,0.3486566,0.05516678,-0.8097548
0.82169104,0.65506846,0.4000001,0.04663574,0.12210598,-0.4980251,-0.27225038,-0.32953486,0.057128858,0.2206185,-0.401873,-0.723628
0.638953,0.92038983,0.32833523,0.049001798,0.2550808,-0.43347618,-0.26025078,-0.4280469,-0.0023191138,0.069747984,-0.6951669,-0.5636093
0.47576514,0.8484196,0.09685929,0.07117756,0.35720164,-0.33188835,-0.27928936,-0.5359417,-0.042709522,-0.124219194,-0.5941841,-0.3211573
0.3619794,0.68307215,0.0025862672,0.08217786,0.391367,-0.27014348,-0.25474015,-0.64309675,-0.00016477791,-0.24290003,-0.37343585,-0.15304153
0.40391046,0.52584773,0.18036939,0.023984056,0.35059184,-0.46929708,-0.4262791,-0.8334963,0.4000011,-0.2215318,-0.050110668,-0.18607408
0.46598038,0.32855323,0.30493176,0.043465495,0.31502387,-0.42865318,-0.77729976,-1.0249761,0.40000477,-0.20889217,0.14087404,-0.31626636
0.47016987,0.25323194,0.3214666,0.059053842,0.33734965,-0.3660473,-0.8474081,-1.1002629,0.4000019,-0.21246508,0.21071476,-0.31958923
0.45450452,0.11459566,0.32151932,0.0918042,0.35067716,-0.21154979,-1.0236377,-1.0404203,0.40001678,-0.20880447,0.34367198,-0.3158224
0.43904194,0.04849869,0.30845115,0.07860418,0.32586107,-0.27533805,-1.1173851,-0.9434389,0.39999858,-0.20489836,0.40408537,-0.29713035
0.42858425,-0.09077225,0.27228323,-0.059763007,0.20782936,-0.5916276,-1.3331751,-0.6393932,0.39995053,-0.22056018,0.5011603,-0.2087724
0.419898,-0.17775781,0.1719391,-0.20462029,0.13050903,-0.86340857,-1.3979005,-0.3034947,0.399965,-0.26580468,0.5589487,-0.0649881
0.38663092,-0.23974632,0.057443812,-0.31491083,-0.1764563,-1.1543475,-1.1911805,0.19558364,0.34070894,-0.33853397,0.57562566,0.126423
0.45823467,-0.28855324,0.4000001,-0.12225082,-0.2766589,-0.90005875,-0.83276385,0.30394027,0.07645425,-0.32711878,0.5621218,0.07966933
0.9169501,-0.054366224,0.40000024,0.07423892,-0.08912972,-0.47772443,-0.21114603,-0.20021236,-0.07204294,0.12611601,0.37097356,-0.73182964
0.9544241,0.21145283,0.4000002,0.1053923,-0.019082999,-0.47701272,-0.26078695,-0.26604977,-0.028662058,0.22630472,0.13471018,-0.86050427
0.81236106,0.6894338,0.40000007,0.1093451,0.12841745,-0.45283273,-0.24567471,-0.3492872,-0.08548414,0.18699704,-0.3724642,-0.72297955
0.6537216,0.9050334,0.30238095,0.13378601,0.20775421,-0.38890615,-0.24924092,-0.42198822,-0.1267327,0.022357186,-0.59296393,-0.4931712
0.47737056,0.9433752,0.08992311,0.1624846,0.28045702,-0.31206977,-0.24550004,-0.5252891,-0.09578806,-0.09861436,-0.47325647,-0.20515151
0.29290617,0.75877345,-0.0065522143,0.16666993,0.32378775,-0.25995106,-0.21426336,-0.6995398,0.06062693,-0.1626373,-0.29307216,0.0013270824
0.39936033,0.48993552,0.20897308,0.13891727,0.3496644,-0.3142773,-0.4768172,-0.97311306,0.40002885,-0.093758404,-0.06317312,-0.23193035
0.4035482,0.39424333,0.2631866,0.13284945,0.38612446,-0.30378738,-0.6884202,-1.0499074,0.40009102,-0.05935172,0.043591853,-0.29265636
0.40381,0.30827373,0.29439718,0.13589294,0.4190206,-0.24202354,-0.847526,-1.1128072,0.3999971,-0.04048545,0.13785821,-0.3237204
0.41650316,0.1701467,0.31922954,0.1681345,0.4354333,-0.19899678,-1.0414314,-1.0831951,0.39999875,-0.041408703,0.27791378,-0.33264977
0.4162775,0.078894556,0.31854698,0.16262023,0.44096732,-0.18959463,-1.141744,-0.98750615,0.39999732,-0.038908705,0.37034267,-0.33275688
0.41826037,-0.048305444,0.2859461,0.043532807,0.3643477,-0.36095294,-1.307926,-0.7682301,0.39999986,-0.05911286,0.4845926,-0.29189727
0.42370003,-0.09853998,0.25153717,-0.028449573,0.28556523,-0.52804834,-1.3601979,-0.67108303,0.39998293,-0.08091599,0.52797496,-0.25003654
0.4154854,-0.18060859,0.14808518,-0.24612455,0.11559378,-0.8561438,-1.4126872,-0.32032365,0.39999756,-0.12577069,0.5954227,-0.13290699
0.4052025,-0.2060692,0.0747559,-0.33266684,0.02447045,-1.0332413,-1.3698304,-0.07459881,0.4000001,-0.16118486,0.6106487,-0.047287945
0.38364133,-0.24005857,0.022292417,-0.37196365,-0.13578494,-1.1416144,-1.2515733,0.16616197,0.39999372,-0.20561354,0.61311454,0.054381482
0.35661653,-0.32990524,0.40000293,-0.26012406,-0.35141712,-0.950024,-0.8631258,0.30448475,0.09582823,-0.24062163,0.62283415,0.053257205
0.7537433,-0.16542473,0.40000024,0.055403426,-0.38371387,-0.39500424,-0.16717945,-0.026278896,-0.06486729,0.021732738,0.4211588,-0.51508045
0.88920414,0.32947886,0.4000001,0.060543165,-0.15899795,-0.5032844,-0.24591994,-0.20534806,0.054451283,0.20089406,-0.104588635,-0.72578025
0.7554151,0.6647782,0.40000004,0.07430102,-0.023709629,-0.5160709,-0.25563547,-0.2878622,0.037027102,0.12175464,-0.4079469,-0.64859223
0.62931645,0.85673237,0.34401,0.081154,0.11131286,-0.5100721,-0.26204103,-0.369973,0.0008286814,-0.0023157336,-0.617478,-0.5433436
0.5334042,0.8716071,0.21991794,0.09403163,0.25223142,-0.45593697,-0.28673545,-0.47952873,-0.045506205,-0.08768436,-0.6552461,-0.46134442
0.5051115,0.861191,0.14648625,0.11118387,0.30257842,-0.41138265,-0.31393328,-0.53739494,-0.052988783,-0.12370374,-0.55807114,-0.34235477
0.42066953,0.6619454,0.07494814,0.105335526,0.35290924,-0.37589043,-0.3158543,-0.7579406,0.17172544,-0.20871446,-0.22264905,-0.1130783
0.49763265,0.46071416,0.2495081,0.09313628,0.41617623,-0.34654722,-0.5877255,-0.9926838,0.39999616,-0.15713678,-0.01640204,-0.2906011
0.5101174,0.37044436,0.2923082,0.10560247,0.43996337,-0.27782926,-0.7165184,-1.1085215,0.40000072,-0.14881955,0.07648971,-0.32632717
0.50764704,0.2018838,0.32689488,0.15258591,0.44647825,-0.09817966,-0.9251529,-1.16476,0.39539635,-0.13862343,0.25047722,-0.36185506
0.4889912,0.13170803,0.3200563,0.17438973,0.4416208,-0.03572387,-0.98760116,-1.1038249,0.39726904,-0.12121756,0.33670357,-0.37827575
0.48336273,-0.02349288,0.30769366,0.16499159,0.4479491,-0.07538034,-1.1599783,-0.9307716,0.39995828,-0.124369115,0.4790106,-0.35391608
0.47036338,-0.09698305,0.27026683,0.06821151,0.42269742,-0.39800158,-1.2707778,-0.77475995,0.39996195,-0.12679265,0.5505963,-0.3166744
0.45833313,-0.17912996,0.18870991,-0.1196442,0.20597956,-0.7376607,-1.39071,-0.47183466,0.3999964,-0.15688962,0.6194438,-0.22958301
0.46323848,-0.22520575,0.13439514,-0.23649852,0.107786156,-0.9404087,-1.4108491,-0.23978102,0.39999786,-0.19133794,0.64247,-0.15116169
0.4375093,-0.30784905,0.086001396,-0.35336602,-0.22897926,-1.1999427,-1.1729146,0.260435,0.3528332,-0.28356427,0.6490172,0.056315094
0.7179309,-0.28847894,0.40000018,0.034867886,-0.2704016,-0.35855022,-0.25679666,0.022656253,-0.03629336,0.063241035,0.594101,-0.40831178
0.9405061,0.18371506,0.40000015,-0.005106974,0.01858136,-0.5322494,-0.2908747,-0.13267317,0.018781323,0.32979405,0.14017758,-0.7878593
0.8069138,0.675898,0.40000007,0.00081147795,0.1797481,-0.5011548,-0.29620728,-0.25756964,0.020113781,0.24011269,-0.3671139,-0.71310836
0.6303663,0.91504604,0.3341713,0.028742664,0.27367595,-0.39731908,-0.31790206,-0.37783134,0.005567125,0.0729856,-0.7106483,-0.5051175
0.5460821,0.9007392,0.1492893,0.07512284,0.33434665,-0.26828325,-0.34653562,-0.48237637,-0.024332244,-0.08969712,-0.6342824,-0.37165698
0.4359053,0.75568086,0.06382809,0.09414231,0.36528352,-0.22406377,-0.30307692,-0.64520967,0.05178721,-0.19286269,-0.41668314,-0.10115013
