ancorasir/BennettWheelLegRL/experiment_data/2024-02-05_04-45-11/joint_position_env0.csv
Joint_1,Joint_2,Joint_3,Joint_4,Joint_5,Joint_6,Joint_7,Joint_8,Joint_9,Joint_10,Joint_11,Joint_12,Joint_13,Joint_14,Joint_15,Joint_16
-0.00041239188,0.0013186998,0.0007603831,-0.00025633487,-0.0017229125,-0.0007402118,0.0018969064,-0.0002208723,-0.0029078128,-0.0016043821,0.007412041,-0.001337769,0.0046887505,0.001879452,0.00782908,-0.00084957184
0.10755936,-0.0,-0.0,0.0,-0.12020637,0.0,0.0,0.0,-0.24070357,-0.0,-0.0,0.0,0.14275594,0.0,0.0,0.0
0.1444503,0.004676936,-0.00681777,8.002657e-08,-0.14576213,-6.127054e-05,-0.0048414585,-7.48078e-05,-0.23230335,-0.004553332,0.009993426,-0.00013126354,0.15638356,-0.0049531627,-0.009643739,0.0001908395
0.19725032,-0.069223136,0.028380832,-0.023551615,-0.13254605,0.02794376,-0.1064362,0.0012520334,-0.15420341,-0.035973724,-0.01783964,0.2306506,0.19327436,0.011295009,0.08672654,-0.023632228
0.13695434,-0.14966616,0.3133278,0.05381988,-0.15715575,0.05945771,-0.15325797,-0.21104805,-0.008485585,-0.07943098,-0.089476995,0.40727845,0.38136694,0.1365144,0.38449085,-0.15621302
-0.14227264,-0.13536842,0.37879476,-0.17115223,-0.092931636,-0.074164405,-0.043069042,-0.23816746,-0.09715674,-0.09525486,-0.02363164,0.51389843,0.13470678,0.28534958,0.3998767,0.13596068
-0.10657916,-0.11490866,0.37702042,-0.031081803,-0.052074485,-0.14635961,0.30726045,-0.46892557,-0.14021352,-0.08872825,0.32579637,0.022135165,-0.097694695,0.28789535,0.28829193,0.3407565
0.0012248044,-0.16479257,0.35765025,0.2914827,0.101721436,-0.14129278,0.13954896,-0.2525734,0.050150454,-0.201401,0.30190513,-0.25921488,-0.08911874,0.08393155,0.23621832,0.102598615
0.14656408,-0.13706638,0.4000027,0.14501159,-0.01604308,-0.11302932,0.21857928,-0.26845032,0.15832897,-0.22196448,0.25524575,0.072036326,0.20693395,-0.13374534,0.40005606,0.019924432
-0.074591614,0.101432726,0.40001225,-0.14511873,-0.16627616,0.015254827,0.25666183,0.23231971,0.32528403,-0.19992861,0.07515314,0.061038345,0.3502857,-0.10812689,0.39987567,-0.15603264
-0.17441736,0.113214165,0.22904663,0.034275062,-0.09101188,-0.06442911,0.23889938,0.059307493,0.285208,-0.1994478,0.09449562,0.08973028,0.05778203,0.037232228,0.36523786,-0.4480002
-0.09444654,0.09546874,0.3123661,0.1454487,-0.19884959,-0.055075765,0.40010867,-0.15183152,-0.0003654027,0.010945664,0.349214,-0.09736118,-0.080882154,0.17330442,0.2750804,-0.15789005
-0.039361138,0.048009813,0.3575832,0.22084183,-0.07795681,-0.04195942,0.3645788,-0.34209153,-0.14935407,0.022515614,0.39102936,-0.30047613,-0.1558719,0.20375489,0.19915983,0.21241671
0.016208943,-0.016682355,0.30094945,0.10581499,0.036400307,-0.051704813,0.24171907,-0.15062147,0.08027703,-0.13737787,0.24261977,-0.2199886,-0.079260945,0.050417356,0.23697636,0.30275458
0.18359415,-0.08689456,0.40093628,0.09688589,-0.045546804,-0.024018474,0.29902878,0.008673294,0.11746253,-0.18978329,0.30817556,-0.088809565,0.22472991,-0.18700154,0.39904684,0.1124806
0.036722545,0.05795624,0.40000492,-0.13959716,-0.14402096,0.022002375,0.32291013,0.20210393,0.23072419,-0.18105984,0.20999596,0.0640426,0.36779022,-0.15447071,0.39761284,-0.07447371
-0.0665095,0.051771346,0.29974312,-0.026188418,-0.07296143,-0.018400572,0.3175009,0.073086426,0.2496193,-0.14146423,0.15759873,-0.018448098,0.07460734,0.024049278,0.382942,-0.230058
-0.010476049,0.048516043,0.3127451,0.1876081,-0.14918703,-0.07759615,0.40008193,-0.31678113,-0.0035482063,0.07319721,0.4000664,-0.18695615,-0.09830132,0.12556875,0.24161755,0.03916592
0.06386818,0.034295563,0.36326998,0.1484461,-0.10852683,-0.036418714,0.40179196,-0.2896176,-0.12816879,0.0826083,0.39935485,-0.27150133,-0.17249362,0.1573593,0.15353724,0.3955781
0.15470028,-0.008901415,0.35288304,0.21578173,0.005612637,-0.054582395,0.32171637,-0.25520116,0.047670312,-0.0746826,0.25119182,-0.16100483,-0.0005957817,-0.091876894,0.3049598,0.14337406
0.19432884,-0.020552931,0.3984176,-0.027385466,-0.110750586,-0.01022479,0.37788594,-0.08111342,0.13073148,-0.121032126,0.2536041,0.21177574,0.3347962,-0.14631714,0.40000397,0.08834634
-0.043739207,0.13368669,0.40002003,-0.09940335,-0.17709488,0.044670694,0.38204733,0.17868409,0.23618978,-0.11093211,0.12910996,0.2816784,0.42525202,-0.0819976,0.39869288,-0.16406393
-0.221993,0.1308192,0.26453188,-0.06889813,-0.13423352,0.046837416,0.33526385,0.14304692,0.24835508,-0.09345444,0.06533942,0.11084895,0.19489105,0.02422736,0.39819196,-0.2299352
-0.14666563,0.0970295,0.3183559,0.20998906,-0.25248238,-0.043538183,0.40003768,-0.11194381,-0.08741384,0.15059441,0.36664084,-0.102260076,-0.035845935,0.17530715,0.29507345,-0.04019022
-0.10281837,0.028297301,0.3454051,0.3460458,-0.18263352,-0.0014113582,0.4000946,-0.4814271,-0.2128111,0.1946716,0.39960986,-0.27784038,-0.107070245,0.23037642,0.20470522,0.45844465
-0.048344754,-0.083547466,0.26084018,0.30840102,-0.013183311,-0.02272545,0.2557915,-0.24057204,0.10141582,-0.039712727,0.17434077,-0.18802865,-0.06305252,-0.034557708,0.23392293,0.20581295
0.15183309,-0.19984862,0.3986038,0.33577093,-0.08706916,-0.027992198,0.32035276,-0.23561403,0.15942913,-0.12521277,0.1624642,0.15155949,0.26550275,-0.22193925,0.40018454,0.16376749
0.044726435,0.061790895,0.4000081,-0.025578365,-0.19518708,0.015195462,0.36297587,-0.17093311,0.25386217,-0.12775181,0.07518794,0.24704279,0.38711455,-0.14825818,0.3999286,-0.12829706
-0.18466525,0.16195926,0.23897623,-0.08418352,-0.15999298,0.013736059,0.30436346,0.14260563,0.27476314,-0.08955779,0.009730306,0.5232837,0.057855207,-0.00045338913,0.39774126,-0.12164767
-0.024983747,0.08940545,0.31194493,0.072405726,-0.2717386,-0.07148164,0.4000264,-0.30892223,-0.012938845,0.098232664,0.3466344,-0.13988587,-0.15352963,0.1378227,0.3002588,0.21096876
0.035865244,0.013136725,0.35655436,0.30829716,-0.054260157,-0.060752597,0.3274418,-0.4794224,-0.16669816,0.066530265,0.39968425,-0.2744401,-0.1855889,0.16616109,0.28009242,0.3207374
0.1624099,-0.08256238,0.36463198,0.2647216,-0.003763801,-0.051496577,0.28809524,-0.28495127,0.051463258,-0.1160244,0.23043087,0.06086143,0.016236119,-0.049715124,0.31663537,0.24325523
0.14288676,0.038326837,0.39921507,-0.0791861,-0.1383902,0.06540516,0.3613313,0.1373463,0.15473625,-0.1460888,0.19787964,0.42476776,0.35334173,-0.19556408,0.40005025,-0.038580332
-0.09851332,0.069873594,0.35462913,-0.23684786,-0.16260552,0.048688143,0.32047805,0.22443971,0.21034834,-0.13387851,0.119746566,0.3268961,0.30442828,-0.12970684,0.4000247,-0.05689379
-0.11725706,0.05970851,0.26739988,-0.112671055,-0.16532099,-0.08313727,0.37008685,-0.095785044,0.00507535,0.05228032,0.24186675,-0.051072046,-0.026315361,0.09725887,0.2211438,-0.06748505
0.0025897636,0.011064661,0.31269696,0.15458451,-0.13530037,-0.10294508,0.3995415,-0.3433369,-0.2485048,0.0112285,0.3991076,-0.1495034,-0.12292697,0.122712165,0.16107488,0.2643263
0.087176666,-0.026513947,0.29823136,0.2622911,0.033248723,-0.12569682,0.21346223,-0.23870116,-0.023403635,-0.16597523,0.24105243,-0.18002844,-0.101594254,-0.06812443,0.12565312,-0.00795485
0.23425977,-0.049847294,0.40001526,0.14121056,-0.08053574,-0.07972099,0.29621005,-0.08064031,0.04499103,-0.20189779,0.23732726,0.023208696,0.18448812,-0.12122635,0.4000818,0.0059937043
0.038146235,0.12859575,0.4000141,-0.049178496,-0.20582323,0.0052114674,0.34663346,0.13929926,0.18112081,-0.1843074,0.105103076,0.09750377,0.37784138,-0.083833024,0.3999625,-0.11139595
-0.1654438,0.17138697,0.2552742,0.013757779,-0.18111716,-0.006115183,0.28487033,0.24567474,0.19258265,-0.16491815,0.07132126,0.09744013,0.12191231,0.040495906,0.39645523,-0.31387338
-0.07105101,0.14838378,0.30575296,0.09385619,-0.21971056,-0.09455667,0.39786434,-0.17543782,-0.11193808,0.079132475,0.40004477,0.006310209,-0.08669445,0.17825226,0.2592641,0.14739682
-0.02526282,0.09692924,0.30795822,0.15127113,-0.14279474,-0.039112315,0.37875623,-0.4197557,-0.36588895,0.16078468,0.38954848,-0.3389984,-0.14243336,0.2138436,0.19051497,0.51159745
0.09260626,-0.0055118497,0.34430477,0.35779282,0.021558119,0.03959681,0.26439214,-0.10267676,-0.08969136,-0.013966194,0.2032087,-0.3165852,-0.04997425,-0.027809475,0.23190089,0.244468
0.16408682,0.029469196,0.40002215,0.023032572,-0.096967645,0.07489443,0.3571797,-0.028096909,-0.0037049958,-0.04456534,0.1730921,-0.15235844,0.32925147,-0.24311747,0.40008897,0.09345077
0.038982604,0.15475865,0.39663193,-0.1208914,-0.1732947,0.07570504,0.33552504,0.08747168,0.11419945,-0.07304505,0.06116514,0.19609208,0.39006168,-0.18119836,0.40000176,0.017726827
-0.1626762,0.18033807,0.20449634,0.07499621,-0.13748004,-0.08567921,0.38622501,0.017871916,0.07001498,0.01538762,0.10646546,0.075550966,-0.004794782,0.03583939,0.31060097,-0.10312857
-0.028650064,0.14995673,0.3231903,0.066946685,-0.24673793,-0.053832054,0.40003246,-0.26567057,-0.1946461,0.18299975,0.39997035,-0.14450039,-0.078648895,0.08924471,0.2808437,0.25600612
0.02499608,0.0363665,0.36580175,0.22479472,-0.016863994,-0.06883375,0.3034161,-0.29147813,-0.21331352,0.025492309,0.38755327,-0.3087617,-0.15835322,0.02171295,0.1964349,0.31209406
0.1838064,-0.0706248,0.3999985,0.21904525,-0.01974391,-0.080702014,0.29894802,-0.15474027,-0.02899811,-0.10924385,0.22882843,-0.04958216,0.1244076,-0.23339674,0.33126736,0.16178516
0.19321592,0.0053955233,0.39640856,0.13350534,-0.13329358,-0.030401701,0.33477667,0.06825043,0.077435695,-0.15531674,0.17952462,0.22132064,0.3935447,-0.17806569,0.39991048,-0.056062445
-0.06788354,0.16647868,0.4011886,-0.019786417,-0.1851119,-0.016888838,0.32213482,0.16166319,0.19356823,-0.09906105,0.025393179,0.30903733,0.2337163,-0.10075124,0.39691034,-0.15085307
-0.11488678,0.11622376,0.2857053,0.08217559,-0.18260792,-0.101826176,0.35327983,-0.09972141,0.041878596,0.11356033,0.1881204,-0.084706545,-0.051695105,0.107734896,0.27003378,0.03758015
-0.025941947,0.06287254,0.37159702,0.07169364,-0.21362738,0.04490267,0.40040198,-0.30215013,-0.26619104,0.21302767,0.39781365,-0.17349587,-0.12780577,0.15067124,0.23464094,0.3892762
-0.03188674,-0.0029245222,0.34413266,0.16807675,-0.016041363,0.0045435214,0.31127447,-0.31243435,-0.112418056,0.034179475,0.33745888,-0.25190616,-0.13039121,0.03895177,0.19760278,0.28018093
0.19161612,-0.045192752,0.40011567,0.01658087,-0.032581452,0.017997341,0.34883708,-0.23484993,0.03706799,-0.05251451,0.21892132,-0.034064617,0.21597154,-0.19724113,0.40012914,0.1309473
0.10187502,0.07833308,0.39685163,-0.109386325,-0.12625974,0.06569998,0.375783,-0.09262302,0.13937213,-0.08410071,0.14131635,0.36983582,0.39046803,-0.12355036,0.39882684,0.07816373
-0.11514598,0.13212526,0.26406258,-0.19089429,-0.11820313,0.12922199,0.34297168,0.23347461,0.20342048,-0.03077677,0.052364595,0.37765315,0.114399925,-0.0072747977,0.39993832,-0.24002963
-0.019029405,0.093061276,0.290285,-0.020719616,-0.16575405,-0.033121433,0.39815202,-0.11465668,0.00038726113,0.14285958,0.25936908,-0.036186483,-0.11434838,0.1376317,0.2422613,-0.12936077
0.09152713,0.036558714,0.35625893,0.21525484,-0.13572057,-0.048794847,0.4006187,-0.15239236,-0.22847581,0.10880112,0.3998319,-0.15336658,-0.21134172,0.20806116,0.16537173,0.41530913
0.07724232,0.0011385286,0.32145375,0.051688805,0.022080863,-0.070693344,0.24713646,-0.18803068,-0.07161567,-0.06921744,0.31762877,-0.34662694,-0.21491744,0.06545511,0.15305586,0.21832561
0.2577398,-0.022308169,0.40001258,0.03598737,-0.077173345,-0.036126774,0.30162016,-0.031895734,0.07504895,-0.120533526,0.23131625,-0.027241496,0.17048083,-0.13069744,0.39955252,0.12505257
0.064373694,0.12677698,0.4000101,-0.14487056,-0.18338476,0.029274838,0.31658372,0.17132835,0.20633088,-0.10850942,0.102156386,0.037308972,0.3562511,-0.087149315,0.39995497,0.02021631
-0.090866566,0.11385793,0.28380647,0.019904394,-0.09212394,-0.056095865,0.30906442,-0.039638136,0.1857694,-0.087009594,0.09369989,0.18301278,0.058631282,0.07832331,0.3756362,0.031721666
-0.05651667,0.11576617,0.33284083,0.116504714,-0.19441609,-0.08538155,0.39997894,-0.27068716,-0.15503916,0.1182631,0.40003678,-0.20302919,-0.10571199,0.1610375,0.2589384,0.26674283
-0.03527742,0.029618736,0.33649382,0.30901635,-0.040821217,-0.043469228,0.3199753,-0.28612965,-0.15032963,0.03343843,0.39973798,-0.38684425,-0.19431086,0.07523473,0.19362308,0.14068872
0.1646741,-0.14368919,0.3964075,0.26274228,-0.03334532,-0.04819675,0.30863696,-0.095614865,0.028017165,-0.08694122,0.20760064,0.07676387,0.1515951,-0.23172435,0.40010855,0.1516723
0.14953877,-0.017695934,0.39953777,-0.053455327,-0.13008545,0.014484026,0.34237212,0.12702462,0.10928565,-0.090867445,0.17075486,0.17802688,0.39364487,-0.24998216,0.3983549,0.08755856
-0.11404143,0.15005104,0.3488001,-0.12259314,-0.14680275,0.041195743,0.30209962,0.14682548,0.20941396,-0.04404725,0.05951255,0.10084301,0.24801563,-0.14020701,0.4000798,-0.11071174
-0.10844185,0.12253748,0.33828312,0.020266764,-0.26486155,-0.07471909,0.3972208,-0.21824056,-0.07845518,0.22069402,0.3557343,-0.03410605,-0.038417015,0.003201494,0.18949175,0.1266406
-0.056381844,0.086814225,0.39698306,0.11211104,-0.2550724,0.08322239,0.40060458,-0.2955072,-0.3025176,0.21738218,0.40009692,-0.15842874,-0.073295206,0.0667237,0.1703099,0.51206124
-0.0657183,0.027452713,0.37539095,0.14743562,0.0068976074,0.042445008,0.29615203,-0.2390894,-0.19326584,0.069518074,0.39888185,-0.32148734,-0.15305105,-0.0768899,0.06678415,0.21380904
0.121246524,-0.040654805,0.38547957,0.19587119,-0.0037730373,-0.0038620306,0.30102098,-0.17995343,-0.017360121,-0.06247404,0.22022918,-0.08971811,0.11561092,-0.33016774,0.33824623,0.20679297
0.17148952,0.08755585,0.3998217,-0.087501094,-0.15580437,0.049291093,0.3669491,-0.023704767,0.102969855,-0.08643527,0.17426172,0.14459588,0.4016462,-0.32074928,0.4000195,0.07260141
-0.06310988,0.24984576,0.3836722,-0.15274365,-0.23951858,0.11220873,0.3630775,0.27353838,0.22286917,-0.05449597,0.040579952,0.24652955,0.31345445,-0.2499625,0.39378765,-0.16070639
-0.14863464,0.18907307,0.23146623,0.025329849,-0.25327268,-0.06488165,0.39885727,-0.08340377,0.03548886,0.15716854,0.20428157,-0.04939499,-0.022502678,-0.02711552,0.30789065,0.064761154
-0.021884244,0.09418663,0.34607136,0.2314837,-0.2881004,-0.077268474,0.4000528,-0.43173036,-0.21451801,0.23419754,0.4000688,-0.18172371,-0.10441271,0.033043854,0.29499516,0.34672302
-0.010615958,0.02977439,0.2927314,0.25618795,-0.062033746,0.02354811,0.2839393,-0.24258532,0.008321368,0.007702788,0.26423097,-0.294272,-0.095129095,-0.10609669,0.25802338,0.19576001
0.17995104,-0.0840512,0.40001607,0.08580659,-0.12468055,0.05930557,0.3551483,-0.12643296,0.061663162,-0.05826795,0.2671222,0.016721178,0.21369793,-0.35128817,0.40006238,0.16630092
0.16645712,0.059947986,0.3999471,-0.027431365,-0.20682673,0.08394069,0.38380244,-0.054599725,0.14854355,-0.052615546,0.24034673,0.3154714,0.38306642,-0.3013882,0.3991809,0.05325414
-0.12485311,0.17907815,0.2842429,-0.10934877,-0.21479544,0.14446267,0.336552,0.25727898,0.23044524,-0.022844054,0.12302413,0.21653898,0.12810728,-0.14414611,0.39755997,-0.19715458
-0.05657708,0.13231792,0.30635104,-0.054226972,-0.19704597,0.014456057,0.39996833,-0.23101835,0.008046626,0.20470808,0.36466336,-0.07658027,-0.10488867,0.05281814,0.26264626,0.034145195
-0.00422208,0.02634249,0.3460872,0.29355076,-0.06154896,0.009739097,0.328927,-0.22920637,-0.17912209,0.1706007,0.39956272,-0.2770695,-0.16772968,0.06480177,0.16002403,0.2434195
0.056894742,-0.03624233,0.31815895,0.16956648,-0.029402995,-0.008229638,0.28836188,-0.12171918,0.06719685,-0.019867066,0.1896581,-0.054695435,-0.026745787,-0.15083583,0.29399353,0.20755503
0.16685292,0.0049840417,0.40001526,0.022399437,-0.14514276,0.0074981195,0.33757415,-0.0029755773,0.15449212,-0.029309658,0.22145927,0.00079652393,0.34930995,-0.24267526,0.40012476,0.1330383
-0.04504352,0.09800743,0.40000686,-0.10282607,-0.1902216,0.04456998,0.31127113,0.24230172,0.22647397,-0.056727707,0.13901564,0.26888117,0.33973902,-0.18121853,0.39961082,-0.013835918
-0.08809855,0.036514997,0.2595861,0.16480172,-0.17131706,-0.06010015,0.40002555,0.00921613,0.0895254,0.06547028,0.17824216,0.14263599,-0.069509074,0.11516539,0.2607311,-0.11652439
-0.009216968,0.03387053,0.2995837,0.16617402,-0.2515226,-0.078944154,0.39735386,-0.18106942,-0.16884142,0.17721955,0.39900717,-0.04482126,-0.1399784,0.15391493,0.24373317,0.30306777
0.0029216693,-0.010509547,0.2897221,0.31265575,-0.039399035,-0.07995582,0.22931637,-0.15321364,-0.059368476,0.03245,0.36855638,-0.27167282,-0.19303235,0.038333405,0.1397486,0.17148465
0.14350307,-0.07928483,0.35295302,0.08564149,-0.09003669,-0.016040973,0.24748367,-0.027398387,0.06182371,-0.10392978,0.25278848,0.0744664,0.08274738,-0.23833072,0.38864824,0.004201378
0.08485556,0.04848995,0.39787325,-0.057879332,-0.2268875,0.067452475,0.29399315,0.24736951,0.18301548,-0.13136348,0.19829278,0.34930697,0.39057696,-0.2057117,0.40000215,-0.116887406
-0.14614844,0.13265814,0.28916124,-0.13147429,-0.21565326,0.03822186,0.24407548,0.23205262,0.26016372,-0.05681627,0.115279704,0.03871088,0.2461461,-0.11942584,0.40008456,-0.253238
-0.07300612,0.08472378,0.36758944,0.12947193,-0.173131,-0.07467899,0.40000138,-0.16954398,-0.040574387,0.18103367,0.3184715,0.034999758,-0.056710187,0.11407437,0.24960457,0.037897065
-0.049199134,0.040679052,0.4039487,0.14033958,-0.19087449,0.0759655,0.40003738,-0.2967558,-0.28530714,0.22033721,0.4000356,-0.17684886,-0.094703995,0.14536554,0.21895762,0.38417357
0.023119055,0.026137779,0.32314298,0.19731072,0.018283544,0.06610704,0.25503835,-0.069707416,-0.009215533,0.021102857,0.18338451,-0.16288263,-0.022893157,-0.054691985,0.2253242,0.27198666
0.16547309,0.03126395,0.3991275,0.103485495,-0.05206046,0.10903997,0.31392795,0.11506594,0.03871515,-0.046043754,0.20095487,0.24410492,0.25852796,-0.24498482,0.40003204,0.06418416
-0.033037256,0.122044064,0.400019,-0.19419844,-0.14425585,0.12616464,0.3108062,0.20919365,0.20321295,0.027700048,0.078975,0.30380213,0.34813005,-0.18038596,0.39995614,-0.14854756
-0.10242913,0.07349008,0.30179223,0.024064472,-0.13969834,0.0017550731,0.37587708,-0.0804619,0.1843382,0.21409988,0.15145443,0.11198502,-0.011221173,0.039700095,0.28589997,-0.024239685
-0.05499762,0.058056362,0.36983472,0.12328998,-0.2433328,0.009886811,0.40010408,-0.3230261,-0.18924826,0.22559176,0.3995997,0.057744294,-0.1519496,0.13090512,0.17550188,0.35711068
-0.061936446,0.03407151,0.34812155,0.18620844,-0.028420016,-0.032757275,0.37319487,-0.42313173,-0.16863868,0.1302178,0.39925587,-0.35581902,-0.19365734,0.09723969,0.114411406,0.4088452
0.15972757,-0.06935552,0.36294147,0.1307206,-0.016671535,0.033526346,0.36235106,-0.2657152,0.058078233,-0.05071589,0.27075693,-0.21281192,0.10674576,-0.17680249,0.31605995,0.1873201
0.1739919,-0.038945757,0.40000543,-0.047924742,-0.10437714,0.06419975,0.39089406,-0.11293229,0.114543304,-0.0854443,0.302333,0.020090759,0.3654871,-0.21116453,0.3995542,0.06143558
-0.08678936,0.1404546,0.40004125,-0.2610023,-0.15730672,0.09300166,0.3326856,0.1799116,0.23557237,-0.10273568,0.18060009,0.30869073,0.2628323,-0.118458144,0.39995518,-0.15947227
-0.14565644,0.112327404,0.26057678,0.07571736,-0.10035877,-0.089268595,0.38494748,0.055467185,0.1274783,-0.069274746,0.21199417,-0.014600285,-0.054155424,0.085983716,0.29227826,-0.15809958
-0.04349885,0.062318366,0.34689456,0.3161843,-0.119204305,-0.0678218,0.3654481,-0.37981638,-0.1448833,0.046981618,0.39606768,-0.21729213,-0.10723883,0.123866096,0.28367144,0.1282171
0.013096314,0.046209056,0.26364645,0.22812803,0.011991131,-0.08012472,0.20086572,-0.119075134,0.042092875,-0.07960193,0.22292744,-0.20396964,-0.031294405,-0.048673127,0.21586518,0.13096812
0.18005802,-0.055908136,0.40002373,0.04228476,-0.07897375,-0.020533498,0.25875577,0.11288326,0.10372832,-0.13143644,0.23682356,0.09782428,0.26280138,-0.18737642,0.40010554,0.12968363
-0.015605738,0.06884711,0.39117265,-0.25363207,-0.182979,0.042750996,0.278454,0.3538922,0.2088333,-0.15760234,0.15507215,0.2939751,0.33684894,-0.121905565,0.3999858,-0.22813632
-0.07969002,0.061669007,0.3012078,0.09586145,-0.14495365,-0.038401168,0.29602718,0.2979131,0.18168664,-0.06041797,0.10604855,0.03737659,0.018227044,0.092298664,0.35720405,-0.4643509
-0.051863253,0.039567538,0.3393393,0.16336073,-0.2108719,-0.058541946,0.40002856,-0.12921724,-0.10030145,0.100174636,0.40013212,-0.14460462,-0.107961684,0.1586745,0.25962538,-0.07364516
3.205114e-05,-0.058269173,0.37988633,0.28836283,0.03166059,-0.056864496,0.31767407,-0.23390235,-0.14080821,-0.006157434,0.39980814,-0.28604448,-0.2078045,0.107644364,0.12954354,0.16421093
0.14231642,-0.11683566,0.40012962,0.23572344,0.077387065,-0.06445202,0.28015703,-0.035820503,0.057284143,-0.14878346,0.21461627,0.08380116,0.04494809,-0.10814791,0.24727184,0.01667668
0.11002024,0.03378388,0.40000373,-0.09300503,-0.05353273,-0.0075937808,0.33194938,0.1941822,0.17145407,-0.17841317,0.17483787,0.49129486,0.37111995,-0.09861313,0.4000118,-0.08665856
-0.10838653,0.05495313,0.31049594,-0.1260234,-0.05331588,0.0046527847,0.30426437,0.24322343,0.21666099,-0.15093713,0.07224723,0.13434039,0.12636998,0.017533846,0.38571417,-0.22118862
-0.09093552,0.0383173,0.32681763,0.106454216,-0.19915879,-0.0976469,0.40003484,-0.2125238,-0.08384925,0.04154305,0.31858137,-0.010004627,-0.07564694,0.14818071,0.2387455,-0.049100116
-0.01636249,0.0067584063,0.38272125,0.14107083,-0.1880588,-0.098721914,0.4007412,-0.36147252,-0.31922412,0.068917505,0.4000816,-0.22693512,-0.15924549,0.20701484,0.16965659,0.46790472
0.019769996,-0.03583478,0.3145672,0.02427652,-0.025736244,-0.06758069,0.27109298,-0.19781396,-0.10410344,-0.06623009,0.29186222,-0.23958841,-0.14217156,-0.008261587,0.15179671,0.121280015
0.19432065,-0.12256804,0.39129743,0.1385485,-0.07712176,-0.068850696,0.3234301,-0.0507604,-0.005461984,-0.11877776,0.22159095,-0.012654694,0.1595829,-0.18534121,0.39212498,0.076159224
0.12360411,0.05605069,0.3992629,-0.050695945,-0.1830852,-0.048130892,0.352252,-0.010212306,0.10999803,-0.14263801,0.133991,0.25105488,0.41421136,-0.09708192,0.3998772,-0.052306097
-0.16239558,0.14519,0.3174812,-0.07944537,-0.19159642,-0.031036422,0.2911388,0.16858771,0.17984207,-0.10622142,0.020214437,0.16953795,0.1925627,1.9879963e-06,0.39553267,-0.16544695
-0.14996693,0.15852527,0.32165,0.09823529,-0.24490184,-0.10618076,0.4000366,-0.32724628,-0.10336254,0.12226465,0.3114663,-0.13101324,-0.050641563,0.19154318,0.3013793,0.25871775
-0.1175062,0.08765058,0.35194173,0.24995284,-0.11716907,0.0871752,0.3889849,-0.30157596,-0.20916879,0.13189235,0.3872847,-0.4170262,-0.095485985,0.19311737,0.23123929,0.5049244
0.035072394,0.009524029,0.29394838,0.32195783,0.018558191,0.043072764,0.2462922,-0.19669966,0.04471218,-0.04178116,0.18522091,-0.2061824,0.046990685,-0.08215278,0.32561374,0.2385483
0.16965373,-0.08008515,0.39934176,0.009975632,-0.13085653,0.096949145,0.34541604,-0.118634135,0.13303624,-0.103090756,0.18835089,0.15691957,0.3804005,-0.199471,0.40010127,0.1312552
-0.06659582,0.050041698,0.4000053,-0.13660768,-0.17635372,0.13089204,0.31244195,0.12884362,0.21469125,-0.083745115,0.072827555,0.26027912,0.3681139,-0.13044506,0.39999837,-0.05126358
-0.10555236,0.058154866,0.3065172,0.08182784,-0.12466574,0.026249642,0.37084106,0.0022576016,0.15038723,-0.018595854,0.09797302,0.31214023,0.02342752,0.06540247,0.30683404,-0.19141999
-0.05168745,0.039137937,0.3700348,0.23906632,-0.23603787,0.024259163,0.40007725,-0.1924934,-0.1281782,0.13330033,0.38434437,0.024238149,-0.061597306,0.14071077,0.21912003,0.22589225
-0.024922863,-0.011562107,0.3780525,0.12859511,-0.05230601,0.014605139,0.33393437,-0.26480582,-0.2565339,0.093315095,0.38738546,-0.3610606,-0.119450964,0.11355697,0.15402843,0.25486705
0.117271766,-0.046632655,0.38266826,0.20029218,0.043506287,-0.03551591,0.24753194,-0.15080237,0.030380663,-0.08696591,0.18139744,-0.07703272,0.031147696,-0.10718208,0.22619604,0.26669946
0.20745492,0.015394976,0.39980415,0.073504,-0.09027454,-0.0011527808,0.3185475,0.05294262,0.105731264,-0.14441627,0.21548729,0.19866957,0.35156733,-0.25851762,0.39871705,0.01585567
-0.06923092,0.11095013,0.4013923,0.0039398456,-0.15992503,0.080175795,0.34772074,0.33181337,0.20312381,-0.14807193,0.087606736,0.2802639,0.3354826,-0.17279209,0.39654085,-0.1489844
-0.12037816,0.11299565,0.28063816,0.17584622,-0.1471141,-0.020318693,0.3499035,0.30997762,0.12241617,-0.04372274,0.11344694,0.12777463,0.017632373,0.044072606,0.3108191,-0.14480135
-0.081675775,0.14903182,0.28465256,0.21458337,-0.26584387,-0.042881086,0.39008397,-0.39452437,-0.20616338,0.15534888,0.39753792,-0.16207182,-0.0753766,0.17104259,0.28039068,0.24093388
-0.0017208081,0.055325203,0.30828723,0.309985,-0.08391171,-0.01136296,0.31421688,-0.41883677,-0.22764507,0.10467318,0.39948523,-0.41096315,-0.18780434,0.18805742,0.17459853,0.4118554
0.10829878,-0.05437245,0.33046255,0.24410109,-0.037025135,0.031192588,0.2762976,-0.17457642,0.039426565,-0.068455346,0.16938835,-0.17370048,-0.018134804,-0.053018462,0.32445925,0.15831313
0.18134272,0.0021318689,0.4000051,0.07359685,-0.1905177,0.045597713,0.3665258,-0.23878804,0.13055186,-0.08553669,0.20047496,-0.035952285,0.35132173,-0.1922779,0.40004456,0.0734378
-0.009838998,0.16417153,0.4000053,-0.12872903,-0.24866824,0.075953,0.36244243,-0.1255359,0.20738825,-0.09260201,0.10336935,0.10198632,0.37105376,-0.13757423,0.3999419,-0.08771509
-0.20697373,0.19816321,0.20239006,0.09252319,-0.1714435,-0.0031306809,0.32049185,0.08046338,0.19332838,-0.10015083,0.10835144,0.35002625,0.046307575,0.015865454,0.38162693,-0.17308189
-0.09620307,0.12519434,0.28761977,0.21567482,-0.21619704,-0.06040384,0.38776526,-0.36397865,-0.0815513,0.03290492,0.40007055,-0.15623689,-0.05872282,0.09567011,0.32713905,0.13875547
-0.06941415,0.04148632,0.27329037,0.34403774,-0.042120032,-0.031494252,0.31886992,-0.28770593,-0.121990606,-0.06894132,0.40001616,-0.35299054,-0.12452512,0.06407466,0.21263298,0.23533395
0.117317185,-0.08985585,0.40006122,0.23912635,-0.023230167,-0.020876994,0.30519027,-0.013884426,0.09330131,-0.1962063,0.2096984,0.16303228,0.19531177,-0.17956428,0.34224942,0.19736773
0.101913705,0.026916532,0.40000203,0.0061397147,-0.1508007,0.021593785,0.35882086,0.11924152,0.21744522,-0.1522,0.112210356,0.0757313,0.47289756,-0.1486887,0.39913285,0.03900511
-0.11233868,0.16289017,0.35817614,-0.111239165,-0.17826165,0.016614154,0.31110215,0.18384778,0.29356,-0.11622281,-0.006875321,0.09956544,0.28241083,-0.07738939,0.39994946,-0.17230552
-0.111669295,0.116518654,0.24773704,0.1006561,-0.1843169,-0.13300143,0.4000208,-0.11675019,0.07388186,0.07761611,0.19768229,-0.0031447269,-0.05886862,0.13570143,0.2747298,0.037188515
-0.021191694,0.06199218,0.31385523,0.29090863,-0.18799238,-0.05817307,0.40119806,-0.18845184,-0.1851957,0.15394762,0.40000543,-0.17703962,-0.13039617,0.16352767,0.22324495,0.35152894
0.054926414,0.029248245,0.2513253,0.5425791,-0.018325847,-0.06828202,0.2759652,-0.15008684,0.021686219,-0.03735474,0.24196446,-0.12807965,-0.059231155,-0.035054684,0.19933213,0.18082033
0.19724539,-0.06181118,0.4000068,0.07822273,-0.075919606,-0.054020688,0.33074486,0.015781041,0.082168385,-0.11634945,0.18747887,0.18785632,0.28372297,-0.1630145,0.40001938,-0.012214634
-0.0041621355,0.09566343,0.4000058,-0.05247125,-0.13420425,-0.007055606,0.34611523,0.15404509,0.18147053,-0.097961746,0.061546203,0.41619885,0.4177055,-0.08483784,0.39895642,-0.12569107
-0.17427258,0.13121185,0.2700969,0.05750536,-0.12952676,-0.07278859,0.33249226,0.15963136,0.12684545,-0.02717405,0.04248434,0.31691027,8.488339e-05,0.12615511,0.3091616,-0.27626547
-0.12192776,0.12970012,0.32686415,0.11305348,-0.26944664,-0.02219799,0.40001217,-0.20342807,-0.14576213,0.15915564,0.35460898,-0.056762345,-0.07914931,0.15323126,0.26347402,-0.030438567
-0.07633144,0.0016302515,0.3507964,0.15060271,-0.035203878,0.006831807,0.29113406,-0.3492653,-0.16840191,0.032115526,0.40006396,-0.25696722,-0.16183186,0.06864381,0.16523527,0.081613585
0.13439982,-0.059580494,0.39931107,0.16402753,-0.016163357,0.0029215242,0.30451325,-0.20392708,0.0028292441,-0.11037638,0.21483509,0.18676424,0.15576296,-0.16995485,0.3698009,0.15900761
0.08654712,0.07141776,0.39952263,-0.067651324,-0.1446758,0.055539437,0.36002827,-0.07122218,0.12786537,-0.0694257,0.13661264,0.2055041,0.41342187,-0.14641516,0.3996135,-0.06888401
-0.142985,0.19215581,0.35401213,0.008320717,-0.16889057,0.11281109,0.31568298,0.27517477,0.20785461,-0.066100985,0.028585024,0.19771448,0.29780647,-0.075972006,0.39805892,-0.17597324
-0.19058236,0.19415867,0.25427243,-0.08309002,-0.17618676,0.014622741,0.38545698,-0.03699987,0.06322173,0.07450055,0.13926578,0.10890808,-0.03044426,0.16454445,0.2656731,-0.086385354
-0.122871116,0.11223565,0.35004574,0.25238436,-0.22878824,0.07513801,0.39169785,-0.4436294,-0.24255113,0.20123301,0.40007785,-0.230222,-0.1162395,0.20920676,0.17678225,0.3364448
-0.09513757,0.035183795,0.29878592,0.28254545,-0.050737087,0.037634473,0.27867833,-0.20521331,-0.013346983,0.00024200707,0.27181822,-0.2127285,-0.08574975,0.0048578093,0.15660574,0.18206562
0.13050304,-0.004179859,0.40001932,0.09176109,-0.11632041,0.035566814,0.3295513,-0.13660745,0.13814685,-0.041089408,0.13734734,-0.041298516,0.31576332,-0.20008747,0.40005526,0.080996096
-0.023488969,0.14728329,0.40000483,-0.121974625,-0.21468854,0.09998864,0.3465059,0.19142145,0.24758019,-0.03684037,0.027809002,0.06433583,0.4695214,-0.14864196,0.40001118,0.04146737
-0.17713512,0.15698718,0.2585633,-0.041434847,-0.18829831,0.07501724,0.29496792,0.20662214,0.25774404,-0.013992444,-0.017567204,-0.044789407,0.17084098,-0.009630161,0.39952976,-0.35637113
-0.13520372,0.15825252,0.27028918,-0.043317232,-0.25330612,-0.00047458586,0.40002498,-0.12030733,-0.00033656342,0.16694158,0.28442743,-0.113914035,-0.009838633,0.11928245,0.25015178,-0.090443805
-0.040435676,0.085387215,0.35906485,0.18149672,-0.13634543,-0.024381444,0.3566972,-0.31851527,-0.21556185,0.11291047,0.40004277,-0.32298043,-0.10656461,0.116859764,0.1509695,0.29498574
0.036983047,0.0035094752,0.34106886,0.4154711,-0.03776961,-0.051887743,0.2531411,-0.18400991,0.05625757,-0.06423494,0.16209328,-0.044209637,0.008431263,-0.101556815,0.25103828,0.15282829
0.16890234,-0.094848365,0.40001264,0.079727344,-0.14713843,-0.009686365,0.31911424,0.022905493,0.089357845,-0.07895463,0.23114029,-0.041914996,0.29012957,-0.2085258,0.40006027,0.077060856
-0.08181355,0.029232794,0.39419556,-0.106965296,-0.24386601,0.033474274,0.33358482,0.21842939,0.18106185,-0.08192518,0.12097396,0.197923,0.3893983,-0.1260063,0.39905697,-0.06573641
-0.08872719,0.0044252207,0.35600206,0.14935026,-0.14862894,-0.08821783,0.29071856,0.02151606,0.1386453,0.039905645,0.11646501,0.39587554,0.028736437,0.09051944,0.3112463,-0.18978204
-0.064209506,-0.0112075005,0.36286175,0.19575088,-0.28210047,-0.026244894,0.40006357,-0.15288286,-0.13230129,0.15058964,0.40007287,0.015488498,-0.06201904,0.16473298,0.2318794,0.1923841
-0.03217345,-0.05206885,0.33630016,0.18473414,-0.09519567,-0.021210931,0.39997822,-0.3106374,-0.23950046,0.09433816,0.39977932,-0.13886109,-0.14021343,0.16171326,0.12271031,0.45030904
0.10973653,-0.029379059,0.31173354,0.09226925,0.02638752,-0.029733334,0.2540422,-0.1967533,0.028729727,-0.08201054,0.2665088,-0.13054289,0.050963618,-0.096856,0.28184554,0.18845834
0.15276824,-0.013016277,0.4000143,-0.10932449,-0.12668505,0.04875086,0.34404647,-0.040094245,0.13337582,-0.09578984,0.2588462,0.019355956,0.32630563,-0.12538019,0.39996713,-0.08096127
-0.09361432,0.118068665,0.34413666,-0.13366318,-0.16975118,0.08911792,0.28813866,0.2150767,0.22932723,-0.10638914,0.14452134,0.28095248,0.32129022,-0.051021557,0.39986277,-0.13144639
-0.12818278,0.10258478,0.2602348,0.10884181,-0.16603898,-0.026904631,0.40011567,0.021595739,0.06963145,0.03623383,0.23025182,-0.028596109,-0.023038173,0.16429375,0.2512799,-0.21826263
-0.027680073,0.105578944,0.33203238,0.114510424,-0.20713197,-0.062264234,0.39844853,-0.20110615,-0.2576708,0.16652068,0.40004653,-0.064204164,-0.124061644,0.18883105,0.19113313,0.07679598
0.0032345112,0.034757618,0.28962147,0.26713637,0.037234515,-0.033356067,0.24485277,-0.20627679,-0.015259479,-0.0095150955,0.29043517,-0.18582234,-0.10823024,0.0008029746,0.18340638,0.09708574
0.23173988,-0.074032634,0.4000044,0.11576944,-0.08244137,-0.0039201155,0.35106432,-0.20442973,0.075048685,-0.045669425,0.24710639,-0.17750394,0.25386164,-0.17955056,0.40012044,0.11462189
0.11793652,0.06708505,0.40000132,-0.14536086,-0.1747099,0.045278005,0.36470094,-0.03697385,0.16781299,-0.07801374,0.18162349,0.09867976,0.43322322,-0.11296842,0.39818674,0.11175978
-0.13372548,0.19727135,0.3379779,-0.11007201,-0.19250934,0.064378954,0.3191328,0.23872069,0.25092244,-0.06380814,0.05442409,0.44968927,0.20945385,-0.021158362,0.39613497,-0.16244902
-0.08413283,0.14552198,0.295243,0.13635316,-0.23964599,-0.08691093,0.4007824,-0.16724293,0.04051325,0.19599675,0.2998262,-0.047936123,-0.068623856,0.16609927,0.28713658,0.07473509
-0.018384632,0.11909455,0.36726308,0.07800003,-0.29713792,-0.004695679,0.39969346,-0.3913111,-0.20453292,0.21369952,0.39999947,-0.091674,-0.15703121,0.19194707,0.21756788,0.37287122
-0.011155517,0.0052390294,0.37364855,0.240784,-0.055232666,0.039667483,0.3124691,-0.29057688,-0.071952686,0.03285849,0.36190274,-0.35375628,-0.1911962,0.10999992,0.15534936,0.18959327
0.19854157,-0.00818834,0.4000067,0.15323961,-0.084976174,0.017160166,0.34192058,-0.2872088,0.07477475,-0.030989677,0.21304654,-0.12828825,0.10994623,-0.16714644,0.4000566,0.16107038
0.10564843,0.08598371,0.3975615,-0.12165657,-0.19389619,0.09218682,0.38287675,-0.0700369,0.1684029,-0.06971922,0.16880569,0.13495106,0.348844,-0.19333614,0.38954765,0.0050951918
-0.123105794,0.114003964,0.36331955,-0.057485484,-0.20307541,0.14142966,0.3470787,0.20783193,0.23326176,-0.0310731,0.07117192,0.04252548,0.21309932,-0.09246424,0.39394537,-0.16276266
-0.13205609,0.13032345,0.33576348,0.055683088,-0.20900537,0.0022547,0.39648035,-0.27164286,0.0942863,0.1682326,0.2507428,-0.11084124,-0.07476104,0.13128622,0.21771061,0.075453214
-0.0740817,0.093562305,0.39931014,0.089859605,-0.12531926,0.10001701,0.4013363,-0.239765,-0.14046144,0.16971238,0.39983854,-0.16214791,-0.14247312,0.13961302,0.13180384,0.4076785
-0.07214872,0.05804676,0.35812348,0.18554,0.03308555,0.019749483,0.27319664,-0.28769174,-0.0038276655,-0.010774141,0.3069795,-0.22770461,-0.117051,-0.022115849,0.12620026,0.11681142
0.18701193,0.011375191,0.4000141,0.15314493,-0.022805288,0.038654085,0.3102794,-0.29584846,0.13806504,-0.074769735,0.20553054,-0.084581114,0.29830417,-0.2668643,0.39897573,0.14807552
-0.0023865693,0.16448033,0.37286612,-0.095087536,-0.1183247,0.11835164,0.3267398,-0.08804629,0.2585014,-0.08717116,0.07534291,0.09211835,0.32833374,-0.1980601,0.39995873,-0.04912815
-0.035269685,0.13500984,0.26722556,0.1819518,-0.12764038,-0.03888625,0.4000663,-0.07129567,0.096257724,0.039734673,0.19656363,0.009460313,-0.05652472,0.055902913,0.2043475,-0.08201834
0.062937126,0.12989031,0.35779998,0.09241959,-0.20826365,-0.0035207076,0.39180818,-0.2951242,-0.21970403,0.16120051,0.4000573,-0.14049648,-0.09756004,0.15263012,0.21920623,0.2790566
0.10261365,0.06230217,0.37646735,0.12093026,0.017739734,-0.0070262067,0.32184458,-0.30647722,-0.25919133,0.04545001,0.4000073,-0.33392924,-0.19190279,0.077527955,0.1457354,0.24623346
0.22415574,0.028742276,0.39808217,0.17527574,0.05322547,0.0062920176,0.27887022,-0.009680522,-0.054707434,-0.09726507,0.2651209,0.024343554,0.02288137,-0.19017617,0.26653606,0.18005799
0.25242877,0.08470963,0.3974622,0.003822043,-0.061022226,0.029779227,0.2986268,0.07337841,0.07832733,-0.11772788,0.19786319,0.34955275,0.3163213,-0.19307055,0.40005845,0.004664457
-0.022984691,0.20163792,0.31758544,-0.097423024,-0.0971059,0.06569513,0.25845122,0.25313812,0.22185118,-0.037994508,0.022465184,0.2555612,0.16674554,-0.10599393,0.39419922,-0.16438663
-0.009741097,0.15905507,0.24264736,0.09575091,-0.12818794,-0.09523408,0.39021018,-0.11942569,0.01319258,0.2046347,0.24504565,-0.047788084,-0.19652629,0.12400371,0.1654518,-0.00970867
0.1162536,0.09379666,0.3541287,0.13448665,-0.22138709,0.01617088,0.4011612,-0.24901085,-0.27346572,0.20766956,0.40006223,-0.25193876,-0.23125389,0.22098808,0.21880588,0.39646047
0.13590086,0.0053860787,0.3087268,0.13230048,-0.053909466,-0.03042977,0.2507407,-0.2787768,-0.08713289,0.021598235,0.3591809,-0.3274142,-0.23294236,0.12671846,0.17785414,0.23658796
0.25995284,-0.10907992,0.40002272,0.07890975,-0.106871605,0.015983762,0.29435045,0.044662,0.048833158,-0.09154586,0.24191,0.14735273,0.11824633,-0.16180392,0.4000153,-0.00080273265
0.1217349,0.027062202,0.4000007,-0.10168068,-0.20160401,0.066826865,0.33577114,0.16020969,0.13427736,-0.10427347,0.18827948,0.28655186,0.32423726,-0.13532148,0.39987782,-0.07208611
-0.07717231,0.11720453,0.35602933,-0.07188449,-0.19022807,0.06693771,0.27304214,0.24777897,0.20630093,-0.04057885,0.09009966,0.25780332,0.1864017,-0.03261044,0.39996034,-0.3189572
-0.090642765,0.13123555,0.3212908,0.03946395,-0.24406342,-0.011007966,0.4000203,-0.0871387,-0.049112413,0.1529005,0.30387354,-0.017632224,-0.08337062,0.14004052,0.22980589,-0.106731355
-0.049482,0.06628713,0.35946044,0.21401688,-0.18335058,0.030532662,0.37967563,-0.43720624,-0.25242767,0.17482994,0.38860524,-0.28190473,-0.15613373,0.1850597,0.14801136,0.35000458
0.06713287,-0.028083803,0.2785924,0.1325235,-0.03367862,0.008240594,0.2897515,-0.26302752,0.06750168,-0.015983498,0.19388016,-0.15988791,-0.021333104,-0.011532503,0.23409702,0.2511864
0.19601028,-0.12672609,0.39521557,0.12216761,-0.14900978,0.048433296,0.38505772,-0.11646309,0.110744804,-0.053916484,0.25893143,-0.021925466,0.2729168,-0.17633212,0.39967784,0.09149496
-0.016145172,0.05714061,0.4000008,-0.1289681,-0.23364203,0.10471523,0.3901239,0.2284301,0.20890541,-0.08703296,0.19719197,0.31675494,0.47398716,-0.1742261,0.39746982,-0.1279061
-0.112631634,0.032204203,0.36140692,0.054730378,-0.1907562,0.06830378,0.34653604,0.33962038,0.24046625,-0.055092264,0.12855421,0.12715486,0.1649107,-0.0061279126,0.37710157,-0.20790295
-0.10737375,0.09364855,0.3331961,0.049652416,-0.2981534,0.0056018555,0.4000292,-0.2043543,-0.10928165,0.14178617,0.40009925,0.007141659,-0.04516117,0.09510029,0.189646,-0.013716851
-0.08506616,0.021566056,0.34389696,0.033656295,0.0068713585,0.022563962,0.28753582,-0.30288196,-0.08104507,0.0007536966,0.3597375,-0.279632,-0.12881006,-0.002439854,0.06588559,0.07339754
0.0891856,-0.02545991,0.3942366,0.23675981,-0.009877871,0.010166806,0.3158185,-0.23669659,0.038513415,-0.113416,0.21721451,-0.04672616,0.13680393,-0.23109978,0.31722027,0.112177946
0.15548262,0.09136299,0.40001243,-0.00021176272,-0.14167728,0.03867378,0.38503978,-0.25953543,0.14955975,-0.12279104,0.17685416,0.12920968,0.39200777,-0.22141983,0.40000233,0.029712966
-0.074680746,0.26222685,0.40000877,-0.0866935,-0.20322762,0.093694694,0.3538764,0.06753199,0.25121024,-0.118603736,0.045602918,0.40594643,0.34525153,-0.16619082,0.39997253,-0.2399202
-0.19255795,0.18660507,0.23551276,0.03534542,-0.1802279,0.016279878,0.36236277,-0.052925564,0.17932247,0.05653457,0.119512014,0.097052686,-0.031136254,0.079176724,0.28429407,-0.06981643
-0.11338559,0.14083596,0.3246,0.17863916,-0.28461945,0.028290158,0.40010303,-0.42533097,-0.12586509,0.2107033,0.40002254,-0.069329105,-0.1152612,0.17949876,0.25059763,0.35623667
-0.10527422,0.058342632,0.26794153,0.023030143,-0.044502117,0.015342455,0.31180036,-0.325365,0.019983768,0.032795146,0.32496998,-0.4084367,-0.12852621,0.078449145,0.12991476,0.24833365
0.092984095,-0.053024754,0.4000455,0.28061065,-0.046036825,0.018371295,0.3428333,-0.20895131,0.13005859,-0.0698597,0.21848989,-0.012110737,0.14399278,-0.19106753,0.40009385,0.22304738
0.10229707,0.052994907,0.3999993,-0.052757006,-0.15227002,0.037231598,0.3964436,-0.21951795,0.20954493,-0.061875284,0.19070768,0.005572299,0.3910703,-0.21442601,0.40008214,0.11784314
-0.12058865,0.14213489,0.3220588,-0.18695147,-0.18759085,0.11701418,0.35538116,0.17464979,0.2854611,-0.06746661,0.04576009,0.18059638,0.23783346,-0.13855433,0.39975727,-0.07168659
-0.11364977,0.14690718,0.25647944,0.123335846,-0.12920411,0.011429039,0.40002847,0.0067430977,0.1483781,0.06425781,0.1737822,0.06801958,-0.11217011,0.1136359,0.22574204,-0.18431988
-0.040771857,0.13445614,0.29469037,0.080319874,-0.13380253,0.06855627,0.40088582,-0.05400682,-0.19544649,0.16235451,0.4000493,-0.04184585,-0.17696497,0.14322323,0.17292117,0.1925031
-0.005253139,0.07532479,0.2879232,0.2685089,-0.0016084341,0.01844109,0.269997,-0.15578336,-0.024858229,-0.029028637,0.2832429,-0.1624131,-0.1359281,-0.026749618,0.15861946,0.008704798
0.18097071,0.049760055,0.40000638,0.111222655,-0.076171786,0.060439315,0.33504164,0.02516576,0.104130745,-0.06762759,0.20240323,0.069314025,0.25696793,-0.21648556,0.400039,0.03637314
0.020796744,0.14147274,0.38554776,-0.1441911,-0.116782926,0.05859702,0.2940038,0.102148704,0.18337494,-0.067357406,0.09674282,0.2133767,0.2994634,-0.15761901,0.39576086,0.018596591
-0.048019476,0.10403343,0.25542802,0.11142099,-0.0441493,-0.06637199,0.27568197,0.31073648,0.13177887,-0.040909346,0.11396436,0.29784352,-0.018514423,0.014279282,0.3018998,-0.25256476
0.026302513,0.0685817,0.31217527,0.21106109,-0.1785713,-0.10929363,0.4001133,-0.13651134,-0.16125351,0.1037108,0.3737539,-0.007343058,-0.12539403,0.1371438,0.23901923,0.012524157
0.087711826,0.0031834652,0.31453437,0.25614253,-0.03743865,-0.13277581,0.29067555,-0.32986858,-0.19715066,0.042049866,0.39993337,-0.3189766,-0.22760117,0.1551585,0.13467562,0.4257916
0.15541223,0.030540079,0.3372123,0.34623188,-0.0036006968,-0.085109204,0.23156588,-0.03206207,0.018059764,-0.082603395,0.1670528,-0.0838678,-0.035112746,-0.07251304,0.21050438,0.17270277
0.20603535,0.029215613,0.39953786,0.026835606,-0.12930392,-0.04147146,0.32369253,0.08630929,0.06249076,-0.14322364,0.19491632,0.12861873,0.29528984,-0.1256937,0.40002555,0.05267346
-0.044531025,0.110157974,0.40053993,-0.10596451,-0.18902835,-0.021519413,0.30854937,0.1852999,0.16016112,-0.14294057,0.08785584,0.37312263,0.33832452,-0.06725597,0.3983763,-0.12266417
-0.12708104,0.11630313,0.2857845,0.057538357,-0.2011696,-0.097890235,0.3907032,-0.08806357,-0.0070691663,0.006433572,0.19012946,0.02992756,-0.055960853,0.15897118,0.21538822,-0.108674854
-0.04983356,0.13984771,0.304285,0.031542033,-0.25661042,-0.050589304,0.39967382,-0.1360888,-0.27261946,0.12749228,0.40001494,-0.017958088,-0.14507362,0.21898343,0.15617658,0.39086664
-0.012641637,0.06265806,0.3081105,0.1153564,-0.04743086,-0.011681937,0.2598067,-0.22602668,-0.113568164,-0.024673274,0.39333853,-0.26677635,-0.19817719,0.09969003,0.08088636,0.28262493
0.15521309,-0.058672763,0.39401266,0.03783651,-0.10501827,0.039184388,0.28100923,-0.13362889,0.04929959,-0.15005831,0.27382424,-0.029135725,0.11023124,-0.19471793,0.36190304,0.06946295
0.14019686,0.03633285,0.4000004,-0.058070734,-0.22271833,0.06812461,0.3144126,-0.0023697692,0.14311676,-0.13992484,0.2759396,-0.024148077,0.36119,-0.22114158,0.39948964,0.039331317
-0.11630861,0.2036277,0.3278507,-0.11646215,-0.2490547,0.05060134,0.25659165,0.17121279,0.22680406,-0.13646078,0.13807093,0.04648945,0.159569,-0.116882175,0.39834526,-0.26984406
-0.068363644,0.10253047,0.32057083,0.19256203,-0.22624885,-0.14214048,0.39862254,0.013159171,0.046522964,-0.021326406,0.25532693,-0.06805176,-0.07191435,0.05141573,0.2999203,-0.08854377
0.0010961002,0.074060515,0.3547,0.20133305,-0.17799868,-0.056585304,0.39037138,-0.23239994,-0.24201035,0.09178816,0.39992854,-0.22005716,-0.12498142,0.08748786,0.2718774,0.27007017
0.04702069,0.011985032,0.30953708,0.28770837,-0.043367036,-0.03658488,0.28236577,-0.066956125,-0.0661913,-0.093341686,0.3007029,-0.2660404,-0.1467321,-0.05442946,0.17320289,0.27102283
0.20977287,-0.061127786,0.40006313,0.15365268,-0.074894376,-0.03258918,0.30565605,0.06370303,0.03391132,-0.14304067,0.22119597,0.034660436,0.157198,-0.2197307,0.36456037,0.19175155
0.013798753,0.11902639,0.40001523,-0.08119066,-0.20116194,0.0040693893,0.32301363,0.1714468,0.17287289,-0.13628885,0.113406055,0.16721043,0.41569456,-0.14990066,0.39885744,0.02722794
-0.11604813,0.105670854,0.28563064,0.03983554,-0.1779398,0.018816289,0.26465482,0.27018848,0.21182445,-0.1305892,0.03821918,0.20163514,0.16038238,-0.02859179,0.39782453,-0.26927075
-0.06243075,0.121804744,0.27233276,0.13427727,-0.2630564,-0.09143124,0.39862162,-0.1115918,-0.1365441,0.10970168,0.3989708,-0.09123102,-0.06776136,0.1536151,0.2613364,-0.10216313
-0.0046715653,0.07004813,0.29071197,0.13533513,-0.059755113,-0.06407011,0.3246899,-0.24186598,-0.274328,0.04509402,0.39332947,-0.25294194,-0.17323785,0.096667215,0.1601156,0.14255081
0.17785333,0.018162342,0.35621104,0.18514977,0.039092544,-0.10522772,0.23691599,-0.2374355,0.0066015935,-0.030658122,0.22448829,-0.21847187,0.029877672,-0.14884761,0.255493,0.08476413
0.15710016,0.042761993,0.40000328,-0.14703977,-0.11465537,-0.025025431,0.32279098,-0.030309953,0.12741494,-0.056387134,0.1838071,0.0320848,0.3382567,-0.14714621,0.4000084,0.0027739047
-0.08518241,0.114528455,0.38415918,-0.30023456,-0.16257684,0.0069583594,0.30522215,0.1833206,0.21446307,-0.04731607,0.0653264,-0.041390486,0.3059797,-0.086536154,0.40010184,-0.058243677
-0.15074699,0.1053411,0.2811161,0.16244546,-0.18656397,-0.07184915,0.4000004,-0.113811105,0.048038375,0.053738385,0.21160279,-0.07349223,-0.059582677,0.13991618,0.26108345,-0.019508341
-0.1004863,0.07437955,0.32186764,0.25017127,-0.07480109,-0.059405133,0.36138898,-0.18893929,-0.19927922,0.09649624,0.39722735,-0.17227298,-0.121372305,0.1751616,0.18222746,0.3589449
0.00600006,-0.0372924,0.31322455,0.20571752,0.048310194,-0.07351575,0.25569466,-0.08349899,0.044979498,-0.0828319,0.20518197,0.0065298732,0.010482745,-0.033784106,0.23162587,0.116164915
0.18897185,-0.12886536,0.39954016,0.18985638,-0.054162998,-0.060258847,0.31889245,0.003995652,0.13546075,-0.16116059,0.20375773,0.42039433,0.41241142,-0.15554243,0.40003136,-0.13198006
-0.012700487,0.06116264,0.4000399,-0.11608132,-0.12523903,0.0051612817,0.33920693,0.23254906,0.22688335,-0.13130908,0.10330697,0.42047945,0.40700233,-0.09313491,0.3989535,-0.1482868
-0.10880711,0.08363209,0.32063332,0.028145948,-0.13492414,-0.028068611,0.36594203,0.16145451,0.22396654,-0.02019552,0.07258408,0.38695806,0.11718627,0.07387086,0.37820822,-0.21873434
-0.08698041,0.11302148,0.34561294,0.00031011575,-0.290898,0.007053118,0.40003425,-0.09121637,-0.14382742,0.13590954,0.4000837,-0.0598287,-0.058559507,0.17179586,0.21091703,0.19867396
-0.031738527,0.0933273,0.36487678,0.02749563,-0.18529512,0.08936782,0.39998725,-0.16046427,-0.37349284,0.100526325,0.40001777,-0.1364586,-0.13886808,0.185644,0.13242409,0.4961603
0.07627629,0.10763043,0.3346042,0.22347939,-0.010209791,0.038539976,0.1833431,-0.12336524,-0.037222654,-0.038009442,0.20763686,4.6697256e-05,-0.04282091,-0.0746687,0.28611702,0.16737992
0.20628263,0.08958539,0.4000111,0.09656711,-0.17283776,0.054150745,0.29236785,-0.19696596,0.012239427,-0.06345693,0.28444034,-0.020082299,0.22642373,-0.23523986,0.3990944,0.07127615
-0.0007813356,0.22402807,0.40002087,-0.11696815,-0.30678323,0.11752126,0.29644993,0.0927364,0.16566671,-0.06761136,0.20393895,0.26461816,0.40829122,-0.18442148,0.39682004,-0.0012987596
-0.11610465,0.17187653,0.29225785,-0.11460447,-0.22548339,0.04540285,0.26353025,0.17153837,0.15533671,-0.072593674,0.14138621,0.015455478,0.11503573,-0.015956702,0.36980247,-0.18470258
-0.052762188,0.1301542,0.3294816,0.2308176,-0.26008642,-0.008465626,0.39506418,-0.2672172,-0.095191054,0.13269778,0.39627954,-0.20860682,-0.022752443,0.10743497,0.2232014,0.30111355
-0.024472794,0.053612076,0.33836645,0.2713767,-0.0118713295,-0.02802685,0.3425831,-0.36140752,-0.2576463,0.103109516,0.39922258,-0.333822,-0.09667195,0.04384807,0.12559393,0.30166185
0.15747818,-0.038100302,0.36869666,0.04063748,0.03368706,-0.034399327,0.2841682,-0.082209006,0.0018563739,-0.061989468,0.2355636,-0.17487222,0.090438664,-0.22884114,0.28939968,0.3179773
0.12887385,0.08919819,0.3997952,-0.12236686,-0.11229169,0.028056739,0.3186117,0.1596533,0.14082786,-0.09988382,0.18470776,0.1840719,0.37221587,-0.14884989,0.4000151,0.021985533
-0.11460006,0.20263298,0.3234029,-0.18606438,-0.12783188,0.0008756585,0.26154524,0.22532102,0.2356433,-0.07807351,0.0589465,0.0404108,0.15959363,-0.03877634,0.39956853,-0.2320753
-0.006329403,0.11545907,0.28637403,0.033308595,-0.18700814,-0.1222549,0.4000059,-0.1894241,-0.06838498,0.059167024,0.39097375,-0.08519345,-0.113562055,0.12386909,0.26716772,0.045478154
0.06145147,0.043295983,0.33819395,0.23012409,-0.007829619,-0.07686177,0.2999159,-0.24274656,-0.22293873,-0.016686395,0.3908823,-0.30115926,-0.17449205,0.1102055,0.19025578,0.15543997
0.14980765,-0.011414081,0.31142727,0.267746,0.037260663,-0.06064606,0.21256045,-0.048344813,-0.0200596,-0.14283675,0.28834397,-0.065515004,0.0033302763,-0.1235621,0.30599657,0.26468292
0.19827655,0.047335435,0.4000237,-0.037037678,-0.103747085,-0.016338365,0.2624524,0.15664583,0.100018285,-0.1371127,0.2494194,0.004274411,0.30994844,-0.21065862,0.40007973,0.0118095
-0.04523526,0.13930896,0.3996916,-0.12933423,-0.16388378,-0.0066675483,0.23424235,0.29539832,0.20078358,-0.14230588,0.11871482,0.2176421,0.26756677,-0.14327809,0.3994824,-0.18613178
-0.12285035,0.13192517,0.24211015,0.03183793,-0.12385074,-0.1239353,0.27962098,0.06828206,0.10337987,-0.027008118,0.19995764,0.10459233,-0.05760374,0.076518506,0.27782863,-0.14872994
-0.014048855,0.11693954,0.34853658,0.07018819,-0.19103086,-0.05374727,0.4000228,-0.328613,-0.28770468,0.15132776,0.39995366,-0.06651174,-0.15056887,0.1457394,0.22192694,0.274002
0.006527116,-0.00249959,0.3589877,0.119760044,-0.0077965017,-0.007380541,0.25659445,-0.19973733,-0.15803923,0.021358946,0.38109,-0.36594146,-0.18641773,0.017682193,0.08999208,0.17592871
0.17059475,-0.078830965,0.34804246,0.3130502,-0.03456656,-0.048419878,0.28423512,-0.15746795,-0.014053904,-0.04707182,0.19055595,-0.1525555,0.053415775,-0.22205533,0.3394282,0.17954
0.20651667,-0.1072159,0.39999986,0.12230118,-0.12915872,-0.013206304,0.33032343,-0.024960753,0.050404903,-0.073150165,0.20564364,0.059623834,0.3175095,-0.27844465,0.40001762,0.093394965
-0.012881091,0.02836927,0.4000411,-0.1432114,-0.2285226,0.010970756,0.31201866,0.20636587,0.2101148,-0.065902926,0.048222534,0.07958074,0.3908625,-0.19772871,0.39998657,0.01679378
-0.16465935,0.05980522,0.24818784,0.030380223,-0.17396054,0.011698603,0.25429747,0.25876966,0.21384941,-0.06848455,-0.020856328,0.14692369,0.07091392,-0.038433846,0.39843524,-0.25989276
-0.08400228,0.03322996,0.302575,0.23771152,-0.24506047,-0.04741191,0.38834777,-0.10747666,-0.050160974,0.14974941,0.298851,-0.15196876,-0.08768674,0.11506946,0.29798654,-0.059508223
-0.029935949,-0.045873724,0.3273397,0.36771098,-0.04850744,-0.08304601,0.2904062,-0.2974913,-0.1641053,0.021772476,0.39934155,-0.2306203,-0.16529712,0.105051905,0.2033817,0.22082606
0.07399502,-0.0740866,0.31544226,0.17116383,-0.005946457,-0.08874727,0.25372484,-0.0926361,0.06369914,-0.13953447,0.15417674,-0.075398535,0.051826302,-0.12026361,0.26400486,0.0533901
0.108516745,-0.055709094,0.40000483,-0.04320343,-0.1296347,-0.02662374,0.33347583,0.13492818,0.13730438,-0.16356552,0.14630178,0.14949407,0.40323776,-0.17642818,0.40011787,0.0048168898
-0.10527567,0.08497305,0.4000054,-0.124642946,-0.18376805,0.011478643,0.3342166,0.3195526,0.23142111,-0.15718666,0.02074403,0.30125156,0.35698992,-0.1001079,0.40013355,-0.11236094
-0.16488352,0.068556614,0.30765018,0.1373464,-0.19138978,-0.058895856,0.34212834,0.33866814,0.18437581,-0.036944814,0.05316029,0.06537266,0.036147755,0.11571868,0.34120902,-0.19647817
-0.12902103,0.07194384,0.33119902,0.15964293,-0.27176726,-0.07513165,0.39402935,-0.21443476,-0.093771644,0.09422038,0.3981372,-0.006523458,-0.1014515,0.13734443,0.23585081,-0.036637653
-0.11020025,-0.012023224,0.32919192,0.23492289,-0.014312075,-0.006967754,0.25911582,-0.2631661,-0.061116405,-0.046760134,0.39203054,-0.22689797,-0.17058697,0.032705974,0.11127868,0.02015183
0.13388626,-0.07970758,0.40001366,0.17351393,-0.06784997,0.005324522,0.30160436,-0.07303114,0.10472395,-0.09930421,0.26572007,-0.22633348,0.15941735,-0.264582,0.39164618,0.024119504
0.17684865,0.03323129,0.39894983,0.07252112,-0.16047376,0.03989686,0.3432176,0.13767964,0.16565683,-0.15259637,0.2784795,0.10339462,0.41383985,-0.2710954,0.40000495,-0.119134426
-0.06915769,0.16330974,0.37238067,-0.09445582,-0.20489591,0.06360708,0.3429025,0.22491695,0.24086879,-0.15857427,0.15251367,0.32755035,0.30996126,-0.18054782,0.39703664,-0.25500748
-0.12410456,0.13109195,0.24020556,0.026860397,-0.15280494,-0.051693376,0.3677154,-0.043474816,0.15805966,-0.09827218,0.21057852,0.047192324,-0.039179895,0.07110357,0.26401564,-0.25368503
-0.031648546,0.062172342,0.32905063,0.3427804,-0.18522757,-0.02806525,0.40006372,-0.41909537,-0.16927305,0.11116384,0.4001317,-0.3121534,-0.12065121,0.16300811,0.22668128,0.3213392
0.017026829,0.022633007,0.2752707,0.29758972,-0.012560276,-0.043696698,0.2849602,-0.32882008,0.045004725,-0.045581583,0.26595056,-0.3104508,-0.07682226,0.014820465,0.24960262,0.34591112
0.18010813,-0.120808765,0.40001526,0.20431447,-0.07609686,-0.041756704,0.3459281,-0.31078556,0.11485415,-0.08189988,0.24203713,-0.1678834,0.24395108,-0.20650145,0.4000901,0.19319469
0.0071363617,0.0499147,0.40000835,-0.072655626,-0.19506519,0.029853811,0.3561808,-0.0021827603,0.24663939,-0.09299195,0.13297813,0.119326696,0.46732795,-0.14494859,0.39992037,-0.064265445
-0.16471551,0.12124982,0.28105184,-0.12498433,-0.1694409,0.05003198,0.30746338,0.12846515,0.309911,-0.04794561,0.045377944,0.24880657,0.15698077,-0.015718782,0.4000169,-0.25020412
-0.102174334,0.088551454,0.34694925,0.17974849,-0.27017725,0.017358487,0.40006426,-0.31986237,-0.03546793,0.1541903,0.40005034,-0.10466231,-0.047375254,0.1455136,0.2274275,0.16488005
-0.10901164,0.053011183,0.3362071,0.19365413,-0.04038343,0.010970057,0.33406758,-0.43075323,-0.07794096,0.038277823,0.40029404,-0.26604563,-0.1085577,0.0799746,0.13944958,0.38512477
0.07988298,-0.028798008,0.36168692,0.011397625,-0.023930337,0.02529928,0.30649278,-0.09735131,0.122851916,-0.13060424,0.25944692,0.01689697,0.13598731,-0.23382299,0.34140933,0.08182006
0.13576142,0.0032014628,0.40001372,-0.021488871,-0.11139364,0.06093188,0.34852844,0.081967086,0.17759082,-0.11978517,0.25651082,0.02813687,0.40216097,-0.2705725,0.40009204,-0.060574394
-0.12861435,0.11936197,0.29870993,-0.053651296,-0.14713626,0.12214334,0.33281848,0.22854611,0.24727403,-0.14655742,0.110769674,0.14445983,0.21484394,-0.13529313,0.39762026,-0.17284691
-0.116999194,0.1327495,0.2939067,0.2066953,-0.18075073,-0.043854415,0.39893648,-0.13679256,0.022102272,0.025273755,0.2913128,-0.06772072,-0.046361398,0.07252495,0.23317017,0.10428502
-0.05436699,0.12017158,0.34090003,0.16585928,-0.1901545,0.014622696,0.40068242,-0.26407152,-0.23935522,0.14071769,0.4000849,-0.22205448,-0.10014762,0.094558224,0.18548168,0.3362165
-0.0068665827,0.051655985,0.2870682,0.25773162,-0.008583432,0.020535897,0.28059337,-0.20274143,-0.07946512,-0.06767293,0.26975113,-0.2753229,-0.087969474,-0.04940409,0.16671823,0.05611662
0.17642991,-0.011123605,0.40003777,0.09173096,-0.07806395,0.04075476,0.32666233,-0.00501842,0.03691306,-0.14680077,0.20537348,0.0164041,0.23269016,-0.25450045,0.40145394,0.10497894
0.060713876,0.17053786,0.40001458,-0.05902053,-0.19134967,0.052184176,0.34133852,0.10725363,0.16302139,-0.08847399,0.11554638,0.03862713,0.3920743,-0.21724455,0.3975972,0.029370086
-0.12613986,0.14091404,0.21778394,0.048041854,-0.15687351,0.008822052,0.30925578,0.052343473,0.16764817,0.01180733,0.100609325,0.13422552,0.08170879,-0.046854943,0.33549502,-0.07006975
-0.0017965798,0.12243355,0.31310317,0.02921545,-0.2753661,-0.032824967,0.40004665,-0.27035213,-0.09342182,0.21203437,0.39126804,-0.21990614,-0.09202384,0.08447629,0.23458298,0.2828017
0.04240984,0.06357679,0.3246957,0.18011287,-0.1321559,-0.025227142,0.40010443,-0.34046462,-0.29704732,0.19611283,0.39987397,-0.16870902,-0.1273025,0.0930172,0.18840674,0.41470823
0.13744646,0.04800802,0.2778371,0.20534009,-0.0026533245,-0.037068114,0.2745218,-0.14315563,-0.0268282,0.0050546764,0.17615256,-0.13790996,0.025271386,-0.15277225,0.26146343,0.1372521
0.2308329,0.020625884,0.40000346,-0.042705912,-0.1280878,-0.009592061,0.35927504,-0.18973005,0.041783515,-0.024756217,0.18433446,0.007867922,0.3246414,-0.13754518,0.39999625,0.12158801
-0.106546976,0.1562191,0.4012535,-0.05613095,-0.17273061,0.0477882,0.31502736,0.18786648,0.13674745,-0.06166002,0.035251576,0.2781028,0.19324854,-0.043494258,0.3999984,-0.19981378
-0.10863662,0.12735488,0.31808123,0.07301836,-0.1982126,-0.012359202,0.40002277,-0.18016782,-0.011043537,0.19699089,0.2594491,0.012606038,-0.043853868,0.10677418,0.28836924,0.112675324
-0.02682286,0.10951011,0.36587456,0.038914137,-0.19883125,0.028579835,0.3999962,-0.22927326,-0.26587418,0.21166833,0.39808154,-0.10589407,-0.12597927,0.15541902,0.22167286,0.5190416
0.0075893546,0.04602558,0.33530176,0.11997354,0.05067221,-0.015991172,0.27054918,-0.23007512,-0.054878607,-0.018826222,0.27198285,-0.20667735,-0.095754474,-0.071328126,0.23133135,0.26814514
0.19091715,-0.07451194,0.39658067,0.017912056,-0.059843414,0.032296143,0.35935983,-0.17537062,0.04417467,-0.07719896,0.24445903,0.052084707,0.23132186,-0.22469284,0.3993769,0.17988113
0.0660847,0.13186884,0.3989695,-0.1849344,-0.13446426,0.025920523,0.3463839,-0.1786627,0.16217075,-0.102314405,0.1465358,0.3962701,0.35767573,-0.1574795,0.3995326,-0.004983313
-0.1480057,0.1624561,0.28931996,-0.11576281,-0.15260978,0.08397126,0.3058717,0.14146324,0.25618118,-0.006045328,0.044305287,0.05575916,0.14051278,-0.032177653,0.39824945,-0.1643094
-0.07606077,0.12754512,0.32645604,0.106979534,-0.232167,-0.01710987,0.40003985,-0.2534445,-0.05937723,0.221199,0.35443553,0.032028396,-0.11492974,0.16953585,0.26328182,0.17004558
-0.019188274,0.07956657,0.37226135,0.085682414,-0.14432612,0.071707465,0.39012167,-0.36641517,-0.32716325,0.24657322,0.3999309,-0.14969347,-0.19022176,0.17849788,0.16328497,0.43295562
-0.004141056,-0.019649198,0.36658597,0.27841815,0.013307004,0.027427034,0.2710288,-0.29841977,-0.10408995,0.06690957,0.30420178,-0.2786176,-0.18002874,0.011402839,0.11223278,0.2190484
0.1817939,-0.101016365,0.40006,0.095274486,-0.022973722,0.024726622,0.3072088,-0.18469056,0.022660306,-0.027922388,0.20572658,0.048028402,0.11929578,-0.2051068,0.3756513,0.20216917
0.09692498,0.08288149,0.4000155,-0.11216623,-0.17844865,0.08731554,0.3645508,-0.0056067933,0.16456446,-0.014741948,0.12803493,0.25430351,0.38134015,-0.15559198,0.39822078,0.04230424
-0.11531005,0.11982557,0.29126543,-0.10199376,-0.1495635,0.101511054,0.3109199,0.123134136,0.20235634,0.018361948,0.06459396,0.27012402,0.1794958,-0.025500951,0.39157006,-0.23267373
-0.061103556,0.118904546,0.3241677,0.029616844,-0.23213413,-0.0075610406,0.40003234,-0.055369742,-0.061509468,0.20581688,0.33256823,0.07328209,-0.048014525,0.13820535,0.26185837,-0.13339753
-0.0054992875,0.060156904,0.3612499,0.16040735,-0.18290144,0.051399548,0.40127596,-0.16456468,-0.27132624,0.18375172,0.3917211,-0.13724254,-0.12860449,0.16531761,0.16390763,0.20128262
0.0884658,-0.01658654,0.296229,0.35607758,-0.01765594,0.053306818,0.306492,-0.10680556,0.008130502,-0.010357468,0.17675418,-0.22304331,-0.043380722,-0.07369226,0.2305333,0.029749637
0.2188206,-0.05416568,0.40000868,0.013885583,-0.10903528,0.057004984,0.37511882,-0.06526622,0.030403502,-0.034802742,0.27064365,-0.043212086,0.23195267,-0.21412726,0.40011212,0.03488496
0.0786489,0.12193726,0.3991055,-0.13956596,-0.18162864,0.075781584,0.3684579,0.075998515,0.13416669,-0.044249613,0.20010634,0.22320612,0.39236876,-0.14279743,0.39886022,-0.082215354
-0.18130288,0.16650912,0.23282088,-0.08389068,-0.15012553,0.10323579,0.28744784,0.30574805,0.17485352,-0.049800023,0.0664613,0.21469754,0.18499118,-0.032838117,0.399989,-0.2062918
-0.09433074,0.14689979,0.27213234,0.09856344,-0.2132504,-0.079587,0.40002742,-0.09750418,-0.029590538,0.14966473,0.306722,0.0012236625,-0.05948765,0.12959749,0.2706916,-0.13644904
-0.0164604,0.06360166,0.3091134,0.1976561,-0.045813054,-0.06866587,0.31259048,-0.2673207,-0.15592177,0.10586677,0.39986938,-0.28063297,-0.17532885,0.12574163,0.14215794,0.254798
0.084452264,0.024940478,0.34328443,0.25784776,-0.018750902,-0.0010944862,0.25048473,-0.07959663,0.04212742,-0.07440849,0.24213244,0.021752097,0.04022872,-0.09715001,0.25810227,0.0018896224
0.16740431,0.061092936,0.40000317,-0.0029881299,-0.16524428,0.05716385,0.32872814,0.09978343,0.1584915,-0.07940701,0.20419875,0.30490524,0.38112268,-0.16691582,0.40009165,-0.012957187
-0.057656877,0.16354133,0.3709885,-0.07849207,-0.2052908,0.062688306,0.2946598,0.27925062,0.22421575,-0.0814853,0.10356278,0.25662678,0.31203446,-0.11227234,0.39794528,-0.1157926
-0.07544629,0.13081218,0.25313514,0.15829867,-0.13830027,-0.0649372,0.37389573,-0.103060946,0.05417676,0.097115144,0.20589282,-0.018098244,-0.050352097,0.17963345,0.2807653,-0.026750714
0.009307499,0.10501588,0.30674708,0.18648171,-0.21701553,-0.09067679,0.4000967,-0.27841073,-0.23375581,0.17157897,0.39901918,-0.020813698,-0.13385247,0.18560691,0.23657338,0.21069391
0.03359379,0.005875508,0.27091122,0.27584332,-0.0154101765,-0.09039885,0.22587636,-0.1475579,-0.046742406,0.0070147794,0.32674658,-0.28579298,-0.16035987,0.031301398,0.16522439,0.042023126
0.18575661,-0.084729895,0.3998946,0.15136862,-0.044172127,-0.09129793,0.26127535,-0.047200557,0.07126121,-0.07793196,0.21147843,0.020146735,0.13791816,-0.17319612,0.33963993,0.02724317
0.03979613,0.0817337,0.40002164,-0.12400798,-0.16354418,-0.013439984,0.31407106,0.2165272,0.19393021,-0.1118845,0.1134865,0.3803317,0.39439833,-0.08399733,0.39998576,-0.030644508
-0.12923306,0.151047,0.2991859,-0.090841584,-0.14998154,0.016421849,0.28422865,0.3254404,0.26570892,-0.012351234,0.046409696,0.34873134,0.19725753,0.011886443,0.3991024,-0.3543631
-0.074815154,0.12555319,0.37905926,0.06904467,-0.28286856,-0.0022160602,0.4000992,-0.12776746,-0.0705621,0.21637318,0.33838224,-0.009650301,-0.06396369,0.25595483,0.29804,0.00053296424
-0.034627955,0.10722006,0.3987749,0.1902798,-0.21622738,0.08672707,0.38310224,-0.35205105,-0.2698293,0.20445448,0.3920335,-0.19542047,-0.12756747,0.30133882,0.26475033,0.49881735
0.022945082,0.044224992,0.34363383,0.28617632,-0.022575133,0.061771035,0.26303864,-0.21300617,0.026391508,0.0066907066,0.19533192,-0.23951618,-0.023023317,0.08196556,0.26655847,0.15860698
0.14411797,0.0098764235,0.40001437,-0.0014511043,-0.098321214,0.118280806,0.3102433,0.094613545,0.0978717,-0.04290729,0.18888284,0.0808018,0.2921447,-0.16862571,0.40008932,0.062347095
-0.06368498,0.10752325,0.40003118,-0.15955772,-0.17762987,0.15019174,0.3012684,0.31591502,0.18509826,-0.093986735,0.1142391,0.38691032,0.34026802,-0.13690491,0.39837715,-0.015635101
-0.1514709,0.1456699,0.30258188,-0.0072456338,-0.1357826,0.054831035,0.30281195,0.37586966,0.15892054,-0.054009523,0.07440595,0.17410289,0.037484504,0.022403276,0.34293354,-0.2668649
-0.110864885,0.13977416,0.3456217,0.08605435,-0.2667404,0.043065608,0.39806828,-0.15370578,-0.2300838,0.17902479,0.3987229,-0.0747207,-0.114482716,0.16868752,0.21690097,0.28131157
-0.11053228,0.072907224,0.34049797,0.17632204,-0.06812087,0.08089711,0.267484,-0.36346623,-0.14340855,0.045388043,0.396726,-0.5144703,-0.16418378,0.06663181,0.15640782,0.14991197
0.122091055,-0.068378575,0.38681442,0.22398372,-0.078937486,0.06520623,0.2904791,-0.2520736,0.045582954,-0.1084896,0.25047854,0.029298317,0.15683949,-0.1733961,0.34845838,0.17821969
0.17448655,-0.05034468,0.400012,0.0527539,-0.19370443,0.091874376,0.34455833,-0.17328091,0.11769072,-0.16384551,0.29610255,0.43702793,0.42188057,-0.22113007,0.3997029,-0.06756006
-0.043101676,0.05277728,0.4000318,-0.07416916,-0.2513148,0.14182118,0.3217141,0.07912102,0.19995761,-0.13508828,0.19251035,0.15162665,0.39835536,-0.1427552,0.40001103,-0.1219263
-0.10241877,0.08592147,0.31524515,-0.087737195,-0.14716418,0.07103921,0.3151754,0.11341528,0.20986429,-0.107717104,0.141486,0.064106055,0.1020982,0.024925487,0.36231074,-0.13842054
-0.036481097,0.06076819,0.34125888,0.03295628,-0.17162496,-0.012153105,0.40002087,-0.34006515,-0.15959115,0.06599695,0.40000036,-0.20993493,-0.09034137,0.081781514,0.18383467,0.22306445
0.004003545,0.005273939,0.3662394,0.2485513,0.07180816,-0.036734827,0.27992338,-0.28374496,-0.12978175,-0.055823565,0.39965355,-0.3696806,-0.15029827,0.028699547,0.11804071,0.44132033
0.22770941,-0.008315236,0.4000519,0.04445318,-0.046255004,-0.0016281134,0.32699248,-0.0918844,0.054675296,-0.12790886,0.30315492,-0.12481246,0.17617837,-0.1765196,0.39652133,0.2511895
0.13062564,0.036310147,0.4000191,-0.1370848,-0.14683689,0.07007333,0.3302377,0.27173644,0.17071348,-0.1299059,0.24844085,0.05308245,0.4047565,-0.13878927,0.40004528,0.014140165
-0.118232675,0.12280579,0.24965988,-0.06608017,-0.122497156,0.02799046,0.29711208,0.06274639,0.2081223,-0.13123277,0.12046864,0.16817398,0.15488537,-0.03298938,0.3974215,-0.24640393
-0.020868689,0.052244168,0.30442387,0.21801929,-0.15827145,-0.14338613,0.4000962,-0.07900298,0.015441672,0.06468617,0.2678543,-0.08687993,-0.087937005,0.11899212,0.26939222,-0.13126247
0.030280298,0.0119143715,0.33769932,0.3002835,-0.11570282,-0.08375088,0.37941125,-0.41817522,-0.21647848,0.14208452,0.3963614,-0.31683746,-0.14027649,0.19172652,0.22872624,0.32651865
0.10079889,-0.067213096,0.38680527,0.28086796,-0.003307259,-0.03841248,0.35752085,-0.10465412,0.03707448,-0.098722525,0.21046333,0.024092367,-0.019997152,-0.013882632,0.25575155,0.19970019
0.15934016,0.0015066834,0.39948604,-0.0139594255,-0.043662593,-0.011055208,0.40572628,0.13038273,0.095411606,-0.15319353,0.1998725,0.49149883,0.37601808,-0.13891481,0.39993128,0.022538813
-0.03731197,0.13010624,0.4000359,-0.124240555,-0.060501877,-0.020954354,0.35612118,0.20193839,0.18194756,-0.13609539,0.06313143,0.39899015,0.390136,-0.07457928,0.3992681,-0.0899537
-0.13648091,0.13029021,0.27312046,0.05219104,-0.054936137,-0.061371744,0.30512258,0.18687746,0.18186302,-0.03558224,0.015070928,0.14329956,0.059902165,0.10803809,0.39270112,-0.27166042
-0.09662884,0.12593453,0.28140676,0.10293192,-0.17658904,-0.084971435,0.40004203,-0.046518527,-0.1339658,0.1550215,0.3365482,-0.013098298,-0.10703337,0.17032237,0.2770858,-0.21070173
-0.0025524043,0.079233155,0.3132753,0.15955386,-0.060396105,-0.05128716,0.3007193,-0.24404594,-0.23927754,0.06507612,0.3987,-0.20866522,-0.22919983,0.117066234,0.16944516,-0.004763022
0.13632178,0.0071922974,0.3611699,0.1885727,-0.018101895,-0.01278126,0.25802997,-0.12043843,0.02291429,-0.052530967,0.14470895,-0.051320672,0.015740816,-0.098003775,0.30079263,0.08455747
0.2062783,0.04241461,0.40001494,0.09745591,-0.1600844,0.055853244,0.3461292,0.018699227,0.089073926,-0.103462026,0.19762094,0.13136685,0.3191699,-0.15595709,0.39888212,0.008280525
-0.02335023,0.22469379,0.3976598,-0.07235083,-0.21423571,0.06474945,0.3172153,0.19192113,0.19131704,-0.09743433,0.07457463,0.31458735,0.34503728,-0.10757166,0.39997983,-0.20213228
-0.13439454,0.1915421,0.26218924,0.14687915,-0.1978547,-0.065436855,0.36531788,-0.1729123,0.11585937,0.026931025,0.11932522,0.093578465,-0.04368949,0.095310226,0.23731603,-0.17294301
-0.053378582,0.1852094,0.3272409,0.10440268,-0.24782644,-0.00090292166,0.399775,-0.19261095,-0.12776107,0.09754306,0.3999967,-0.036021505,-0.09311535,0.17389497,0.2380041,0.31398982
-0.029080305,0.16060357,0.33690715,0.06290504,-0.05438179,0.005252353,0.35513568,-0.2885918,-0.28949878,0.033701446,0.39951646,-0.19321866,-0.14212231,0.17067364,0.18636242,0.32062516
0.10744794,0.03499046,0.3247053,0.35428694,0.01785617,-0.0028346546,0.304554,-0.10692919,-0.023551835,-0.08465975,0.19928493,-0.06453611,-0.024468388,-0.061491936,0.23893696,0.17616275
0.21653895,-0.00096266397,0.4000419,-0.00026489832,-0.0742304,0.020352587,0.35442778,0.07541528,0.037555814,-0.11876087,0.23693873,0.38563737,0.32601434,-0.1660356,0.39886823,0.08040322
0.0027477127,0.12466292,0.40006927,-0.19821341,-0.13887511,0.04224335,0.34867465,0.21456923,0.1408953,-0.09643575,0.11570831,0.26543993,0.35296816,-0.11323748,0.39992243,-0.18654537
-0.1319997,0.14698198,0.25778252,-0.11741526,-0.115109615,0.009515048,0.3237073,0.054564673,0.12742926,-0.019601537,0.08620607,0.104527965,0.04400993,0.03382092,0.35364413,-0.204656
-0.021103568,0.106649704,0.33065253,0.11703952,-0.2258864,-0.006434115,0.4000003,-0.21322502,-0.18544713,0.2125522,0.4000434,-0.09094125,-0.13294101,0.14178579,0.22922508,0.18353368
0.023315372,0.03853642,0.36027944,0.2036664,-0.046285674,-0.014026766,0.38281384,-0.17834783,-0.32598117,0.16096388,0.3990382,-0.20977005,-0.20060366,0.13754855,0.13479011,0.36781937
0.1605236,-0.05466215,0.35609725,0.15429406,0.070722684,-0.028665973,0.26896945,-0.14285088,-0.029722176,-0.04567545,0.20074244,0.018244918,-0.023459468,-0.17550239,0.3240047,0.13880607
0.21616267,-0.045380324,0.40000278,0.019152297,-0.049526818,0.034253765,0.3457611,-0.0012113501,0.040390447,-0.04556216,0.17792624,0.012022187,0.23802443,-0.15321521,0.40001073,0.053651355
0.032933604,0.107194,0.39389116,-0.18418013,-0.13775715,0.056644376,0.34078205,0.15443388,0.16271465,-0.04837199,0.065538295,0.13307704,0.35911614,-0.101728074,0.3928508,-0.1378646
-0.15593265,0.12137136,0.2805935,-0.08155348,-0.10408707,0.013110918,0.30983746,0.3746401,0.14292812,0.01565999,-0.016881522,0.41731942,0.023391288,0.09869487,0.3697875,-0.21114016
-0.060017314,0.11355029,0.33571228,0.1293271,-0.19582534,-0.06268282,0.400095,-0.102213204,-0.10778441,0.15719913,0.2951421,0.13760003,-0.13524938,0.19607352,0.26584664,-0.050144084
-0.019885067,0.098681554,0.33211353,0.123134434,-0.14725517,-0.040149875,0.40005407,-0.2661889,-0.3180322,0.15492137,0.40001866,-0.12233757,-0.22868837,0.19341284,0.14408307,0.29568657
0.035195537,0.090812616,0.3124757,0.20457348,0.017157853,-0.014861433,0.13523892,-0.13728325,-0.017687075,0.0048477054,0.2511402,-0.10543406,-0.12413184,-0.029303953,0.22022979,0.0203071
0.22470106,0.035223667,0.39948657,0.18263642,-0.15600368,0.01666449,0.2876484,-0.16700129,0.05577543,-0.053929523,0.27269918,-0.015128144,0.23394139,-0.25066367,0.40005496,-0.03852465
0.072299935,0.12637408,0.4000538,-0.09338007,-0.2554845,0.065623775,0.30241993,0.026807291,0.16229676,-0.07197993,0.2151447,0.31238404,0.42327365,-0.1829469,0.40001634,-0.114197746
-0.08836819,0.13871302,0.29098508,0.044025224,-0.22009304,0.07750958,0.2579473,0.3278102,0.20049866,-0.04948195,0.14922863,0.080951564,0.1594011,-0.011489758,0.3964671,-0.1497191
-0.009908287,0.111813195,0.31368718,0.20176645,-0.2701173,-0.049286976,0.3917019,-0.2437598,-0.06364528,0.11744529,0.3941492,-0.14859541,-0.06551566,0.10067648,0.25700557,0.043656953
0.016954532,0.069333024,0.30549222,0.17132905,-0.08515665,-0.070103176,0.3215031,-0.39719903,-0.1913599,0.07126187,0.39954326,-0.35457462,-0.16961285,0.08514158,0.13352135,0.29112768
0.1260921,0.0077902074,0.31857392,0.16614477,-0.052529346,-0.010139495,0.26993307,-0.10361688,0.023290133,-0.071467996,0.22813587,-0.01207198,0.028288063,-0.13132933,0.22347172,0.20581548
0.12512478,-0.036965482,0.40000352,-0.045677356,-0.21719348,0.079877906,0.35143086,0.16380744,0.13895898,-0.06391429,0.2004752,-0.015155525,0.35517758,-0.15162724,0.399361,0.09533298
-0.10117027,0.07884837,0.40000394,-0.058065824,-0.25510263,0.081647426,0.31830266,0.26182875,0.20733532,-0.09523221,0.091340296,0.29139856,0.359036,-0.08846046,0.40003496,-0.1004463
-0.1436872,0.09551812,0.31556764,-0.026160967,-0.22570579,-0.05501376,0.34537864,-0.014290949,0.14154322,0.037957452,0.16132289,0.05022975,0.029767115,0.09441242,0.31229684,-0.12106112
-0.094080366,0.04676432,0.3844846,0.14453071,-0.19065237,0.039239984,0.4000332,-0.27718845,-0.24148424,0.17014019,0.39999038,-0.16654645,-0.08127749,0.14550611,0.19204222,0.38547564
-0.07918152,-0.008366629,0.38684204,0.28374276,0.011079813,0.0046488424,0.2985727,-0.35653752,-0.10780676,0.02937818,0.3875188,-0.41743317,-0.13329278,0.05053933,0.096817,0.39910692
0.17253758,-0.10563763,0.4000415,0.12995544,-0.03362413,0.01645611,0.29821706,-0.15930559,0.06265319,-0.07906213,0.26553172,-0.08772882,0.2188045,-0.2380552,0.4001626,0.22084731
0.1905771,0.01649779,0.3987447,0.09221741,-0.13689312,0.04756781,0.3470991,-0.07217137,0.14070925,-0.09371644,0.26856586,0.051978122,0.41241935,-0.26052415,0.39993653,-0.010064435
-0.05019633,0.17629915,0.40000603,-0.110339016,-0.19924283,0.079315044,0.33256263,0.1525381,0.21607006,-0.09162379,0.14243576,0.1992276,0.30101773,-0.16760029,0.3975211,-0.08352768
-0.094601914,0.14229381,0.23747124,0.089561105,-0.16033691,-0.053665075,0.37235162,-0.18872993,0.10190016,0.08456036,0.2310543,-0.17295548,-0.0294424,0.03744693,0.26127538,-0.013546377
0.017290581,0.08425953,0.3247606,0.24275135,-0.16786712,0.012425157,0.40096742,-0.38238472,-0.19551772,0.19474895,0.39842373,-0.27597544,-0.07863888,0.13312685,0.24586673,0.5049741
0.057012454,0.013855771,0.31308982,0.32026583,0.026464595,-0.077919185,0.30158213,-0.3626611,-0.2099198,0.05483791,0.3983697,-0.44036007,-0.19241862,0.024474721,0.120386496,0.25162402
0.1918975,-0.061963413,0.37507597,0.29123083,0.0680704,-0.08970329,0.2909894,-0.20388567,-0.021126943,-0.076392435,0.19358832,0.004830967,0.080173865,-0.19051382,0.23241435,0.2503448
0.23480554,-0.08528395,0.40002257,0.046070267,-0.02533244,-0.03255404,0.35602754,-0.033499584,0.045740373,-0.08966839,0.1635413,0.114291586,0.3675086,-0.12260584,0.40009,0.13766222
-0.0043777376,0.04413827,0.40003473,-0.12009213,-0.09606923,-0.03987517,0.34079644,0.12349503,0.18594341,-0.09359158,0.01951308,0.29387733,0.4212252,-0.06480827,0.39993438,0.025079817
-0.21721277,0.09434151,0.19058163,-0.06872145,-0.10761989,-0.087877676,0.35467252,0.1765737,0.14009161,-0.012822445,-0.023189424,0.31604093,0.042405214,0.1327094,0.35661197,-0.24248257
-0.08467521,0.07796744,0.278856,0.061790965,-0.22334903,-0.10398467,0.39660633,-0.14011545,-0.09378308,0.10007111,0.34120205,0.031274542,-0.049145103,0.20356797,0.3233375,-0.024306126
-0.038195577,0.102949165,0.30134618,-0.07722341,-0.102551766,-0.08236264,0.29154214,-0.26383016,-0.13448007,0.019079108,0.38582247,-0.311295,-0.13862205,0.18590313,0.22728522,0.06402709
0.09007749,0.01251156,0.36390436,0.15900968,-0.09004997,-0.041339733,0.26301894,-0.13811517,0.06862775,-0.073508374,0.23917535,-0.048148293,0.09927218,-0.0736241,0.37553746,0.2563443
0.10585622,0.12110242,0.4000027,-0.0064950744,-0.22838102,0.0018902527,0.3288366,-0.07392469,0.18592148,-0.07480536,0.19503959,0.046197034,0.3723238,-0.16357052,0.40002438,0.012635779
-0.14572018,0.18310186,0.24559544,-0.034529597,-0.21982616,0.045523833,0.26946646,0.24795714,0.2115556,-0.08540718,0.1051473,0.25537798,0.1968317,-0.07383602,0.40005118,-0.2987765
-0.058400806,0.1512505,0.31517214,0.097163245,-0.14707491,-0.02101523,0.3525252,0.075523324,0.065319784,0.1184916,0.2572425,-0.084378846,-0.04166056,0.11497972,0.25302437,-0.30713806
0.01831145,0.114364944,0.3774076,0.1256249,-0.20643474,-0.034453295,0.40003237,-0.28037903,-0.20483935,0.212426,0.40010276,-0.08542133,-0.09552731,0.18307786,0.2307903,0.04897555
0.028192371,0.026843887,0.37535447,0.33009806,-0.023448639,-0.02698069,0.2804093,-0.102884844,-0.16660178,0.05226816,0.37880185,-0.2378925,-0.13469313,0.11354341,0.14723608,0.19257715
0.17636538,-0.04196284,0.40001276,0.20196538,-0.040026788,-0.054968767,0.26062515,0.028320845,0.036874495,-0.08771534,0.23026209,0.05134819,0.1733845,-0.16255224,0.3254336,0.094603494
0.07167549,0.016486716,0.39679256,-0.04118961,-0.16817154,0.0023395922,0.2980711,0.2427221,0.16196874,-0.14903143,0.15891919,0.44957852,0.41351593,-0.101011366,0.39987484,-0.12095118
-0.13766293,0.024086267,0.31333822,-0.06900852,-0.12347583,-0.09041807,0.21030992,0.10641242,0.1980577,-0.1255818,0.1047125,0.14614879,0.14624551,0.008992999,0.38004753,-0.39871484
-0.07014623,0.023712903,0.32302356,0.08895748,-0.17417409,-0.12682453,0.39744186,-0.036329217,-0.10199301,0.06919777,0.33824405,-0.12095824,-0.08237652,0.18146126,0.25430635,-0.11109296
-0.0066877725,0.0066595566,0.3497879,0.114588656,-0.122734666,-0.10661951,0.40027508,-0.117550574,-0.29861915,0.088064715,0.3987829,-0.18440874,-0.17159685,0.23072249,0.15343775,0.3840034
0.074383065,-0.032013007,0.35056496,0.3836152,0.051465962,-0.11840678,0.20381732,-0.069573455,0.035271935,-0.077956825,0.17180584,-0.20290133,-0.059913084,-0.015222579,0.2231608,0.19716807
0.19527145,-0.0012484333,0.40001148,0.15742226,-0.0652201,-0.09070038,0.28551915,-0.017563444,0.10038429,-0.09752812,0.18973821,-0.02469206,0.2625058,-0.117002875,0.40007147,0.14160186
0.024494518,0.11848781,0.4000062,-0.13623849,-0.17591077,-0.016837494,0.3201165,0.23391043,0.22262223,-0.101949245,0.06256967,0.18050094,0.39837566,-0.059624154,0.39967227,0.0005173429
-0.089855164,0.061104592,0.31201014,0.056344952,-0.1138642,-0.05438777,0.27483165,0.19348118,0.19172528,-0.089472644,0.043486997,0.26098913,0.082670376,0.102716096,0.37031803,-0.4929324
-0.07197326,0.11674012,0.32692394,0.027814187,-0.2266032,-0.08604094,0.39702383,-0.12443392,-0.12396671,0.07774377,0.32392868,0.047693137,-0.086825125,0.25818938,0.29815364,-0.13778287
-0.017627673,0.11074581,0.32813323,0.0645621,-0.10190053,-0.035555646,0.37535888,-0.24832661,-0.28118297,0.0228577,0.3993253,-0.17127146,-0.1844403,0.24212822,0.1880405,0.20688981
0.047316268,0.06152238,0.31832668,0.11042575,0.034998275,-0.045273963,0.21062393,-0.14381316,-0.019213703,-0.10807475,0.1861684,-0.20627567,-0.09203631,0.025811033,0.24510445,-0.017346153
0.18708163,0.027716791,0.40000382,-0.04718044,-0.078937545,-0.01876038,0.27508968,0.0173981,0.05713139,-0.1195403,0.19594929,-0.12645754,0.21817634,-0.15530969,0.40008023,0.028897304
-0.030602537,0.19256523,0.39770103,-0.07545923,-0.19087265,0.010760734,0.27605578,0.15824832,0.19108497,-0.16736755,0.09331997,0.358423,0.38907698,-0.12474099,0.39989126,-0.16728918
-0.12291694,0.1590345,0.24446337,0.080175534,-0.14068173,-0.06649343,0.2948755,0.27807114,0.16540459,-0.07893209,0.10671571,0.16345002,0.047709256,0.0618829,0.3144967,-0.14652021
-0.029831618,0.15728216,0.3067052,0.050614502,-0.26753616,-0.06721869,0.3901526,-0.3230738,-0.11913814,0.14050585,0.3968809,-0.093876764,-0.060016323,0.1564856,0.23632489,0.25082982
0.0020910334,0.114203826,0.31786573,0.055317882,-0.09533697,-0.053545877,0.3614186,-0.19318223,-0.26832914,0.08849879,0.3996001,-0.26555952,-0.09096718,0.15731362,0.2015784,0.41409674
0.08723874,0.059551742,0.310068,0.40808558,0.03892681,-0.11891376,0.22005476,-0.28239876,-0.02378572,-0.08024684,0.25488058,-0.18086508,-0.08341033,0.0068793953,0.18088846,0.26216763
0.18758054,0.02972466,0.39848635,0.057250407,-0.08972761,-0.04490241,0.2885533,0.005149056,0.06595519,-0.11850267,0.24148758,0.09046406,0.28783467,-0.13561752,0.40005085,0.16267817
-0.030880243,0.083568506,0.40000772,-0.07874233,-0.18670942,0.0016263158,0.26971442,0.22453912,0.20722272,-0.09848285,0.09152885,0.116779946,0.35196888,-0.079587094,0.39813647,-0.019787509
-0.1185586,0.0813929,0.27313855,0.10472098,-0.14300247,-0.06759849,0.27599332,0.3615976,0.17713831,-0.087733634,0.0777193,0.10585862,0.0396957,0.07719524,0.33908802,-0.32415032
-0.057661004,0.07357515,0.32032716,0.22602035,-0.23578842,-0.08641113,0.39556673,-0.2582653,-0.11058693,0.045138374,0.39991647,-0.061943684,-0.072668634,0.1938138,0.282527,-0.015333532
-0.022033865,0.049962938,0.3009649,0.11910126,-0.00683881,-0.06087004,0.31365418,-0.275747,-0.2000244,-0.047192857,0.39808226,-0.30443248,-0.16438898,0.1518586,0.20255882,0.05830461
0.120688066,0.060005095,0.36048827,0.13820595,-0.0072305547,-0.045740798,0.24922407,-0.14525114,-0.010313778,-0.17839855,0.23156047,0.039021984,0.063112415,-0.057860453,0.3536686,0.0993679
0.13154131,0.09868348,0.39413717,-0.043514807,-0.15062752,0.042767297,0.31342664,0.14375648,0.093864374,-0.20639724,0.20693833,0.2143937,0.3462215,-0.14735745,0.40003607,-0.024004672
-0.12093802,0.14437032,0.28717402,-0.050407466,-0.19101453,0.043854546,0.26362696,0.27016497,0.1898737,-0.12930256,0.0745468,-0.029941922,0.24691719,-0.06044837,0.3961382,-0.23323347
-0.1027254,0.1444699,0.26338682,-0.07411415,-0.2008647,-0.024653047,0.4001347,0.033692226,-0.025836622,0.08192534,0.25840065,0.0036167086,0.038877264,0.12806427,0.2968363,-0.11081002
0.028180005,0.114452176,0.32775265,0.13898166,-0.23470388,-0.019676877,0.399973,-0.32250595,-0.38412863,0.120379716,0.39992255,-0.14857496,-0.10892061,0.1489165,0.20020524,0.35017183
0.056591693,0.03500392,0.2969921,0.20666428,-0.011304143,0.02006631,0.2301061,-0.12624721,-0.15139513,-0.024443494,0.3651256,-0.2409029,-0.13216019,0.040183537,0.13433312,0.33557218
0.23706692,-0.03412862,0.40002528,0.03065913,-0.09286203,0.02690109,0.33241284,-0.108505264,-0.0052223867,-0.046494287,0.21934117,-0.045963496,0.23169762,-0.18006934,0.40007508,0.16274397
0.07757597,0.099644415,0.40000403,-0.14057414,-0.16959457,0.04821854,0.32746154,0.05229508,0.10445141,-0.034392085,0.12419494,-0.014377154,0.34352985,-0.119008586,0.39965773,0.06477049
-0.15175612,0.15694597,0.32154483,-0.10861644,-0.16700006,0.07196833,0.2752462,0.27686495,0.16801818,-0.045817293,0.021831978,0.118968025,0.13307074,-0.014509996,0.39991137,-0.23709416
-0.11265709,0.14392206,0.2935568,0.11317282,-0.17039165,-0.11437944,0.38681585,-0.060306273,-0.02500663,0.10749164,0.18182026,-0.03075725,-0.1239167,0.15917166,0.30671686,-0.14874946
-0.0275067,0.07396522,0.3594999,0.18805347,-0.19747832,-0.029928247,0.40043244,-0.33377838,-0.337707,0.21661316,0.40000957,-0.2212748,-0.21753635,0.21631515,0.24286218,0.3365414
-0.03443174,-0.007705086,0.3190717,0.14131138,-0.027863884,0.04587397,0.26220915,-0.19027142,-0.07078348,0.03447802,0.29219195,-0.43159294,-0.18672265,0.07921608,0.21550979,0.27494445
0.16457754,-0.09326545,0.4000304,0.072074465,-0.059856422,0.05726419,0.33084598,-0.19296224,0.04797293,-0.05177689,0.2157425,0.073662296,0.13866436,-0.12061671,0.40007213,0.23098248
0.15431982,-0.017807221,0.39999998,-0.0066205934,-0.15207206,0.069592886,0.37181193,-0.21677105,0.1309147,-0.075372055,0.1934173,0.24845386,0.37575522,-0.13758057,0.39812687,-0.004511402
-0.11677309,0.13616957,0.36077303,-0.17785259,-0.20510684,0.13082384,0.33656433,0.17532276,0.22506575,-0.085562065,0.069487,0.22739972,0.23682316,-0.06598785,0.3997613,-0.2691946
-0.14258023,0.12966198,0.2821679,0.15550788,-0.13279498,-0.024924317,0.40011412,-0.1900408,0.083849385,-0.0078067565,0.17962557,-0.035856903,-0.07017379,0.13932203,0.25877488,-0.025866034
-0.06952062,0.070572525,0.3352609,0.13823807,-0.16035946,0.062493447,0.40004995,-0.35537988,-0.20616771,0.10425396,0.400041,-0.1539338,-0.12959188,0.19431616,0.20169665,0.4241873
0.016034324,-0.02496195,0.33088246,0.34196916,-0.018741662,0.014227586,0.31706387,-0.2507835,0.0045493054,-0.091097,0.22571956,-0.058225676,-0.024098536,-0.0070563103,0.24974513,0.20057315
0.15650041,-0.087772176,0.40001845,0.14779401,-0.1191788,0.021544164,0.3838824,-0.1949814,0.09140241,-0.13998206,0.21586585,0.057782598,0.32108018,-0.21257761,0.3981726,0.15438505
0.013934613,0.064619854,0.40000433,-0.12306494,-0.20612325,0.08695999,0.38608438,0.090577655,0.20168033,-0.11947746,0.11060728,0.11910751,0.46178928,-0.17682983,0.40000427,0.07812498
-0.18223254,0.1494228,0.2511345,-0.1230152,-0.15065706,0.038553096,0.3443576,0.28105178,0.20237312,-0.13416915,0.062031224,0.24856384,0.12934366,-0.048450515,0.39402395,-0.34521466
-0.097093076,0.11570865,0.32833183,0.21937819,-0.25183305,-0.047072094,0.40011978,-0.25703922,-0.07551726,0.09140523,0.33413303,-0.13553117,-0.031069953,0.079197325,0.2959882,-0.099011645
-0.03628639,0.057111025,0.32250884,0.38849646,-0.028691422,-0.030493911,0.30836052,-0.4067069,-0.13235359,-0.0021215098,0.4000191,-0.32017887,-0.1405194,0.075379066,0.18951117,0.35002416
0.11445304,-0.066981584,0.40001863,0.2933967,-0.004763201,-0.035973698,0.26564056,-0.19202745,0.08036104,-0.14200038,0.2311295,0.09861392,0.12857766,-0.13989942,0.31008676,0.16697378
0.14584073,0.04964159,0.40000743,0.12609223,-0.12638919,0.01993001,0.32303333,-0.027305175,0.17691836,-0.123333886,0.20970659,0.10341374,0.41605878,-0.2190026,0.40010014,0.055573408
-0.12193573,0.19392328,0.32349998,-0.053903908,-0.18208505,0.071218446,0.27704778,0.28701735,0.2835888,-0.11229985,0.046520688,0.28079593,0.28702673,-0.12803812,0.40008444,-0.22759147
-0.12261678,0.14953178,0.20793937,0.082753606,-0.19791605,-0.08207366,0.39260688,0.04588366,0.09457594,0.0019885157,0.17432544,-0.048815858,-0.016556505,0.08290384,0.2896079,-0.14256208
0.023121458,0.1464617,0.33758533,-0.1466506,-0.2735611,-0.048668455,0.40023422,-0.3102314,-0.25828633,0.2052769,0.39975893,-0.18394023,-0.09382238,0.18204743,0.2896695,0.34701902
0.060785927,0.047923733,0.35662624,0.15584525,-0.028278776,-0.03889876,0.28357401,-0.2260435,-0.19532277,0.07137744,0.39540192,-0.24941689,-0.1796696,0.088377595,0.17580605,0.08812223
0.18006517,-0.03865227,0.39679676,0.18499462,-0.022381533,-0.008884855,0.2861281,0.053882062,-0.0039546103,-0.0683485,0.21210833,0.05864751,0.051849615,-0.11707758,0.2580479,0.05946271
0.15075572,0.049976196,0.40000793,-0.038266372,-0.13515659,0.016205478,0.33916298,0.17733462,0.08553077,-0.114008315,0.19288567,0.3356191,0.3665497,-0.16464613,0.3999564,-0.018593801
-0.0982719,0.109296724,0.32902327,-0.17367002,-0.16073112,0.078084834,0.30950877,0.4007644,0.1631609,-0.07374972,0.050062954,0.29333538,0.21619685,-0.06179832,0.39999038,-0.096639656
-0.053468406,0.07281408,0.34684858,0.080800906,-0.21790642,-0.0003445641,0.40001386,-0.20634507,-0.11086167,0.1786073,0.33963487,-0.03031712,-0.0830617,0.13668153,0.23248546,-0.104522124
-0.0032257333,0.022530181,0.39932224,0.16105767,-0.18744054,-0.011969977,0.39823765,-0.3123358,-0.18488114,0.15948804,0.3846598,-0.26025355,-0.14534104,0.1936075,0.15244804,0.41746104
-0.0033447712,0.0059942016,0.36120236,0.21736962,-0.019106241,0.0001446663,0.25986314,-0.097654514,0.070983596,-0.04729044,0.19374858,-0.2308518,-0.08514808,-0.035287697,0.20295683,0.22613409
0.19881283,-0.0035012614,0.39142087,0.03141053,-0.09519464,0.01036118,0.31390467,0.07790902,0.11255262,-0.11211599,0.2336501,0.05067277,0.20926397,-0.23836884,0.39149567,-0.049276777
0.020991314,0.16239621,0.40003413,-0.13579248,-0.16771923,0.030422918,0.34408623,0.21706186,0.193139,-0.13659354,0.16939263,0.39442575,0.33312744,-0.18092245,0.4000162,-0.12596646
-0.11522447,0.14476594,0.29173407,-0.0069529456,-0.125192,0.059412494,0.30178618,0.30510125,0.1961709,-0.14056814,0.0826572,0.2031024,0.097283885,-0.049363036,0.39662808,-0.31586048
-0.057367187,0.13522847,0.3257479,0.11065358,-0.23102602,-0.019648844,0.4000405,-0.19541554,-0.12909834,0.086688645,0.3860398,-0.12586987,-0.12361708,0.09781345,0.24054304,-0.13461114
-0.0036037911,0.042434473,0.37315416,0.31480458,-0.03830963,-0.007078963,0.3285301,-0.18405314,-0.20893805,0.017035982,0.4002334,-0.18355486,-0.18206838,0.09206313,0.15756387,0.10899807
0.13403445,-0.054905213,0.34314966,0.22430573,0.04092033,-0.049645666,0.23692195,0.107852384,0.018129433,-0.13465478,0.2014767,0.15451701,0.04096127,-0.14028665,0.24785145,0.079441085
0.18035322,-0.07894355,0.3985644,0.043461822,-0.09380299,-0.040945884,0.29676443,0.12571007,0.11181256,-0.1664294,0.17157705,0.22328126,0.33405784,-0.12397339,0.40000802,-0.06406807
-0.03802127,0.11426979,0.40002707,-0.08648138,-0.15537524,-0.041111704,0.2737227,0.18018144,0.22173177,-0.1484205,0.018728318,0.30050993,0.35355,-0.06607139,0.40003005,-0.1457381
-0.15090065,0.14240694,0.25683114,-0.052703984,-0.15250973,-0.13943994,0.3110171,-0.0055885953,0.12606014,0.018600702,0.08652713,0.09456605,-0.014219085,0.16271645,0.3300307,-0.07448945
-0.062918656,0.10215761,0.3474422,0.04943829,-0.28435895,-0.09973331,0.40002707,-0.2683543,-0.16353947,0.18409331,0.39999464,-0.064656615,-0.107609004,0.2274314,0.30413473,0.22978517
-0.023361921,-0.0014201865,0.3681373,0.20588465,-0.014217578,-0.02165857,0.30588198,-0.3169273,-0.1367508,0.028160688,0.39884543,-0.28251848,-0.18385205,0.15116386,0.18416142,0.24576405
0.08753055,-0.028631655,0.39292422,0.2150702,0.006087338,-0.0055448995,0.27782786,-0.19691114,0.03848293,-0.082669154,0.24990948,-0.0635833,0.022685038,-0.07103402,0.31779224,0.22654948
0.09305506,0.0707006,0.40001664,-0.07887212,-0.16378663,0.099418454,0.3444267,0.037996884,0.21120702,-0.077840224,0.1278074,0.056925412,0.35882515,-0.1663048,0.40003294,0.15613721
-0.13920555,0.16516393,0.3243795,-0.11053647,-0.17554188,0.13629843,0.29469404,0.31362855,0.25628543,-0.08845308,0.07377088,0.4317662,0.2646965,-0.10661877,0.39994302,-0.22146358
-0.15216734,0.14501703,0.26935676,0.13233042,-0.16721906,0.003597538,0.40003088,-0.05274175,0.09308577,0.04467203,0.20248078,-0.037770785,-0.06455615,0.12106551,0.268296,-0.27512863
-0.07206542,0.12937368,0.34891173,0.11724213,-0.24853568,0.061283793,0.39876676,-0.16228989,-0.2155568,0.12740251,0.4000862,-0.046012852,-0.1431907,0.1821242,0.23423651,0.18944949
-0.06932095,0.06934356,0.31162447,0.12161732,0.0027564291,0.04827526,0.26886848,-0.26903442,-0.117520235,-0.010368384,0.36994663,-0.28658703,-0.18349327,0.107382976,0.17616123,0.27032146
0.14224659,0.003034655,0.38176256,0.04548596,-0.0419749,0.06829602,0.32573032,-0.091831654,0.029910821,-0.10539214,0.24555683,0.04037747,0.11090136,-0.12235477,0.3660861,0.15501249
0.07966699,0.10308171,0.4000085,-0.07610628,-0.16747266,0.108872,0.37025288,0.087899745,0.15010428,-0.10719711,0.19818401,0.29304284,0.41813844,-0.13140664,0.40004262,0.052898407
-0.18508892,0.18948132,0.3535582,-0.038016044,-0.1938664,0.14329141,0.33833605,0.34092763,0.21800794,-0.11023679,0.07011946,0.38355136,0.25945684,-0.047946893,0.4000392,-0.16611911
-0.15268117,0.15158808,0.3137698,0.170286,-0.20526509,-0.010917741,0.38969648,-0.22528934,-0.010838899,0.09045998,0.30023563,-0.047220014,-0.042466346,0.16706842,0.28316805,-0.09003041
-0.13098264,0.11545314,0.3407512,0.19516537,-0.1618472,0.0710365,0.40082508,-0.17599198,-0.24503565,0.09616631,0.40000919,-0.14932248,-0.10046427,0.20049295,0.18275724,0.26078352
-0.025343992,0.051635455,0.2715749,0.3727271,-0.027046889,0.06994067,0.3004722,-0.0925518,0.0037333525,-0.09328901,0.19607854,-0.036564104,-0.014176647,0.0014072432,0.22443898,0.18985704
0.12634861,-0.020640634,0.4000046,0.12344876,-0.10122952,0.07537597,0.35350224,0.04100212,0.08917976,-0.1388601,0.1645215,0.18420258,0.2933616,-0.21486366,0.40006644,0.07373678
-0.07589826,0.16736263,0.40003246,-0.122963555,-0.2237701,0.12806644,0.3686018,0.2373981,0.22911368,-0.11395598,0.044149097,0.42413884,0.35618466,-0.1526885,0.39981955,-0.12208242
-0.1550132,0.14541082,0.25808313,0.08491671,-0.17698146,0.039517086,0.3578229,0.10536667,0.16839834,-0.035749365,0.029472237,0.31657234,0.056812394,0.01212934,0.35231206,-0.12988424
-0.076464556,0.12971035,0.35566524,0.12571812,-0.30263466,-0.010742698,0.39956132,-0.34885028,-0.18037619,0.14340079,0.39995003,-0.14866306,-0.07397809,0.09523317,0.24378178,0.19712219
-0.08297953,0.06916428,0.35855994,0.28195885,-0.08753556,0.022302205,0.34371185,-0.41612288,-0.16222665,0.013064457,0.39817172,-0.3559979,-0.14421035,0.040680848,0.16481894,0.1545747
0.07662828,0.0032175297,0.4000619,0.16743423,-0.03760982,0.0018044782,0.3187569,-0.30377406,0.046099126,-0.07370587,0.15397714,0.11631179,0.060109947,-0.16882633,0.34202564,0.13514297
0.087064646,0.05307145,0.39999956,-0.045445748,-0.18462177,0.05523121,0.39201972,-0.17747393,0.14500292,-0.08816296,0.14392938,0.3012951,0.39775246,-0.23106484,0.3986014,-0.056016676
-0.10881388,0.14805782,0.32691053,-0.11810694,-0.21559629,0.1244782,0.33637735,0.27889752,0.2373644,-0.04526236,0.040565036,0.1710641,0.26603234,-0.15338016,0.39771506,-0.050925326
-0.08566399,0.13288991,0.25525445,0.12818408,-0.18228067,-0.01685748,0.40003636,-0.050243124,0.09145939,0.11828066,0.18187252,0.0416304,-0.06904291,0.094491996,0.25678712,-0.14897725
-0.0006998812,0.07992217,0.2984928,0.11883566,-0.2496888,-0.021301502,0.3982426,-0.29324052,-0.17923555,0.21832453,0.40007707,-0.056015324,-0.15225865,0.15498479,0.19614667,0.31226972
0.0419888,-0.023388907,0.30716935,0.34255052,-0.043450948,0.0064450484,0.28615457,-0.31897068,-0.1135805,0.057748567,0.39605623,-0.27563548,-0.22121866,0.08745357,0.116661355,0.16390724
0.18331653,-0.07324909,0.39931378,0.21750042,-0.06581425,0.0027403994,0.30515793,-0.15047891,0.099362805,-0.09890486,0.19724081,0.07634924,0.16113271,-0.19191453,0.36264452,0.10265713
0.09534253,0.042354066,0.39926255,-0.05683896,-0.14959604,0.049501315,0.32697552,0.060045294,0.18404435,-0.12955308,0.15053013,0.3723728,0.39498767,-0.13252528,0.39993185,-0.03487038
-0.179886,0.15820459,0.2813671,-0.11508736,-0.18342045,0.1309925,0.30669594,0.38458592,0.2934252,-0.06320289,0.01738214,0.20244533,0.24082755,-0.035950832,0.40012562,-0.2631048
-0.14592347,0.14342818,0.28596285,-0.012672186,-0.17148426,0.0037501692,0.3999689,-0.11379216,0.02936077,0.18112731,0.30403095,0.0072679296,-0.076727025,0.08892205,0.16221309,-0.09743179
-0.0585812,0.113437824,0.3490591,0.09000763,-0.21627474,0.06633811,0.40135565,-0.1899018,-0.3055695,0.18271546,0.40000957,-0.13490386,-0.15640749,0.14740703,0.103171796,0.39113373
-0.035228644,0.040035702,0.31518367,0.015451225,0.01665663,-0.0020982462,0.2466323,-0.31819174,-0.18339038,0.016276691,0.38642833,-0.45961598,-0.17882992,0.029914979,0.06515712,0.19238594
0.1770716,0.017406046,0.40001056,0.20150688,-0.057562623,0.01848371,0.2574877,-0.30772576,-0.032133613,-0.037189163,0.25839046,-0.31566846,0.09447195,-0.19808736,0.32684132,0.27432975
0.097052276,0.07975517,0.4000037,-0.07786702,-0.24563181,0.132467,0.35648435,-0.03336596,0.1217193,-0.06036286,0.2266556,-0.027059156,0.40713838,-0.21324599,0.40005624,0.10713707
-0.13686581,0.1256299,0.3817424,-0.13393153,-0.27398995,0.15070742,0.3192597,0.13773827,0.18468514,-0.10391072,0.13989384,0.26268208,0.30311337,-0.15115102,0.39997885,-0.15036362
-0.13679665,0.07120931,0.3032249,0.12560163,-0.24233812,-0.026454575,0.40024382,-0.07037789,0.067106396,0.010580022,0.19290252,0.013463774,0.0023200614,0.04792686,0.29746833,-0.19875675
-0.062440038,0.026246352,0.34868813,0.23990424,-0.21393448,-0.04706576,0.4010448,-0.18719976,-0.19779474,0.111613534,0.39768076,-0.113974415,-0.07655806,0.0911099,0.22128744,0.2837311
-0.04576009,-0.0146670295,0.29958415,0.14290226,-0.019229354,-0.046102613,0.26040006,-0.13216724,-0.061890934,-0.0353024,0.28882504,-0.23061436,-0.14999196,-0.07042246,0.18436006,0.12077048
0.167842,-0.009469629,0.4000082,0.13973257,-0.12298275,-0.040561248,0.32771417,-0.0022243594,0.08706341,-0.12920694,0.18752308,0.20761372,0.2408829,-0.27180287,0.4000496,0.14442715
0.048443846,0.1289316,0.4000036,0.019946713,-0.20079921,-0.024668628,0.33980298,0.09352943,0.1889702,-0.11114438,0.08918182,0.29966152,0.43339115,-0.23918146,0.39800167,-0.026224865
-0.17824486,0.18557733,0.31905013,-0.08448902,-0.20795825,-0.014218339,0.2898968,0.2071532,0.24486136,-0.120889485,-0.015338475,0.39714313,0.21140063,-0.14994715,0.39996603,-0.22781895
-0.110457204,0.14244415,0.27415752,0.09573724,-0.259283,-0.09226241,0.4000658,-0.18667898,0.008252819,0.14024372,0.3132487,-0.0889085,-0.072252646,0.06033126,0.2662172,0.07508389
-0.023528617,0.08706976,0.3356295,0.14236388,-0.10625794,-0.045440864,0.35257906,-0.24492759,-0.21211909,0.10780728,0.39808285,-0.1785225,-0.15149383,0.047803726,0.19297084,0.16101615
0.107694,-0.034970086,0.32220438,0.25380835,0.015543048,-0.0989728,0.22796176,-0.20705959,0.0051992666,-0.10460791,0.2260713,0.05423261,0.001858322,-0.12096091,0.23634684,0.25556606
0.1858497,-0.029277695,0.39807945,0.14990564,-0.10832099,-0.037574377,0.29302156,-0.015332871,0.073937185,-0.14093237,0.23164381,0.23574919,0.29106414,-0.19943473,0.4000358,-0.023541687
-0.099099495,0.11873787,0.36547455,0.0044902232,-0.2056829,0.035389606,0.29734555,0.27257144,0.23047899,-0.09135681,0.08268816,0.23215772,0.30578288,-0.1170196,0.39992818,-0.19448145
-0.068982705,0.10054801,0.3343942,-0.03910602,-0.1505436,-0.09910018,0.3804236,0.031043831,0.106470205,0.09361804,0.17939714,0.12006535,-0.012265554,0.11049898,0.20673428,-0.13514273
-0.03820206,0.08703488,0.36865252,-0.036108747,-0.23899986,-0.029076934,0.40004346,-0.25921348,-0.20759809,0.14420485,0.40001592,-0.0975482,-0.0655645,0.15128104,0.13117808,0.25517836
-0.030276539,0.08130094,0.36009085,0.14891838,0.023514457,-0.043418016,0.27923965,-0.2907428,-0.18213715,-0.0046644947,0.3970175,-0.32389233,-0.1258565,0.04018169,0.0890833,0.37279627
0.13040426,0.042527445,0.4006079,0.16527754,-0.019112824,0.000117882,0.26592845,-0.09289974,-0.011578882,-0.1123286,0.2931739,-0.055913836,0.13928212,-0.21540208,0.3091148,-0.1025558
0.14576522,0.12232065,0.3981114,0.047151964,-0.1506313,0.059459306,0.3203373,0.14918862,0.12354224,-0.13117638,0.22528069,0.16594112,0.40224454,-0.16302025,0.39997724,-0.110184856
-0.114046216,0.21103367,0.3263331,-0.09922612,-0.17491002,0.07416974,0.3011661,0.2564581,0.18915671,-0.13681649,0.12636828,0.21458073,0.27027503,-0.08785113,0.39998257,-0.20425108
-0.118965864,0.18227784,0.23595782,0.11395841,-0.16639256,-0.07926918,0.37832293,-0.16443962,0.058286708,-0.015420126,0.18303573,-0.017453471,-0.02046062,0.13182867,0.3165886,-0.13961388
-0.007366895,0.12508127,0.31223255,0.116499856,-0.21601614,-0.02757114,0.4008225,-0.17544782,-0.25896668,0.15132253,0.39966726,-0.14662635,-0.11715864,0.18306774,0.25146845,0.25084534
0.029545765,0.024964841,0.30911326,0.27093777,-0.076780185,0.009240672,0.24618757,0.008482394,-0.12466117,-0.032184374,0.34082955,-0.34000075,-0.13245048,0.051549584,0.1324495,0.046686776
0.20101263,-0.015336605,0.3870735,0.113691896,-0.081656575,-0.0068275747,0.272843,0.10664395,0.008790958,-0.112176,0.20324977,0.1365785,0.18574122,-0.15880851,0.31768572,0.013536134
0.000596493,0.11577767,0.39830115,-0.048798192,-0.21828322,0.06648621,0.35238776,0.25207904,0.13576686,-0.10241505,0.11227443,0.30650565,0.4233762,-0.108448185,0.39910224,-0.10392495
-0.12689225,0.12838207,0.3537975,-0.006101438,-0.20004934,0.08210733,0.2948081,0.2183184,0.2033684,-0.05570808,0.015932828,0.24692321,0.19657671,0.011528572,0.3968204,-0.13489088
-0.13086505,0.16660376,0.29678276,0.061147634,-0.25088647,-0.013909991,0.40007672,-0.10380543,-0.12406128,0.18365374,0.32134998,0.008640685,-0.08751872,0.16048943,0.22775176,-0.14273101
-0.0753554,0.10859139,0.29467368,0.1318547,-0.12503281,0.01077533,0.4013589,-0.23567246,-0.24306372,0.13706918,0.39756465,-0.23362568,-0.19745065,0.20954314,0.07691881,0.47188672
-0.006971637,0.06337207,0.27624193,0.3858483,0.013298183,0.023730204,0.20675318,-0.042908538,0.030167334,-0.03799612,0.2206733,-0.26410776,-0.14460249,-0.00971912,0.17084458,0.267479
0.1819826,-0.011482397,0.40004602,0.19384818,-0.087713964,0.02291159,0.29958597,-0.046593543,0.08858063,-0.071174905,0.24071878,-0.17838183,0.16193621,-0.22903104,0.40006727,0.1151775
0.10134535,0.09313163,0.4000032,-0.09709928,-0.192476,0.052110232,0.31040025,0.13257475,0.17859718,-0.109676115,0.19610207,0.1098641,0.423752,-0.22035025,0.3999915,-0.079834275
-0.1202753,0.17096987,0.31569597,-0.120982245,-0.23196006,0.075625524,0.27491054,0.31865153,0.2624004,-0.09291585,0.058892448,0.14166997,0.28104797,-0.13141318,0.3999959,-0.20213173
-0.09779745,0.111371264,0.25387636,0.16989423,-0.2040021,-0.04714532,0.4000357,-0.109693564,0.048744556,0.08707817,0.23177943,-0.04007983,-0.05169188,0.13036312,0.2642071,0.08707604
0.020989573,0.03841937,0.35598257,0.29021198,-0.2001332,-0.076708,0.40096027,-0.403957,-0.3021764,0.188864,0.39961186,-0.20158282,-0.12655821,0.18190226,0.23718272,0.44198692
0.022453325,-0.04063148,0.27028885,0.25911468,-0.06342281,-0.056353956,0.29669735,-0.16964616,-0.08016466,-0.02633174,0.31242082,-0.01650052,-0.14475898,0.008456227,0.21419822,0.16563846
0.17720963,-0.15847689,0.4000039,0.14049304,-0.10341173,-0.051497944,0.3508122,-0.021689534,0.054250777,-0.099095315,0.1655024,0.11658098,0.24242869,-0.21883397,0.40044618,0.16941291
