ancorasir/BennettWheelLegRL/experiment_data/2024-02-05_04-45-11/joint_torque_env0.csv
Joint_1,Joint_2,Joint_3,Joint_4,Joint_5,Joint_6,Joint_7,Joint_8,Joint_9,Joint_10,Joint_11,Joint_12,Joint_13,Joint_14,Joint_15,Joint_16
0.0,0.0,0.0,0.0,0.0,0.0,0.0,0.0,0.0,0.0,0.0,0.0,0.0,0.0,0.0,0.0
0.0,0.0,0.0,0.0,0.0,0.0,0.0,0.0,0.0,0.0,0.0,0.0,0.0,0.0,0.0,0.0
2.2140493,-5.0,2.165263,3.965252,5.0,0.16619119,-4.0611453,0.177567,5.0,-1.2223732,-2.593285,8.987719,3.5190277,3.450965,5.0,-1.6919813
0.6577258,-3.845098,-1.3417261,-3.1422665,5.0,-2.1602273,-2.5235438,0.13410538,2.7117388,0.19987726,-1.8233402,-0.212278,1.8362622,2.3952334,2.5645833,-0.7684357
-4.806682,-4.559661,4.858344,-1.7020755,5.0,0.13089097,-0.8255163,-3.8548174,5.0,-0.9918234,-3.7530577,9.818618,-2.2361362,5.0,1.0798777,-0.45589107
-5.0,1.9299148,-0.81292105,0.3516379,-0.41986537,-2.2089093,5.0,-5.0,5.0,1.2401518,-0.26830792,-4.7078905,-5.0,0.0042075515,-0.55185664,-2.662653
-5.0,5.0,-5.0,10.0,1.8593007,-2.228259,-0.5897454,0.11895132,-0.4298285,-5.0,5.0,-7.056382,-4.5844793,-5.0,-5.0,2.9249442
1.7841474,4.901669,1.3989985,2.8967302,5.0,-5.0,-5.0,-5.0,5.0,5.0,-5.0,-7.7222495,3.0956104,-5.0,1.3197155,1.3655422
0.12241197,-2.8721116,5.0,-5.2051835,5.0,-0.31330562,-3.3206637,5.0,3.4142914,5.0,-5.0,10.0,5.0,4.5330772,5.0,2.8695493
-1.2773647,-1.5827874,4.469458,-0.556048,5.0,-4.3505483,-5.0,-0.6143104,5.0,5.0,-2.8301668,-10.0,0.35042787,5.0,5.0,-0.3625805
-5.0,5.0,-5.0,-3.0308619,0.44679016,-3.6376925,1.4184921,2.5185862,2.7850924,5.0,-1.0173789,-4.0292177,-3.1203744,5.0,0.6118177,1.7041214
-5.0,3.0812707,-5.0,10.0,-4.916349,2.5147367,3.4919996,0.35330334,-4.154985,1.7991726,2.3569007,0.55492425,-5.0,-5.0,-5.0,5.0
-5.0,5.0,-5.0,0.17950249,5.0,-4.241155,-5.0,-5.0,3.7435365,-5.0,2.9836948,-3.0393596,-5.0,-5.0,-2.4325886,-2.8363965
4.685029,-0.43732893,-0.59047216,-4.9068427,5.0,-3.3312497,-4.368641,5.0,5.0,5.0,-5.0,5.557885,5.0,-5.0,1.826504,-0.21818478
1.4753541,-1.7814362,3.833876,-3.5766153,5.0,-1.1032078,-3.5237799,3.0727293,2.8387058,5.0,-5.0,10.0,4.617698,2.6873527,4.960782,-0.9225025
-1.7098708,-2.5882294,4.347687,0.020763429,5.0,-5.0,-5.0,-5.0,3.6303942,5.0,-5.0,-9.749266,0.58152235,5.0,5.0,-1.3920957
-5.0,5.0,-5.0,-0.18243945,0.86714035,-5.0,-0.32544482,-3.1305249,1.6066487,5.0,0.08384809,-0.065923214,-4.569154,5.0,0.3000978,0.4765228
-5.0,5.0,-5.0,4.7812843,-5.0,0.8471252,2.0223386,0.49331024,-1.0418549,1.0805516,2.9429407,-0.1888364,-3.3885732,-5.0,-5.0,-5.0
-5.0,5.0,-5.0,-0.5338582,5.0,-1.3312819,-0.042045355,-2.617308,2.2642136,-5.0,2.1786635,-3.044701,-0.9890115,-5.0,-0.8107456,4.9859467
3.5827627,-3.167362,2.009326,-5.542586,5.0,-2.8779507,-5.0,5.0,1.1739826,5.0,-5.0,10.0,5.0,-1.6116517,2.3441963,-0.08854316
0.18710887,-4.586666,5.0,-0.58097893,5.0,-5.0,-5.0,1.2313437,3.5492613,5.0,-5.0,-4.030609,2.9244604,5.0,5.0,-0.54989856
-0.8213006,-4.267308,5.0,-1.0234956,5.0,-5.0,-5.0,-5.0,5.0,5.0,-5.0,-10.0,0.4204892,5.0,5.0,-1.2789644
-5.0,4.5744777,-5.0,3.568438,0.12322411,-5.0,-0.29789585,-1.3185792,-2.1424243,5.0,0.5219711,10.0,-5.0,5.0,0.6888503,-0.41790265
-5.0,5.0,-5.0,4.287193,-5.0,2.1179502,2.5789886,-0.9311203,-5.0,1.3628345,3.4076567,0.27002475,-5.0,-4.4330487,-5.0,5.0
-5.0,5.0,-5.0,10.0,0.3031882,-0.29711676,1.2112936,-0.12188463,-0.46104413,-5.0,5.0,-0.5663428,-4.892626,-5.0,-5.0,5.0
1.7927827,3.0841012,-4.898864,1.6150326,5.0,-5.0,-5.0,-5.0,3.8905544,3.0458872,-5.0,0.37390473,3.3314052,-5.0,1.0001497,0.15029395
3.9647717,-3.0232172,4.3290873,-0.51304656,5.0,-4.1061225,-5.0,-5.0,1.734286,5.0,-5.0,10.0,4.5130844,-0.20240068,1.9186224,1.0333601
-1.4010683,-0.48712432,5.0,-0.0009760863,5.0,-2.4268546,-3.935346,5.0,5.0,5.0,-2.4881735,10.0,-0.19015133,5.0,5.0,-0.37907526
-5.0,3.630529,-5.0,0.550229,3.4403324,-5.0,-1.538037,-1.4531094,0.8166036,5.0,0.59328294,8.365415,-3.6574378,5.0,1.1569034,-0.54279804
-5.0,5.0,-5.0,0.5846895,-1.8521547,3.2242613,3.0435748,0.5264253,-5.0,-1.9656639,5.0,-0.032188345,-5.0,-5.0,-5.0,-5.0
-5.0,5.0,-5.0,10.0,2.376203,-2.158966,-2.5384774,-4.8856754,-1.5772743,-5.0,5.0,-0.05586913,-5.0,-5.0,-5.0,5.0
3.3429675,-3.7866862,0.45266986,0.09665866,5.0,-5.0,-5.0,-5.0,5.0,4.3790073,-5.0,1.0533798,4.698637,-5.0,0.8660184,-0.014293879
0.38019133,-4.0418696,5.0,-0.36995617,5.0,-5.0,-5.0,-1.2345448,2.4759002,5.0,-5.0,-6.811924,0.4098786,5.0,5.0,-0.3765114
-3.0075014,1.0894859,-2.6910307,-4.564051,5.0,-5.0,-5.0,-5.0,5.0,5.0,-4.653377,-7.7744026,-0.69079745,5.0,5.0,1.0324595
-5.0,5.0,-5.0,-8.442755,-2.4129884,0.52205503,0.30563217,5.0,-4.544741,2.8525307,2.272635,0.46116316,-5.0,-1.7064295,-2.9798837,-0.10434485
-5.0,5.0,-5.0,1.1820786,-0.7023078,-0.031138211,1.4171367,-0.17848347,-1.0338608,-5.0,5.0,-0.874116,-5.0,-5.0,-3.5604625,-1.3716456
1.0549208,1.632896,0.6950574,7.840607,5.0,-4.646291,-5.0,-5.0,5.0,1.793308,-3.5519528,0.18818785,4.251317,-5.0,-0.34272882,-2.8454723
1.8303717,-3.9304407,4.571284,0.28498065,5.0,-1.2020581,-4.3985367,5.0,4.377913,5.0,-5.0,10.0,5.0,1.5639219,2.3816524,0.11979883
-0.6068717,-2.8147602,5.0,-0.49678653,5.0,-5.0,-5.0,-5.0,5.0,5.0,-2.4549255,4.3249574,-0.47024843,5.0,5.0,-0.5387192
-4.8861547,3.3846989,-3.7405424,-0.042170748,1.8202612,-5.0,-1.1472176,1.379535,5.0,5.0,3.7438111,2.843013,-2.7143574,5.0,1.2868608,-0.05466543
-5.0,5.0,-5.0,-0.3093562,-3.267642,3.6858683,4.0553346,-0.8163234,-3.835536,0.6537063,3.9904807,-0.5685917,-5.0,-5.0,-4.5720677,4.184627
-5.0,5.0,-5.0,4.2465944,2.5116043,0.6952637,1.6295433,2.402055,-0.4132915,-5.0,5.0,-0.32285818,-5.0,-5.0,-3.5860162,-5.0
2.594039,-1.0208602,2.266702,6.202444,5.0,-5.0,-5.0,5.0,5.0,3.216619,-3.8369486,1.0397954,5.0,-5.0,-0.30769253,0.29887038
2.0510476,-5.0,5.0,-0.5827364,5.0,-2.465938,-5.0,5.0,5.0,5.0,-5.0,-8.318203,4.279626,4.5800915,5.0,-0.75597423
0.28793573,-5.0,5.0,-1.4465225,5.0,-5.0,-5.0,-5.0,5.0,5.0,-2.7775996,3.5152857,-0.3128621,5.0,5.0,-0.16843297
-5.0,4.5361586,-5.0,-3.4780464,-3.0109262,-1.0054023,1.0365083,0.076352626,-1.1424911,5.0,1.5446749,-0.09977884,-4.5422716,1.5691675,-2.4681718,-0.570633
-5.0,3.2819896,-5.0,10.0,-0.51566976,1.7118936,2.3739526,0.18194231,-5.0,-2.775806,5.0,-1.2393483,-5.0,-5.0,-5.0,-2.3942685
-3.249422,4.595527,-5.0,9.351819,5.0,-5.0,-5.0,-5.0,5.0,-3.4330237,0.7560152,0.10832069,0.0020685196,-5.0,1.6937696,5.0
3.7530913,-3.5817373,2.3409684,-0.39169833,5.0,-5.0,-5.0,-5.0,5.0,5.0,-5.0,-5.3752613,5.0,-5.0,0.7329924,0.037433285
1.3778311,-4.460666,5.0,-1.3188099,5.0,-4.107916,-4.180576,5.0,1.9161897,5.0,-3.865984,10.0,1.4790565,5.0,5.0,-0.9292721
-3.3283167,-0.3466826,1.0384074,3.5998445,5.0,-5.0,-5.0,-4.1351023,4.5222635,5.0,-1.5815673,-6.394911,-2.3692718,5.0,5.0,-1.0845118
-5.0,2.4087174,-5.0,0.85545945,-3.7522824,-0.41828018,1.6895168,0.5231349,-3.023496,4.045811,2.5010638,0.41124722,-5.0,1.0109601,-2.0431643,-0.3105512
-5.0,5.0,-5.0,-7.035533,-0.6628907,1.2508634,2.6325467,1.3328125,-1.2651383,-5.0,5.0,-1.3936952,-3.8768578,-5.0,-5.0,-3.676905
-1.9320647,5.0,-5.0,-5.098703,5.0,-5.0,-5.0,-5.0,4.481817,-1.9213744,0.1397649,2.4799461,1.4791656,-5.0,1.3368821,1.7248025
1.8980428,-2.941286,2.7212012,0.14613414,5.0,-3.1643257,-5.0,5.0,1.8561366,5.0,-5.0,10.0,5.0,1.9265311,4.4347105,0.025925022
-0.9893775,-3.6320555,5.0,-1.173762,5.0,-5.0,-5.0,-4.454314,5.0,5.0,-5.0,7.2154064,-0.06416127,5.0,5.0,-0.828578
-5.0,4.4278755,-4.0660987,1.1837782,5.0,-5.0,-3.5144289,5.0,4.138606,5.0,1.2170594,10.0,-3.0373473,5.0,2.2123103,0.28075323
-5.0,5.0,-5.0,-7.5678587,-5.0,2.309102,3.095882,-0.94510865,-2.4033132,-0.9543227,5.0,0.32885712,-5.0,-5.0,-5.0,5.0
-5.0,5.0,-5.0,3.0684187,0.8983542,-0.0014680326,1.378042,2.0402832,-0.8315379,-5.0,5.0,0.07230337,-4.3517327,-5.0,-5.0,-4.874865
-2.859868,5.0,-5.0,-10.0,5.0,-5.0,-5.0,-5.0,4.002151,-1.0000504,-0.34094548,0.4145795,0.18293369,-5.0,-1.0174252,-5.0
0.9730301,-3.9347947,3.8968246,0.17423077,5.0,-4.8860416,-5.0,-5.0,3.8408985,5.0,-5.0,-8.251569,5.0,2.7364757,3.7853856,-0.9265276
-0.3755685,-3.685369,5.0,0.08111615,5.0,-3.9698896,-4.9111114,-0.7093246,5.0,5.0,-3.9088304,-9.933067,1.3253957,5.0,5.0,-0.35408658
-5.0,4.675562,-5.0,5.557241,-3.1867726,-1.1042626,2.9910982,-5.0,-5.0,5.0,3.9475117,9.940775,-5.0,4.27911,-5.0,4.1513553
-5.0,5.0,-5.0,10.0,-1.6749966,1.5171952,1.46661,0.19222933,-3.0384898,-2.268176,5.0,-0.11182431,-5.0,-5.0,-5.0,3.354988
-4.469601,2.3535166,-5.0,10.0,5.0,-5.0,-5.0,-2.2608175,1.1849017,-5.0,1.0814345,-0.19113573,-1.5428267,-5.0,0.3189659,0.39957726
3.3070884,-1.8499771,0.9702749,-0.573901,5.0,-5.0,-5.0,-5.0,3.4876463,5.0,-5.0,10.0,5.0,-3.9094727,2.5545127,-0.34873062
0.8184346,-3.1431594,5.0,-0.17698203,5.0,-5.0,-5.0,-1.7213745,4.369609,5.0,-5.0,10.0,3.8780837,5.0,5.0,-1.3121767
-5.0,3.302614,-5.0,1.0461804,3.5229847,-5.0,-3.2264466,-5.0,0.7576797,5.0,2.8263876,3.3677936,-5.0,5.0,2.2236023,-0.9317053
-5.0,5.0,-5.0,-10.0,-5.0,3.0586176,3.564366,-0.758995,-4.0188107,1.8180275,1.8390843,0.5502251,-5.0,-2.0254016,-5.0,-0.24828249
-5.0,5.0,-5.0,9.233321,-0.73757756,1.7681248,2.269408,1.7763547,-0.30890083,-5.0,5.0,-0.055023093,-3.8436227,-5.0,-4.5455136,5.0
-4.6260552,5.0,-5.0,-3.6685157,5.0,-4.6814966,-4.173254,1.0531771,2.5750709,-4.5752645,1.0642945,0.5928029,-0.20272222,-5.0,0.37997204,-0.2973225
5.0,-1.1857729,1.9225229,-0.8118027,5.0,-2.3683715,-5.0,5.0,3.3956552,5.0,-5.0,-0.48638558,3.917624,-0.041287303,1.9358943,-0.07916553
0.6839198,-3.5168848,5.0,-0.06806578,5.0,-0.826324,-4.763238,5.0,4.5691833,5.0,-4.84596,10.0,0.8600538,5.0,5.0,-0.038406394
-4.0012655,-1.0440824,-1.1877724,-0.17242269,5.0,-5.0,-5.0,3.1328068,4.6400633,5.0,-1.5086036,10.0,-4.0129747,5.0,5.0,-2.595093
-5.0,4.801465,-5.0,-4.228816,-5.0,0.6873679,4.3867397,-0.46232522,-5.0,2.5561523,3.0816424,0.36254174,-5.0,1.140733,-5.0,3.0410109
-5.0,5.0,-5.0,10.0,-1.87569,2.2896612,3.348285,-0.1542199,-1.6546141,-4.722713,5.0,-0.17270637,-4.9184127,-5.0,-5.0,-2.5361347
0.17091197,2.8034759,-2.3650963,1.0631037,5.0,-5.0,-5.0,5.0,5.0,1.025305,-3.727268,0.35276318,3.2250485,-5.0,0.06978345,-0.55704355
3.1921105,-2.053183,2.3447697,0.18185093,5.0,-2.6267219,-5.0,5.0,2.3387597,5.0,-5.0,10.0,2.5632553,-1.0038908,2.704217,-0.18361685
-1.9428312,-3.0024378,5.0,-3.6137764,5.0,-5.0,-5.0,5.0,3.39719,5.0,-5.0,4.888163,-1.2892861,5.0,5.0,-5.0
-5.0,3.2999268,-4.229374,-0.8581311,5.0,-5.0,-4.8369884,-5.0,5.0,5.0,2.5917993,3.048333,-1.6451004,5.0,1.382192,-0.034383416
-5.0,5.0,-5.0,4.6707926,-3.0484116,2.063472,2.558907,-0.77296865,-5.0,0.3453375,4.1088257,0.16652682,-4.313533,-5.0,-5.0,5.0
-5.0,5.0,-5.0,10.0,2.4623995,-4.342452,-1.0788845,-0.6690429,-1.782666,-5.0,3.6397407,0.18973583,-3.729241,-5.0,-1.9975594,5.0
4.106221,-2.4707513,-0.8603276,-0.33403358,5.0,-5.0,-5.0,-5.0,2.439135,2.3416214,-5.0,0.57099044,2.1706617,-5.0,0.9394834,0.27602828
0.705279,-3.5500507,5.0,-0.58404803,5.0,-5.0,-4.7609935,-5.0,2.0917583,5.0,-5.0,-9.158797,2.573915,5.0,5.0,0.5542897
-2.9070663,0.039868176,0.784395,0.10347998,5.0,-5.0,-5.0,-3.7319746,5.0,5.0,-2.8823168,10.0,0.20019329,5.0,5.0,-0.6067748
-5.0,3.8522372,-5.0,10.0,-3.6904325,-0.7481266,1.495133,-0.25293195,-2.2070343,5.0,1.7280177,2.2443824,-4.382819,2.1257944,-2.5715427,0.3050159
-5.0,5.0,-5.0,-6.2101502,-3.7963855,2.1283312,2.6279097,-0.70952696,-1.9461799,-2.8946838,5.0,-1.3885823,-1.271994,-5.0,-5.0,5.0
-2.9866805,5.0,-5.0,-5.842121,5.0,-4.973091,-4.7107987,0.61758804,3.7080963,-1.1694086,-3.504178,-3.4973195,1.6572173,-5.0,1.0083369,1.4473066
2.1248953,-1.2482061,0.86081195,0.43698898,5.0,-0.89409304,-4.1150837,5.0,3.73296,5.0,-5.0,-0.74907535,5.0,-2.1467156,1.373771,-0.4660391
0.14271724,-2.4512312,5.0,-0.7879509,5.0,-4.8346906,-3.7662044,0.35854268,3.370777,5.0,-3.7188292,10.0,1.8924356,5.0,5.0,-0.49443582
-5.0,5.0,-5.0,0.36467424,4.7917886,-5.0,2.050775,0.64510775,2.6335082,5.0,3.293501,3.613312,-4.269767,5.0,-0.32276237,-1.2376125
-5.0,5.0,-5.0,1.4084722,-5.0,4.3720617,4.169245,0.22220828,-5.0,3.4017596,1.9267092,0.18061522,-5.0,-2.9198036,-5.0,5.0
-5.0,5.0,-5.0,5.311173,-0.40715337,1.5116216,2.515448,-0.6296994,-1.9884964,-5.0,5.0,0.09325051,-5.0,-5.0,-5.0,-3.119295
2.9947994,3.9802923,-2.5965943,-2.7557707,5.0,-5.0,-5.0,0.61809134,5.0,1.7706593,-2.4555135,-0.44599226,3.3473659,-5.0,0.9221594,1.6358873
1.8546593,-3.2267013,4.4827533,-0.34972706,5.0,-2.4119494,-3.216159,5.0,4.5460725,5.0,-5.0,10.0,5.0,2.0930252,4.0142455,-0.4760182
-1.2040385,-3.500442,3.4903822,0.280304,5.0,-5.0,-5.0,-5.0,5.0,5.0,-2.4387167,4.92937,0.19035769,5.0,5.0,-0.036898375
-5.0,5.0,-5.0,0.42376125,-5.0,0.952561,3.001165,0.43283826,-4.147003,1.8255713,1.7647728,0.003961399,-5.0,1.9718287,-2.5536227,-0.9888923
-5.0,5.0,-5.0,10.0,-2.423633,2.5914974,3.2509928,0.50495815,-1.840094,-4.6107435,5.0,-1.3640002,-3.8174503,-5.0,-5.0,5.0
-5.0,5.0,-5.0,-1.6012099,5.0,-0.4917239,1.798957,2.4920127,1.4584818,-5.0,2.937652,0.35186735,-2.1945968,-5.0,-1.5290444,0.59323114
4.308937,-1.3953111,0.09913516,-0.11514017,5.0,-1.9523745,-5.0,5.0,4.80342,5.0,-5.0,-7.559211,4.645163,-4.6950254,0.5346024,0.5086954
0.40205437,-4.490916,4.7919908,-0.20280395,5.0,-2.9824467,-4.247655,5.0,1.0636983,5.0,-5.0,-6.650679,1.0918937,4.807634,5.0,-1.4031297
-0.6347227,-1.8089333,2.932475,0.6251069,5.0,-5.0,-5.0,-5.0,5.0,5.0,-5.0,-8.000619,-1.0083903,5.0,5.0,-0.10715183
-5.0,3.4930954,-5.0,9.819404,-1.7750576,-0.29615867,3.321402,3.8598356,-2.1886365,5.0,5.0,2.4986687,-3.5641112,1.6683477,-2.406092,-0.33670256
-5.0,5.0,-5.0,10.0,1.5582876,-4.3407965,-4.8010907,-5.0,0.08891404,-5.0,2.1489813,-1.8628962,-5.0,-5.0,-5.0,-5.0
1.0742805,1.6579376,-2.0134537,-0.15528029,5.0,-5.0,-5.0,-5.0,3.5177877,3.6529074,-3.4941802,0.5180273,1.9185623,-5.0,0.477954,-1.6501122
1.2698219,-3.2492087,2.5314329,0.43080136,5.0,-2.6039913,-2.9466443,5.0,3.9030683,5.0,-5.0,-7.347252,5.0,1.6898654,3.964696,0.41843444
-3.0483193,0.061889052,1.174025,4.090967,5.0,-5.0,-5.0,3.435987,5.0,5.0,-4.2814045,1.0176268,-0.0065568686,5.0,5.0,0.07798628
-5.0,5.0,-5.0,-2.5148506,-0.6855809,-4.6270885,1.2080693,2.5146503,-0.23675823,5.0,-0.9441848,-4.150471,-5.0,5.0,0.12989771,0.29444793
-5.0,5.0,-5.0,3.9907348,-3.5602145,3.1261034,4.0912147,0.15556991,-3.1993103,0.5486872,2.1196694,0.5500466,-5.0,-5.0,-5.0,-5.0
-5.0,5.0,-5.0,5.4236975,4.6930985,-3.8632345,-3.1578257,-0.16149324,2.3758438,-4.84925,1.4715159,0.5534283,-2.4529374,-5.0,-0.23116767,1.1210442
3.5941517,-1.722794,2.217471,1.1008369,5.0,-2.7713192,-5.0,4.6272936,5.0,5.0,-5.0,-0.3941363,5.0,-5.0,0.71797574,0.48656523
0.5290801,-2.6709194,5.0,-0.05770322,5.0,-5.0,-5.0,-2.4572608,1.8269477,5.0,-5.0,10.0,0.1553942,5.0,5.0,-0.14898041
-5.0,3.0757523,-5.0,2.9462392,-2.1802232,-5.0,0.6532179,0.43598354,-0.36470813,5.0,-0.10953385,-7.585968,-5.0,5.0,-1.655782,2.5472922
-5.0,4.5491576,-5.0,0.7496767,-5.0,2.0030274,3.8628929,0.93643916,-3.935441,0.07420087,3.3701913,-0.24524108,-5.0,-5.0,-4.883478,-1.8191457
-5.0,5.0,-5.0,10.0,-0.3689844,1.1110029,2.3688118,1.7299525,-0.5142796,-4.498346,5.0,-0.09197003,-5.0,-5.0,-4.5123568,5.0
5.0,0.5357762,0.31531182,-7.333213,5.0,-2.671165,-5.0,5.0,5.0,3.1581333,-5.0,8.019708,5.0,-5.0,-0.36523175,-4.626809
2.9467807,-1.9545786,4.7238517,-3.099521,5.0,0.38791224,-5.0,1.8633215,5.0,5.0,-5.0,10.0,5.0,5.0,0.5160419,0.35700327
0.19134259,-4.013895,5.0,-0.27892873,5.0,-4.934939,-5.0,-5.0,5.0,5.0,-3.431448,10.0,1.4186621,5.0,5.0,-0.092885315
-4.094226,1.2071402,-2.5980592,0.8088659,5.0,-5.0,-5.0,-3.5498428,5.0,5.0,1.7712836,-0.5793266,-1.3696889,5.0,4.5257535,-0.9541939
-5.0,5.0,-5.0,5.467703,-5.0,3.3881366,3.0948021,-0.16218296,-4.7213116,0.6141281,4.043508,-0.11093045,-5.0,-5.0,-5.0,-5.0
-4.2718782,5.0,-5.0,-5.253459,5.0,-4.553,-5.0,-1.4082277,3.187115,-5.0,2.5946412,0.7084965,-4.548799,-5.0,0.22840166,-5.0
3.7741969,-0.82058406,2.088757,3.9313023,5.0,-4.5742817,-3.9087179,1.4421072,5.0,5.0,-5.0,-4.9602876,4.1256337,-5.0,1.148149,-0.40688688
0.5197169,-3.7850664,4.822162,-0.25942445,5.0,-5.0,-5.0,-5.0,2.561047,5.0,-5.0,-8.475406,2.967469,5.0,5.0,1.14404
-2.9540267,-0.26018465,1.1663667,0.43142563,5.0,-5.0,-5.0,3.30958,5.0,5.0,-1.7020731,0.7645342,-0.26052678,5.0,5.0,-0.14665386
-5.0,5.0,-5.0,-0.5865294,-3.603353,-1.7817873,4.746277,-2.4388058,-0.5618659,5.0,5.0,5.9696097,-5.0,5.0,-2.4654107,0.280637
-5.0,5.0,-5.0,10.0,-1.1450403,0.9403074,1.1638104,-0.0794618,-5.0,-1.5216224,4.4626136,-0.5917567,-5.0,-5.0,-5.0,1.1337805
-3.0709264,5.0,-5.0,10.0,5.0,-3.9771147,-3.9418693,0.04371476,4.2100067,-5.0,2.2561035,0.58248675,-3.2998228,-5.0,0.23106807,5.0
3.2955203,-1.4696567,-0.51891947,-1.0206786,5.0,-2.9768066,-5.0,4.034142,5.0,5.0,-5.0,0.6962954,5.0,-5.0,2.1861122,1.5578597
0.42725557,-4.4676785,5.0,-2.8748043,5.0,-3.2918658,-2.9978158,5.0,2.8850117,5.0,-5.0,-6.8699436,1.9069726,5.0,5.0,-1.3413556
-2.2133193,-0.41717845,0.76273704,4.4994736,5.0,-5.0,-5.0,-2.3650017,5.0,5.0,-1.4305854,0.29784036,-0.16752756,5.0,5.0,-1.0353336
-5.0,3.9175231,-5.0,10.0,-1.0305724,-3.3963227,2.3375967,3.1216817,-2.9898486,5.0,0.96456885,0.4678503,-5.0,4.479796,-1.0269815,-0.4927561
-5.0,5.0,-5.0,-8.509586,-2.9193206,3.6544504,2.8838408,0.6150433,-1.9302565,-1.5356305,5.0,0.33074996,-5.0,-5.0,-5.0,3.5785708
-5.0,5.0,-5.0,4.724228,5.0,-2.9721656,-1.0966107,-0.19354162,2.6315765,-5.0,4.2531633,0.013449455,-3.3540914,-5.0,-2.2632222,-1.3750522
5.0,-2.4301724,2.3423579,0.032244626,5.0,-5.0,-5.0,-5.0,5.0,5.0,-5.0,-5.6491003,5.0,-5.0,1.3611596,1.316075
1.1436063,-4.887302,4.75972,-0.2543223,5.0,-5.0,-5.0,-4.237751,1.4747357,5.0,-5.0,-8.618338,3.3493452,4.86386,5.0,-0.7620076
-0.22897589,-3.8561473,5.0,0.05325448,5.0,-5.0,-5.0,-5.0,5.0,5.0,-4.0341625,-10.0,-0.35616243,5.0,5.0,-0.50165355
-5.0,3.9304814,-5.0,0.9002638,-1.4110253,-2.5460176,2.5084338,-2.7793605,-3.100174,5.0,1.0389798,-10.0,-4.909844,2.950171,-4.0103297,1.725955
-5.0,3.0350373,-5.0,5.2575126,-0.67939746,0.40966803,1.3190279,1.3523784,-4.2503786,-2.9635756,4.4508595,0.81515115,-5.0,-5.0,-5.0,-0.91701
-3.0365813,4.5799093,-5.0,10.0,5.0,-2.407333,-4.2166066,-0.78733206,0.82874227,-3.6070673,3.6850061,-0.43262243,-2.5439303,-5.0,-1.4287812,1.7062925
3.7157333,-3.5000274,2.5895262,0.40466598,5.0,-3.452855,-5.0,-0.93129957,5.0,5.0,-5.0,-8.311102,5.0,-0.085237026,0.3952558,-0.4767109
1.0080595,-3.9855254,5.0,-0.034505196,5.0,-5.0,-5.0,-5.0,4.0322447,5.0,-4.0610466,-10.0,0.31180966,5.0,4.9940615,-1.1543291
-2.0020328,-0.43281466,0.71677935,0.2823733,5.0,-5.0,-5.0,-5.0,5.0,5.0,-1.1356766,-2.8750577,-2.6952026,5.0,5.0,-0.17906167
-5.0,3.4814787,-5.0,10.0,-5.0,3.1022348,4.3345656,0.12241699,-4.946716,1.5106884,2.6288493,0.5019947,-5.0,-1.0179449,-5.0,2.4913402
-5.0,5.0,-5.0,10.0,0.29617262,0.96912205,1.4463456,2.2333946,-3.9443946,-3.5551941,5.0,-0.12955905,-5.0,-5.0,-3.656059,-3.0874364
2.2463439,0.7134788,1.6867094,2.6705353,5.0,-5.0,-5.0,-5.0,5.0,1.0783465,-3.2705297,0.3931095,5.0,-5.0,1.3009002,0.23234686
0.7448024,-5.0,4.4246206,0.23951456,5.0,0.58159935,-5.0,5.0,5.0,5.0,-5.0,-7.9604216,5.0,2.799118,1.4434304,0.026262209
-2.8677773,-2.8772588,2.7242756,-4.0960402,5.0,-5.0,-5.0,5.0,5.0,5.0,-2.3140051,10.0,-2.7359087,5.0,5.0,-0.81451833
-5.0,4.348766,-5.0,-0.0019889474,-0.47383118,-2.1228366,0.40134358,-0.026614297,-1.00398,5.0,1.1105084,2.0324764,-5.0,4.585865,-1.0960776,0.6185252
-5.0,5.0,-5.0,-4.4368105,-3.5608683,2.2406693,1.8387437,0.48726636,-2.5893402,-0.3735925,3.7998815,-0.6376108,-3.9271698,-5.0,-5.0,-5.0
-1.9755142,5.0,-5.0,-6.614214,5.0,-5.0,-5.0,-3.7561958,4.7073216,-3.581859,0.38943166,1.622348,-0.5682789,-5.0,2.4804447,-1.1538795
3.8583055,-2.6583307,3.5146518,-0.2575465,5.0,-3.2155898,-5.0,-5.0,5.0,5.0,-5.0,10.0,5.0,0.15465021,2.332739,2.6523237
0.08679807,-4.1022882,5.0,-0.6848736,5.0,-5.0,-5.0,-5.0,5.0,5.0,-5.0,-10.0,1.3260429,5.0,5.0,-0.7397951
-3.0018783,0.20497394,1.1798202,3.6519196,5.0,-5.0,-3.9917915,5.0,5.0,5.0,1.4789159,4.4400725,-2.1036725,5.0,5.0,-0.5490669
-5.0,5.0,-5.0,-7.914772,-1.4763231,-0.22964197,1.6781766,0.2555472,-3.5944467,5.0,1.1450715,1.901671,-5.0,3.5313718,-1.30457,-0.5841445
-5.0,5.0,-5.0,-6.1899815,1.1983336,0.5432061,0.6945187,4.4667187,-0.68856233,-5.0,5.0,0.0051773563,-4.1850095,-5.0,-5.0,-3.33076
-0.060677588,5.0,-4.1939936,3.1746378,5.0,-5.0,-5.0,-5.0,5.0,1.8795364,-4.1754394,0.5117896,4.710308,-5.0,-0.88931435,-0.19681123
1.9771609,-3.5610247,4.054155,0.26458216,5.0,-3.2084267,-5.0,-5.0,4.097042,5.0,-5.0,-9.677658,5.0,3.5751693,4.3201265,-0.101078644
-2.0249505,-1.5442836,1.4009616,0.45792863,5.0,-5.0,-5.0,5.0,5.0,5.0,-1.0104132,10.0,-3.7383249,5.0,5.0,-4.412706
-5.0,3.8643775,-5.0,-2.7504747,4.1982155,-5.0,0.3430853,-3.8519676,2.598631,5.0,-0.7746433,-10.0,-5.0,5.0,0.70731044,0.709088
-5.0,5.0,-5.0,-9.747898,-5.0,2.7516499,3.1535869,0.08720824,-4.3664656,-0.31518108,3.8636837,-0.095267326,-5.0,-3.64343,-5.0,-5.0
-5.0,5.0,-5.0,5.214185,5.0,-1.4333764,-0.37358606,-0.5603596,-0.1687473,-5.0,4.4730024,-0.4512714,-4.0400615,-5.0,-2.5944738,5.0
3.0667763,-2.664334,1.7265198,10.0,5.0,-5.0,-5.0,-5.0,5.0,4.5740423,-5.0,0.837383,5.0,-5.0,-0.11734176,-1.9369954
0.754163,-2.454693,3.3210192,-0.5278746,5.0,-5.0,-4.921117,-5.0,1.6301817,5.0,-5.0,-8.370325,5.0,3.3019483,5.0,-0.25071
-2.6170404,-0.62106353,1.1377895,0.095119976,5.0,-5.0,-5.0,-2.1765542,5.0,5.0,-1.6895885,-3.618938,0.12211728,5.0,5.0,-0.7592546
-5.0,5.0,-5.0,8.063568,-4.812652,1.3126371,3.5350218,-0.1262134,-1.6043617,3.6187027,1.1928444,-10.0,-5.0,0.6222242,-4.1931086,-0.103547156
-5.0,5.0,-5.0,-5.7196674,-4.4430084,3.5729935,3.2945316,0.3434777,-3.169335,-3.9530437,5.0,-0.9859375,-5.0,-5.0,-5.0,4.80678
-5.0,5.0,-3.9699154,10.0,2.9479651,-0.108801305,2.7184718,-0.15884125,-0.44837302,-5.0,3.7701883,-0.886417,-1.9350464,-5.0,-1.7693903,5.0
4.1600876,-0.20187637,0.63701904,0.07779859,5.0,-5.0,-5.0,-5.0,5.0,5.0,-5.0,-6.3978705,5.0,-5.0,0.78228056,0.21660906
-0.73892593,-3.9420972,5.0,0.18180445,5.0,-5.0,-5.0,-1.8695235,4.085499,5.0,-5.0,-3.0943594,3.5802693,5.0,5.0,-0.28533703
-2.577694,0.2842964,-0.37773693,0.21796031,5.0,-5.0,-5.0,-0.40140915,5.0,5.0,-1.0847198,10.0,0.11106449,5.0,5.0,0.017464027
-5.0,5.0,-5.0,-5.9572935,-5.0,2.2402425,2.4236202,0.57378894,-5.0,5.0,2.5029154,0.879085,-5.0,-2.5246866,-3.9951873,-0.15646085
-5.0,5.0,-5.0,-3.629775,-0.5531707,2.2041495,2.6701798,-0.37401202,-1.1763705,-5.0,5.0,-0.312156,-3.6204808,-5.0,-3.5455866,3.3689485
3.2921748,2.8033867,-2.4770632,-1.8978722,5.0,-2.897399,-5.0,5.0,5.0,3.1919537,-4.967504,-1.2518903,4.616162,-5.0,-0.39601517,-0.21074402
2.6001554,-3.187587,2.862923,-0.16179965,5.0,-5.0,-5.0,-5.0,2.646429,5.0,-5.0,-7.1268654,4.629409,0.0914823,2.155004,0.54284024
-0.4063449,-3.0074205,4.6835036,-0.082968526,5.0,-4.06855,-5.0,0.37373734,4.636429,5.0,-5.0,-0.61390567,0.99222636,5.0,5.0,-1.5860711
-5.0,3.6188495,-5.0,0.40075794,5.0,-5.0,-2.0424685,-5.0,4.2546163,5.0,-0.77361655,-10.0,-4.320308,5.0,1.2790437,-0.3014559
-5.0,5.0,-5.0,-3.2059054,-3.7943087,0.81352764,1.8277678,2.0793898,-5.0,1.654738,3.9515815,-0.13028672,-3.8247247,-5.0,-5.0,5.0
-5.0,5.0,-5.0,10.0,4.7265,1.8144634,1.5490906,2.2460048,-0.0239954,-5.0,5.0,-5.1929684,-2.6880832,-5.0,-4.736076,5.0
2.330313,5.0,-3.2361045,-9.1443,5.0,-5.0,-5.0,-5.0,5.0,-0.56133664,-4.00599,-0.2200284,2.8554473,-5.0,1.2885985,-5.0
1.7713675,-3.2671764,2.9000525,-0.9475965,5.0,-3.7031581,-5.0,-5.0,5.0,5.0,-5.0,-4.9642677,5.0,-0.6334989,1.8781258,0.30816317
-1.3405659,-1.8271852,3.5059814,-0.90294677,5.0,-5.0,-5.0,5.0,5.0,5.0,-4.9771247,-10.0,1.3995018,5.0,5.0,-0.57591814
-5.0,3.2025166,-4.4565425,3.732404,5.0,-5.0,-5.0,-5.0,5.0,5.0,-0.55342555,-10.0,-0.7033313,5.0,4.1246595,-1.1498587
-5.0,5.0,-5.0,0.5634732,-5.0,2.6925602,2.6293263,-0.22141922,-2.9013348,1.1376736,3.0844223,1.4396546,-5.0,-3.3094025,-5.0,-3.119985
-5.0,5.0,-5.0,-1.0687728,1.9384061,0.009665191,2.2452106,2.8612456,-1.0334457,-5.0,4.567419,0.062499277,-2.5048718,-5.0,-3.8652582,1.3246708
4.705559,0.64105314,-3.0000126,-0.18530655,5.0,-5.0,-5.0,5.0,5.0,2.8531914,-5.0,0.68489397,4.8162374,-5.0,3.0796216,-0.76290894
3.536717,-3.0128617,4.541147,0.1799293,5.0,-5.0,-4.0716085,-5.0,1.563335,5.0,-5.0,-9.784233,2.5451548,0.18907112,3.1205254,-1.4536684
-4.956892,-0.2972234,0.51324916,1.6417042,5.0,-5.0,-5.0,-2.180963,5.0,5.0,-2.7352047,2.5538456,-3.0553832,5.0,4.2079544,-1.0246309
-5.0,1.6445735,-5.0,6.6994753,-2.9903798,-0.58252853,0.72148883,-0.063496985,-4.73874,5.0,2.3380682,-0.58333117,-5.0,2.1702013,-2.0027661,-0.5181911
-5.0,5.0,-5.0,-3.4593892,0.8673971,1.5191233,1.9277754,-2.864751,-4.990812,-5.0,5.0,0.92647153,-4.309509,-5.0,-5.0,0.48995447
-5.0,5.0,-5.0,10.0,5.0,-4.832414,-4.0175962,0.21999562,2.5700378,-5.0,3.2106977,0.18659121,-5.0,-5.0,-0.6311214,-5.0
4.417012,-3.21074,0.646271,-0.26426885,5.0,-5.0,-5.0,-4.405307,5.0,5.0,-5.0,10.0,5.0,-2.801838,1.5931618,0.0341309
0.77426374,-5.0,5.0,-1.0391573,5.0,-5.0,-4.5160856,-2.117918,1.2718233,5.0,-5.0,0.65137434,0.6098939,5.0,5.0,-0.10255554
-5.0,2.3828459,-5.0,-0.21704184,5.0,-5.0,-1.4568123,5.0,3.9030862,5.0,0.08712852,-9.134901,-4.333624,5.0,2.0625198,-0.2932331
-5.0,5.0,-5.0,-3.5335388,-4.8538733,-0.14829451,1.3114327,0.17191792,-4.36783,2.4845963,2.7743542,0.071831904,-4.130611,-1.7688963,-2.3461702,0.87061435
-5.0,5.0,-5.0,-3.7108102,-0.9437706,0.8412311,1.8133035,1.6873214,-0.5548072,-3.8380175,5.0,-0.32670552,-2.9567308,-5.0,-5.0,-1.0532076
-5.0,4.655915,-3.8323274,-6.045768,5.0,-5.0,-5.0,-5.0,5.0,-5.0,-0.41955864,-0.3745115,0.5494634,-5.0,-1.3970418,-5.0
0.31857443,-3.9712627,2.7339456,0.3119465,5.0,-3.4171987,-5.0,0.64456105,4.712089,5.0,-5.0,-4.9308147,5.0,0.12700224,3.4334126,-0.6051331
-0.14405644,-2.9512546,5.0,-0.043811154,5.0,-5.0,-5.0,-5.0,1.5945933,5.0,-5.0,10.0,1.1558818,5.0,5.0,-0.5388952
-5.0,5.0,-5.0,1.5767086,5.0,-5.0,0.7305223,-0.74328864,4.749755,5.0,1.301898,10.0,-5.0,5.0,1.1032436,0.6660493
-5.0,4.5350537,-5.0,-0.61713386,-5.0,3.495197,3.3001318,-0.85249263,-3.9563065,0.65191334,0.91081166,-0.1903739,-5.0,-1.8100555,-5.0,-5.0
-5.0,5.0,-5.0,6.611859,4.3339148,-1.3108698,1.2704133,-0.6201603,0.7443361,-5.0,4.54071,-0.33836716,-3.0608368,-5.0,-2.2478337,5.0
3.3535848,0.19287431,-2.9016092,-3.8571355,5.0,-5.0,-5.0,-5.0,4.4954023,2.7392004,-5.0,0.5770069,2.7137659,-5.0,1.8181503,0.038370512
0.2822641,-2.4227424,4.4348316,-0.08787791,5.0,-4.986659,-5.0,-3.6724467,2.9945369,5.0,-5.0,10.0,5.0,1.7077929,5.0,-1.1742351
-0.70945966,-3.040919,4.1371675,0.008503987,5.0,-5.0,-5.0,-1.9708345,3.8130744,5.0,-5.0,6.1755657,0.53903353,5.0,5.0,-1.3996216
-5.0,5.0,-5.0,0.53482974,-0.27679062,-4.2356744,3.2922578,-5.0,-1.997552,5.0,0.187891,1.3551139,-5.0,5.0,-0.9265419,0.5043523
-5.0,5.0,-5.0,10.0,-4.2714696,3.5674882,2.8860524,0.3175569,-1.8054795,-0.7573861,5.0,-0.8617536,-5.0,-5.0,-5.0,-5.0
-4.203841,5.0,-5.0,-8.927221,5.0,-5.0,-5.0,0.41787916,3.7937586,-3.0545812,0.82579947,2.4483714,-0.92386836,-5.0,-0.90326536,-5.0
4.9940596,-1.8254231,1.6431928,-2.14892,5.0,-5.0,-5.0,-5.0,4.9765835,5.0,-5.0,10.0,3.5880282,-4.9418955,1.7223287,0.67399734
1.541009,-3.9176304,5.0,0.07353672,5.0,-5.0,-5.0,-3.20001,1.9451896,5.0,-5.0,10.0,-0.85354364,5.0,5.0,-0.2275075
-1.0969434,-3.50442,4.1442113,-0.17417799,5.0,-4.17243,-4.923766,5.0,5.0,5.0,-4.5930467,-2.751909,0.8512527,5.0,5.0,-0.13827595
-5.0,3.3446565,-5.0,1.010014,-3.4204605,-0.76929677,2.232947,0.6655945,-5.0,5.0,2.6942067,0.13831207,-5.0,4.0953608,-1.0191537,-0.23548117
-5.0,5.0,-5.0,10.0,-2.8133683,1.928781,2.8215241,0.35402372,-3.0667892,-2.9137168,5.0,-0.76687133,-3.088323,-5.0,-5.0,1.5531406
-0.8431095,5.0,-3.2244275,10.0,5.0,-5.0,-5.0,0.3882966,3.497183,-3.1219563,-0.90265584,-0.18264583,2.285079,-5.0,2.4260192,0.8626386
2.5456266,-0.9729688,1.5996857,3.6638465,5.0,-5.0,-5.0,-3.8152432,4.050066,5.0,-5.0,0.48711222,5.0,-3.5804021,3.2688313,0.64942265
0.7547413,-4.2479796,4.8537016,-0.044069562,5.0,-5.0,-5.0,-5.0,3.1158829,5.0,-5.0,-8.293076,1.6904067,5.0,5.0,-0.18734314
-4.620761,-0.28366077,-0.11461699,-0.32920176,5.0,-5.0,-5.0,1.7637959,5.0,5.0,-0.82269824,1.1535814,-1.2732711,5.0,5.0,0.18844023
-5.0,3.115169,-5.0,-0.62969273,-5.0,3.5950575,3.1890106,0.4597626,-4.8694105,0.7226256,3.5610762,-0.23833962,-5.0,-0.32943094,-4.2356796,3.7378948
-5.0,5.0,-5.0,-4.4799075,0.53876436,0.13850695,2.2067935,1.3037462,-4.025202,-5.0,5.0,-0.15557931,-2.362424,-5.0,-3.7651086,-2.0226746
0.97658324,4.601906,-2.7425156,1.3495479,5.0,-5.0,-5.0,-5.0,5.0,0.80441964,-2.9123595,-0.43256596,3.5955806,-5.0,0.26248515,0.48479718
1.6283532,-3.4414554,5.0,0.09522072,5.0,-2.1438065,-4.8334017,4.0729904,2.7295883,5.0,-5.0,10.0,5.0,3.6861982,4.479943,-0.25505698
-3.5368698,0.19346249,-0.2529791,0.08752564,5.0,-5.0,-5.0,-5.0,5.0,5.0,-0.6435945,10.0,0.0660063,5.0,5.0,-1.4764664
-5.0,3.065259,-5.0,4.6094875,-0.8697216,-2.3869886,2.739695,2.1989024,-0.37946838,5.0,3.454651,2.794742,-4.151324,5.0,-1.1600143,0.21388629
-5.0,5.0,-5.0,6.780187,-5.0,2.190915,4.191873,1.0270051,-3.6657221,-1.2460845,2.6024923,-0.640516,-5.0,-5.0,-5.0,5.0
-5.0,5.0,-5.0,-2.5700843,3.8654675,-3.9651864,-1.8810625,0.7300024,2.6487515,-5.0,3.345896,0.41738242,-2.8335896,-5.0,0.3528223,4.2713776
2.264555,-0.49403822,1.031732,3.572934,5.0,-2.886315,-5.0,-5.0,5.0,4.872921,-5.0,0.8822358,5.0,-5.0,1.0416112,0.23908307
0.7287579,-5.0,5.0,-0.17628989,5.0,-4.4447336,-5.0,-4.1339927,3.6831384,5.0,-5.0,-8.795957,4.662149,5.0,5.0,-0.6147647
-2.3171809,-0.87327653,1.9264749,1.2940897,5.0,-5.0,-5.0,-2.2362142,5.0,5.0,-1.3053815,6.565074,-0.4395076,5.0,5.0,-0.5209319
-5.0,4.6356497,-5.0,1.6553147,-4.509547,1.8752587,2.6412172,-1.091627,-3.281465,5.0,0.80971956,-2.3428216,-5.0,-0.9782479,-2.8023646,-0.09830796
-5.0,5.0,-5.0,1.6818998,-2.6713417,2.9511962,2.1925118,-0.40586123,-0.014934421,-3.2226503,5.0,-0.966533,-0.4529264,-5.0,-4.7617974,5.0
-3.220218,5.0,-5.0,5.374804,5.0,-3.581174,-3.259278,0.3836341,1.8363031,-3.396792,1.3719277,2.4549696,-0.7117113,-5.0,-0.14355779,-5.0
2.250648,-2.9644713,1.9475709,0.56981313,5.0,-0.91820693,-5.0,5.0,2.9388146,5.0,-5.0,-7.656501,5.0,-0.59834313,0.77225506,-0.1765451
1.5213149,-4.587598,5.0,-0.062595315,5.0,-5.0,-3.535751,-5.0,1.4359071,5.0,-5.0,-7.9676657,-0.19094563,5.0,5.0,-1.1850548
-5.0,3.226192,-5.0,0.48333156,5.0,-5.0,-1.075463,-5.0,5.0,5.0,0.6852299,0.9100918,-2.3201623,5.0,2.6290839,0.32036474
-5.0,4.9546003,-5.0,-0.38470376,-2.8395963,2.2389078,1.0962548,-5.0,-5.0,2.453712,4.6936536,-0.66143847,-5.0,-5.0,-4.498617,5.0
-5.0,5.0,-5.0,1.7872372,1.8407587,-0.09717953,1.9922844,2.4556348,-3.051992,-5.0,4.9099274,-0.18151987,-5.0,-5.0,-4.9160376,-3.7586794
0.53620386,2.5261965,-0.24678993,10.0,5.0,-5.0,-5.0,5.0,3.8255632,-0.8809947,-2.2660658,0.5781498,1.7876666,-5.0,1.7692124,-0.56635135
1.701612,-4.228999,3.7572784,0.94904596,5.0,0.7182922,-5.0,5.0,5.0,5.0,-5.0,1.0263072,5.0,-0.023576438,1.6107572,0.19360887
-0.6946144,-3.4037085,5.0,-0.722581,5.0,-5.0,-5.0,-5.0,5.0,5.0,-3.4522343,-10.0,0.60548073,5.0,5.0,-1.0805218
-5.0,5.0,-5.0,-1.4985361,4.0784373,-5.0,-1.7148455,3.9172301,3.2618868,5.0,3.207251,3.796747,-4.340901,5.0,2.0020235,-0.8564093
-5.0,5.0,-5.0,-3.70114,-3.8457084,2.2233834,3.7610536,-0.60842544,-3.4872909,0.24631512,3.6373441,1.0153741,-5.0,-5.0,-5.0,-5.0
-5.0,5.0,-5.0,4.5985394,5.0,-3.288253,-2.4074988,0.41760546,2.9139805,-4.0593166,2.2610195,0.43034315,-2.907404,-5.0,0.025025249,3.4277613
5.0,-0.22616488,0.64623857,-0.29807702,5.0,-2.7770708,-5.0,-4.3471756,5.0,5.0,-5.0,-1.7210242,3.8568182,-5.0,0.51178813,-1.7864631
-0.43088531,-5.0,5.0,-0.010879435,5.0,-3.8718264,-5.0,-1.0731244,3.9913669,5.0,-5.0,-9.431568,1.164604,5.0,5.0,-0.36536708
-2.68826,0.40261632,-0.98580045,-3.952764,5.0,-5.0,-5.0,-5.0,5.0,5.0,-1.9004816,-8.116789,0.64972126,5.0,5.0,-0.8167677
-5.0,4.7056646,-5.0,-0.6142715,-4.293109,0.6870843,1.0541432,0.43261063,-2.0980186,1.593154,2.6305122,0.24446426,-5.0,-0.54670006,-5.0,-5.0
-5.0,5.0,-5.0,10.0,1.7583935,-1.6524873,-0.9118192,-3.9925847,-1.0807197,-5.0,4.3925333,-1.133512,-5.0,-5.0,-2.2701283,-5.0
4.0034933,0.3263197,-1.777643,-4.284089,5.0,-5.0,-5.0,0.94730663,5.0,2.9509797,-5.0,0.530401,3.1654549,-5.0,-0.14231229,0.04919324
1.7903485,-3.094915,5.0,-0.17509149,5.0,-4.767911,-5.0,-5.0,3.923235,5.0,-4.9011254,3.6332266,4.297098,3.6557298,3.4196901,0.10578227
-1.1101599,-0.41745377,4.128769,0.58429414,5.0,-5.0,-4.0059843,5.0,5.0,5.0,-5.0,1.3818815,0.25253582,5.0,5.0,-1.0118974
-5.0,5.0,-5.0,-1.0817652,-0.85478425,-5.0,0.9129622,0.82757694,-1.3851142,5.0,2.9269338,3.0363967,-5.0,5.0,0.3582425,-0.713665
-5.0,5.0,-5.0,0.68574905,-5.0,3.5154119,3.322232,0.5107674,-1.9916742,-3.7944274,5.0,-0.049283866,-5.0,-5.0,-4.4445543,5.0
-5.0,5.0,-5.0,10.0,0.30418134,0.8942392,2.6974988,-0.24772446,-2.5624957,-5.0,5.0,-0.19042177,-2.4387608,-5.0,-5.0,0.18985033
2.9031398,-1.1814779,2.2636719,4.6620483,5.0,-3.9135718,-5.0,-3.1069849,4.6755247,5.0,-5.0,0.19874105,4.3137736,-5.0,1.0601887,0.2755069
1.8254595,-3.7036598,4.8213477,0.19916001,5.0,-3.41437,-3.7909906,-5.0,5.0,5.0,-5.0,10.0,5.0,2.4854143,4.227763,-1.1464059
-1.8964399,-3.3676186,3.3181741,0.25215733,5.0,-5.0,-4.8374124,-5.0,5.0,5.0,-4.446326,-3.701408,0.5391015,5.0,5.0,-1.4465513
-5.0,5.0,-5.0,-9.579035,5.0,-4.7749567,2.2057583,-0.6949495,4.7172737,5.0,-3.5657737,-8.93824,-3.7021685,5.0,-0.8803127,0.4559077
-5.0,5.0,-5.0,-10.0,-1.1976994,3.5197263,2.4039774,0.5773936,-5.0,-2.0214229,5.0,0.087907024,-5.0,-5.0,-5.0,-2.6507945
-5.0,5.0,-5.0,10.0,5.0,-1.4337525,-0.322222,0.35393554,-0.077405274,-5.0,3.394079,-0.085281484,-5.0,-5.0,0.29153523,5.0
4.513947,-1.3293185,-0.23027551,-2.042131,5.0,-2.5634503,-5.0,5.0,5.0,5.0,-5.0,-9.694792,3.3414674,-5.0,1.2560647,-0.64550275
0.4645276,-4.1725826,5.0,-0.07959264,5.0,-5.0,-5.0,-5.0,3.1129494,5.0,-5.0,-10.0,-0.14216208,5.0,5.0,-0.29143438
-3.812739,2.0796094,-0.33176637,0.3041702,5.0,-5.0,-0.86000335,-1.4885604,5.0,5.0,-1.6637427,-3.5607877,-3.6593766,5.0,2.7755294,-0.7270062
-5.0,4.262242,-5.0,0.43288088,-4.0011516,2.9853063,3.7782507,0.15103878,-5.0,-1.4809382,3.7753267,1.1826652,-3.8985133,-5.0,-5.0,5.0
-5.0,5.0,-5.0,-1.032285,5.0,-4.1805077,-4.6468287,1.1919901,0.61956966,-3.2648497,2.2541575,0.82139766,-2.7642202,-5.0,-1.0857203,2.645567
4.25198,-1.7711986,0.56973636,3.455882,5.0,-5.0,-5.0,-4.4797306,5.0,5.0,-5.0,4.380559,5.0,-5.0,1.6129845,0.6140133
0.8916471,-5.0,5.0,-0.18603346,5.0,0.17042363,-3.8083487,5.0,3.2092674,5.0,-5.0,-1.0670428,2.473654,5.0,5.0,-0.51298213
-3.5108633,0.0055042207,0.4406146,-0.26016963,5.0,-5.0,-5.0,-1.8274913,5.0,5.0,-1.3080074,4.0467153,-0.96715426,5.0,5.0,-0.7368511
-5.0,4.6805005,-5.0,-7.5822973,-3.4402719,-0.34756732,2.3186631,-0.56473637,-1.8569076,5.0,0.89797795,1.9094005,-4.860023,3.1102605,-1.7860146,-0.46080095
-5.0,5.0,-5.0,-2.9778295,-2.2721872,2.7491817,3.5772347,0.7474226,-3.4483485,-3.736253,5.0,-0.72990143,-5.0,-5.0,-3.986875,-0.7333226
-3.2938032,5.0,-5.0,10.0,5.0,-4.314797,-4.2129674,0.92487055,4.856122,-3.014731,0.45106676,1.6428496,0.5461519,-5.0,-1.5927408,-5.0
3.5334792,-1.9569149,0.38328087,3.1491313,5.0,-5.0,-5.0,-5.0,5.0,5.0,-5.0,8.996735,5.0,-5.0,1.8292328,1.5073367
0.5698828,-4.6269155,4.359631,-1.1190455,5.0,-4.0482674,-5.0,-5.0,3.5187054,5.0,-5.0,-8.470783,4.744071,5.0,5.0,-0.6696874
-0.6099465,-1.9575565,2.846957,0.6008463,5.0,-5.0,-5.0,-5.0,4.4730997,5.0,-4.0925035,-8.583973,-0.10554373,5.0,5.0,-0.0738679
-5.0,4.419917,-5.0,0.41426072,5.0,-5.0,-1.2292192,5.0,3.300789,5.0,-0.15288931,0.49390084,-4.1089983,5.0,0.9223812,0.6285217
-5.0,5.0,-5.0,-5.532235,-1.681936,1.8380778,2.900326,-0.30983016,-5.0,-2.161667,4.9468775,-1.1980791,-5.0,-5.0,-5.0,0.07685375
-5.0,5.0,-5.0,10.0,4.0628552,-2.2946248,0.42619777,0.13070327,-0.29077578,-5.0,3.1431627,-0.5039035,-4.295961,-5.0,-1.6649814,-1.7908268
4.5552025,-3.15814,5.0,2.5405347,5.0,-1.2545166,-3.458997,5.0,5.0,5.0,-5.0,-5.33366,5.0,-5.0,1.4373119,1.0776087
0.2525376,-4.4763713,3.966754,-0.0889322,5.0,-2.2378526,-5.0,5.0,4.585121,5.0,-5.0,-9.166497,4.9279194,5.0,5.0,0.7021692
-2.4226215,-0.074422956,0.25955,-0.1520644,5.0,-5.0,-5.0,5.0,5.0,5.0,-5.0,-7.884674,-0.5081228,5.0,5.0,-0.22533333
-5.0,2.0688305,-5.0,10.0,-1.2585816,-3.8351164,1.5886481,2.8698015,-0.478997,5.0,-0.21114469,-3.7003279,-5.0,3.796062,-0.018273592,1.8167027
-5.0,5.0,-5.0,10.0,-0.08552694,3.5497913,1.9351156,0.65603757,-1.5878838,-4.128455,5.0,-1.4198813,-3.542232,-5.0,-5.0,-5.0
-3.916606,5.0,-5.0,-2.990232,5.0,-4.2815175,-3.25171,0.84585804,2.2102466,-2.4046185,1.458112,3.6194932,-0.22374862,-5.0,-2.2428088,-5.0
5.0,-1.4068086,3.1526337,-0.46305993,5.0,-0.12560225,-4.071453,5.0,2.563287,5.0,-5.0,-10.0,4.4707794,-2.758341,-0.15859246,0.20099624
1.3231289,-3.127325,5.0,-0.4084162,5.0,-3.2507424,-3.6148229,5.0,1.4786134,5.0,-5.0,10.0,1.2314605,5.0,5.0,-0.20885646
-3.6449265,-0.20914173,0.45615077,-0.04399897,5.0,-5.0,-5.0,5.0,5.0,5.0,-2.8077147,8.543041,-0.076536894,5.0,5.0,-1.4891658
-5.0,4.9854617,-5.0,-8.186233,-0.3393327,-2.3910651,0.46010613,0.012111913,-0.38719475,5.0,0.46318817,0.14526838,-5.0,2.068523,-1.9475825,-0.100123115
-5.0,5.0,-5.0,-7.512623,1.672685,-0.24503875,-0.3753947,-0.02213855,-0.95697224,-2.682705,5.0,-0.22263564,-2.8197248,-5.0,-5.0,-2.3554819
1.9700178,2.3797421,-3.438422,-1.6242552,5.0,-5.0,-5.0,-5.0,3.65304,1.5991069,-4.1039815,-0.38376346,2.884545,-5.0,2.0227072,2.1857648
2.4339888,-3.7296093,3.532286,-0.490141,5.0,-5.0,-5.0,-4.2564154,2.8405018,5.0,-5.0,-5.174663,5.0,-0.78876185,2.7106712,-0.40289736
-0.05263722,-3.5551264,5.0,0.0983672,5.0,-5.0,-5.0,-5.0,5.0,5.0,-4.401377,-9.592415,0.0017784536,5.0,5.0,-0.553829
-5.0,5.0,-5.0,10.0,-2.626553,-4.1082573,5.0,5.0,-4.9259086,5.0,3.2952943,-4.3625865,-5.0,5.0,-4.104665,2.0104845
-5.0,5.0,-5.0,10.0,-1.3092755,2.8621814,2.0215151,0.066999406,-2.0104675,-2.397315,5.0,0.17525336,-4.1645575,-5.0,-5.0,5.0
-5.0,5.0,-5.0,-5.9840097,4.6152544,-1.9448373,-0.57265025,-0.29025877,0.3865192,-3.4618096,0.8015252,1.3607944,-3.801724,-5.0,0.53638816,4.19765
4.30267,-1.8812598,-1.4092175,-1.3739579,5.0,-3.0775614,-4.962468,5.0,1.1713134,5.0,-5.0,-4.3886843,4.465481,-3.9591222,2.461617,0.047045123
1.2059513,-4.5167828,5.0,-0.5170956,5.0,-3.027084,-3.825823,5.0,3.0887985,5.0,-5.0,-10.0,2.5388663,5.0,5.0,-0.43661857
-5.0,3.5332644,-5.0,0.23667221,5.0,-5.0,-4.5078416,-4.222596,5.0,5.0,1.4973614,3.0491018,-2.671267,5.0,3.1321006,0.003743142
-5.0,5.0,-5.0,-0.48043048,-4.47365,2.0869377,3.660815,-0.63700235,-3.343392,4.481598,2.9589405,-0.03139309,-5.0,0.33347225,-5.0,-5.0
-5.0,5.0,-5.0,-3.8652866,-0.37285835,0.042030394,1.3458735,1.6609967,-2.1453638,-4.6058345,5.0,-0.2182976,-4.057814,-5.0,-2.7337713,5.0
1.9162946,4.8330927,-3.0677304,-3.7955968,5.0,-3.7394428,-4.8074036,5.0,5.0,4.373309,-4.033421,0.88284767,2.9149213,-5.0,-0.30784285,0.4237439
2.780583,-3.5693264,4.7661667,0.5442803,5.0,0.042367816,-4.784944,5.0,4.106064,5.0,-5.0,10.0,3.6825109,0.69566035,1.8614426,3.1397014
-2.1589167,-1.9208167,3.691636,-1.0047718,5.0,-5.0,-5.0,-5.0,5.0,5.0,-0.28016508,-0.8526976,-0.60791665,5.0,5.0,-1.2420717
-5.0,5.0,-5.0,0.8490451,-0.040209472,-5.0,1.8399674,-5.0,-1.2195594,5.0,2.6745858,3.014216,-5.0,5.0,-1.115208,-0.6216718
-5.0,5.0,-5.0,10.0,-1.9775472,2.7905004,1.4890952,0.5533657,-3.235808,-1.6611332,4.46134,-0.5684533,-5.0,-5.0,-5.0,1.2842963
-5.0,5.0,-5.0,10.0,1.9886613,-0.281438,1.603065,0.3496426,-1.1897314,-5.0,5.0,-1.2073739,-5.0,-5.0,-4.3240213,-3.8307676
5.0,-1.5150987,1.4716818,-0.09677135,5.0,-5.0,-5.0,-5.0,5.0,4.212053,-5.0,3.3409672,4.4551888,-5.0,1.4489374,1.6341001
1.2449031,-5.0,5.0,-0.17394441,5.0,-3.9528866,-5.0,-5.0,5.0,5.0,-5.0,-9.715083,2.888495,5.0,4.280872,-0.6324393
-2.7382517,-0.00784409,1.5226699,4.248533,5.0,-5.0,-4.3808,-2.4280763,5.0,5.0,-2.5955598,-2.2914426,-1.7880449,5.0,4.661155,-0.016993288
-5.0,5.0,-5.0,10.0,-5.0,1.1029449,2.5384603,-0.0073138103,-2.2467797,3.9666219,4.164189,-0.15962939,-4.7883744,-0.13700932,-5.0,5.0
-5.0,5.0,-5.0,0.41343462,-0.17426038,1.1730926,2.092713,-0.05272883,-2.7233348,-5.0,5.0,-1.3896649,-3.3624606,-5.0,-5.0,-4.4732533
1.5870206,2.6419327,-3.7375975,-0.35977888,5.0,-5.0,-5.0,-5.0,3.908701,-0.23576987,-3.213212,-0.26387712,0.9933301,-5.0,1.9041075,2.6951213
0.55870926,-1.796934,4.8777704,-1.2720867,5.0,-2.3786879,-4.9855,5.0,2.9764028,5.0,-5.0,10.0,5.0,5.0,5.0,-1.6467876
0.104017854,-4.328444,4.8350472,-0.39348063,5.0,-5.0,-5.0,-3.689598,3.7888176,5.0,-4.4971757,10.0,0.03616661,5.0,5.0,-0.71908617
-5.0,2.6862054,-4.4805894,-0.05985567,5.0,-5.0,-3.36284,-4.8999805,1.824608,5.0,0.27061224,-6.699151,-3.1563525,5.0,1.5279939,0.3686384
-5.0,5.0,-5.0,8.139004,-3.4532452,3.1299977,2.970432,-0.17993319,-4.1088843,-0.12958598,3.425063,-0.2970706,-5.0,-5.0,-5.0,-5.0
-5.0,5.0,-5.0,-3.7620091,2.1927743,-0.32432145,1.9881947,-3.543913,-1.9209733,-5.0,5.0,-0.20551635,-2.9787908,-5.0,-3.8406138,3.9100075
1.0986766,5.0,-4.295053,1.5781488,5.0,-5.0,-5.0,0.8779581,5.0,-2.3620253,-1.5295008,-0.4303286,2.8053336,-5.0,0.4284655,-0.41211247
3.856518,-3.0860057,0.9720119,0.71963423,5.0,-5.0,-5.0,-5.0,2.4656816,5.0,-5.0,-5.7398567,5.0,-1.3035405,0.7500373,-0.4424897
-0.083360076,-2.971654,5.0,0.19571088,5.0,-5.0,-5.0,-2.6862779,4.10896,5.0,-4.7709355,-6.1559687,0.25111985,5.0,5.0,-1.4241949
-5.0,3.4514928,-5.0,10.0,0.8567078,-5.0,2.469482,-0.39652383,2.496447,5.0,-0.98003936,-3.3413303,-5.0,5.0,-0.18359241,-0.15079932
-5.0,5.0,-5.0,-7.7469664,-5.0,2.9854562,4.1580644,0.60348266,-4.2616343,-0.5292443,3.3568313,-0.38178313,-5.0,-5.0,-5.0,-5.0
-5.0,5.0,-5.0,10.0,5.0,0.08106394,0.78207,4.0203156,2.054341,-5.0,3.8385034,-3.2449129,-1.8309915,-5.0,-1.2691388,-4.617496
2.4462929,-0.2622852,0.24206579,1.1175059,5.0,-5.0,-5.0,-5.0,4.6667223,3.5085554,-5.0,0.43036118,1.3862455,-5.0,1.0962071,-2.84805
1.4286478,-2.4221845,3.765774,0.11593212,5.0,-4.423017,-5.0,-5.0,3.136087,5.0,-5.0,-8.511805,3.2164104,3.3387647,4.720289,0.9417566
-1.5739772,-4.1061277,5.0,-1.2009845,5.0,-5.0,-5.0,-5.0,5.0,5.0,-4.934323,10.0,-0.21580818,5.0,5.0,-1.2022312
-5.0,2.9895678,-4.2087255,0.27727622,5.0,-5.0,-2.051159,0.24710459,5.0,5.0,-1.5813262,-3.3451805,-1.8917767,5.0,3.6628766,0.62600523
-5.0,4.311867,-5.0,0.29521108,-5.0,2.120885,3.8116217,0.5502506,-2.527112,0.7734797,2.1309457,0.4989271,-5.0,-3.083333,-5.0,-5.0
-5.0,5.0,-5.0,9.798602,5.0,-2.4288857,-1.3278662,-0.84482366,0.1622982,-5.0,1.7935764,0.63803005,-3.1201484,-5.0,-0.34874156,1.4998355
3.604869,-0.032314062,0.30851334,-0.22619689,5.0,-1.3522352,-4.698038,5.0,5.0,5.0,-5.0,8.344395,5.0,-5.0,1.4741426,0.4720255
0.5214162,-4.970563,5.0,-0.03652234,5.0,-4.738679,-3.5562673,5.0,4.185468,5.0,-5.0,-5.1505013,1.5639391,4.8367023,5.0,0.46747005
-2.7931428,0.6383728,-0.8690276,-0.2231797,5.0,-5.0,-5.0,-5.0,5.0,5.0,-3.1717129,-2.2667336,-0.37560928,5.0,5.0,-0.65294397
-5.0,5.0,-5.0,-0.5923083,-3.889991,-0.19579375,0.8023639,0.35802045,-2.1467757,3.6193938,2.8026025,2.0664358,-5.0,1.0245378,-5.0,-2.5712972
-5.0,5.0,-5.0,9.087051,-0.9093599,1.7919707,3.0725553,0.451156,-1.2259989,-5.0,5.0,-1.2009249,-5.0,-5.0,-3.94342,-5.0
-3.7515101,5.0,-5.0,-1.3267293,5.0,-5.0,-5.0,-5.0,4.0282097,-1.8381318,-0.2145499,-0.020002017,2.0695086,-5.0,-0.6105933,0.2767734
2.6918378,-2.7929811,0.36317968,0.39607129,5.0,-3.6019855,-5.0,-5.0,5.0,5.0,-5.0,-10.0,5.0,-1.0019194,0.7435564,-0.040638663
0.31688476,-3.3837292,3.9729645,0.31045943,5.0,-5.0,-5.0,-1.9580908,5.0,5.0,-3.9698567,-5.560665,0.7227615,5.0,5.0,-0.39874393
-5.0,5.0,-5.0,0.9021518,5.0,-5.0,-1.7219129,3.4916952,5.0,5.0,-1.0168165,7.7998323,-2.2368155,5.0,3.492014,0.32327795
-5.0,5.0,-5.0,7.1897945,-4.978201,3.3152287,1.3322802,0.7213867,-5.0,0.37283576,2.9696164,0.23689884,-5.0,-4.430214,-5.0,5.0
-5.0,5.0,-5.0,5.5916862,5.0,-1.79733,0.6343375,-1.2215294,2.173651,-5.0,5.0,-3.4899414,-0.19316918,-5.0,-5.0,5.0
2.155479,3.730541,-1.6330096,1.4752834,5.0,-5.0,-5.0,5.0,5.0,2.7881086,-2.9612982,-0.063907325,4.177154,-5.0,-0.22480631,-0.16871506
0.1051667,-3.2157488,3.7407556,0.4297941,5.0,-2.3026216,-4.1218076,5.0,4.357151,5.0,-5.0,-6.056389,5.0,3.6566033,5.0,-1.2215434
-0.97662663,-0.8416254,2.8678117,0.48293725,5.0,-5.0,-5.0,-0.96652323,4.619932,5.0,-3.6634088,10.0,0.5964948,5.0,5.0,-1.3488687
-5.0,5.0,-5.0,-3.2505593,-0.5643778,-5.0,2.5092866,3.1584926,0.4120294,5.0,2.302449,-0.29069293,-4.3286843,5.0,0.10838139,-0.3471833
-5.0,5.0,-5.0,-5.56577,-0.7269633,1.4733499,2.840893,-0.581136,-3.6765542,-2.3241763,5.0,-1.0644436,-5.0,-5.0,-5.0,-5.0
-0.8133013,5.0,-5.0,-4.981902,5.0,-5.0,-5.0,-5.0,3.9379544,-5.0,1.0670152,1.0923446,-0.8590478,-5.0,0.05870688,-0.7799192
2.6208162,-1.1087908,-0.7380477,-3.6208687,5.0,-1.3750677,-4.7750144,5.0,5.0,5.0,-5.0,-4.2370067,5.0,-0.6462246,1.3901123,0.6218071
0.6656246,-3.29285,4.454303,0.18657264,5.0,-5.0,-4.0800376,-3.5182061,1.7875506,5.0,-5.0,3.3764286,0.9426434,5.0,5.0,-0.674711
-3.2188916,-0.16616091,2.6055639,0.44132754,5.0,-5.0,-5.0,-4.5052624,5.0,5.0,-5.0,-8.436909,1.1535448,5.0,5.0,1.1360385
-5.0,5.0,-5.0,-9.873388,1.1644756,-5.0,0.4892465,1.0141027,2.0463648,5.0,0.51562697,0.21605167,-5.0,5.0,-0.33415008,-0.2209166
-5.0,5.0,-5.0,-8.748438,-1.5499042,2.7225895,3.024742,0.40721753,-2.2148023,-1.1624811,5.0,0.31915113,-5.0,-5.0,-5.0,-5.0
-3.5329068,5.0,-5.0,10.0,5.0,-3.1308048,-2.360196,-0.8539947,1.8216436,-3.7784715,2.2079372,0.49063456,-0.55784446,-5.0,1.3106395,5.0
2.4165623,-2.9997005,3.6675327,0.72952247,5.0,-0.03729856,-4.9370584,5.0,3.2701423,5.0,-5.0,-5.2512393,5.0,1.1561099,1.9768869,-0.17819192
-1.0759243,-1.9424243,3.9435883,-0.49651405,5.0,-5.0,-5.0,1.0770466,3.5811133,5.0,-5.0,10.0,-1.0630385,5.0,5.0,-5.0
-5.0,5.0,-5.0,0.091845945,3.8359618,-5.0,0.56355125,5.0,5.0,5.0,-1.3415816,-10.0,-2.685378,5.0,2.7823522,0.21200445
-5.0,5.0,-5.0,5.037629,-3.2005084,-0.6724752,0.7487465,-0.09730564,-4.485412,4.2897396,2.107581,-0.5686345,-5.0,-4.584511,-5.0,-5.0
-5.0,5.0,-5.0,-3.4873106,1.1352575,-0.3168766,1.9559631,-0.55623066,0.41702676,-5.0,4.582496,-0.81985265,-4.146465,-5.0,-3.571504,-4.5245953
1.8074409,-0.19441938,-0.26384616,0.10559599,5.0,-5.0,-5.0,5.0,5.0,2.938184,-5.0,0.8734302,5.0,-5.0,-0.39344788,-0.62812346
0.8558568,-5.0,5.0,-0.20561235,5.0,-4.760295,-5.0,3.6416268,3.077811,5.0,-5.0,6.1932144,3.8347027,4.680862,5.0,-0.439566
-0.31261158,-2.5419734,4.1681924,0.5060759,5.0,-5.0,-5.0,-4.8377447,5.0,5.0,-3.514821,-6.935129,-0.23544073,5.0,5.0,-0.74928313
-5.0,4.4582233,-5.0,4.5381765,-0.15970063,-5.0,-0.32096162,0.48598242,-0.30266643,5.0,-1.5622438,-3.2807093,-5.0,5.0,0.11692369,-0.5345778
-5.0,5.0,-5.0,0.9935386,-5.0,3.2675426,3.09346,0.35492966,-3.854588,1.4007459,4.3696265,0.3270046,-5.0,-5.0,-5.0,-4.3042903
-5.0,4.484398,-5.0,2.6087222,4.881844,-3.1398625,-1.6465814,0.3867818,1.0117627,-5.0,3.2307456,-0.04414367,-2.7285547,-5.0,0.05348438,-4.6315436
3.7782364,-1.1337291,-0.32395542,0.24691077,5.0,-5.0,-5.0,-5.0,4.9926224,5.0,-5.0,0.94983304,5.0,-5.0,0.7318599,-1.4299226
0.56173676,-4.4651165,5.0,-0.6049009,5.0,-4.4701777,-4.735048,-5.0,4.3688283,5.0,-5.0,-9.527278,2.4595885,5.0,5.0,-1.3921597
-0.4345094,-2.3028505,4.1963215,-0.93815994,5.0,-5.0,-4.836484,-5.0,5.0,5.0,-2.7290053,-0.9445605,-0.66400933,5.0,5.0,-0.6323856
-5.0,2.6256268,-5.0,10.0,-2.8201988,-0.5440073,0.5680587,-2.8246658,-1.6944506,5.0,2.8321042,-0.43875933,-4.6324677,0.9344138,-2.913443,0.09057616
-5.0,5.0,-5.0,0.63120174,-0.22703111,3.0758824,2.484527,-0.49676082,-5.0,-4.411409,5.0,-0.87029564,-5.0,-5.0,-5.0,2.7664173
-5.0,5.0,-5.0,10.0,3.0007522,-1.318895,0.26774085,0.47429925,-0.57862675,-5.0,3.931176,0.050028726,-5.0,-5.0,-1.9784778,-1.8084111
4.5224247,-2.5032058,1.8871177,4.517431,5.0,-4.5055904,-5.0,5.0,5.0,3.4122844,-5.0,0.69120926,4.3366027,-5.0,-0.37828422,-2.2635894
0.65041256,-5.0,5.0,-0.33362135,5.0,-4.7742066,-5.0,-5.0,3.7308326,5.0,-5.0,0.62223196,3.5507946,5.0,5.0,-1.4719794
-2.6328611,-1.320876,3.1615224,0.47409895,5.0,-5.0,-5.0,5.0,5.0,5.0,-2.3957632,-5.352643,-0.38715577,5.0,5.0,-0.2940367
-5.0,5.0,-5.0,-6.110691,-2.2519872,-2.1069655,1.6517406,-5.0,-1.9727372,5.0,3.2197087,-0.18007417,-5.0,5.0,-1.461499,-0.6515065
-5.0,5.0,-5.0,1.8442687,-1.9843698,1.360796,2.2101276,0.1101847,-2.9820123,-2.377191,5.0,-0.34896585,-4.7378235,-5.0,-5.0,5.0
-5.0,5.0,-5.0,-3.932628,1.1816094,-0.1774888,2.0796885,3.8318825,-0.010088757,-5.0,5.0,-0.33147645,-2.5314174,-5.0,-3.063879,2.5150151
2.6282587,-1.2779593,-0.11302197,-0.1984043,5.0,-5.0,-5.0,-5.0,4.6468186,5.0,-5.0,0.90176356,5.0,-5.0,1.533345,-0.31935537
-0.28321207,-4.1238885,5.0,-2.9352458,5.0,-4.928942,-5.0,5.0,4.847595,5.0,-3.9571304,10.0,5.0,5.0,5.0,-0.5738305
-1.9916834,-2.4110682,5.0,0.25988054,5.0,-5.0,-5.0,5.0,5.0,5.0,-4.0484204,-4.0714016,-0.41040218,5.0,5.0,-0.20499441
-5.0,3.830977,-5.0,0.47238663,-0.48870534,-5.0,2.5793352,1.2822387,-1.1073889,5.0,2.262349,2.8959508,-4.171731,5.0,0.046420097,0.24606113
-5.0,5.0,-5.0,10.0,-5.0,3.5634608,4.1155553,-0.08873217,-3.1148744,-1.6379887,5.0,0.038450275,-5.0,-5.0,-5.0,-3.499619
-5.0,5.0,-5.0,0.097952366,-0.21299088,0.9167906,3.0601134,0.7786203,-0.08984476,-5.0,5.0,-0.36092824,-2.5165923,-5.0,-2.3449457,5.0
3.707441,-1.1568165,-1.1769075,-1.8410919,5.0,-4.548248,-5.0,0.0938192,4.963873,5.0,-5.0,0.92226225,5.0,-5.0,0.32858455,0.5835669
1.7069674,-3.4548025,3.3139603,-0.21012758,5.0,-3.7881947,-4.3052235,-5.0,4.316324,5.0,-5.0,10.0,4.805582,-0.13506216,3.0816998,0.7205227
-1.2602128,-3.7939305,5.0,-0.3616574,5.0,-5.0,-3.9654822,5.0,5.0,5.0,-5.0,10.0,0.29205084,5.0,5.0,0.11741921
-5.0,5.0,-5.0,-0.64651,5.0,-5.0,0.6831407,5.0,5.0,5.0,2.8047416,3.0970185,-2.9364617,5.0,0.6098003,-0.39719415
-5.0,4.6839323,-5.0,-5.5017505,-3.9561386,3.2133482,4.356898,0.17699088,-5.0,-0.8985863,2.8024547,0.055104293,-5.0,-4.4257154,-4.0646334,5.0
-5.0,5.0,-5.0,-7.366351,4.683281,-0.78008616,-0.304155,0.21552691,0.5670713,-5.0,4.07466,0.30775923,-3.42226,-5.0,-0.76885426,-1.2479286
3.7540112,-1.4744143,0.17828357,-0.39315474,5.0,-2.294664,-5.0,5.0,5.0,4.1796975,-5.0,1.2852978,5.0,-5.0,-0.18881893,0.83768284
0.17192262,-4.28216,4.3520103,0.020218445,5.0,-5.0,-5.0,0.56560874,3.7432022,5.0,-5.0,-7.731336,3.9543483,5.0,5.0,-1.1876158
-1.4891577,0.11679971,1.1047462,-0.26137576,5.0,-5.0,-5.0,-5.0,5.0,5.0,-5.0,-4.1356106,-0.24459016,5.0,5.0,-0.2930481
-5.0,4.638142,-5.0,-0.8298254,-3.118815,-1.42688,3.2468047,0.09516063,-1.409096,5.0,0.5652138,0.33866233,-5.0,2.8487082,-0.14636004,-0.49524376
-5.0,5.0,-5.0,3.0193439,0.6685332,2.52727,2.9964983,-0.4060339,-3.745368,-5.0,5.0,-0.19189982,-4.3971796,-5.0,-4.4492702,0.74010015
-1.1262969,5.0,-5.0,2.8462822,5.0,-4.3676767,-5.0,-5.0,5.0,-4.102346,0.48305935,-0.0010748468,0.9519553,-5.0,2.0841603,3.3963008
4.6376443,-2.0714626,1.7497292,0.6580582,5.0,-0.69470775,-5.0,5.0,1.2100897,5.0,-5.0,10.0,4.6024256,-0.16703284,1.2580737,-0.33337826
1.128552,-5.0,5.0,-0.47037727,5.0,-2.9544823,-3.976877,5.0,0.04847753,5.0,-5.0,10.0,0.6956487,5.0,5.0,-0.98875535
-2.378276,-0.04203339,1.3091388,0.07889643,5.0,-5.0,-5.0,-4.5318465,5.0,5.0,-1.9508473,10.0,-0.17440462,5.0,5.0,-1.2875654
-5.0,5.0,-5.0,-1.1195812,-4.0461044,1.9376124,0.9774926,-5.0,-5.0,4.727807,4.334489,-2.2524638,-5.0,-2.5749834,-5.0,-1.9125714
-5.0,5.0,-5.0,0.9115691,0.16414496,0.96189064,2.5592718,2.0524304,-5.0,-5.0,5.0,-1.3786337,-5.0,-5.0,-5.0,5.0
-5.0,4.7105374,-5.0,9.133007,5.0,-4.950107,-5.0,-3.0820594,4.295174,-5.0,1.0184523,-0.6471728,-1.5731833,-5.0,-1.8822771,-2.6388595
4.4227757,-3.943232,0.83491683,-0.4344989,5.0,-5.0,-5.0,-5.0,5.0,3.9725773,-5.0,0.17993039,5.0,-5.0,1.378546,1.5891608
1.1486087,-5.0,4.9248037,-0.6823363,5.0,-4.8429046,-5.0,-2.5757575,4.66242,5.0,-5.0,-9.663652,5.0,5.0,3.6404312,0.103097305
-1.0253278,-2.6661372,3.9072754,0.52208996,5.0,-5.0,-5.0,5.0,5.0,5.0,-2.751516,-10.0,-0.9651246,5.0,5.0,-1.1454022
-5.0,4.1817813,-5.0,0.8737497,-1.9150174,-1.4701658,1.41973,1.3372693,-1.0420326,5.0,1.1794883,2.6049666,-5.0,5.0,-0.01352042,0.15172347
-5.0,5.0,-5.0,-4.447583,-5.0,4.136713,4.4251685,-1.1642625,-3.8966765,-3.8582554,5.0,-0.47139356,-5.0,-5.0,-5.0,2.0283914
-4.257859,3.5490384,-4.522734,10.0,5.0,-3.7737515,-4.82901,-0.096368216,4.935712,-3.2456849,-0.09033549,2.2498164,0.51883984,-5.0,1.1455152,5.0
4.7310095,-0.52630764,1.0413644,0.33990118,5.0,-1.460132,-3.7828255,5.0,5.0,5.0,-5.0,-1.1998323,5.0,-5.0,1.5128891,1.5568537
0.8604902,-4.947296,5.0,-0.05877712,5.0,-4.658943,-5.0,-1.9643863,3.320139,5.0,-5.0,-7.886819,1.9032276,5.0,5.0,-0.7436797
-5.0,3.7544498,-4.5898232,-0.09561093,5.0,-5.0,-0.99265206,0.88584447,5.0,5.0,-3.0303426,-6.879403,-3.4756873,5.0,2.88776,0.0953044
-5.0,5.0,-5.0,-3.231803,-2.430881,1.5857035,4.2658424,3.221492,-2.9587007,5.0,1.6901101,0.43296018,-5.0,-2.098923,-5.0,-2.7881808
-5.0,5.0,-5.0,-0.30535668,-1.0031657,1.5510314,3.8522995,0.69160837,-4.7635574,-4.932372,5.0,1.0253881,-5.0,-5.0,-4.9605045,5.0
-2.8414629,5.0,-5.0,-9.726917,5.0,-5.0,-5.0,-5.0,4.572873,-3.3749247,-0.24450278,0.39499307,0.96738774,-5.0,1.0626539,-5.0
2.1077504,-3.4473221,3.1991465,-0.5196141,5.0,-3.7588167,-5.0,-5.0,5.0,5.0,-5.0,-8.63106,5.0,-2.7959542,0.81795067,1.9828267
-0.6995387,-4.155801,5.0,-1.2245852,5.0,-5.0,-4.767677,-5.0,5.0,5.0,-5.0,-8.467295,0.116285324,5.0,5.0,-0.45382416
-5.0,4.2086973,-5.0,5.233849,2.8772712,-5.0,1.1013939,-5.0,1.0600669,5.0,-1.1661243,3.292527,-5.0,5.0,-1.2149134,-5.0
-5.0,5.0,-5.0,0.951622,-4.786263,1.9592549,2.7428772,-0.86650294,-4.5099173,0.41410196,1.9145625,0.09496648,-5.0,-5.0,-5.0,-5.0
-5.0,5.0,-5.0,10.0,1.3724432,-0.8206073,1.417468,3.205539,-1.206758,-5.0,5.0,-0.85540307,-5.0,-5.0,-4.079614,-1.459519
3.3855639,-1.1983144,1.9043963,4.8407154,5.0,-5.0,-5.0,-5.0,4.5951886,3.0629551,-3.9860122,0.06764937,5.0,-5.0,0.9560815,1.511682
2.1103349,-4.445373,3.9113472,-0.5718907,5.0,-2.8755612,-5.0,-5.0,5.0,5.0,-5.0,-8.461338,5.0,0.21143216,0.5535646,-0.26414734
-1.9430896,-3.5890622,4.465459,-0.0968117,5.0,-5.0,-5.0,-1.2397218,5.0,5.0,-5.0,-6.574774,0.47647387,5.0,5.0,-0.30357456
-5.0,4.4229097,-5.0,0.8940222,-0.24749422,-3.7392898,1.180446,0.43696398,-1.4805479,5.0,2.7015047,-0.2505707,-5.0,3.4920454,-0.7922828,3.9395223
-5.0,5.0,-5.0,0.55531883,-5.0,4.4587393,3.5642092,-1.2112702,-2.4339375,-0.98187613,5.0,-0.20736055,-5.0,-5.0,-5.0,-1.5584898
-5.0,4.792021,-5.0,10.0,5.0,-2.907607,-2.0045023,-3.0804615,0.5657202,-5.0,2.4684985,0.124482326,-4.179342,-5.0,-0.2731974,5.0
4.261093,-1.6455418,2.107852,4.4095163,5.0,-5.0,-5.0,5.0,3.942194,5.0,-3.0846353,0.013757877,2.5045607,-5.0,0.60414934,-0.38792506
1.6275325,-3.9090388,5.0,-0.14312783,5.0,-0.9151556,-3.3946512,-5.0,5.0,5.0,-5.0,-10.0,5.0,0.8416566,3.2215214,0.4705928
-0.78254795,-3.707954,3.930763,-0.9061456,5.0,-5.0,-5.0,-5.0,5.0,5.0,-1.2061266,10.0,-0.20116892,5.0,5.0,-0.2542621
-5.0,5.0,-5.0,-1.3084475,0.05842857,-2.810473,1.3563496,1.6657674,-0.5641903,5.0,4.6598315,3.2048795,-4.842121,5.0,-0.62367463,-0.6583754
-5.0,5.0,-5.0,-5.7601485,0.6141089,1.6683848,3.2148411,-3.4518955,-5.0,-5.0,5.0,-2.3040237,-5.0,-5.0,-5.0,4.481699
-5.0,5.0,-5.0,-7.1772614,2.4105425,0.12859803,1.5514288,4.3016577,-2.3484433,-5.0,4.139134,0.29098636,-5.0,-5.0,-0.5462167,4.9484015
1.4885236,0.19845384,0.95488095,1.6840969,5.0,-5.0,-5.0,-5.0,5.0,1.2739117,-3.015349,-0.254107,3.846962,-5.0,1.9978187,1.9657025
0.9439012,-5.0,4.948978,-0.5946558,5.0,-3.8251457,-5.0,-5.0,4.598818,5.0,-5.0,-7.6709976,5.0,5.0,4.5515695,-0.0052976683
-2.0433707,-0.82005143,1.7123479,-0.32309487,5.0,-5.0,-5.0,0.2394647,5.0,5.0,-5.0,1.101009,0.43373,5.0,5.0,-1.184798
-5.0,5.0,-5.0,1.8528106,-5.0,0.18715048,1.7214377,-5.0,-3.6490486,5.0,5.0,-3.2849991,-5.0,1.1995882,-4.099656,-0.23523876
-5.0,5.0,-5.0,5.753116,-0.4293607,1.7298616,3.8189027,-1.8292862,-3.4588852,-2.9009693,4.7904997,-1.2035711,-5.0,-5.0,-5.0,5.0
-5.0,5.0,-5.0,-5.663172,5.0,-3.067748,-1.660001,0.26579767,1.3436419,-4.937173,1.436849,0.05799421,-2.964025,-5.0,3.4993134,-2.2059412
3.0282147,-0.8770927,-0.30856276,0.1691658,5.0,-3.2414408,-5.0,-5.0,5.0,5.0,-5.0,5.8755255,5.0,-5.0,0.86114836,-0.48843116
-0.3680973,-3.7134657,5.0,-2.1778157,5.0,-5.0,-5.0,5.0,4.9133906,5.0,-5.0,10.0,3.43366,5.0,5.0,0.42134452
-4.6401854,4.1719728,-4.0809655,0.4958877,5.0,-5.0,-0.9957616,-2.6344192,5.0,5.0,0.52416575,-3.8659067,-2.8237617,5.0,4.3299794,-0.73099786
-5.0,5.0,-5.0,-8.625523,-5.0,2.1970868,3.2282252,0.95359486,-5.0,4.087678,2.8180792,2.1047256,-5.0,2.0564737,-5.0,5.0
-5.0,5.0,-5.0,-2.3692198,-0.3184511,0.80861974,1.2538325,0.24314494,-0.14622808,-4.183421,5.0,-0.3514715,-4.38781,-5.0,-4.918945,-3.738626
1.7550323,3.042778,-2.8938892,0.301638,5.0,-5.0,-4.8650393,2.610967,5.0,4.9015455,-5.0,2.7378683,5.0,-5.0,2.2985306,-5.0
2.8490648,-3.6700783,3.444787,0.35369468,5.0,-5.0,-5.0,-5.0,4.1860414,5.0,-5.0,-7.052093,5.0,1.2301462,2.765321,0.18763192
-1.2452779,-4.0831804,5.0,-0.15024179,5.0,-5.0,-5.0,-5.0,5.0,5.0,-4.4789724,-9.954284,-0.37744895,5.0,5.0,-0.635203
-5.0,2.34591,-5.0,3.109834,5.0,-5.0,-0.40720034,-5.0,4.462289,5.0,-2.0136054,-2.692976,-4.4012074,5.0,1.2670921,-4.3460145
-5.0,5.0,-5.0,-5.4022846,-5.0,3.671246,1.8359244,-5.0,-5.0,3.36023,5.0,-8.418731,-5.0,-5.0,-5.0,-0.95540047
-5.0,5.0,-5.0,-4.6903763,0.335279,1.6438861,2.3673985,1.3367337,-1.329933,-5.0,5.0,-0.28996775,-4.2539873,-5.0,-5.0,-5.0
-0.3574736,5.0,-5.0,0.8341489,5.0,-5.0,-5.0,-3.4593897,4.555856,-0.12952006,-2.6765928,0.63741696,3.515262,-5.0,2.5187957,2.4779375
3.0881948,-4.0588427,2.1553621,0.45591584,5.0,-5.0,-5.0,-5.0,5.0,5.0,-5.0,-5.357379,5.0,-1.0693483,0.18814409,-0.111694336
1.1841248,-4.8322334,5.0,-0.04358736,5.0,-5.0,-4.953022,-5.0,2.5062356,5.0,-5.0,-7.8282623,1.8731828,5.0,5.0,-1.6222106
-5.0,2.5328157,-2.2309813,1.0344257,5.0,-5.0,-3.2162843,-1.7899605,5.0,5.0,-3.2387125,-4.4150114,-3.161697,5.0,5.0,-1.1349244
-5.0,5.0,-5.0,-2.591567,-4.626792,0.56221473,3.6092863,0.5368279,-3.2659476,2.4824054,2.2989848,0.33527535,-5.0,-1.4216249,-3.875236,0.19362189
-5.0,5.0,-5.0,5.0200634,-0.08531743,0.9141811,1.730844,0.27373707,-2.0150557,-4.6080523,5.0,-0.12049871,-2.6321201,-5.0,-5.0,0.45244837
4.589047,-1.3911736,-0.53771305,4.7338405,5.0,-5.0,-5.0,-5.0,5.0,5.0,-5.0,1.2400492,5.0,-5.0,-0.1194731,-2.6932335
1.5698322,-3.70327,3.8810782,0.26444876,5.0,-4.1839867,-5.0,-5.0,3.1984074,5.0,-5.0,-9.501904,5.0,3.9282491,5.0,-1.6283773
-0.996582,-3.4044347,5.0,-0.019007094,5.0,-3.3180244,-5.0,5.0,5.0,5.0,-5.0,-10.0,1.0219282,5.0,5.0,-1.5470835
-5.0,3.2795756,-5.0,10.0,1.0715623,-5.0,-0.4844365,-5.0,-1.7477775,5.0,3.0780163,-10.0,-5.0,5.0,-2.0737567,-1.2190294
-5.0,2.053183,-5.0,10.0,-2.599897,2.9590724,2.961317,0.5271535,-4.502461,-0.64996874,4.94574,-1.1800438,-5.0,-5.0,-5.0,-3.9611526
-5.0,2.3292186,-5.0,10.0,4.5537167,-3.3656983,-1.64342,2.2070289,1.4592463,-5.0,1.458983,0.60611016,-2.0404563,-5.0,0.8946532,5.0
4.4858027,-1.9161218,5.0,-1.0356638,5.0,-3.6271274,-5.0,-5.0,3.455934,5.0,-5.0,0.8853982,5.0,-1.80779,2.8144236,-4.7923503
1.430257,-4.5079217,5.0,-0.12047757,5.0,-1.0878072,-3.6249619,5.0,3.2319996,5.0,-5.0,-10.0,2.5537167,5.0,5.0,-0.48630223
-3.8977127,0.6977798,-0.9782913,0.22327049,5.0,-5.0,-4.107171,5.0,5.0,5.0,-4.2239676,-4.9882474,-1.6863425,5.0,5.0,-0.14121711
-5.0,4.179556,-5.0,1.1174642,-3.432763,-0.3128506,0.73022103,-0.30131698,-4.663838,5.0,-0.036150217,-2.106696,-4.477437,1.3753611,-1.7545944,0.36378846
-5.0,4.719214,-5.0,-7.204955,-0.20634353,1.660326,2.2819262,1.2223461,-2.51622,-3.839531,5.0,-0.08824629,-5.0,-5.0,-5.0,-0.4136827
-5.0,5.0,-5.0,-5.8249264,4.8860154,-4.9712,-5.0,1.2177598,2.075574,-5.0,1.8947828,-0.74658424,-1.0370331,-5.0,-1.4343412,-5.0
1.1890945,-1.0097586,-0.3426442,-0.052889865,5.0,-2.752458,-5.0,5.0,5.0,5.0,-5.0,-2.8172796,5.0,-5.0,0.18822038,0.4724933
0.35107666,-4.785203,4.882076,-0.5069574,5.0,-5.0,-5.0,-4.8604655,3.6674075,5.0,-5.0,-5.2906637,1.6919103,5.0,5.0,-0.6641522
-3.9702592,0.58148783,-0.3328544,-0.36909375,5.0,-5.0,-4.7394385,5.0,5.0,5.0,-1.0574739,1.7989689,-1.0875254,5.0,4.2758255,-0.15099344
-5.0,5.0,-5.0,10.0,-5.0,2.9467494,2.4511244,0.30536014,-1.7532634,-0.006193757,3.7239377,0.09511305,-5.0,-5.0,-5.0,-5.0
-5.0,5.0,-5.0,2.2987158,5.0,0.2475264,-1.393,2.528388,3.2120667,-5.0,3.880515,-5.7684836,-1.5697869,-5.0,-2.3890748,5.0
0.86804223,5.0,-5.0,1.9061716,5.0,-5.0,-5.0,-5.0,3.879438,4.00887,-3.7311301,0.5649018,3.778452,-5.0,0.1220963,-2.1274514
-0.16484082,-2.0592284,4.273417,-3.1682668,5.0,-2.3395715,-3.769005,5.0,3.219134,5.0,-5.0,1.2271266,5.0,4.7364416,5.0,-5.0
-1.9579569,-4.3289366,5.0,-1.431053,5.0,-5.0,-5.0,-1.8723493,5.0,5.0,-5.0,-1.9397475,-0.28555197,5.0,5.0,0.35898402
-5.0,3.9790373,-5.0,-0.37910244,3.8553011,-5.0,-2.149387,5.0,5.0,5.0,-1.9647572,-3.9455695,-1.2000383,5.0,1.5298841,-0.18006139
-5.0,3.042776,-5.0,10.0,-1.111974,1.5922569,3.0074427,0.108671926,-4.012019,0.5932324,2.225243,0.28005677,-5.0,-5.0,-5.0,-4.3729396
-2.5571334,5.0,-5.0,-8.819091,5.0,-5.0,-5.0,-5.0,2.7605197,-3.7649322,0.84624213,-1.1419213,-1.4400508,-5.0,0.3420818,2.5617142
3.528575,-2.89322,-0.5044155,-0.3718911,5.0,-3.3666582,-5.0,-0.8692876,5.0,5.0,-5.0,0.3541829,5.0,-5.0,-0.019096017,-0.4161441
-0.18730521,-4.359449,5.0,-0.5901154,5.0,-4.2703366,-3.6617548,0.6340722,3.399757,5.0,-5.0,-4.87971,4.0267606,5.0,5.0,-0.28163585
-1.1171273,-1.30069,5.0,0.30356535,5.0,-5.0,-5.0,-4.3689165,5.0,5.0,-4.7508926,-4.696507,-0.25363696,5.0,5.0,-0.4329014
-5.0,5.0,-5.0,-8.652718,-4.9909244,1.4963132,3.7875273,0.0524617,-3.2986624,5.0,2.295578,0.6978834,-5.0,2.346056,-1.695776,0.014772804
-5.0,5.0,-5.0,-6.3134527,-3.3551288,1.4009118,1.9433527,0.4461914,-2.1373281,-2.6901393,5.0,-0.504083,-3.5226767,-5.0,-5.0,2.1298215
-4.7203326,5.0,-5.0,3.5141768,5.0,-5.0,-3.2326517,1.1504428,1.1152027,-5.0,1.271016,0.3747908,-2.1635027,-5.0,0.43982893,-5.0
3.6203156,-1.797417,3.3377397,4.583681,5.0,-5.0,-5.0,-5.0,5.0,5.0,-5.0,-10.0,4.7731633,-5.0,0.68023217,-0.5825575
0.2691862,-4.7437496,4.669564,-0.5865458,5.0,-5.0,-5.0,4.34239,3.6689174,5.0,-5.0,-9.355621,3.0957289,5.0,5.0,-0.7228785
-2.7189608,0.67859125,0.046435833,0.099635094,5.0,-5.0,-3.8646798,5.0,5.0,5.0,-1.7663672,10.0,-1.3852673,5.0,4.558828,-0.32754624
-5.0,5.0,-4.06641,6.24042,-5.0,1.3602071,2.8589034,0.430533,-3.7501574,1.8024799,3.0701828,0.6807406,-5.0,-4.4793215,-5.0,0.78152907
-5.0,5.0,-5.0,-0.8445458,-0.070878506,1.8435178,2.9103017,-0.30420977,-2.713408,-5.0,5.0,0.76998425,-5.0,-5.0,-5.0,-5.0
-0.662665,5.0,-5.0,-4.3721147,5.0,-5.0,-5.0,0.43804342,3.277314,-2.66011,0.9463563,2.997874,0.28660387,-5.0,3.4370167,-0.7146951
3.115163,-3.537448,4.6160703,0.5294749,5.0,-3.9886823,-5.0,-5.0,2.2968779,5.0,-5.0,-5.60075,5.0,0.5502188,3.2285833,-0.19944082
0.12789404,-5.0,5.0,-0.35619128,5.0,-3.8879516,-5.0,5.0,3.7679868,5.0,-5.0,2.2422342,2.3131833,5.0,5.0,-0.47629416
-5.0,2.5326076,-5.0,-0.036260765,5.0,-5.0,-4.321984,-5.0,4.8073745,5.0,-0.53724444,-6.4800835,-2.8268101,5.0,3.6851635,0.0633751
-5.0,4.1357436,-5.0,10.0,-3.0399961,2.9315026,2.8301733,-4.423162,-5.0,-0.96707404,4.763749,-0.03205765,-5.0,-5.0,-5.0,5.0
-5.0,5.0,-5.0,-2.4151897,1.6539556,-0.4792902,1.154356,2.7374592,0.9112442,-5.0,4.535584,-0.105167314,-5.0,-5.0,-2.7405725,-1.1593332
2.050958,1.5957494,-0.81870794,0.9725944,5.0,-5.0,-5.0,-5.0,5.0,3.4334593,-4.3053646,0.79613113,5.0,-5.0,0.18896163,-1.7359169
2.7240596,-3.721123,3.461366,-0.102312915,5.0,-3.9076319,-5.0,-5.0,4.771932,5.0,-5.0,-10.0,4.4004054,-0.04653108,3.6948268,0.4220689
-2.1276932,-2.4976075,3.5567622,0.4810851,5.0,-5.0,-5.0,-3.3532848,3.9068637,5.0,-1.8764033,10.0,0.08133018,5.0,5.0,-0.13687995
-5.0,5.0,-5.0,-0.6297613,-0.5256237,-5.0,0.916328,0.15273757,-1.1949838,5.0,4.642777,3.581404,-4.1164436,5.0,-0.49454868,-0.2608363
-5.0,5.0,-5.0,-5.8886867,0.0385316,1.8029068,2.7959754,-0.0027041882,-3.8644466,-1.3002388,4.118885,-0.9890999,-5.0,-5.0,-5.0,-4.021633
-3.9662898,5.0,-5.0,-1.7072592,5.0,-4.933729,-5.0,-3.0974634,3.0218616,-4.2294397,1.4734292,1.8159065,-2.0507393,-5.0,-0.61991185,-2.0734818
5.0,-3.2494187,0.26437032,0.6859816,5.0,-5.0,-5.0,-5.0,2.5033376,5.0,-5.0,1.2799705,1.9044136,-5.0,0.1245203,-2.2157226
0.76276565,-4.420268,5.0,0.015614227,5.0,-5.0,-5.0,-5.0,2.7510133,5.0,-5.0,-7.6942573,-0.0972743,5.0,5.0,-1.4665735
-3.448164,1.5281507,-0.082449436,0.2139847,5.0,-5.0,-5.0,-0.8362899,5.0,5.0,-0.952023,-1.4257776,-0.83986044,5.0,5.0,-1.0001398
-5.0,4.20792,-5.0,1.3456397,-5.0,0.71541476,2.2985065,1.0815972,-3.7737288,1.3645767,3.8413935,0.21032779,-5.0,-0.33384824,-5.0,-5.0
-5.0,5.0,-5.0,5.6981125,-1.221009,1.2935576,3.128494,-0.66440505,-2.5076609,-3.60197,5.0,-0.32301617,-4.8906426,-5.0,-5.0,2.4856927
-1.9835314,3.7905111,-2.6847315,-10.0,5.0,-5.0,-5.0,5.0,5.0,-3.5987444,-5.0,3.6159,5.0,-5.0,2.753866,5.0
1.8840766,-3.722549,2.777339,-0.4018833,5.0,-4.9081306,-5.0,-4.321992,5.0,5.0,-5.0,0.45832956,5.0,-0.8826035,0.17399704,0.2165644
0.44130898,-3.966013,5.0,-0.2797225,5.0,-5.0,-5.0,-5.0,3.1869822,5.0,-5.0,6.4639244,2.8832903,5.0,5.0,-0.32237172
-5.0,2.620479,-5.0,1.2527858,5.0,-5.0,-4.1096077,-4.892065,2.576343,5.0,2.0643182,2.8389199,-3.8806424,5.0,3.7449336,-0.019599311
-5.0,5.0,-5.0,1.1077452,-5.0,3.4429765,2.067341,-0.66914254,-4.159335,-1.2640362,5.0,-2.6012132,-5.0,-5.0,-5.0,1.5221469
-5.0,5.0,-5.0,0.5255111,-0.24917942,0.63838077,2.4267359,2.131948,-1.2886173,-5.0,5.0,0.003574118,-3.716036,-5.0,-5.0,-1.1577303
1.11605,5.0,-5.0,-9.98626,5.0,-5.0,-5.0,0.30827162,5.0,-4.91249,0.6593094,1.0358788,-0.1587398,-5.0,-1.6481483,-4.007787
4.630859,-1.4590895,2.641623,-0.46022516,5.0,1.5464712,-3.157717,5.0,5.0,5.0,-5.0,-6.2253175,4.6679816,-2.326026,2.4340947,-0.65473163
0.39088237,-5.0,5.0,-0.10555041,5.0,-4.886877,-4.687934,5.0,3.5166209,5.0,-5.0,-3.1488438,1.4103458,5.0,5.0,-0.14132214
-2.8991222,-0.011063218,0.04230088,0.3262887,5.0,-5.0,-5.0,5.0,5.0,5.0,-5.0,1.2320026,0.4018346,5.0,5.0,-0.3578382
-5.0,5.0,-5.0,-5.568887,-3.523087,-1.3705852,1.1492192,0.8863689,-3.0416136,4.9236217,2.630072,-0.47130933,-5.0,-1.3566749,-5.0,-5.0
-5.0,5.0,-5.0,-3.9772904,0.67220587,0.36151174,1.7574857,1.318983,-3.2815223,-3.6349556,5.0,-1.1848712,-5.0,-5.0,-5.0,-5.0
-0.7141917,5.0,-5.0,-2.9556983,5.0,-5.0,-5.0,-5.0,4.3806224,0.48581302,-2.1698956,-0.35270286,0.84457564,-5.0,0.7980492,-0.5284494
2.354633,-4.4572434,5.0,0.15476815,5.0,-1.7103503,-5.0,-5.0,4.54838,5.0,-5.0,10.0,5.0,3.5528777,3.8609369,0.17461145
-0.041313887,-3.7376094,5.0,-0.40720183,5.0,-4.798366,-5.0,-3.6629796,5.0,5.0,-3.635963,-2.7267337,0.80692554,5.0,5.0,-1.4385788
-4.6193833,0.49837545,-1.5398556,0.6149238,5.0,-5.0,-4.7117286,-3.3133416,4.494309,5.0,-1.6503546,2.1949928,-3.05506,5.0,4.626547,-0.30570406
-5.0,5.0,-5.0,-5.154872,-3.132968,1.6807705,3.2200189,0.51017904,-5.0,0.24733794,3.9508414,0.26598337,-5.0,-5.0,-5.0,-3.181073
-5.0,5.0,-5.0,10.0,4.873739,-3.2698135,-0.53744566,-0.609434,-0.64599204,-5.0,2.22207,-0.35887754,-4.505897,-5.0,-0.5555049,5.0
3.3908274,-3.2673702,-0.10500085,-0.5102897,5.0,-5.0,-5.0,-5.0,5.0,4.570421,-5.0,1.2158899,5.0,-5.0,0.7763202,1.4218788
1.1881508,-4.108811,5.0,-0.70698935,5.0,-1.7846806,-3.912008,5.0,3.8428557,5.0,-5.0,10.0,5.0,4.462869,5.0,-0.64210457
-2.6696467,0.2558961,1.5904979,3.888106,5.0,-5.0,-5.0,-2.2734888,5.0,5.0,-4.226396,-10.0,-1.2577738,5.0,5.0,-0.37028444
-5.0,5.0,-5.0,-8.000973,-5.0,-0.638875,2.291638,-0.28780556,-2.9393854,4.794111,1.4000942,-0.06365215,-5.0,1.4740914,-1.658528,-0.11833849
-5.0,5.0,-5.0,2.5302815,-1.9985548,3.727032,3.7234864,0.06073738,-1.5217334,-5.0,5.0,-1.1130712,-4.3566484,-5.0,-3.1889606,5.0
-4.1255856,5.0,-5.0,-3.6191459,5.0,-2.9679894,-2.4601815,0.18849984,4.1432457,-4.3139796,1.6122599,-0.7185027,-1.2561527,-5.0,1.8024316,5.0
4.6400104,-3.5822082,3.3686872,-1.598468,5.0,-1.0043865,-5.0,4.051586,3.833388,5.0,-5.0,10.0,5.0,0.99484324,2.9261732,0.5660072
0.70614356,-5.0,5.0,-1.1399739,5.0,-5.0,-5.0,1.4303155,3.062265,5.0,-5.0,10.0,-0.02854848,5.0,5.0,-0.8978299
-2.705522,0.6507674,-0.37476385,0.37004617,5.0,-5.0,-4.647961,-4.024308,5.0,5.0,0.9886522,10.0,-1.4079869,5.0,5.0,-0.2759294
-5.0,1.8746121,-5.0,10.0,-5.0,1.6902817,2.7278054,2.0821142,-5.0,5.0,4.063804,0.2278977,-5.0,-3.84339,-5.0,-4.2749553
-5.0,5.0,-5.0,-6.3105607,-0.34897405,0.090593934,1.134833,3.060492,-2.406999,-3.769491,5.0,-0.22964615,-5.0,-5.0,-5.0,3.1346622
-0.98813605,5.0,-4.7915177,10.0,5.0,-3.1415334,-5.0,5.0,5.0,-1.7009908,0.22520053,0.018971164,2.2154558,-5.0,0.98323596,-0.09091445
1.4048266,-4.6732087,4.1671724,-0.2937338,5.0,-3.847315,-5.0,-0.48058498,5.0,5.0,-5.0,-7.3296843,5.0,0.62930846,2.3239436,-0.6409218
-0.56003046,-3.9524915,4.674004,-0.8053153,5.0,-5.0,-5.0,0.44921398,5.0,5.0,-2.9174352,0.68687785,0.8219034,5.0,5.0,-1.0013553
-5.0,1.5373315,-5.0,10.0,5.0,-5.0,-3.1178231,5.0,4.225593,5.0,0.8692589,-0.66075855,-3.3832345,5.0,2.1977758,0.39939755
-5.0,5.0,-5.0,8.273136,-4.422929,4.9360704,3.2929451,0.14067769,-4.6898255,-1.244782,5.0,-0.07255824,-5.0,-5.0,-4.724491,-4.0545516
-5.0,5.0,-5.0,-5.5820045,2.2577167,-0.11153984,1.8942918,4.528405,-0.10667586,-5.0,5.0,-0.73796266,-3.0575457,-5.0,-3.5041018,1.1350669
1.6451362,1.7134278,1.4637394,1.901838,5.0,-4.8169675,-4.7859797,-1.0859699,5.0,2.409206,-3.161316,0.09226013,5.0,-5.0,0.7022214,-0.5141109
3.4916937,-3.321628,3.5234773,0.66113675,5.0,-0.89837843,-4.4556236,2.2286372,4.812246,5.0,-5.0,-5.993969,5.0,0.36571538,1.5164051,-0.530131
0.68700707,-2.6707098,5.0,0.022471048,5.0,-5.0,-4.6288285,-3.5541406,3.9612665,5.0,-4.4407244,10.0,-0.54987174,5.0,5.0,0.10008061
-5.0,1.8614655,-4.860114,0.43073106,5.0,-5.0,-3.9259048,5.0,5.0,5.0,0.79202235,2.2535968,-3.0475068,5.0,3.959184,0.40795988
-5.0,2.4942598,-5.0,10.0,-1.6384015,0.47130346,0.9839356,-0.10126366,-5.0,5.0,1.6734426,0.5085287,-5.0,2.5408142,-2.807286,-0.45062017
-5.0,4.9908476,-5.0,10.0,0.26598072,0.28159472,1.515666,1.0738468,-1.2363257,-5.0,5.0,-0.7498731,-5.0,-5.0,-5.0,1.2057844
2.2228255,-0.046806335,0.80244935,0.8935065,5.0,-5.0,-5.0,5.0,5.0,1.5600688,-5.0,8.136462,5.0,-5.0,1.2461174,0.039333157
2.0023124,-4.772254,4.012971,-0.13031861,5.0,-4.690098,-5.0,-5.0,5.0,5.0,-5.0,-9.342114,5.0,-0.030720651,1.0391011,1.4608172
-1.6927536,-1.5706804,4.425159,0.26530316,5.0,-5.0,-5.0,1.9308574,5.0,5.0,-1.9942596,10.0,-0.8423453,5.0,5.0,-0.07201366
-5.0,5.0,-5.0,-8.737137,1.8525449,-5.0,-3.050362,-1.2430649,1.2363449,5.0,-0.76580715,0.1520483,-5.0,5.0,1.5941674,0.38528726
-5.0,5.0,-5.0,10.0,-5.0,1.7065481,2.6977675,-4.617548,0.13949788,-2.159689,5.0,0.7675694,-5.0,-5.0,-5.0,0.8305874
-5.0,5.0,-5.0,-4.417272,4.292762,-0.14182213,2.3513064,-0.40450564,-1.4389871,-5.0,4.242141,0.024463441,-3.2666142,-5.0,-3.820887,1.7039151
2.049162,2.9267383,-1.5519686,10.0,5.0,-5.0,-5.0,5.0,5.0,2.3008199,-4.010598,1.0420506,2.2304423,-5.0,2.9270055,-2.1119065
2.3644347,-1.5334183,2.1486552,1.752688,5.0,0.97272277,-5.0,3.1816554,2.706371,5.0,-5.0,-7.83173,5.0,-0.030316114,0.6821704,0.033658944
0.4407176,-3.4966888,5.0,-0.026991261,5.0,-0.8114884,-4.600781,5.0,2.8711476,5.0,-5.0,-8.5383,2.238449,5.0,5.0,-1.246303
-5.0,1.7828157,-5.0,-0.1295682,5.0,-5.0,-0.7125086,1.286151,5.0,5.0,1.8858736,3.1382742,-4.0539956,5.0,3.7676299,0.16164692
-5.0,4.722443,-5.0,-0.61853004,-3.9422467,1.9737943,3.183815,0.5795241,-0.61853874,1.4677072,2.965279,0.26910532,-5.0,1.3227247,-5.0,-5.0
-5.0,5.0,-5.0,4.1719933,1.3397944,-1.2927587,1.6492361,4.0833735,-1.6163242,-4.0251865,4.9728894,-0.5234124,-5.0,-5.0,-4.04438,1.803678
5.0,-1.2874024,1.8701859,-2.1112485,5.0,-4.6417866,-5.0,3.6420872,4.3197556,3.3398292,-5.0,7.1709538,5.0,-5.0,3.609203,4.193239
3.950282,-3.2724676,5.0,0.3739445,5.0,-3.6113071,-5.0,-3.6994832,-0.32004064,5.0,-5.0,10.0,0.15954101,1.2669758,4.305725,-0.59595287
-0.953351,-4.1624203,5.0,-0.26870438,5.0,-4.6298046,-5.0,5.0,5.0,5.0,-5.0,10.0,-0.34981418,5.0,5.0,0.034640078
-5.0,2.7602196,-4.508197,1.250122,2.466426,-5.0,-3.5896158,-2.9431276,0.83566016,5.0,-0.5941173,-10.0,-2.6602256,5.0,0.15729624,-0.06724881
-5.0,4.590047,-5.0,-4.428699,0.17828703,1.0468336,2.1294608,5.0,-5.0,-0.46617103,5.0,0.07058075,-4.4399586,-5.0,-5.0,1.0546904
-2.8833673,5.0,-5.0,-7.523117,5.0,-3.2471743,-5.0,5.0,1.4111285,-1.2102126,-0.029961675,-6.692116,-0.22331654,-5.0,0.59536767,-2.1059003
2.3294506,-2.1094744,2.1795375,-0.312685,5.0,-3.6850863,-5.0,-5.0,3.5065644,5.0,-5.0,-0.89375544,5.0,-2.8005257,0.105211616,0.45445725
-1.3974353,0.12693143,4.7583303,0.536259,5.0,-3.4139223,-3.84689,-0.15125293,3.9859438,5.0,-5.0,9.459082,-0.75008965,5.0,5.0,-1.347841
-5.0,3.7423625,-5.0,0.3201133,-0.047576874,-3.0344412,1.2890282,2.1113815,1.8356984,5.0,0.051209986,3.591784,-5.0,5.0,0.22156405,1.4112003
-5.0,4.1240015,-5.0,0.7402531,-4.605056,0.97155994,2.975216,0.6094664,-4.8187904,-0.4282933,3.5568824,0.19120646,-5.0,-5.0,-5.0,3.1468635
-5.0,5.0,-5.0,-2.7178297,1.6402951,-0.70008165,0.22676209,0.2648387,0.29212248,-5.0,5.0,-0.029502787,-2.9338858,-5.0,-1.7846719,5.0
4.5743613,-2.9690628,4.2708297,2.7379715,5.0,-0.09126675,-5.0,5.0,5.0,5.0,-5.0,0.6912756,5.0,-5.0,0.8504108,-0.669642
2.0666575,-3.1135287,5.0,0.061706375,5.0,0.42571867,-4.882835,5.0,2.844976,5.0,-5.0,10.0,4.487312,0.20050883,3.7531977,-0.6541275
-0.25408924,-2.9766738,3.6524682,-0.9749033,5.0,-2.72329,-4.7152057,5.0,5.0,5.0,-3.205709,10.0,0.48041773,5.0,5.0,0.4741713
-5.0,2.8808398,-5.0,1.2141072,0.24471211,-5.0,2.8037915,-0.05316444,-0.3812152,5.0,3.461351,3.001601,-4.5145693,5.0,0.75411,0.30706164
-5.0,1.0482577,-5.0,10.0,-0.38231778,0.28298706,-0.639897,-4.514547,-5.0,0.68274,5.0,-1.2144414,-5.0,-4.3670216,-5.0,-3.8937283
-5.0,5.0,-5.0,10.0,1.2722847,-2.3167043,-1.9177651,-4.9885187,-0.60134614,-5.0,5.0,0.40571398,-5.0,-5.0,-3.3698812,-5.0
0.8965608,1.8761697,-2.0815604,-10.0,5.0,-5.0,-5.0,-5.0,5.0,-0.9571159,-5.0,0.5207463,3.5765412,-5.0,-0.33674216,-0.2281366
1.9217852,-3.8082945,5.0,-1.230192,5.0,-3.756804,-5.0,-5.0,2.2956858,5.0,-5.0,-3.9715037,3.4859366,2.517977,4.7059402,0.8391927
-0.014719486,-0.7293832,2.7085812,0.18925692,5.0,-5.0,-5.0,-2.518507,4.276856,5.0,-2.2670817,8.693431,-0.19979596,5.0,5.0,-0.9996497
-5.0,2.8732595,-5.0,9.084164,-1.8728056,-1.0733877,3.7413116,0.2833663,-1.4961579,5.0,2.3673115,-10.0,-5.0,5.0,-3.3639278,-0.45751056
-5.0,5.0,-5.0,-6.1547866,-0.03418988,-1.5452511,0.67590153,-5.0,-4.4102573,-3.4526854,5.0,-0.84683883,-3.743607,-5.0,-5.0,5.0
-5.0,5.0,-5.0,9.936852,5.0,-3.4263563,-3.8665454,-0.44194943,0.70811987,-4.273187,1.7912799,0.4748461,-2.059637,-5.0,0.748211,-1.8938699
2.2660463,-1.5456564,3.320341,6.230374,5.0,1.0474466,-5.0,-2.0092232,5.0,3.9803262,-5.0,-3.7532535,5.0,-5.0,0.33493018,-1.6084701
1.6508905,-3.9393492,5.0,0.16727558,5.0,-0.8210802,-5.0,-5.0,4.9777393,5.0,-5.0,-0.021635532,5.0,2.15109,3.0168445,0.81636095
-1.311841,-2.0167518,3.3465579,-0.6907816,5.0,-5.0,-5.0,5.0,3.996562,5.0,-3.3237002,10.0,0.16665363,5.0,5.0,-1.3857399
-5.0,1.6578467,-5.0,-0.63640976,1.7235744,-5.0,-3.6881757,-2.5938718,0.44845355,5.0,-1.4174533,-5.0746922,-4.56038,5.0,1.541057,0.20056483
-5.0,0.8084911,-5.0,10.0,-4.875813,0.07465309,1.5198786,-0.07176775,-3.1686544,-1.2274606,5.0,-0.6814251,-5.0,-0.31938708,-4.155837,5.0
-5.0,5.0,-5.0,1.9147006,3.5476022,-2.5712595,-1.1534064,-0.9045414,-0.36215478,-3.6885793,2.1323524,-0.7534051,0.35917068,-5.0,0.47668993,0.060980603
5.0,-0.77436304,3.1140468,-0.15613079,5.0,1.4181511,-5.0,5.0,5.0,4.310624,-5.0,-0.97239447,4.1495266,-5.0,0.24111056,-0.089613385
1.6454501,-3.173551,5.0,-0.89040285,5.0,-1.944526,-5.0,5.0,0.94812846,5.0,-5.0,10.0,0.13761175,1.7447395,5.0,-0.23479733
-1.2323058,-1.3135967,2.989204,0.32665193,5.0,-1.9997051,-5.0,-5.0,5.0,5.0,-2.5248718,-6.4501476,0.31976682,5.0,2.9898012,-0.6908698
-5.0,3.47152,-4.246122,0.3517809,-3.5017996,-2.9159281,1.3917615,-2.0965652,-0.27306962,5.0,5.0,2.0188181,-2.5863318,3.4174798,-2.1270797,-0.06118512
-5.0,3.468972,-5.0,10.0,0.2255187,0.24060777,1.4152036,3.2199903,-2.6994762,-2.5022037,5.0,0.28290752,-2.16524,-5.0,-5.0,1.6283281
-0.4266938,1.9670129,-5.0,-4.7604513,5.0,-2.652841,-5.0,5.0,3.2710772,1.1802369,-5.0,-0.037928008,3.092893,-5.0,2.1640518,0.12939513
0.3615198,-1.2613367,0.69698775,0.111903846,5.0,2.151229,-5.0,0.4303428,2.375284,4.683709,-5.0,4.369047,5.0,-4.4531207,2.529519,0.3311177
0.13935506,-1.2646437,3.9656935,0.2609476,5.0,-0.68815875,-5.0,-2.7160656,5.0,5.0,-5.0,1.9476535,1.7282,3.04336,5.0,-0.92288256
-0.028449893,0.36961102,3.408609,-0.35749012,5.0,-1.983608,-4.5505524,-4.1363597,4.8109913,5.0,-2.4605265,1.1793357,-0.29116392,5.0,5.0,-1.4856397
-5.0,2.078339,-5.0,0.84773284,5.0,-5.0,-2.689281,-5.0,3.1601694,5.0,2.8000958,2.6229985,-4.087926,5.0,0.53059626,0.43928456
-5.0,-3.49395,-5.0,8.675629,-1.7340883,-0.5486183,2.35551,3.3808072,-4.215152,2.990571,5.0,-0.33366114,-5.0,5.0,-3.7143335,-0.08729926
-5.0,2.8481865,-5.0,-8.772509,-0.6848411,-2.8746958,0.76578295,-0.10604936,-4.000258,0.30969787,5.0,0.010962836,-5.0,-4.535962,-3.142683,-2.3697925
0.70751464,2.965242,-2.5961044,-4.949253,5.0,-0.87751627,-5.0,5.0,5.0,-4.4576783,-5.0,-0.4921931,4.6756363,-5.0,-0.13711059,0.27353024
5.0,-0.61229146,0.11764312,-0.10472174,5.0,-0.29509926,-5.0,-3.882106,5.0,-0.22161043,-5.0,1.2089555,5.0,-5.0,2.1122658,-0.013250321
0.82963943,2.3505507,5.0,-0.28031856,5.0,-0.37785077,-2.3947375,-0.12098026,1.27905,5.0,-3.696595,-7.9356565,0.16200626,4.905671,5.0,-0.14034504
-5.0,0.25425982,-3.647484,-0.057337835,-1.5070862,-1.5621456,3.4497838,3.651585,0.72717845,5.0,-1.0332792,-10.0,-3.731003,5.0,-0.2364335,-0.178946
-5.0,0.49577594,-5.0,1.1030552,-5.0,-1.9185418,2.2665305,-0.0075507406,-4.497843,5.0,5.0,0.006904248,-3.281752,0.9978882,-5.0,1.6507306
-5.0,5.0,-5.0,-9.978699,-1.9586003,-1.5771825,2.1705012,1.4505415,-1.8453298,2.5525532,5.0,0.2969838,-3.3101504,-5.0,-5.0,4.3501515
-3.7726026,1.8769895,2.0611973,10.0,5.0,-5.0,-5.0,5.0,3.941877,-5.0,-1.6405821,-0.74889165,-0.54831934,-5.0,2.6038265,-4.245895
3.3712492,0.49827164,1.4032112,0.20050329,5.0,3.1197605,-5.0,-1.3498545,5.0,-0.5739459,-5.0,3.6505764,5.0,-5.0,0.50917566,-0.10648283
-0.001657784,0.22509062,2.7449265,7.9478064,5.0,-0.6105465,-2.8353138,-2.2504358,5.0,5.0,-3.5687103,-6.5392647,5.0,-1.3387365,5.0,-0.10775356
0.24614012,0.64431643,5.0,-0.70528513,5.0,-3.388784,-2.9447355,-5.0,4.273232,5.0,-2.259826,-3.4885936,-3.4875042,5.0,5.0,0.4668036
-5.0,-1.6160555,-4.2595997,-0.22241385,-0.82057786,-2.4624434,2.2138968,-0.15440932,-0.4565673,5.0,3.0570796,10.0,-3.699483,5.0,-0.48317313,0.41965458
-5.0,1.6650621,-5.0,3.302542,-2.2983541,-1.4176642,-0.9193733,0.13547224,-1.1335882,4.2921734,5.0,0.50055856,-1.9979922,2.1051571,-5.0,-0.5001409
-5.0,2.3306153,-5.0,2.897585,0.16014028,-3.8153,2.199203,5.0,0.008966923,-5.0,5.0,-2.06687,-1.6220843,-5.0,-1.9955937,-5.0
4.7462745,-0.24405733,0.6069942,0.5847076,5.0,-1.819094,-5.0,-0.34702563,5.0,-3.4581294,-5.0,-0.7720442,4.117461,-5.0,0.6911619,0.31565684
1.8575735,1.1069806,3.032104,-0.43743452,5.0,-1.0975741,-4.7495236,0.94828105,-0.018262208,2.962289,-5.0,10.0,1.7416486,-5.0,5.0,0.36546332
-0.10253525,1.464369,5.0,0.37548885,5.0,-3.0005136,-3.2013078,-3.4356427,3.1153781,5.0,-4.56487,-10.0,0.516857,5.0,5.0,-0.18958497
-5.0,1.1026305,-1.9708043,-2.5685117,4.624306,-3.094728,2.2914782,1.8124352,3.0468044,5.0,2.4684825,2.4610896,-2.363299,5.0,-0.24236184,-1.8980862
-5.0,-0.6374756,-1.7236576,2.03472,-4.554074,-2.5809212,0.7347568,-0.34930098,-4.4026814,5.0,5.0,-0.76855135,0.75620455,1.4097488,-5.0,5.0
-5.0,1.3783269,-5.0,3.0664473,-0.1671195,-3.8203092,-0.24908483,0.3611763,-2.9114501,0.92508864,5.0,0.6896764,-3.109513,-5.0,-5.0,-5.0
-2.5365453,4.5372767,-1.3953342,-1.6934515,5.0,-3.4644125,-5.0,4.3825474,5.0,-4.9159517,-1.581866,-0.29387257,3.0220475,-5.0,1.7726738,-0.47903997
2.7790504,0.2285456,1.5483106,-0.015832895,5.0,2.0834017,-5.0,-2.0484967,4.434941,0.5288778,-5.0,0.9356582,5.0,-5.0,0.8041378,0.14539616
0.64672303,1.9110898,5.0,0.6666807,5.0,-1.4242187,-2.798751,5.0,2.4935212,5.0,-4.1701508,-7.535822,0.7503867,1.053812,5.0,0.24663293
-5.0,0.4123,-5.0,-0.030830227,-0.6553136,-3.033008,1.154289,-3.8524125,-0.081530094,5.0,2.0872622,-8.9472475,-5.0,5.0,-4.4097786,-0.143061
-5.0,0.5509893,-5.0,-0.2523396,-2.7687168,-2.571998,2.644938,2.6984205,-3.4995475,5.0,5.0,0.36133367,-2.9264157,1.8304887,-5.0,0.5199487
-5.0,0.9424361,-5.0,9.448448,0.8300073,-2.0461814,0.5565598,0.00078471005,-1.3871223,-3.6163123,5.0,-0.5251866,-1.3839974,-5.0,-5.0,5.0
-0.03308475,0.8580089,-1.6016814,-4.114064,5.0,-1.462573,-5.0,-4.2835693,5.0,-1.5785595,-5.0,0.057711057,5.0,-5.0,0.19641614,-0.6361743
1.8393991,0.27870822,5.0,-0.9071004,5.0,0.67585254,-5.0,-4.335352,-0.48058355,5.0,-5.0,-9.836561,0.2501303,-4.03436,4.867594,0.7248434
-4.918398,0.76891494,4.6784043,-0.6638027,0.62288547,-0.7515984,-3.4946265,5.0,1.8370876,5.0,-5.0,-6.193944,-3.2090142,5.0,0.77797544,-0.3167459
-5.0,-0.5882666,-3.483046,-0.13061818,-5.0,-1.3952422,2.4071026,0.29499033,-1.0318731,3.8797548,5.0,0.50629973,-0.6740873,1.1633209,-5.0,0.70241463
-5.0,-3.760939,-5.0,10.0,-5.0,-0.95853066,2.122414,3.5261528,-1.4099236,0.3985288,5.0,0.26080787,-3.2387393,-4.2248416,-5.0,3.0191507
-5.0,0.27141297,-3.3845346,-1.3201398,1.0003636,-1.5754926,1.0525944,4.2871666,0.7670262,-5.0,0.31740585,0.004243038,-0.7471713,-5.0,0.6651683,5.0
3.18918,0.41503897,0.6957762,0.13264853,5.0,0.8366499,-5.0,0.14463973,0.7173815,4.571395,-5.0,5.2327204,3.2850466,-5.0,3.0423353,-4.992428
0.8125031,-0.029977381,1.0223362,0.19576181,5.0,-3.281181,-5.0,-5.0,1.0232328,5.0,-5.0,0.43884182,1.7549715,-5.0,4.987039,0.47439596
0.7952136,2.7790613,5.0,-0.2558612,5.0,-1.6778932,-4.694453,-5.0,3.9040787,5.0,-5.0,8.884239,-3.533728,5.0,5.0,-0.45036024
-5.0,0.09101254,-0.6465652,-0.44456524,5.0,-5.0,-2.6629393,5.0,3.570603,5.0,0.032697022,-1.3718966,-2.4449458,5.0,2.473371,0.23730868
-5.0,-0.7233107,-5.0,3.1089091,-0.59702724,-2.0521066,0.8977628,-1.9811271,-5.0,5.0,5.0,0.22272235,-3.9561663,3.0821266,-5.0,-1.5706302
-5.0,2.4438927,-5.0,-1.3640578,-0.7041178,-1.8733444,0.4773215,-0.16535972,-2.089229,0.63680506,5.0,-0.4030741,-1.360533,-5.0,-5.0,-5.0
-5.0,5.0,-2.8622854,0.69007874,4.282889,-5.0,-5.0,-0.6193867,2.4618921,-2.2485402,0.25977445,-2.6190922,0.5714165,-5.0,3.9400103,-5.0
4.288651,-1.032347,1.4347271,0.49471977,5.0,4.891902,-5.0,5.0,4.8292527,0.8226359,-5.0,-6.81962,5.0,-5.0,0.80263627,1.2720325
2.326306,1.1230415,5.0,0.785815,5.0,0.27982557,-3.97505,-4.833862,0.9668169,5.0,-5.0,-6.4915514,0.6463362,-1.7354548,5.0,0.57523215
-5.0,0.36224353,2.1109586,1.6895142,0.7166337,-2.1918283,-0.2499215,5.0,3.488667,5.0,-0.13944453,-10.0,-5.0,5.0,-0.3508221,0.45481566
-5.0,-0.64579153,-5.0,10.0,-5.0,-2.1718607,1.2862585,-2.7641115,-5.0,5.0,5.0,-3.118998,-5.0,3.7591143,-5.0,5.0
-5.0,2.1212533,-5.0,-7.7486863,-1.7291828,-1.8297087,1.5526658,2.3755903,0.48568523,-0.25995564,5.0,0.3048841,-1.2161708,-5.0,-5.0,-5.0
4.8741255,-0.89300454,2.3835897,0.3695197,5.0,2.0141277,-5.0,5.0,5.0,-1.9536617,-5.0,-0.29866555,5.0,-5.0,-0.61274517,-0.89547527
2.1248763,-2.007399,2.8334477,-0.21329525,5.0,1.293953,-5.0,-5.0,2.2075198,0.35123542,-5.0,10.0,2.1788433,-5.0,0.6743362,-0.22034769
-2.307231,1.3842645,5.0,-4.0355554,5.0,-1.0216019,-4.3932467,1.7653704,4.3130517,5.0,-4.5698595,-4.4577737,-1.7393198,5.0,4.968796,-3.4564643
-5.0,-1.8844004,-3.344592,-0.65734285,-5.0,-1.241228,2.8606944,-0.3384999,-1.0485737,4.56811,5.0,-10.0,-1.9559479,3.270228,-2.6996863,-0.5932811
-5.0,0.48730052,-5.0,3.9379795,-1.4319952,-0.5073525,1.5335801,-0.16957867,-2.971541,2.1610408,5.0,0.61761767,-2.9876757,-5.0,-5.0,-0.4307816
-5.0,1.7851822,-2.7064962,1.8448753,-1.3573345,0.17483377,2.8630564,-0.13342643,0.82071364,-1.8278642,5.0,0.2220479,-1.6689723,-5.0,-5.0,5.0
3.2100806,-2.3005006,0.98020303,-0.33076188,5.0,0.046815872,-5.0,-0.8565564,3.1088867,-1.8225772,-5.0,-0.17761996,5.0,-5.0,1.3735932,5.0
2.7286155,1.3938208,4.029441,7.971919,5.0,-0.28295743,-3.7931738,3.0985057,0.48650527,5.0,-5.0,-10.0,4.8354344,-5.0,5.0,-0.081102565
1.0775347,1.9040146,3.1580958,3.283925,5.0,-0.6104603,-2.365732,5.0,4.691964,5.0,-5.0,10.0,0.117581904,1.9968302,5.0,1.0346301
-4.9457326,0.057035923,-0.61408305,-0.18171261,1.0752444,-3.0457258,2.5938916,-1.270649,1.9188304,5.0,-0.13436723,7.9551997,-5.0,5.0,0.22051352,0.4397323
-5.0,-5.0,-1.1694179,10.0,-5.0,-1.0342377,2.579294,2.1400816,-2.0604682,5.0,5.0,-0.121639356,-5.0,4.770793,-5.0,-5.0
-5.0,1.943365,-5.0,-0.83057076,-0.7444982,-1.0825118,2.2943563,2.7619233,-1.3713621,1.1419882,5.0,0.0054057576,-5.0,-5.0,-3.6018085,-5.0
0.1676335,3.595891,-1.710479,2.5665133,5.0,-3.714951,-5.0,2.3179903,3.8633232,-1.2187811,-4.7467227,0.17954573,-0.14757854,-5.0,-1.2306211,-2.5161335
4.059622,-0.033759892,3.146906,-0.642685,5.0,2.3975332,-5.0,5.0,0.41571695,3.9648862,-5.0,0.8948226,1.360505,-5.0,2.1002982,-5.0
-0.13750017,2.7379487,5.0,-0.16647507,5.0,-1.3227272,-2.2417316,-3.477965,2.6331484,5.0,-4.190443,-8.293448,-1.9120748,4.5575294,4.0252414,-0.7949555
-5.0,0.016338825,-5.0,0.15282704,-2.3158698,-1.4822941,3.5088603,0.5393485,-3.0911708,5.0,5.0,-4.343757,-5.0,5.0,-5.0,-5.0
-5.0,2.1117156,-5.0,-6.82502,-2.1460984,-2.8727648,1.0328269,0.19518308,-5.0,5.0,5.0,-0.26669848,-4.439653,-0.60890913,-5.0,5.0
-5.0,4.5151978,-5.0,1.0003269,-1.1449229,-2.9060855,-1.6511317,-4.803151,-0.027670622,-0.04587376,5.0,0.22024357,-0.14022416,-5.0,-5.0,-2.1282654
0.97678745,-1.8323059,1.6479585,-0.22074193,5.0,-2.7951536,-5.0,2.093153,4.074288,-5.0,-5.0,-0.75613034,2.9109962,-5.0,0.28343368,0.122931644
1.5233967,-0.44293845,4.411666,0.048267793,5.0,0.59117484,-5.0,1.8560266,3.501928,-0.4448128,-5.0,10.0,5.0,-5.0,2.1632032,1.2431493
3.405244,-0.80254245,5.0,0.17483778,5.0,-1.696375,-5.0,-5.0,1.8264666,5.0,-5.0,1.6542846,-1.1987929,3.396449,5.0,0.10539739
-4.0445576,1.9487606,5.0,-0.5694771,5.0,-3.548546,-1.021107,-5.0,3.5972917,5.0,-1.3060799,-6.3408756,-4.0646114,5.0,1.7940195,-0.60774183
-5.0,-1.0547214,-3.411367,-0.16666198,-0.7545711,-2.9026895,-1.0758598,-3.7979746,-3.8844438,4.241292,5.0,-0.6173817,-0.8725747,-1.316345,-5.0,5.0
-5.0,0.6513363,-5.0,5.9788966,-1.2593443,-2.415251,-2.281992,-5.0,-1.314847,1.0474901,5.0,-0.51075387,-0.9381316,-5.0,-5.0,-5.0
-5.0,2.7214332,-1.6123301,10.0,5.0,-3.1357605,-4.3819814,2.514536,0.1946392,-5.0,2.1097357,-3.1097667,-3.0528934,-5.0,-0.3626833,-5.0
-2.9934373,0.2918321,-2.167886,-8.887327,4.322256,5.0,-5.0,4.810744,4.942445,-4.8998427,-5.0,0.08304343,5.0,-5.0,2.065611,-5.0
-0.80963683,0.7743543,-1.0239697,-3.3462462,5.0,3.6613016,-5.0,1.5444574,4.159382,-0.15224683,-5.0,1.7351031,5.0,-5.0,0.5966252,-0.13382412
-0.9753674,5.0,-1.2616425,2.130764,5.0,-0.29599547,-4.0095873,3.962944,5.0,5.0,-4.97266,-7.548203,3.2032912,-0.61758757,1.7402847,-4.0410924
0.27367532,1.186385,-0.5807075,-0.09258524,3.8058472,-2.363856,-2.2931805,5.0,1.7348685,5.0,-4.7997417,-4.780717,0.27477443,3.0052588,3.86175,0.25359148
-5.0,5.0,-2.7961857,0.96860135,3.3123503,-5.0,-5.0,-5.0,1.2308394,5.0,-3.7794666,-7.6033554,-3.1366944,5.0,-0.24102455,-0.16449013
-5.0,1.6158618,-5.0,0.9998355,-5.0,0.91724837,4.641684,-0.57957673,-3.4566607,1.3157103,5.0,-0.49920514,-2.1463337,5.0,-5.0,-0.50110483
-5.0,3.926876,-4.9645042,-5.5430837,-1.4617853,-4.105901,-2.780149,-5.0,-1.1482185,1.9525032,5.0,0.5026693,-4.190039,-5.0,-2.184005,-4.567977
-0.038986683,0.17911375,0.26787376,-0.039249673,5.0,-2.3800979,-4.4241447,0.7781209,1.2469276,-0.5960728,-3.078688,-0.63664246,0.9066218,-5.0,0.8082322,-5.0
0.12788159,0.2636428,0.5429008,-3.9611566,5.0,0.02605176,-5.0,-5.0,2.7081401,2.6372352,-5.0,-1.7796531,5.0,-5.0,1.5101494,1.3839512
0.5452977,2.8517716,1.9144915,-10.0,5.0,-3.4547331,-3.486977,-4.21767,1.1274996,5.0,-5.0,6.0758295,0.40657747,-2.156547,4.145603,0.4558472
-0.07144913,2.2930205,4.0654597,-0.68894994,5.0,-2.8984616,-1.3026491,-5.0,3.2593224,5.0,0.59464073,1.6729642,-0.3043605,5.0,5.0,-0.26600105
-5.0,-3.5226517,-5.0,6.166494,-4.1004086,-0.5308449,4.1977367,-3.3320105,-5.0,5.0,5.0,-10.0,-4.4140387,5.0,-5.0,5.0
-5.0,0.66441303,-5.0,-4.4442806,-2.1098523,-0.77581024,3.67483,3.243622,-5.0,5.0,5.0,-0.15572932,-2.2929752,5.0,-5.0,-0.7635035
-5.0,1.7708607,-3.2094355,9.864142,1.5632161,-4.002247,1.0618652,3.0760098,-1.1887953,-1.8751488,5.0,-3.3268113,-4.305067,-5.0,-3.3335822,-5.0
3.5656884,-1.5903089,2.7744448,0.42984396,5.0,1.0218422,-5.0,-5.0,5.0,-3.0995934,-5.0,0.8308633,5.0,-5.0,1.1173009,1.4539804
1.010222,-0.6009254,3.7154586,0.7091081,5.0,-0.16403627,-5.0,-5.0,1.0530888,5.0,-5.0,-6.105142,2.951829,-2.463153,2.1747146,-0.08862609
-2.0963624,1.8743191,5.0,0.15570067,5.0,-2.1866913,-3.7663107,-4.547482,2.4309123,5.0,-5.0,2.0920546,-1.1266614,5.0,5.0,-1.1846129
-5.0,0.5627221,-5.0,-2.6422014,-2.117092,-0.46666992,2.2065012,4.059519,-3.5311615,5.0,5.0,-0.445313,-1.8656095,5.0,-2.8115737,-0.68797857
-5.0,1.2278979,-5.0,-0.26312542,-0.6910559,-2.338489,-0.00042772293,1.1162431,-3.8170881,2.1816,5.0,-2.7758393,-4.257,-3.9398675,-5.0,-5.0
-5.0,3.8844748,-0.049851894,0.55664104,5.0,-4.4682517,-5.0,2.062162,4.238007,-5.0,-0.5484419,0.49280038,-0.99875057,-5.0,-2.1399047,-5.0
2.5488694,-0.80136406,0.65541124,0.334724,5.0,1.9402266,-5.0,0.2789206,2.9383297,-0.9174186,-5.0,2.3205566,5.0,-5.0,1.7334154,-0.33403343
1.8887823,0.7595713,5.0,0.22646336,5.0,-0.96099985,-5.0,0.95250005,0.45176345,4.0780563,-5.0,-0.1256733,0.40270796,1.9968128,5.0,-0.6859417
-4.931993,1.1258665,4.093793,0.6129794,5.0,-2.6436691,-3.8188553,5.0,1.8965082,5.0,1.0628035,2.3759577,-3.105877,5.0,2.372554,0.7641258
-5.0,-1.0188181,-5.0,0.5870205,-5.0,-1.5725279,1.7224457,0.13535595,-4.9216976,3.1615524,5.0,0.00699649,-4.931292,5.0,-5.0,-2.944275
-5.0,2.519404,-5.0,-10.0,-2.3930914,-2.4131806,1.9985883,4.1392736,-1.928037,-0.17910719,5.0,0.6546682,-1.8571466,-5.0,-5.0,-0.20249581
-5.0,0.96099824,-3.8919356,1.5627168,-0.5204891,-1.9662982,1.2494793,5.0,-0.016940057,-4.0249987,3.4128816,-0.025586294,-3.9420297,-5.0,-2.4059203,-5.0
5.0,-1.422786,5.0,-0.15734659,5.0,5.0,-5.0,5.0,4.535442,-0.81618595,-5.0,1.9341623,5.0,-5.0,0.58828545,1.1611795
1.026346,0.9299915,4.873579,-0.2270801,5.0,-0.3076563,-5.0,-0.15769458,1.9033718,5.0,-5.0,0.6827328,3.1911817,-5.0,4.70771,-0.11804703
-0.5923042,2.574397,5.0,-0.20250773,5.0,-2.5986893,-3.218672,5.0,5.0,5.0,-0.8133886,9.077873,-2.5509772,5.0,5.0,0.75850713
-5.0,1.3844799,-4.9829874,0.20813231,-3.4197404,0.29723275,3.8721352,-0.6765154,2.0753357,5.0,5.0,-10.0,-2.0671935,5.0,-4.2818437,-0.24723953
-5.0,-1.1719973,-5.0,-8.56937,-4.1139374,-1.0089508,2.658719,4.071143,-2.7609649,5.0,5.0,0.03545434,-2.6664221,-0.9416133,-5.0,-1.731111
-5.0,-2.1310515,-3.513355,6.497311,0.9146726,-4.5373535,-0.04060638,-0.39112186,-1.0810388,-3.3002691,5.0,0.09497413,-5.0,-5.0,-5.0,-5.0
5.0,2.2536588,5.0,-1.3295224,5.0,2.7339034,-5.0,-5.0,5.0,-2.6024904,-5.0,7.1370173,5.0,-5.0,-0.20956814,-5.0
3.616147,-0.9370477,3.7628412,-1.711137,5.0,1.8198895,-5.0,-2.3809702,-0.4873577,1.965974,-5.0,10.0,2.4194102,-5.0,3.4186816,-1.9789885
1.0529225,0.7487583,5.0,0.32818568,5.0,3.1311617,-4.5932884,5.0,2.7341933,5.0,-5.0,10.0,-0.24003112,1.1823108,3.4748156,0.463436
-5.0,-1.6673627,-5.0,-0.17752148,-5.0,-1.3567951,2.222561,0.18752699,-1.6519055,5.0,5.0,-1.4076313,-4.822943,4.753985,-5.0,5.0
-5.0,0.5639889,-5.0,-0.98914087,-4.2118,-4.4534407,0.76912355,-3.8487747,1.5509355,-1.1483006,5.0,-0.28455958,-0.2650295,-5.0,-5.0,-5.0
-2.09194,3.5088246,-2.5954216,9.344478,5.0,1.3836484,-5.0,2.3799345,3.8256645,-2.4940057,-3.079464,6.0753536,1.7236097,-5.0,-0.7656188,3.3740063
4.77713,-0.8452201,1.1027586,0.6349756,5.0,1.8869607,-5.0,5.0,0.71694213,1.2129946,-5.0,10.0,4.704679,-5.0,1.9266784,-0.20485342
1.1589401,-0.5599072,3.6046424,-0.41080308,5.0,0.2743379,-4.6855965,-1.2408512,-1.4658089,5.0,-5.0,1.6666384,0.43237036,-4.8853602,5.0,0.67373735
-0.7897134,0.92950046,5.0,-0.35285342,5.0,-0.38390136,-1.5344088,-5.0,5.0,5.0,-5.0,-10.0,-1.4086435,5.0,3.122152,-0.1546666
-5.0,0.8599111,-4.467464,0.45414567,-4.5095496,-1.8840967,3.067663,-0.54441947,-1.8616753,5.0,5.0,-0.820936,-3.7043169,2.7548537,-5.0,2.9721558
-5.0,-1.1418643,-5.0,10.0,-1.2412075,-3.154866,-2.1590495,-5.0,-2.8693361,2.282173,5.0,0.81188095,-3.112533,-5.0,-5.0,-1.0671419
-5.0,3.116922,-5.0,8.727823,0.1857611,-0.69712853,1.4451122,2.5568817,1.579672,-3.2472467,4.528332,-1.1112931,0.66310054,-5.0,-5.0,-1.4932752
4.1320424,-1.3793917,0.37777805,0.10505238,5.0,-0.7341584,-5.0,2.2342594,5.0,-2.962335,-5.0,7.2441516,5.0,-5.0,1.3098829,0.99054146
2.309237,-1.8499889,2.9981294,-0.29756755,5.0,-2.9336987,-5.0,-5.0,0.38191134,3.5254476,-5.0,-10.0,-0.35048038,-5.0,5.0,0.61529595
-1.443245,1.4379743,5.0,0.21247604,5.0,-2.9302676,-3.7940853,-5.0,4.3868136,5.0,-4.4881644,-10.0,-3.2351575,5.0,3.9660468,1.0714478
-5.0,1.5590627,-4.907216,0.29159984,-3.4216628,-1.0987427,1.2010018,-0.12645978,-1.8100746,2.4298406,5.0,-0.29936782,-5.0,0.9779124,-5.0,-0.18453288
-5.0,4.0664563,-5.0,-9.521384,-2.65145,-3.2114224,-0.41074404,0.18099314,-1.3690269,-1.8184831,5.0,0.44995973,-3.1211016,-5.0,-5.0,-5.0
-5.0,3.244963,-1.849604,2.948937,0.8396325,-0.95402944,0.28021145,-0.54432034,-0.5155884,-5.0,2.6622407,-0.2861419,-0.6372748,-5.0,-1.7589438,-5.0
4.1211524,-2.7744105,2.5727193,-0.9141634,5.0,1.8602312,-5.0,-3.545217,3.0124543,-0.67501056,-5.0,-1.1253108,5.0,-5.0,-0.0056928396,0.06544308
2.7776208,-0.46472943,3.3459845,0.5118815,5.0,-0.71939194,-5.0,-5.0,0.26870653,4.3555827,-5.0,7.2224197,0.17821133,-5.0,5.0,-0.75473076
0.6179229,1.2108548,5.0,-0.0313812,5.0,-2.0689673,-4.941543,-5.0,3.5282955,5.0,-3.1343627,-10.0,-1.7059416,5.0,5.0,-1.178963
-5.0,-0.33023143,-5.0,-0.28122738,-3.5578065,-1.6308163,0.7527319,-2.1338358,-2.6231961,5.0,5.0,-5.9761543,-4.3185196,5.0,-3.4375567,-0.12995818
-5.0,-1.3495089,-5.0,8.350016,-1.6306261,-2.4358582,0.41991353,-1.6709758,-5.0,4.8272038,5.0,-0.066638224,-5.0,-1.7902781,-5.0,-0.18224645
-5.0,2.3593435,-3.7030177,5.646862,-0.22331917,-2.9828334,-0.10784797,-5.0,-0.37716293,-3.947554,5.0,0.12652382,-5.0,-5.0,-4.589279,-0.9147927
2.1227856,-2.370472,0.4630624,-0.0552352,5.0,1.6949877,-5.0,-1.5935079,3.7632442,-3.8065226,-5.0,-0.4490002,4.24572,-5.0,1.8203548,-1.2819813
1.7860584,2.0067692,3.8309524,0.13032587,5.0,4.381493,-5.0,2.6531827,2.3211222,1.6537044,-5.0,10.0,3.0130367,-5.0,3.264874,1.5378904
-0.068338096,1.2065451,4.695455,-0.34291834,5.0,-2.2258716,-1.939329,4.0455046,3.7305846,5.0,-5.0,1.6520252,0.2281524,1.9910948,5.0,-0.40013677
-5.0,2.5797672,-4.209772,-0.30032057,1.2913153,-1.7338494,3.7410452,2.6359053,4.5157037,5.0,1.7215431,1.0052786,-3.5382113,5.0,1.2319206,-0.84646714
-5.0,-0.07919192,-2.8398967,0.7023521,-2.5038338,-1.1154118,2.1008816,2.2604444,-4.51307,5.0,4.9018927,-0.78629297,-3.2078018,5.0,-5.0,0.0005052723
-5.0,3.483147,-5.0,0.41478002,-0.5703653,-0.44229007,2.0407124,0.38821352,-3.0074701,5.0,5.0,0.5428214,-0.9991565,-1.3412936,-5.0,-2.6740959
-5.0,5.0,-5.0,-7.2890573,1.5534074,-3.6403422,-3.7301826,1.2298863,4.12241,-5.0,0.3792678,-2.355935,0.31717616,-5.0,1.0180962,4.2094145
4.94186,-0.64322996,-0.18312347,-0.3047935,5.0,1.0507793,-5.0,-5.0,4.8880014,-1.9414785,-5.0,0.448947,5.0,-5.0,0.68907404,1.6631964
1.2848729,2.3069563,5.0,0.35697263,5.0,0.013561964,-4.9446716,2.2516048,1.7392409,5.0,-5.0,1.4945923,0.3439057,-0.09217608,4.707995,-0.09636003
-0.5518265,1.3895488,5.0,0.4350757,5.0,-4.16122,-3.4583318,0.32108608,2.2702801,5.0,-1.1849124,2.0144322,-2.1381245,5.0,5.0,-0.17837349
-5.0,-0.9647069,-5.0,-0.13482173,-5.0,0.13897115,2.7393813,-0.15992668,-2.1499672,5.0,5.0,1.1773844,-1.7965904,5.0,-3.5878618,-0.74696404
-5.0,0.90100414,-5.0,-7.517925,-4.3788934,-1.5056381,0.37462062,0.16372034,-1.8198652,5.0,5.0,0.4631039,-1.2866491,3.5379238,-5.0,5.0
-5.0,2.3168702,-5.0,-6.692313,-2.1666327,-2.6437652,0.6495557,0.22485685,0.80745083,0.794698,5.0,0.08663323,-2.520586,-5.0,-3.6393428,3.1327553
2.8581202,-2.2287219,0.2031349,-0.80496615,5.0,-2.2195232,-5.0,-3.2873144,3.3749337,-1.1380774,-5.0,-0.08461976,5.0,-5.0,1.1550424,-1.8144743
1.1860464,0.086077094,3.4859574,0.33064568,5.0,2.5142312,-5.0,5.0,1.826718,5.0,-5.0,-5.268796,2.9758525,-5.0,3.1368358,1.2676944
-0.37371016,-1.9089584,5.0,-0.7138028,5.0,-1.1100981,-5.0,5.0,-0.15827522,5.0,-5.0,-4.8656197,-0.17977107,5.0,3.8632178,0.08394502
-5.0,0.87909544,-3.7080321,0.28672805,-1.6202922,-2.12588,1.227726,-0.30956322,0.17089802,5.0,5.0,0.2589584,-3.0032372,2.85522,-5.0,5.0
-5.0,-1.6812557,-5.0,2.185669,-1.0835998,-2.2128358,0.60611093,0.2134322,-1.5304036,2.1164238,5.0,0.5637676,-0.89834327,-3.0721817,-5.0,0.7661643
-5.0,2.7894807,-5.0,8.26951,3.6983006,-3.228587,-5.0,3.4056811,3.3773875,-4.319412,2.194296,-2.5213668,-1.2982,-5.0,0.30214393,5.0
4.162096,0.16292313,1.5668353,0.5971425,5.0,2.3499513,-5.0,-2.0123668,5.0,-1.2717476,-5.0,5.812292,5.0,-5.0,1.1674505,1.5533085
1.714458,-1.5695426,5.0,-0.58448076,5.0,2.4303255,-5.0,5.0,0.54461515,5.0,-5.0,-3.3272262,0.7016754,0.5156299,5.0,0.24073172
-0.15068161,1.3087358,5.0,0.52478456,5.0,-0.3866588,0.3484285,-5.0,5.0,5.0,-4.217119,9.715925,-1.2884016,5.0,5.0,0.12448347
-5.0,-3.3096693,-5.0,0.041610587,-5.0,-1.977712,3.1742053,-0.08122048,-3.67666,5.0,5.0,-1.7226696,-2.1332717,5.0,-3.7751572,-0.26715952
-5.0,2.8237631,-5.0,-2.2805834,-0.9846646,-0.75858116,2.0506382,0.4269178,-0.22063947,2.0397406,5.0,-0.025872443,-1.9084451,-4.0060453,-5.0,-4.517134
-5.0,4.9004254,-5.0,-7.8158894,1.4167266,-5.0,-2.8414302,0.4786453,3.1281843,-5.0,-0.8853951,1.5654058,-0.27030113,-5.0,-0.49169505,-5.0
4.321951,-0.25985795,0.54344225,0.18453997,5.0,-0.27542448,-5.0,-1.3711251,2.7170494,-0.15438676,-5.0,-1.1620306,5.0,-5.0,1.2440033,0.16013527
0.5667922,-0.8791977,3.6221318,0.5217263,5.0,-2.3699691,-2.6422918,-3.3336127,0.6286825,5.0,-5.0,4.4700227,2.021316,-1.5049946,5.0,0.1895963
-5.0,1.5508181,0.2925523,-0.67499155,0.8338208,-3.7107062,0.9616941,5.0,3.3840725,5.0,2.3005133,-10.0,-5.0,5.0,2.1677132,1.8187886
-5.0,-0.33943117,-5.0,7.0812335,-2.5203118,-0.6203172,1.6597655,-0.10549486,-4.4088454,5.0,5.0,0.49896756,-3.8461423,5.0,-2.8957455,-0.5668745
-5.0,2.5107648,-5.0,-0.25552607,-1.5951636,-3.372838,1.3527672,-0.12892081,-0.84818935,0.7177541,5.0,-0.8414483,-4.2343755,-4.894705,-5.0,1.6845505
-5.0,5.0,-5.0,8.075268,1.4036384,-2.461568,-0.3450755,-0.7981422,0.27027726,-4.0524673,5.0,-0.69550186,-0.9049462,-5.0,-1.0803617,5.0
3.7349482,-1.0898529,3.1277025,2.5251145,5.0,5.0,-5.0,5.0,2.7123375,-1.4737505,-5.0,-0.74768585,5.0,-5.0,1.4893537,-0.0823469
1.6980197,-0.5038285,4.480216,0.48301175,5.0,1.0517256,-5.0,0.4669149,1.8999828,1.0048795,-5.0,1.869986,3.707449,-3.0299149,3.1680431,0.7256115
-1.042573,1.7552208,5.0,-0.5544525,5.0,-4.1491213,-3.5462322,-5.0,3.1173534,5.0,-3.8188026,-8.183234,-2.4355335,5.0,5.0,-0.18887335
-5.0,0.4263265,-5.0,0.24223988,-2.960317,-1.4893885,3.101654,0.016877208,-0.8088963,5.0,3.364627,0.13835047,-3.525117,5.0,-3.4298022,-0.19164477
-5.0,-0.087206006,-5.0,-10.0,-5.0,-0.73829865,0.7991595,-0.10232942,-1.1882486,2.2206857,5.0,0.4043907,-3.7801547,5.0,-5.0,-3.6691594
-5.0,2.2921464,-5.0,10.0,-0.17208028,-2.6477723,1.4736927,3.2888474,-0.4732553,-3.9504225,5.0,-0.54916185,-0.88035303,-5.0,-5.0,3.2121453
-2.4067423,3.0768209,-2.4691854,1.4680147,5.0,-2.4888177,-4.1323075,0.1719009,3.3345878,-1.8726056,-5.0,-0.01993644,5.0,-5.0,5.0,-5.0
4.4681425,0.16547394,0.2611693,-1.9431722,5.0,0.91368484,-5.0,-4.199691,-0.31882998,4.0896244,-5.0,1.5186355,2.3428526,-5.0,1.5715561,2.0748677
1.6687057,1.1906931,5.0,0.66263247,5.0,-2.2518656,-5.0,-5.0,-1.7800205,5.0,-5.0,2.3233542,-1.0865753,2.7512813,5.0,0.26383615
-2.4690273,0.82915974,5.0,-0.3746511,5.0,-4.3650703,-2.6565166,1.0334889,3.7740695,5.0,-4.2200036,10.0,-0.69449997,5.0,5.0,-0.1876015
-5.0,1.5455245,-5.0,0.1386955,-3.750533,-0.62354517,3.4792588,-0.43192598,-1.1840147,5.0,5.0,0.23816769,0.47897494,5.0,-5.0,-0.4666476
-5.0,-0.5126412,-5.0,-8.374597,-2.7261887,-3.4669034,-0.63920164,-5.0,-2.7090704,5.0,5.0,0.5087761,-1.7368786,0.2682823,-5.0,2.0967045
-5.0,-1.1859822,-4.6399918,10.0,-0.022234023,-4.6819334,0.7404692,1.8593205,-1.0565338,-2.9097812,5.0,-1.024926,-2.8900871,-5.0,-5.0,2.7165635
4.3644834,-0.23461127,4.9630246,-10.0,5.0,-1.9329648,-5.0,0.7398027,3.4151785,-1.9105148,-5.0,4.3009477,5.0,-5.0,3.4827628,-3.1656003
2.5832722,0.4130295,1.5190275,0.2132389,5.0,2.569716,-5.0,5.0,0.62142366,3.264298,-5.0,-1.0140747,3.985157,-5.0,0.8470402,1.6016779
1.1426941,2.4503808,5.0,0.10189154,5.0,-3.0489137,-2.6807365,1.9872994,0.8050283,5.0,-5.0,-4.8613205,0.23068523,5.0,5.0,-1.1947316
-2.9185371,1.9835758,1.1026912,0.1643504,5.0,-2.2307243,-2.1799664,-5.0,4.773613,5.0,-0.5407042,7.472378,-1.9035827,5.0,3.7641144,0.24482949
