ancorasir/BennettWheelLegRL/experiment_data/2024-02-05_04-45-11/joint_vel_env0.csv
Joint_1,Joint_2,Joint_3,Joint_4,Joint_5,Joint_6,Joint_7,Joint_8,Joint_9,Joint_10,Joint_11,Joint_12,Joint_13,Joint_14,Joint_15,Joint_16
0.01744356,-0.05106357,0.06949978,0.018250942,0.005253792,0.013604999,-0.04079262,0.01696315,0.05355507,0.0070894575,-0.041931674,-0.010441542,-0.12482157,-0.12853014,-0.31837514,-0.054785907
0.0,0.0,0.0,0.0,0.0,0.0,0.0,0.0,0.0,0.0,0.0,0.0,0.0,0.0,0.0,0.0
1.8832846,1.5225086,-3.303667,-2.618854e-06,0.0759068,-1.2458721,-3.309085,-0.0018814383,-0.81292486,-1.2195431,3.297326,-0.0015614599,-0.4609172,-1.4501456,-3.3040226,-0.0039258134
2.187525,-2.7082376,-3.5363955,-0.58629036,1.9746304,1.9095738,-3.5504334,0.04202495,3.49741,-0.8079416,-3.0460641,0.03828366,1.5711656,0.45488667,3.4735224,-0.0036630519
-3.2766786,-0.022726715,3.213996,-9.835239e-07,0.39486188,-1.8337973,0.68332374,-4.7600126,-2.3832834,-3.4416206,2.7480118,-0.1426721,-1.9566798,3.1884902,2.3251543,0.01864753
-3.1638155,1.1845167,-3.394514,-5.65723e-06,2.0730615,-1.227376,2.014917,68.95068,-0.096838646,-0.60392565,4.4599338,0.35591245,-4.356721,1.5816258,-0.106318235,0.12332784
1.0154145,-2.6095567,0.16052842,10.393072,0.7045113,-1.4728234,-2.3946204,-0.03389597,0.09392108,1.4607577,-0.56251734,-0.047761794,-1.4324203,1.0223255,-0.99304223,7.1230645
3.4054732,0.97730964,2.2231295,0.38911915,-0.4276442,-1.7575654,0.64783657,-9.472616,0.36417246,1.141358,0.2921667,-4.0087256,3.2038584,-3.2436507,1.8924216,0.016211703
1.1433378,2.5048304,-0.0011762334,2.718787e-06,-0.59972006,-2.151536,-0.11684564,-9.118042,0.992216,3.2008722,-0.8616222,-9.576335,3.32999,-2.8659635,-0.12080073,0.003888224
-3.4533043,3.1739066,-0.014623869,4.4720764e-06,-0.74830115,0.019773006,-0.6191061,0.7930374,1.0596627,3.44169,-1.8695862,0.079631925,-2.799885,1.1978376,-0.03482798,0.006008381
-0.7890892,1.867001,-0.9488716,-1.7181833,0.84629166,-3.5654163,4.424477,12.307859,-0.46316996,2.73102,2.217685,-11.320265,-3.5069757,3.395601,-1.1322081,0.0033911765
1.135701,-2.1667774,1.7670243,5.765524,-3.1123552,0.12687498,-0.109206274,-0.032164153,-3.294794,3.6212456,3.527042,-0.035984978,-0.07262902,2.233896,0.5406835,8.492069
-0.7904279,-0.35970607,-0.3779337,0.3464091,3.032572,-0.60548747,-3.9929316,0.0017979442,3.677458,-3.3477638,-0.0970896,-0.0062557515,-0.17152387,-1.3721086,-1.6143233,-3.7308843
3.3509007,1.4404867,-4.0468593,-0.000582695,1.3098361,1.6787243,-0.24289334,10.824548,2.253275,-3.3042173,-1.8118726,0.028122522,3.4303138,-3.7581313,3.5588913,-0.03486798
1.7802298,1.3010769,-0.13034773,0.0007247925,-0.36240995,-1.5800811,-0.20193386,-4.9017777,0.4671902,2.9311318,0.38055527,-18.679056,3.779399,-1.634419,0.20615408,0.05025562
-3.4082823,2.156209,-0.00716132,7.5264234e-07,-0.6390135,-1.5427151,-1.0340097,-9.137273,1.3040828,2.9864259,-2.4781842,-12.082836,-1.9694383,1.1420263,-0.04259777,0.031117544
-0.33971208,0.6872605,-0.8050692,1.0753183,2.326566,-3.438662,1.091378,-0.0030423948,-0.2236624,0.8334395,0.44024366,-2.8042998,-3.5139306,3.4621356,0.363739,0.019971125
2.4545121,-1.8368812,2.040034,4.6587424,-2.5162191,1.0848191,-0.09325211,-0.017791646,-2.261684,4.2625594,-0.010945439,-0.021820031,-2.4724445,-2.4736347,-1.3764343,-5.0298886
-0.8883756,0.24185024,-0.16830051,-1.3372295,3.417186,-1.9686916,-2.9701812,0.0057780985,2.9481163,-3.015816,-0.07838039,0.028897576,0.62702453,0.10613656,-0.41769612,2.2271557
3.4521048,-0.9799153,1.9348385,1.3029834e-06,-1.6780343,-2.1792958,1.0828395,-8.856997,1.2363855,1.9432933,0.8889984,-8.460625,3.8360233,-3.2983518,3.3198385,-0.047311317
-2.0512981,2.3684962,-0.00049879873,-1.2473764e-06,-0.8704171,0.32840732,-0.002612874,2.1998816,1.175407,-3.2843213,0.022965118,5.203889,3.2987216,0.78585285,-0.042098,0.009868861
-3.3994973,2.7543228,0.0020666718,2.121651e-05,1.1087279,-2.5527592,-1.54954,-10.179388,-0.04406196,0.23018973,3.010575,9.7716255,-2.226802,0.5872662,0.05117098,0.092752
0.75388575,-1.256434,-0.036227345,7.610897,1.5926912,-2.6099858,-1.4547306,-3.8350344,-2.5442781,-1.769233,4.466591,-0.06731303,-3.2577388,3.3804579,-0.061362326,-0.0035808682
2.3797195,-2.0761826,2.2749028,4.702155,-3.2719007,1.2366526,0.00025343895,-0.016299127,-3.494931,3.6642866,3.5889447,-0.030845925,-1.3218306,1.906991,-0.9160233,9.264592
0.17944288,-2.686194,0.12371421,9.419202,2.6662073,-0.012061553,-0.02397136,-0.044888597,1.7732311,-1.4159734,0.049890615,-0.057407886,-0.541726,0.88497186,-0.49201977,3.6418266
3.4650617,-1.3876859,-3.3567684,2.5874247e-06,2.0965683,-3.380305,-1.7591484,-3.8751411,1.7759622,-3.4766665,-3.6585472,0.055686425,3.4089458,-3.4405458,3.503068,-0.045953732
3.0503302,2.0220363,0.021603929,-2.6386806e-06,-0.35649556,-2.4737601,0.22120947,-8.109687,-0.5793482,-2.708179,1.950047,10.425211,3.618452,-1.9862618,-0.4101441,0.043282975
-3.3604634,3.5376837,-0.0017755651,5.9204153e-06,-0.6201194,2.9827132,0.2179021,4.883327,0.55527514,-2.9903207,-1.166377,10.633383,-3.3423088,0.99075705,-0.03235723,0.00019034185
-2.2604036,-2.1210825,-3.5981207,-1.8417308e-05,1.5376662,-1.516325,-0.51229614,-4.109107,-2.739301,-0.8676986,4.3738823,-0.012897074,-3.488897,3.422709,0.6049847,-0.012722321
1.8225096,-0.73519266,1.6412727,0.1306378,-0.96899116,1.2202424,-0.056645647,0.00011711521,-2.8788824,1.7324654,3.4566798,-0.0012077984,-1.8371286,0.09534967,0.43637013,0.68635374
0.27357626,-2.7709253,0.49885583,9.062538,3.146826,-2.521321,-4.406087,-0.031196594,-0.06503927,-1.2993795,0.08847584,-0.07852584,0.00089380145,1.4681768,-0.10585797,2.3154788
3.3230367,-3.2921708,3.1264884,1.4437155e-06,0.14978051,-2.5412343,-0.13115418,-8.534836,-0.7276113,-0.58748925,1.7274497,0.2846978,3.6333175,-3.314837,3.2888668,-0.01171254
-1.5643857,2.8716905,0.0053928196,8.862512e-06,-1.2154996,0.5369114,0.708269,0.5081347,2.9681778,2.6920803,-6.95249,-61.706367,2.5135121,0.99341035,-0.11682452,-0.048078954
-3.0730414,1.5101569,-4.654397,-0.001077652,1.4961383,-2.7315536,-2.1366735,-10.7497635,2.297394,2.3886487,-6.103815,-69.765526,-3.4427497,1.3277522,-0.2212083,-0.039806843
-0.9492376,2.6511872,-4.275115,-50.99074,-2.3998659,2.4822404,4.2736664,-0.022834778,-3.7218344,3.439178,2.99334,-0.044176504,2.347641,1.5383539,3.5705256,0.33116126
2.7374613,-0.9246962,1.3503039,2.180564,2.928504,-0.83913743,0.011800584,-0.005858104,-3.1872206,-0.99859464,0.003874267,-0.009593254,-2.5503976,-0.29727158,-1.5382025,2.3926134
2.7682204,-2.1454558,4.072412,0.040483475,1.7930132,-3.167275,-1.2694926,-4.319763,3.0211034,-1.635069,-3.4745603,0.008072235,3.2956588,-3.3197842,-2.293219,-0.00048956275
1.5392022,1.5476357,-0.040766582,-5.5901664e-06,-2.6033936,4.0804515,2.3420875,-6.4107575,1.3895363,-2.0421922,-0.7083521,9.447945,2.659207,0.041308045,0.044547558,0.027745232
-3.4470212,2.3411763,-0.013031058,6.1187948e-06,-1.9193285,3.3587408,2.126307,9.602186,1.4300461,3.5651937,-2.3839586,2.179821,0.2551841,0.8147237,0.0017266488,-0.013915112
-0.47053874,0.41216472,-0.5114857,2.5828123,0.15228394,-0.49728465,-1.1945693,1.8533769,0.23349929,-0.36962938,0.8796724,2.2475579,-3.0710766,3.360955,-0.0072433427,-0.0035757157
0.35866997,0.6017544,0.21242642,-0.9036193,-2.041204,-0.25612637,0.03656029,0.008768315,-2.8405187,4.380994,1.5530024,0.009869324,-0.044479877,2.270598,0.16557181,8.980981
0.9357952,-1.3473033,0.5433202,2.6316113,3.2228184,3.173282,4.1433296,-0.018182755,-0.29775643,-1.4128338,0.034995556,-0.014100317,-1.0043232,-2.290696,-1.6910688,-8.24201
3.4147925,-2.4123101,4.8969946,0.0014743805,0.9239305,2.2327883,0.8522475,8.98927,3.5523474,-1.9767995,-3.6110778,0.049721427,3.8621082,-3.3679712,1.1245364,-0.039372936
0.16076286,1.7122426,0.005915761,1.80772e-05,-1.8969885,3.2442102,1.6846743,6.4764843,2.1529236,2.9125342,-2.4039545,-9.4767685,2.6955025,0.48717913,-0.06377548,0.0031929044
-2.2573793,2.63944,0.122247644,-1.8085364e-06,-0.07280755,-2.2575536,-1.5047331,-3.9138627,1.418493,-0.83793044,-1.8456686,8.777124,-1.8633584,0.9658983,-0.022996023,0.027225696
0.315091,2.135909,0.27438387,-3.8348265,-3.2317138,-3.382882,3.3432996,0.0013420582,-3.1966658,3.6950536,3.5864046,-0.002345033,2.123984,2.1143804,2.9338675,6.7191496
2.3090453,-3.2366414,2.542338,0.59409213,0.5225619,1.4138639,-0.054897517,0.006996751,-3.446829,0.9398022,0.000887163,-0.012401786,-1.5580833,-1.5588102,-1.1765413,-5.6200085
0.47363985,-1.4871728,0.079984665,6.9007673,0.7906584,-2.790326,-1.1696435,-6.6733646,3.3463542,-3.4017906,-0.061142392,-0.06448462,-0.8200707,-2.0056722,1.2470119,0.110936165
3.358423,-2.080106,0.2747015,1.01706064e-07,-1.3663961,-1.6127276,0.93641436,-6.4010572,0.62472653,2.4230723,0.028757453,-9.87674,3.6402109,-3.3887522,3.3825178,-0.030067861
-1.3632559,2.2595372,-0.0007440618,-5.833969e-06,-2.3345666,3.095244,1.1264383,0.099244386,2.2467277,-2.475748,-1.0523129,13.242887,3.36483,0.6459041,-0.016340237,0.02328622
-3.7897356,-1.1537508,1.5540922,0.001449585,0.036565363,-2.163336,-1.0227516,-7.9929037,1.3960216,2.7854517,-2.2575943,-7.4925423,-3.49185,1.5186187,0.385868,0.06675362
-0.20564006,0.24846175,0.7367958,0.7273756,-3.2528381,-1.4277469,3.3674145,-0.0003744061,-3.4632206,3.8852508,3.7123482,-0.011427987,2.1199164,2.2306237,3.2404852,5.787142
-0.8738742,3.193429,2.610052,6.8370323,1.5732175,-0.26592126,-0.45474225,-0.062144622,-2.7530246,-1.1146077,0.24444944,-0.07521081,-0.32680082,-2.284214,0.5328312,-10.756935
0.17766324,1.6356552,1.2483804,2.5701275,1.9382125,-2.9337668,-1.7792287,-6.6707106,3.4234831,-3.4515932,-1.4983233,-0.0522995,2.321356,-3.6871219,3.7235408,0.0622468
2.3648384,-0.31691355,-0.022570733,-1.6461058e-06,-1.4625373,2.5821812,1.3660793,7.9837375,0.41993633,-2.4950378,0.48977447,11.5412,3.508814,-0.9368802,-0.17122361,0.013624355
-3.0835047,3.0879772,-0.0002906369,3.9988086e-06,1.1373576,-2.6327143,-1.646453,-3.8475175,-0.46052727,-2.8728077,0.40584818,0.15570477,-1.8688287,0.69246405,0.0052937306,-0.0003188327
-1.7985623,-1.1932971,-3.4633648,-1.2884946e-05,1.2945553,2.103391,-0.33142644,4.403182,-1.5881889,-1.730301,3.9611986,0.8765136,-3.560181,3.1812062,0.06376222,-0.035024192
2.5312052,-2.6974802,1.6707742,12.883141,-2.0424988,0.043862388,0.009747662,0.018448628,-3.0939915,1.5685675,2.9807506,-0.048249707,-0.68095994,0.036597658,0.49618667,0.8543986
2.0045228,-1.8220054,1.3166279,3.79831,3.2719464,1.8321664,3.440052,24.602982,-1.3859954,-1.6988848,-0.029757388,-0.0073632975,-1.9624403,-1.0728527,-1.8792548,-8.106479
-0.2785042,0.34823763,2.7317076,9.741451,1.3706292,-2.3885064,-0.95647204,-6.968251,3.2115772,-3.2093527,-2.6545348,-0.048574872,-0.25288185,-3.4204895,-3.462655,0.041071653
0.5497129,0.60748017,-0.02839224,-2.3034167e-06,-1.0411415,-1.240294,-0.13083506,-5.623573,1.9155432,3.0357838,-1.9537394,-11.780777,3.268629,0.6844811,0.00879138,0.0053360667
-3.334297,2.5207148,-0.016644932,6.527971e-07,-1.5199115,0.90021706,0.17142296,0.33309028,2.479712,3.0907447,-3.0430312,-12.245874,1.6572587,1.1428515,-0.027205974,0.008886747
-0.08703214,-2.332858,0.76223254,12.451909,-0.086697,-3.4669528,2.1013606,0.0014756285,-1.969801,0.87814295,5.5566263,-0.07503128,-3.3176584,3.559661,-3.338619,0.05624657
0.7937164,-1.6378057,1.4075987,4.270859,-1.3889731,2.642809,-0.09036893,-0.0425608,-2.729826,1.4467597,-0.0030917078,-0.049729463,-0.93896157,0.8461024,0.04015678,4.739338
0.16037405,-2.4818268,-0.580529,12.472126,0.5761862,-1.6134857,-1.4213376,-2.21348,3.077785,-3.3939815,0.023195758,-0.060556367,-2.3417933,-3.2853413,2.2994208,0.03637344
3.3312707,-2.365388,2.8521786,-2.2457214e-06,-0.49290442,-1.8191096,0.21559393,-5.7121925,-0.6542362,-3.1417613,2.162206,8.6938715,3.6706886,-3.5625596,-0.05650437,0.02100557
-1.3141525,3.2165613,-0.00067045714,-1.7799705e-06,-0.43885908,-0.5209433,-0.55341846,0.42153263,0.44146782,-2.3569396,-0.49462596,12.093935,3.0901608,0.25690818,-0.017829394,0.0300937
-3.0590367,-1.4557424,-3.4191823,-8.947207e-06,1.2280775,-2.5585535,1.7452521,19.82448,2.580917,1.4905411,-4.770278,0.023783341,-3.784743,3.192695,1.0606363,0.013319887
-1.8637861,4.0842814,1.4269005,-3.130703,-3.0809863,0.06781834,0.17743868,-0.0956755,-3.549891,3.3160074,3.300092,-0.04691966,2.2602546,-0.20985372,2.4387138,-0.9645118
-0.11996071,-1.1710732,-0.0021104813,11.657723,1.3996913,0.13732064,-1.0220704,0.0016802102,-1.9698404,-1.4921416,-0.072024286,0.021342687,0.040622115,1.3196878,-0.76136833,8.740977
-1.224292,2.372771,0.26850295,-0.8458042,3.2158942,1.895823,-3.3894608,-0.013596665,3.5329688,-3.463752,-0.023170386,-0.026780926,-0.37702113,-3.3109055,1.9247339,0.043467943
3.382055,-1.3773135,3.2540915,-5.297352e-08,-1.5579541,-2.3357048,0.8980562,-8.327764,-0.123584926,-1.2779428,1.1185192,3.5067532,3.5692093,-3.3985786,3.409739,0.02189143
-1.4069338,3.1645217,3.783738e-06,-3.9618806e-07,-1.8545827,3.3758907,0.90735906,-0.4272226,1.8477162,-2.6079276,-1.4263119,12.277934,2.3277764,0.9652511,-0.0937573,0.026475701
-3.4556668,2.0609705,-3.1464803,1.2067162e-06,-0.39514583,1.7216334,-0.19113564,4.4934893,-0.48115724,-3.4972322,1.3277472,-0.09547593,-3.6342988,1.6955246,-0.006580755,-0.009682093
1.4984927,0.6055444,1.847503,-4.6975665,-3.2760046,-2.5563567,0.12772377,-0.0025286898,-3.323521,3.872707,3.6902518,-0.011184268,-0.1377365,2.020169,1.7633345,6.2970715
0.8347519,-1.9443787,1.1270556,4.1674805,-0.62428904,-0.49202067,-0.04710967,-0.040705204,-2.319737,-1.1385663,-0.03541617,-0.04711172,-1.7771418,-1.7036946,-1.9441448,-4.0216093
1.3380259,0.41444895,-0.07976729,1.5517542,0.95591843,1.861437,0.19201405,8.481157,2.9161189,-3.5423157,-3.539136,0.007861828,3.2305887,-3.3245919,0.67997897,-0.007874908
3.2528179,-0.22145334,-0.0367304,-3.0028668e-06,-1.8875966,2.5371926,1.5588202,8.287219,0.40391743,-2.5301151,0.9296274,10.536155,3.5845473,-3.2567728,-0.18630472,0.014101824
-2.3799775,3.2104502,0.25306308,-2.606289e-06,-0.7923291,0.08116344,-0.05051756,1.0887873,0.7867245,1.2325685,-0.24504924,-4.372826,0.56229985,1.4161009,0.09043985,-0.029486643
-2.0678816,-1.268672,-3.516502,-1.2169952e-05,1.9424094,-2.3165202,-3.1107867,-12.745209,1.7900127,2.0330105,0.26540208,19.372908,-3.364286,3.470955,-0.057492223,-0.0015954077
0.8595648,-2.2114968,0.8010374,9.555213,-1.9167509,1.3632114,0.14051893,-0.015099205,-3.1125803,2.0112064,3.4271903,-0.021013178,-0.033812,2.5786383,0.7748256,3.9501579
0.03888583,-2.729836,0.3373332,9.441387,2.7793028,-1.1301965,-3.2511885,-0.028872618,-0.40410087,-2.636351,0.0651855,-0.05865541,0.48583502,1.544919,-0.46569973,2.0441535
3.3902462,-2.96776,2.3918166,1.4099089e-07,1.7611253,-2.9797082,-1.1910081,-3.5439103,2.8507981,-2.4690163,-3.7335873,0.037716053,3.480132,-3.605743,3.640694,-0.009484068
-0.63008857,2.794789,0.006983876,1.6858488e-05,-0.28145593,-1.6563725,-0.6279893,-4.6615944,2.2626653,3.7995212,-4.059645,-21.356983,2.517167,1.089014,-0.16256529,-0.0036925375
-3.3337235,-1.0454966,-0.014045365,-6.128216e-07,2.0601933,-2.935517,-2.6107955,-5.2736588,-2.2187076,-3.448787,2.6747534,0.05131781,-3.338474,0.9023555,0.28037256,-0.021559902
0.57693946,-3.4440877,1.2650638,1.266993,-2.964654,-2.8406544,1.5603535,0.023256827,-3.5537457,3.4109051,4.4343266,-0.029744148,-3.2005424,3.7961605,-3.6957588,0.02428854
-0.83889353,1.7711229,-1.5502329,-28.049671,-1.0216215,0.3776472,0.07743396,-0.030530259,-3.25497,0.70679253,-0.015088897,-0.04855355,-0.5819266,1.8418665,-0.18730599,8.3618965
-0.8262422,-1.1010836,-0.6743475,3.6765175,1.8971215,1.3175356,-3.351409,0.0014598221,3.3163676,-3.0638294,2.0484657,-0.00030374527,0.91290617,-3.3370802,0.44357046,-0.6010214
3.2820256,-2.3844142,3.3383307,6.4566975e-06,-2.4059105,3.0281663,2.4832006,7.9832726,0.35550603,-0.62966037,1.1201761,0.38674772,3.45238,-3.5549078,3.3614779,-0.051513515
-1.3036971,3.1037805,-0.00017733563,1.5913811e-06,-1.2083815,-0.0760665,-0.03952948,0.22038803,0.20966738,-3.3284624,1.6569529,0.093937814,2.1173785,0.3753755,-0.013016369,0.0016967123
-1.9788977,-1.3837649,-2.491718,1.26087325e-05,2.7865953,-3.1411273,0.7815987,-2.3187358,2.5119476,1.4656711,-4.7250104,-0.00494276,-3.8513038,3.0281293,0.26649284,0.065509796
0.07261479,1.1624779,0.3473958,-2.004901,-3.044203,0.43345672,-0.05895567,0.0076777306,-3.5178165,3.5568686,3.3632188,0.008816,0.68877244,2.2969246,2.8727312,13.111898
-0.9117811,0.47213918,-1.743855,2.6955147,1.6262629,0.84388113,0.0008148551,-6.7252666e-05,-2.5671003,-1.0595964,-0.07895495,-0.011485923,0.35528535,-1.8250738,0.9227104,-7.535013
3.734241,2.2466187,-3.8201787,-3.0486844e-05,3.0391774,-0.94133925,-1.334831,1.1738931,3.3486083,-1.7040603,-3.5587947,0.06031832,3.5280948,-3.3657513,3.4528222,-0.05925864
1.2191494,2.522314,0.048284605,1.3709499e-07,-1.3488376,3.2869406,1.3135849,0.542053,0.34334376,-3.2135355,0.88194394,0.39675018,3.4581485,-0.49771386,-0.06834228,-0.0045275036
-3.2889452,-0.14807847,-0.04026956,-2.3181078e-06,-0.08736795,-1.9100147,-1.6475921,-4.881187,0.69820285,-0.25260746,-0.92911446,0.540916,-3.3233259,0.6936739,-0.010931864,0.0058350638
1.0657735,-3.528345,1.6564795,0.89624465,-3.1135347,-1.7741774,2.8482256,0.03268863,-3.2536683,3.950914,3.714534,-0.026741996,-3.2821865,3.543304,-3.2977896,-0.0057864334
0.016815484,-1.7412353,0.4911878,1.6417885,-0.0730581,0.4862464,-0.15802604,-0.029405726,-2.8636036,-0.8992145,0.014712103,-0.034258477,-0.7165096,1.1286981,0.8783233,3.2383347
-1.2593372,0.48050308,-0.99668074,-0.42604017,3.3799176,0.3752668,3.1716301,0.005616188,3.740408,-3.2514262,-0.075050384,0.029918004,0.13787436,-1.525325,-1.001167,-5.2070785
3.3950844,-3.3123457,2.063539,3.8340995e-06,-3.0600417,3.0949466,3.1478186,4.772362,1.990654,2.7011786,-0.27885285,-12.189545,3.771761,-3.3804595,1.6477634,-0.07934421
-1.9103819,1.900216,-0.00850215,-2.8456634e-07,-1.0605639,2.5218685,-0.0064201355,9.493521,2.0524955,2.9440851,-1.5519848,-7.1111965,3.2474556,1.2568914,0.050146323,-0.020033892
-2.7659872,0.13670789,-0.09596431,-7.1903387e-06,-0.20123759,-2.4625597,-1.2704862,-7.01933,3.3812027,2.0394783,-5.9735374,-76.360275,-2.275445,0.86692935,-0.11537573,0.04590322
2.0828607,-3.7000356,2.4127588,1.1005536,-2.7280097,0.013240188,4.812964,0.86322594,-2.7602634,3.4428115,3.9512691,0.022953335,-2.966074,3.4908302,-3.4776442,-0.034782596
0.70109624,-2.7521753,0.8549187,9.048006,1.5869507,-0.24886298,-4.032201,-0.03271391,-0.9285049,-2.973393,0.02265894,-0.07641061,-1.008321,-1.9619687,-2.227117,-3.370893
3.2962108,1.1899321,-2.7304282,0.03434813,2.3294444,-2.8147292,-1.5389135,-4.648638,2.6276097,-1.4542559,-3.561258,0.020454083,3.491487,-3.2703238,1.1797323,-0.009493006
2.0911052,-1.1521376,-0.047860995,-7.575227e-08,-1.9382976,2.6220508,1.5969311,0.73693526,1.8639469,2.103459,-1.5687963,-7.893081,3.3768833,-0.0009575486,-0.2074253,-0.019733492
-3.2226937,2.5286844,-0.6160501,-0.0009384155,-0.09083508,0.07144691,-0.5974579,0.80070555,-0.69344896,-3.4633462,0.8502063,0.14826992,-3.8503854,1.0366713,-0.0589332,-0.015055695
-1.411535,2.0352604,-1.8409767,-7.892668,-1.6598375,-3.2543278,4.0763097,0.008570671,-0.03751976,3.451011,-2.7858338,0.013698459,-3.5633738,3.406552,-1.0780993,-0.009340599
1.9893705,-2.3239396,2.6562562,3.9336672,-0.8277665,0.17806026,-0.028460287,-0.01183374,-3.5310752,0.8471075,-0.27165836,-0.014391167,-1.9524581,-2.3856106,-1.2202854,-7.099763
1.0769931,-2.7272153,0.69031715,6.928644,0.04859902,0.49590534,-0.5734421,0.8371434,3.3933768,-3.4418635,-0.0051296838,-0.02192191,-1.5648296,-1.5624886,-1.3117433,4.1880007
3.1989596,-0.48938215,-0.26636556,-9.83155e-06,-0.6383221,1.6729901,0.990005,12.650387,-0.6676835,-0.5343747,1.8458364,-0.06552106,3.6575541,-3.4150782,2.2682304,-0.020829521
-2.8078668,3.364503,0.0045425,4.319863e-06,-1.005338,-1.6470765,0.19039798,-5.5414143,0.74574375,-0.9956177,-0.48961616,4.4658093,1.6437304,0.8293575,-0.08902542,0.051964566
0.17791557,-2.171493,0.69477224,5.7722387,-2.0965025,-3.257819,1.9914284,-0.02691552,2.3579886,3.879043,-6.940338,-44.99887,-3.6019347,3.4697673,-2.021025,0.005576333
1.7338028,-1.1612607,1.962188,2.2067254,-3.252508,-0.70889413,-0.13057983,-0.0017851202,-3.2854233,2.7096746,3.2888868,-0.004941859,-0.7451614,-0.08883001,-0.4492224,0.2774307
0.8248038,-1.9563174,0.82272506,2.354478,1.7373297,-0.17028594,-0.810838,-0.02963376,-1.4475354,-0.8000294,0.0061441474,-0.016512813,-1.4618784,0.5011445,-1.7270668,4.6640263
3.1057422,1.6619909,-4.1224027,-6.219256e-05,0.5532864,2.137713,0.58217365,10.303893,2.7650554,-3.389446,0.96601754,-0.00524731,3.3241389,-3.5069838,-0.889696,-0.0059372038
2.0537436,0.31665727,-0.000599809,-9.903604e-06,-1.8548114,1.9697747,1.7534837,5.542756,0.24148473,-2.5537739,1.1915171,3.0213537,3.270472,1.5005779,3.2856786,-0.018188313
-2.0704443,2.9325364,-0.0007449528,3.0187903e-07,0.60662705,-2.6174297,-1.8992682,-8.493485,0.17568699,-2.2956638,-1.099467,12.798162,0.7067769,0.5878884,-0.019813329,0.03476224
0.053126723,-0.1490629,0.07628095,1.5070931,1.1782987,-2.8070226,-1.39662,-8.798426,0.34072974,1.0007118,-0.2619021,-3.2747655,-3.3021538,1.8442142,0.105396256,0.019852612
0.36457556,-1.0199317,1.1353469,0.9927943,-3.1870105,1.3146253,-0.040983796,-0.014895294,-3.118187,2.2003436,3.4374363,-0.016695611,0.4035135,1.5935713,0.5844182,14.437473
0.21668756,-2.8292935,0.3840258,8.278946,3.1374712,2.7638333,3.3449745,-0.020133197,3.2632575,-3.3430104,0.041921526,-0.062288,-0.95266783,-1.7403463,-2.9905558,-3.0796542
3.3668547,-2.6821477,4.6536555,0.0012702942,0.119436085,-0.06820992,0.7193549,0.5687635,-1.1373154,0.89824015,2.6899083,-6.1180115,3.8330035,-3.2915535,2.3708274,-0.017655898
-1.0437886,2.9338398,0.023760432,-1.2037492e-06,-1.3839446,2.2192788,0.5333291,9.1066475,1.3086679,-2.091535,-0.56334233,13.442524,3.3903813,0.85320675,-0.28470677,0.009476782
-3.3548458,0.24442893,2.5522833,7.432112e-06,-0.65128636,1.6201221,-1.1956543,8.902786,1.1195456,0.37136635,-1.3545697,-0.870541,-2.1203759,1.3981962,-0.024308406,-0.024250746
-0.47695094,1.2456397,-0.7248162,1.6460711,-1.1701922,-3.3158648,3.1862164,-0.005482918,-1.902236,3.1252341,4.779354,34.577766,-3.2780726,3.856692,-3.685692,0.023248993
0.4336636,-1.3756617,1.4057198,4.79601,-2.2278907,2.7509072,-0.050850164,-0.048818566,-2.4114776,1.4478339,3.420762,-0.05034391,0.63879985,0.26229107,-0.13582438,2.3226714
0.27164215,-1.828428,-0.65406036,4.6877728,0.0011163354,-0.023697969,-0.40439877,0.5148493,3.9254336,-2.4542923,-0.028864622,-0.008813329,-1.2911694,-0.6014868,-0.19744402,0.17403269
2.9316626,-2.6641946,1.918761,-0.00023555756,-0.8773838,2.1270797,1.1392274,8.966242,-1.2511685,0.23021221,2.5121632,-5.8191013,3.8955998,-3.6135912,3.478033,-0.073453076
-1.0048072,2.3335426,0.0052435473,-6.4777214e-07,-0.40051404,-2.0763934,-0.38992092,-6.710269,0.70799005,-2.2057855,-0.41707727,13.00799,3.3063374,0.012281543,-0.012397508,0.037805572
-3.8509314,-1.2349046,0.41707277,0.0013885498,0.2695061,-1.2553005,-0.69261867,-5.2353115,0.6882583,0.42673784,-1.5356122,-0.410105,-2.9520006,1.1625452,0.057628803,0.11129272
-0.96045196,-0.735644,-0.84935045,3.9754076,-3.3669355,-2.805355,4.0170636,28.422169,-3.3082247,3.6108499,3.6275744,-0.030552924,-3.209465,3.5908663,-3.6329007,0.015914947
0.0728147,-1.0669214,0.44011784,6.745927,-2.6741686,1.0787498,0.022692561,-0.054739356,-2.9904344,2.0840726,0.030590296,-0.06392798,0.032721043,1.6480881,0.99573326,4.289852
0.8324392,-2.650381,0.59943277,6.9363456,3.5102196,-1.3325084,-3.1457975,-0.023336565,3.806242,-2.4903822,0.10915831,-0.0038438933,-1.1506951,-0.8083365,-1.5333457,-4.4575014
3.3696864,-1.7513592,2.8904014,-3.2821795e-06,-0.51971847,2.0495348,1.4624561,9.145656,-2.5721242,-2.0402606,4.014591,5.8596263,3.82639,-3.4357474,2.9137712,-0.04407131
-0.66382766,1.3782935,-0.0055094846,1.2849587e-06,-0.77862024,-2.1832998,-0.12597409,-7.8249454,1.3697801,3.1510909,-0.8955952,-6.774955,3.276414,0.41596255,-0.038373612,-0.0069107404
-3.0831797,2.356056,-0.012259545,-1.6441054e-06,-0.6078297,-2.038415,-0.68771976,-6.912059,2.195699,3.6004496,-3.8292747,-16.214779,-1.9269414,0.9166442,-0.010960851,0.01942262
-1.0115664,-3.367178,-1.4117388,-1.4283248e-05,0.75613564,-3.4731128,0.8882396,0.017324261,-3.0495434,1.0728233,5.572572,-0.021928787,-3.0905783,3.5155888,-2.446143,0.057933316
0.803163,-0.21326257,0.49319148,0.3207947,2.2419713,1.4162673,-0.13102472,0.0027821064,-3.2221463,-0.5368059,-0.37169367,-0.020238593,-1.3778267,-0.923946,-1.4569492,0.26340097
1.5434948,-2.5257328,0.04788208,11.150465,1.4816567,0.13354027,-0.9642646,2.595018,2.4172177,-2.191773,0.36640295,-0.059782222,-2.1061718,-0.59164214,-2.170323,5.094045
3.4279447,-1.7533307,-0.13630009,-8.253636e-06,-1.1517005,0.23604685,0.73795325,2.2312782,-0.23449415,-2.6610057,1.2860731,10.540673,3.522918,-3.2320933,2.84196,0.0076950467
-1.4660022,2.7439785,-0.002587763,4.6562354e-07,-1.7346723,-0.79686475,0.7930411,-5.6528707,2.0745304,3.2785459,-2.762389,-11.714722,2.721411,1.0841042,0.114825055,-0.003760326
-3.3955085,0.12303856,0.078244485,-1.6718006e-06,0.6380731,-2.7340145,-1.9537832,-6.1555386,0.3854795,2.6685152,-0.43340647,-8.526251,-3.67845,1.350407,0.03087382,-0.038120016
1.9462044,-3.3844352,2.0377119,0.17433533,-2.40176,-0.5283737,-0.080714405,0.014769793,-3.4806514,3.4778461,3.3349867,-0.015362885,0.26316303,2.119646,1.526682,7.4408817
0.91295004,-2.6238763,0.88715816,9.316198,2.4490867,1.5266465,0.22825241,11.406755,-2.6804712,-0.09335855,0.14363119,0.008417524,-0.44568366,-1.2739639,-0.01756835,-7.2219114
3.6758914,0.2883045,2.2715738,20.959625,2.2341464,-3.4204526,-4.0407405,-15.078814,3.4904585,-1.7367275,-3.6473753,0.09957173,3.7585967,-3.2840555,1.9861305,-0.08408402
-0.16251515,0.89878446,-0.021234453,-3.4240475e-06,0.5555065,-2.8657017,-0.8047501,-8.018439,-0.47066686,-2.3997452,0.172466,12.214729,2.9326801,1.304888,2.2960691,0.039833345
-3.2335498,1.7714977,-0.009882927,-1.6889826e-05,0.18802953,1.0443231,-0.6227747,5.1911373,0.42197692,-1.4150265,-1.2136345,3.7739573,-3.7823448,1.4019831,0.1910393,0.015619882
-1.393685,2.0283384,-1.6579059,1.6098716,-3.2617526,-3.253838,2.5769465,-0.0017088577,-2.8502178,3.7066295,4.215847,-0.005820751,-3.4756763,3.6817024,-3.5064886,0.00823978
0.6934068,2.5142355,1.5700576,-12.636988,-3.0258436,2.3847015,-0.14157507,0.026280135,-3.1442087,1.4466287,3.3713036,0.04549782,-1.5274668,-2.4891458,-1.5215877,-5.8723
-0.3695621,2.5485706,0.7085347,0.3081131,1.5471367,-3.0631514,-1.8145211,-6.2267256,3.7126813,-2.8567493,0.09641516,-0.06185382,-1.7995541,-3.10979,-0.067082524,-0.1772213
3.318147,0.10893272,-0.0021558662,-2.4126516e-06,-0.5233965,-2.4083161,0.55502677,-8.005767,-0.63273203,-2.8816738,1.7265999,11.470718,3.221229,-1.6833234,3.788505,0.019068487
-3.2599688,1.7967185,0.5624375,8.2151564e-07,-1.2225616,-1.2285323,-0.09485364,-5.4497433,2.3305335,2.026902,-2.2630243,-9.344665,1.7461034,0.8189192,0.017479055,-0.013630055
-3.1773005,-0.08055939,3.175629,0.0014743805,-0.7488816,2.0887017,-0.26283193,10.1375265,1.4652408,-0.9823818,-1.590338,8.584663,-3.3383744,1.4357167,-0.10256916,0.0021142587
-2.8744287,1.4420543,1.5643952,10.611213,-3.2463999,-0.68070227,3.3967686,-0.03884322,-3.7553492,3.3581917,3.574533,-0.064501375,-3.2293394,3.821654,-3.6637495,0.024127182
-0.3323301,-2.1755242,-0.3908651,9.564186,3.275715,3.122084,-0.68949467,-0.03237152,-1.2028629,-0.45947528,-0.08365609,-0.06063292,0.22683962,1.9133992,-1.108415,6.72724
1.8081622,-1.3354375,0.16895229,9.15761,2.841917,-3.4567537,-2.3840826,-3.1341095,2.6196377,-3.5955787,-3.5483017,-0.013375718,3.2684908,-3.2904937,0.18709737,0.010070495
1.5201162,0.77999806,-0.041017286,-1.9163604e-06,-1.1029477,-1.5707664,0.40042162,-7.611642,1.9740498,3.1688628,-2.133624,-13.552301,3.2460105,0.23986101,-0.10621922,-0.000107685104
-3.3065848,2.569006,-0.006991213,1.0392141e-06,-0.98919666,-1.4612693,0.0029646158,-5.9906983,1.8214312,3.1954317,-2.760354,-10.048487,-0.05314871,1.1604687,-0.029119268,0.01327507
-0.9586449,1.4373205,-1.012126,-3.5336068,0.5574968,-3.1032577,-1.0378802,-10.619308,1.8306079,3.497146,-1.6679144,-21.665367,-3.7067494,3.5136943,-0.0329929,0.0024798065
-1.7351239,2.842178,-4.7538624,-50.779716,-2.973906,0.6498127,0.12119506,0.016756058,-3.0519683,1.9984263,3.3647912,-0.04137487,-0.5796007,-2.2992723,-0.5355456,-6.6337814
-0.09269816,-2.0895379,0.27323806,9.16719,3.3797004,-0.83030486,-2.897795,-0.026892118,3.205893,-1.8099945,-0.029587775,-0.023422157,0.18443266,1.2177802,0.036349237,2.4477568
3.034335,-2.4556084,4.2547407,0.00011241436,1.6309907,-2.9615202,-0.7851531,-2.5897734,3.0167902,-1.3509332,-3.7714417,0.07300156,4.194628,-3.3332078,1.2793536,-0.04265508
0.8504856,0.56026435,0.007999957,1.5566136e-05,-1.194648,-1.8067746,0.3523262,-6.890966,1.4816206,3.4649127,-1.542546,-10.539324,3.3790395,-0.47422218,-0.07210469,0.021466121
-3.2746625,-1.0929368,3.025309,9.557743e-07,0.30041513,-1.8709649,-0.40249997,-7.2997656,0.06318694,1.5995188,-0.8848282,-7.929521,-2.5864518,1.4010236,0.2620906,0.009256459
-1.0774641,2.8770638,0.36167789,-5.0160007,-1.6226,-3.2061033,1.8465557,-0.06315257,-2.4061768,4.1598306,5.4383497,28.972895,-3.1768603,2.5937545,-3.743172,0.031058371
0.546996,-2.067961,1.2925766,1.6435118,-2.005126,0.83316797,-0.07218459,-0.03470359,-3.4292936,1.9126402,-0.02614864,-0.03471469,-0.9378753,-0.18988496,-1.166117,3.113762
0.5312985,-3.4001956,-0.06548538,2.6275408,3.418249,-0.64014846,-0.022522226,0.029247649,-1.3048224,-1.7170254,-0.047341757,0.008018134,-1.166428,-0.21622078,-0.68330026,0.4368398
3.4234698,-1.302367,3.1514738,3.3847944e-06,-2.483969,-1.9080875,1.9808749,-9.871763,1.0706999,2.3071523,1.1658291,-11.713692,3.7535129,-3.4101188,3.42207,-0.051238008
-3.4214823,2.158108,-0.024416408,9.673277e-07,-1.4037431,0.20452847,-0.14740553,1.6129087,2.2640855,1.8502398,-1.4868251,-5.0544395,2.9583557,0.6065091,-0.06624458,-0.0012416821
-3.272611,2.1645606,-2.9895287,-1.5698567e-06,0.7702774,-0.031181425,-1.4904233,3.3472552,-1.5420616,-3.1698608,3.184127,0.28710067,-2.8102748,0.9881148,-0.00567542,-0.012844057
-0.7677603,2.3585029,3.315535,10.401809,-2.7361438,-0.70406985,0.091132164,-0.046184782,-3.9358673,3.8096013,3.763864,-0.04292253,3.4231722,0.5314584,2.6259942,-1.8008835
0.09037137,2.5900486,1.0064442,0.16127157,1.296076,0.43550023,0.014927353,-0.018549245,-3.163449,-0.67436856,-0.04397142,-0.021359451,-0.9793441,1.0842526,-0.96721077,9.295046
3.7381985,2.2639394,-3.7727172,-2.6480877e-05,0.13075134,2.4434834,1.1841807,8.722947,2.8218603,-2.227946,-3.6886854,0.0674201,3.6186566,-3.3635757,1.0163367,-0.06903729
3.248953,-1.2480356,-0.0032326821,2.470851e-06,-1.2875617,-1.8528986,0.7100936,-9.146564,1.4870677,2.6767528,-0.79699636,-10.0521965,3.48746,0.5596671,-0.18471211,-0.0046835
-3.2794724,3.0918913,-0.0020361235,9.6522854e-08,-1.386826,0.5240011,-0.20422095,2.1129284,1.782433,-0.09759715,-1.8353553,2.6078753,1.7972442,0.9427239,0.12993276,0.0021768014
-3.308065,0.5646657,-3.2790046,-6.703926e-06,0.64893687,0.3166929,2.8658895,1.40134,1.5086063,1.4372433,3.4538398,0.4226892,-3.616504,3.4164143,-0.032840073,0.0041598342
0.8624098,2.1972177,1.1008854,-8.46282,-2.5620985,0.41762882,-0.81664336,0.023384571,-3.4375558,3.8671167,3.6717758,0.038470708,0.7590022,3.215759,2.4975743,6.4752493
0.81837386,0.59901893,1.4880487,-11.377243,0.41859594,1.83557,0.07459061,0.03292393,-2.8126209,-1.09548,-0.0466126,0.040945023,-1.6442873,-1.3546307,-1.2157182,-5.731617
2.4793167,0.8754978,-4.5642767,-7.945439e-05,1.4134264,-2.7961879,-1.3261011,-8.191127,2.7997513,-2.9897814,-3.3302357,-0.03385719,-0.3213229,-2.9935389,0.2412951,-7.69464
2.1572654,-0.6248931,0.4992463,9.265684e-06,-0.9894729,-2.0385876,0.561275,-9.253757,1.0223672,1.978507,-0.13980591,-8.936817,3.1136334,-3.7722373,0.007981453,-0.004224051
-3.2915277,2.0853841,-0.00021318742,3.1600996e-06,-1.3999212,3.0713644,0.5609065,0.13179345,1.0755018,-2.5589848,-0.6309059,13.375082,1.7241687,0.8852127,-0.02597469,0.020155022
1.2612592,-2.4431863,1.3819785,8.366494,1.027955,-1.3150244,-1.0776209,-5.686264,0.9764625,2.8899012,-1.735972,-21.371643,-3.5788035,3.0098457,0.21187511,0.06619049
0.881037,-1.0128835,1.4129839,5.675522,-0.3567997,1.1556122,0.01914394,-0.02744448,-3.765769,3.393817,1.4623998,-0.026305068,1.7381821,1.5343726,3.9407024,3.1564932
-1.6003275,1.1266541,-1.2190343,-1.0443838,3.7225723,0.023447812,0.25489467,10.876022,-0.94034606,-1.5575364,-0.10486592,0.07452259,0.98609245,-0.5435448,-0.19972247,-0.663764
1.3356746,0.8136672,-0.29688418,0.75649905,3.0009606,-3.2292209,-2.268413,-1.3319514,3.2299352,-1.8321848,-0.44117546,-0.003856659,3.2559931,-3.2660217,0.750132,0.022257749
2.7686033,2.0276275,-0.028601192,-4.6268013e-07,-0.824315,-2.2549107,0.1467588,-10.985303,1.9857252,3.5480416,-1.8750458,-11.57168,3.3906326,-0.44554278,-0.0032267496,0.015183717
-3.409478,0.58113265,-0.07834613,-5.8081932e-06,0.39586142,-0.95959127,-1.1749775,-0.73968804,0.8387779,-1.1134454,-2.256557,8.2411175,-3.9777422,2.0358384,0.10056099,0.013328368
0.23957402,-1.2428575,1.5246735,8.362192,-3.2659538,-3.4135447,-0.033745028,-0.028554047,-3.5751755,3.8895879,3.7617686,-0.04885248,-3.1740973,3.7614903,-3.7443142,0.02515532
0.63830423,2.309519,1.1815143,-10.525255,1.510606,1.4506172,-0.017746627,0.026921116,-3.2730498,-0.2773644,-0.30882853,0.009313166,-0.22055972,0.29528207,-0.31645268,0.91016865
2.044558,-3.2218714,2.0669036,0.39311385,1.4828321,0.39532375,-0.47596902,0.2883733,3.5422945,-3.2087739,0.110240676,-0.006445829,-3.6804361,-3.3110604,-3.4362164,0.021264369
3.105938,-1.7541497,3.657782,2.0007268e-05,-2.088677,1.1215882,1.3331674,2.6270561,1.0675725,1.5801092,0.70072365,-8.344189,3.6941285,-3.5877104,3.480885,-0.012809126
-1.9898595,2.2891374,0.036760807,5.780171e-06,-0.9177183,-0.9187325,-0.61757576,-2.3428326,1.9026598,0.5547877,-1.6392848,0.9604114,2.5989156,0.9538921,-0.10923195,0.00319165
-2.6043634,-2.727686,-3.4554255,-7.575087e-06,0.67498887,1.9951432,-0.1252358,6.2284093,1.4935137,2.7263296,-3.5481524,-11.869035,-3.874669,3.3416727,0.9942987,-0.04296814
-2.433331,2.8223271,-3.1059346,-13.863995,-3.3748033,0.29009414,3.3446405,-0.00853226,-3.5640354,3.8988483,3.725895,-0.050879806,-2.8205385,-0.07129888,-3.571456,0.047444567
0.6153296,2.3277621,0.5287261,-10.805508,-0.4958965,0.4689548,0.098831415,0.022441864,-2.0086002,-0.5527453,0.02325458,0.086269036,-0.07479338,0.04295984,0.63762486,-2.697062
-0.25552732,1.7562499,1.7597961,13.715553,1.7897224,-2.7741563,-1.4142268,-7.6791253,3.398512,-3.4810054,-1.8759091,-0.048054457,0.20480728,-3.2784538,-3.6882906,0.04970119
0.39918244,-1.8987799,-0.048560977,-2.4879814e-06,-1.9023513,0.93764234,1.4446496,-0.70644516,1.9601768,0.86724347,-1.1144965,-10.9892,3.2481043,-2.0027976,-0.02463232,-0.017517217
-1.7371581,3.296859,0.0028161628,5.070897e-07,1.430421,-2.7946424,-3.527883,-12.96142,-2.0083554,-3.4589589,2.649702,0.49177217,0.7289593,0.8487176,-0.006092216,-0.05031234
-0.3171327,0.83925176,-0.9269444,-0.55329686,1.8909011,-2.4607735,-2.9062538,-3.3057528,-1.6657743,-1.2569413,4.19083,0.16581917,-3.6883092,2.561119,0.0053505935,-0.019991644
0.69317967,0.29142734,1.3546886,-3.489324,-3.0689607,1.4344013,0.032993555,0.008305276,-3.5172312,1.1091267,2.3560326,0.019655107,-0.81176674,-2.1997626,-0.5534887,-7.4387217
-0.7019613,0.008125973,-0.6449288,-0.5908988,3.3418145,-2.0091922,-3.2536683,0.0021459674,3.1132922,-1.8214531,-0.03862758,0.010654881,-1.289868,-2.1235852,-2.032511,-9.318823
3.3984456,1.9343837,-4.884353,-1.4751396,1.9326497,-3.285317,-0.8117586,-4.912087,2.4880335,-1.8869404,-3.5811121,0.06163074,3.2910767,-3.7324693,3.726121,-0.050041713
-1.2832077,1.2303034,0.018297635,6.35172e-06,-2.4100327,2.9444861,1.744051,7.878013,1.9114988,1.9396775,-0.8046962,-6.134068,3.1582916,-0.7666128,-0.0024470221,-0.029052785
-3.2492218,1.7995931,-0.002240928,2.6654615e-07,0.5934391,-1.6625249,-0.99735785,-3.2315733,-0.01715374,-0.8034151,-0.6062522,2.2736592,0.046409626,0.5821466,-0.01836987,0.040112637
-1.1459067,1.5467736,-1.7712116,0.2907259,-2.0075552,-1.203515,4.706643,0.045703888,-0.27621493,3.387035,2.1060724,-0.09792081,-3.56191,3.6137938,-3.4877365,-0.027835771
2.767159,-3.4765544,2.6818433,-0.0321244,-1.4530631,2.0347252,-0.08517031,0.024776112,-3.3636806,1.5670707,-0.17632994,-0.016747974,-3.433927,-2.6524467,-3.5381942,-4.9361925
-1.43664,1.0552481,2.0746672,3.1199703,2.988864,2.4110956,-3.4514575,-0.04091361,3.5439286,-3.5031881,0.038778216,-0.060200304,-1.5434783,-2.9743707,-4.0269303,0.0582124
3.555196,-1.4859931,-0.007823199,-1.7326936e-05,-1.5960505,-2.2122183,1.0461186,-9.115673,0.30636013,-2.4281201,1.3623844,8.934987,3.5074635,-3.8257093,3.6822038,0.012434615
-0.7867094,3.0157657,-0.02350502,-1.9461368e-07,0.50283074,-2.185951,-0.85884696,-6.0182004,-0.13766718,-2.31461,-0.6544248,11.013039,-1.1604187,0.8006767,-0.046622567,0.04589759
-3.4199848,1.5017583,-0.007942306,5.233722e-06,-0.43658066,2.0155883,0.096343935,8.568909,1.1042869,1.1978519,-1.1099365,-2.546475,-1.4359076,0.99276274,-0.05866316,-0.009209863
0.8164073,-0.38524133,1.0434328,1.1810554,-3.3103576,-2.481212,3.3831625,0.0019255048,-3.4621596,4.090392,3.9369683,-0.029730655,-3.4775844,3.6045477,-3.535589,0.012266714
0.6537179,-2.6040292,1.1176462,8.20239,-1.6692811,0.8390646,-0.089902654,-0.033740617,-2.9874752,0.57957953,0.025040925,-0.054277163,0.40078223,-0.026297776,0.8123361,-1.3710818
0.8167032,-0.95445955,-3.2517982,4.0976906,-0.20290565,0.7290868,0.3122755,1.1457028,2.900766,-4.0561914,-3.504334,-0.027962409,0.7638401,-2.9763322,-4.040843,0.029029623
3.308989,-2.7349966,4.6543603,3.0164318,-1.0330937,-1.5826678,1.273935,-7.6147556,-0.2326408,-0.60001427,1.5117549,-0.3310314,3.45405,-3.6424427,-0.20353502,0.030730018
-1.3444314,2.4948177,-0.001560573,-9.381735e-07,-0.42875457,-2.262793,-0.700869,-6.4909916,1.8404698,3.043479,-2.2909534,-9.281185,2.9844499,1.2433493,-0.06610446,-0.011316113
-3.395295,0.23525947,-2.9605327,-1.4940905e-06,0.28371325,0.71587104,-0.86699057,3.4821362,0.47390154,0.3409589,-1.1221869,-0.835837,-3.5809243,1.6420476,0.014929116,0.0029707544
-1.4495219,2.2473145,-1.0312414,-0.04989159,-3.2570634,-0.27644682,-0.06919922,0.0070037954,-3.0625064,3.3407226,3.4037507,0.0040566837,-2.1424055,3.3451197,-2.5753891,-0.0029418888
-1.0490446,2.5100904,-0.47309816,-17.753286,3.726538,0.07491082,-0.060187817,-0.017972946,-3.4143467,-0.848434,-0.07275468,0.02766438,-0.24620569,-1.0527833,-0.74427664,-2.7841702
1.8273321,0.3771772,0.04635054,2.363724,2.798889,-2.8913543,-1.5447025,-4.2819085,3.2808537,-2.8426442,-3.5534708,0.011870477,3.48333,-3.225977,2.8638399,-0.0147645995
0.43873438,2.7337983,-0.013649287,-1.2650539e-06,-1.4316796,1.9578847,0.41963017,7.6856494,1.0542809,-2.0540545,-0.21369058,13.062028,3.4824657,0.057228334,-0.17680591,0.020154722
-3.2997663,0.682685,-2.16815,-1.2597873e-06,1.5695896,-3.0002499,-2.5847516,-8.172676,-2.0543175,-3.345446,2.0234966,0.22147802,-3.2659883,0.5094508,-0.02183934,0.016947106
-0.106414855,-1.8692034,0.36072183,12.1949005,-1.8880916,-2.320101,4.2395835,18.384417,-1.2809099,1.8433471,4.6015377,11.100912,-3.471736,3.5563745,-3.4667444,0.021907207
0.6463226,-2.1573296,0.8350001,6.8610525,-3.3892655,-1.1649915,-0.17743814,-0.021441568,-3.384843,-0.91195434,3.3164692,-0.042277295,-0.34580678,2.0760756,-0.036818862,9.175634
0.42742926,1.3372682,0.4701097,-7.7604923,3.3395724,-1.179352,-3.2920878,0.0072484426,3.666432,-3.1558478,0.032968,0.016950656,-1.3467075,-0.7251428,-1.1517293,0.15441316
3.357546,-1.9561644,4.528826,8.12644,1.5508441,-2.7526479,-1.388755,-4.7043257,-4.0133204,-0.9935487,4.0839796,2.1088548,3.8918798,-3.2379332,2.3821764,-0.053281423
-1.5206234,1.8626654,-3.2009266e-06,-9.0258226e-08,-1.9315633,3.1115232,1.599273,4.5621896,1.8314278,-2.6549559,-1.057705,11.765892,3.4005253,0.7029029,-0.061274327,0.017484406
-3.607782,-0.13530567,-0.8547927,6.67572e-05,1.2591382,-2.2407317,-1.0872236,-5.875802,-0.5739018,-1.6103365,0.7600094,0.82328427,-3.2703056,0.95930237,-0.015058622,0.04512657
-1.8975455,1.5704436,-1.6325431,1.1594989,-3.242077,-0.2587593,3.3496237,-0.0033998992,-3.5772276,3.4261277,2.4356756,-0.010051379,-3.1200995,1.1030848,-3.4162304,-0.0014070757
0.6346233,-0.5492885,0.106135875,1.7955273,0.6875126,2.5031993,0.25982836,-0.004353887,-2.2262213,-0.0039705336,-0.027094126,-0.0064077303,-1.1578381,1.9898762,-1.1902692,1.6780086
1.5104687,-2.6830516,0.42492425,3.6317325,3.3090565,2.3995595,-3.2684534,-0.0060679037,3.5586076,-3.4272401,1.677543,0.002185584,-0.44121516,-3.186259,1.2572017,18.620108
2.636256,-0.7893536,0.025387153,-7.16214e-06,-1.2732376,-2.3857398,0.5092943,-7.0335226,-0.33688045,-2.7491913,2.196612,10.076751,3.3575454,-3.4383764,3.3419096,0.04137696
-1.0142791,2.3991826,-0.0015813895,-5.441203e-07,-0.9161901,-1.5805428,-0.023871064,-6.226104,1.5012217,3.192004,-1.846251,-16.776016,1.3652736,1.0227379,0.01168563,0.0016788468
-2.50833,-1.6167926,-3.480606,-9.088288e-06,1.2057761,-3.12522,-1.933948,-7.017846,-0.7324251,-0.17710163,-0.014995247,-0.65948534,-3.424041,3.317714,0.25879326,0.0027708486
1.3083878,-2.010106,1.4385364,1.202815,-2.7994976,0.4247167,4.6079903,-0.032089233,-3.0223434,3.8027742,3.7319152,-0.013209194,-0.78210586,-1.614043,-0.53260803,-3.1720085
0.44149506,-0.69458616,0.27676925,1.934176,3.1079109,2.2760596,3.96086,12.259598,-1.9305551,-0.89540505,-0.010371745,0.0057061655,-0.21904558,-2.2740111,0.5496346,-10.451062
2.8761268,-2.1010423,4.2144566,0.0075669736,0.83925515,1.1772807,-0.9764079,12.157343,3.543541,-1.9765648,-3.4037926,0.05047923,3.1724234,-3.23747,0.851325,-0.038184203
2.0223258,-0.6385058,-0.14081746,-7.5672106e-06,-1.5854737,2.5808232,1.5538353,7.600869,0.441184,-0.21130392,0.2234672,-0.46944383,3.3019884,-1.3393484,3.263376,-0.024296667
-3.3205557,2.8180833,-0.007842362,1.1080652e-05,-0.26120314,-2.2648754,-1.0926249,-8.034702,2.217085,3.9389958,-3.2758808,-10.829029,1.352682,1.159647,-9.559374e-05,0.022788286
-1.0829396,0.8787215,-1.2928715,0.922076,0.08404353,1.1236833,-0.65650153,2.8880472,2.1517901,1.5672419,1.668814,3.8822584,-3.4727924,3.3112295,1.1938711,0.005346936
0.27768308,2.1643548,-0.11757171,-14.761799,-2.5986688,-0.64371437,0.22512749,0.0055687875,-3.1395595,2.893832,3.4427552,0.0058419844,-1.2600539,-2.4635222,-1.2255808,-6.9802814
0.70917904,-2.2614446,0.7542625,1.8719184,3.080903,-0.12461895,-3.810641,-0.0009409897,3.6148183,-3.8325,-0.07683346,-0.013154749,-1.5754774,-2.0766425,-1.7059486,-6.739108
3.4283814,-1.7084683,3.1096132,2.4384724e-06,-0.32767054,-2.3358347,0.4467411,-8.430638,-0.5567912,-0.31388283,1.6846672,-0.4342842,3.7859316,-3.348583,1.6555609,-0.028601106
-3.0712807,1.5709615,-0.006670084,-5.6791396e-07,-1.3706017,0.57112706,0.38340735,1.1283877,2.6051888,3.688184,-3.7854304,-14.664104,1.937679,1.1151056,-0.061313078,0.00022842735
-3.3994665,2.4390721,-3.4314308,-0.0013542175,0.6696666,-2.097142,-0.99375343,-6.29204,0.8329079,3.6296914,-1.6553248,0.2868991,-2.8862913,1.0605083,0.28134087,-0.017210327
0.6265408,0.5896468,0.5666511,-1.140109,-2.6013043,1.0274922,-0.007194303,0.0073863,-3.343018,3.5517068,3.4265049,0.007339209,-0.41280437,-1.9089681,-0.06408262,-5.3172755
-1.412309,2.285731,-1.2115195,-7.7956796,3.145618,-1.3654748,-0.53394103,0.01924324,-0.6062426,-1.3478718,-0.07025201,0.036768027,-0.11625326,0.78815496,-0.77774215,2.484189
3.2541428,1.5902462,-4.5736947,-0.0013999939,1.9332925,-0.9010094,-1.1201568,1.9791704,2.9472992,-2.1537416,-3.5523913,0.047184546,3.5001113,-3.341908,1.3946851,-0.040162787
0.38039812,3.1592066,0.00012010732,1.2864145e-06,-0.8898829,-2.0019293,-0.23608685,-7.8556027,1.1315181,-0.52134234,-1.5462002,5.78393,3.3808486,1.9038899,-0.08433497,0.025237124
-3.3412356,3.1244116,-0.0871304,-3.7234372e-06,-0.09797436,1.4914165,-0.5211277,5.139177,0.15234931,0.22580352,-0.8682932,-1.6772116,-2.8951144,0.98861384,-0.019778805,-0.025129188
0.41039658,0.47808704,0.25527513,0.54739666,-1.9003474,-3.6358871,3.4935668,-0.002359814,-2.9355674,2.6102521,4.5728416,13.505854,-3.5275483,3.3779507,-0.20334336,0.042138733
0.9799236,-0.66330886,0.8814398,0.98200625,-2.3558972,1.3478696,-0.062134385,-0.002706402,-3.4361835,-0.1415372,-0.20731652,-0.005939983,-1.1833851,1.4269328,-0.5048384,9.619675
2.1438372,-3.5091517,1.484258,0.3030901,3.398449,0.26521206,-0.007025983,0.030617297,-3.1659575,-1.1684475,-0.13311017,0.0019952883,-1.704686,-1.4081504,-1.8194362,-2.3641376
3.2915173,-2.1491992,4.6761246,0.0013008118,-1.0985883,-1.472118,1.5329556,-4.898802,2.7748568,-0.91573673,-3.6723793,0.01681234,3.6531506,-3.569957,3.5481932,0.0037863925
0.4044938,2.2893345,-0.027276449,-3.6661036e-06,-1.2620072,-2.5192194,0.093458004,-8.890181,0.7172335,-2.8947926,0.9211136,9.957918,3.4085886,-1.0992483,-0.015153905,0.05107418
-3.3847454,-0.13430665,-0.038187347,-3.0180172e-07,-0.24597639,-1.8714446,-1.0497395,-4.6975117,0.75970757,1.3697083,-1.0424304,-5.5993147,-1.2963057,0.721363,-0.015766308,0.00290351
-2.0886836,0.89578253,1.6425524,16.197527,1.602314,-3.3625224,0.40923703,3.5856462,1.911765,0.6707766,-4.593434,-0.03432052,-3.9627938,3.3367436,-2.4164965,0.07351587
0.82837224,-2.3825145,0.9286587,9.581912,-0.24299592,1.2201911,0.059670232,-0.042528935,-3.4339495,2.1593094,0.02008102,-0.048893996,-0.31672597,1.5596304,-0.38238358,6.924674
-0.17739856,-2.511853,0.28522325,10.788009,3.259366,-0.37973619,-1.0239577,-0.04140967,1.8966187,-2.8803098,0.084817484,-0.05830478,0.08787446,-1.2028879,2.0110083,0.8461856
3.3776546,-2.7166212,0.9850902,-3.3318996e-05,-2.8399637,2.7914023,2.4625401,7.4477663,1.3291762,3.1062932,-0.26362038,-13.887186,3.4751928,-3.4621723,3.314691,-0.08878487
-3.1473184,3.0751503,-0.0002506657,-4.239385e-07,-1.8042971,2.636655,0.4506433,7.84376,2.106143,-1.4754074,-1.8905821,11.0220175,1.3164811,1.3213216,-0.091119215,0.017804712
-3.4133153,2.0333333,-3.265182,5.407412e-07,0.691718,-1.9196534,-1.0524354,-5.047029,0.34277928,2.2928312,-0.1368792,-8.874993,-3.726482,3.3101532,0.8078764,0.013338685
0.97702146,-0.3599817,1.0495719,0.36325908,-3.26984,-0.37930652,-0.015854299,-0.00048495596,-3.15664,0.9624413,3.4786277,-0.00244766,-0.31113186,2.2590055,0.10282946,8.860623
0.94249886,-1.7031401,0.26849258,3.3811836,3.114504,1.9647462,-3.3300738,-0.023974553,2.8382099,-3.8719313,-0.006960511,-0.029458148,-0.9842541,-1.6165907,-2.5600219,-3.738525
3.5854573,-3.4543953,3.0716736,0.0009250641,-1.2590978,-1.5070415,0.9039732,-5.2701554,-0.38447148,-1.2414964,1.7231783,4.1677914,3.7587821,-3.4364817,3.439366,-0.0017573796
-1.8761482,2.0209327,-0.03850843,1.6451886e-06,-2.0795155,2.7254322,1.0243628,10.369382,1.9118806,0.7633245,-0.90335745,0.29206562,3.2575026,0.16819426,-0.11715382,-0.0038924925
-3.3714066,-0.6773553,0.16939157,8.5274223e-07,0.015801579,-1.2207445,-0.35929346,-3.8946037,0.6582025,-1.4644974,-1.5605706,7.4876018,-3.5401275,1.3538518,0.49114677,0.027582906
-2.3409753,2.4044821,-1.2408667,-22.67001,-3.294631,-2.1962523,3.3567233,-0.009262323,-3.2611861,3.5757256,3.7365904,-0.029409677,-3.4918284,3.7840014,-3.6435742,0.021337353
0.37893468,1.2110801,2.1505442,-12.677137,-0.3468485,-0.21498205,-0.074649855,0.0015406031,-3.360269,0.113322765,-0.004448898,0.0021218508,-0.5008353,-0.5302576,-0.59528303,-0.8294166
0.015241101,-2.3466923,-0.7544439,7.0772333,3.2367737,2.5783288,-3.3142414,-0.0117195025,3.5508988,-3.367741,0.90304524,-0.01404383,-0.25602633,-2.8253267,-4.0688686,0.025292888
3.60047,-3.4517317,2.252506,0.0010471344,-0.6440114,-2.4806235,0.5825543,-6.525708,-1.15356,-2.830772,2.5017574,10.926859,3.6872723,-3.6310692,3.5888183,0.020940222
-0.73224366,0.5664246,0.9375668,2.539603e-06,-0.29381478,-1.616639,-0.43221354,-4.9583473,1.9629864,3.7795427,-2.5200975,-8.955606,3.0511985,0.73357004,-0.020957448,-0.0011791997
-3.2793164,-0.022627741,-0.08727293,-3.8481257e-06,0.014138982,-2.238272,-1.5137635,-5.8454247,2.0619078,3.5419521,-3.2486525,1.2519579,-2.89611,1.3019419,-0.015846744,-0.035674892
0.89666975,-0.5414704,0.3145584,3.860647,1.000314,1.4253058,-0.82232606,3.5580373,-0.3914467,0.53769743,0.18028834,-1.3698989,-3.4997814,3.4872491,-0.021078113,-0.0018749125
-1.8480134,2.5140052,-3.8021398,-40.827393,-1.1062299,0.44621307,0.1385901,-0.004976578,-3.097898,2.0988035,3.4941454,-0.005024884,0.070448235,-0.012341097,0.050672486,1.8907403
1.1293559,-2.7590744,0.5641284,9.207492,0.41516006,-1.1207043,-0.87399185,-4.3801603,1.3882116,-3.0745869,0.1718566,-0.06481286,-2.1354246,-1.7107189,-1.9748967,-4.3690977
1.7081807,2.0338893,-3.5674305,-3.510341e-05,1.7300298,-3.6063805,-3.975594,-13.261618,-2.6268253,-2.3698697,4.2125764,7.481016,3.604579,-3.444455,2.7650876,-0.05158989
-2.2034786,0.26564166,-0.005122872,1.6284548e-06,-1.83033,2.7273064,2.2755315,8.949469,2.4490945,3.5472193,-3.1797447,-9.4991,3.088324,1.4406801,-0.25903684,-0.0028422065
-2.6567042,0.13489485,-0.0086821485,1.2388737e-06,-0.007645726,1.7129374,-0.2392348,7.3491,1.8064094,-0.2107091,-4.93923,0.020414146,-3.3870852,1.1486461,-0.060189962,0.04864033
-0.65252185,-1.7255806,0.8807998,6.5222893,-3.2624233,-2.6437607,4.3469486,9.075344,-0.8788315,3.4299228,-0.99532056,-0.01806295,-3.5506856,3.3652,-1.1418724,0.007035462
0.5958675,2.467375,0.779443,-10.692686,0.81926394,2.3179274,-0.033121374,0.027059652,-3.2469609,1.8731968,-0.020269344,0.035012066,-1.4995308,1.4675022,-1.3193381,10.338801
-0.40818864,1.9795473,1.008862,-8.32264,-1.0787684,0.41664594,0.1595997,4.1867704,3.4026392,-3.4899685,2.5997386,-0.0152282715,-0.5717201,-2.6721876,-4.1667037,0.053592052
3.3843782,0.6530485,-0.01385662,7.008508e-06,-2.474183,2.9244313,2.220849,8.284134,1.0692215,3.7957344,1.0016247,-9.479158,3.5943847,-3.4510777,0.6065541,-0.0708579
-0.80429256,3.2353854,0.03859611,-3.8744474e-07,-1.8082001,3.0063572,1.2400885,1.3233515,1.3255726,-2.1513648,-0.59506536,11.410289,3.3880177,0.93619084,-0.09140381,0.03985022
-3.3115046,0.15836461,-0.22621047,-2.3493624e-06,0.7384148,1.2282119,-1.02885,6.8078184,-1.0218173,-2.5949683,3.054763,0.9486531,-3.334061,1.2179874,-0.005542703,-0.026218895
-1.9642062,0.8890741,1.5458767,9.658466,-2.9085484,-3.3589272,3.3575263,-0.0386014,-2.2135124,3.1500022,3.3229017,-0.03361549,-3.611926,3.7405417,-3.6460726,0.041289516
0.8497176,-2.6606956,0.7679341,10.394201,2.7575467,2.990139,2.0164976,-0.033407018,-0.56982404,0.54840446,-0.0034766197,-0.04040085,0.08241221,1.0834802,-0.44889474,5.2764206
3.3620934,1.7026758,-3.4848983,-1.2944554e-05,2.5676742,-3.248617,-1.644657,-5.140707,2.1715524,-2.1093674,-3.499649,-0.005969274,3.1666126,-3.35298,3.842334,0.022820473
2.4248564,-0.22931638,0.01610744,1.7465003e-05,-1.1852176,-1.9760485,0.6123042,-9.170435,1.4263767,2.397911,-0.86383885,-9.063794,3.5503602,-3.1165378,-0.053920597,-0.0032907864
-2.9049344,2.8519058,-0.020713951,-2.0148932e-06,-0.11054635,-1.6346858,-1.1144223,-4.657594,1.8676815,3.6928067,-3.9211526,-11.556126,-0.918365,1.1228899,0.014788397,0.010653231
0.003085792,1.8512174,-0.42633104,-5.5077515,2.2366462,-2.420707,-2.9298341,-29.163242,1.8685596,3.3145869,-0.12789826,0.15662445,-3.4302297,3.304384,-0.06937713,-0.03798738
-0.6321594,-0.49500483,-0.12897623,-1.3197592,-0.86899525,2.3864439,-0.14154376,0.00032465905,-2.1011114,1.7131456,-0.1109485,0.001749076,0.786177,1.552807,0.38140786,8.321404
-2.5182383,3.5172973,-1.0574443,-3.9263163,3.3427985,-2.711954,-2.984107,-0.029098112,3.121922,-2.798172,-0.67188525,0.0074455813,0.21993768,-1.8261882,2.7523696,0.47939005
3.3231068,-3.0382524,0.53184557,-0.0004172325,-2.1670938,2.436327,1.825634,8.639772,0.8785873,1.6617908,0.71694595,-8.051309,3.648425,-3.7646606,3.6139872,-0.060511485
-0.66395664,2.0706074,-0.008811727,5.35465e-06,-2.103886,3.2333891,1.4323295,0.62163126,2.327616,3.3905306,-2.8695467,-10.997065,3.0739226,1.214062,-0.13683741,-0.011945572
1.0615945,-1.4348214,1.1476618,2.1688583,1.1644499,-1.6636426,-2.1191216,-10.271894,-0.16396856,-0.9749981,-0.34199834,3.09936,-3.0270245,3.1536367,0.10296906,-0.036318384
-0.6840848,1.5348322,-0.4785527,0.15971372,-1.7967436,-0.2285433,0.27127045,0.00010377425,-3.4149091,3.661689,3.474209,-0.0019106991,1.3880851,-1.1001166,1.6817486,-3.41111
-0.703297,2.635606,-0.41148174,-9.876982,1.829406,1.2529047,0.05268526,28.356205,-2.7749174,-0.4661079,0.01833812,0.07322115,-0.50510645,0.40712503,-0.67642576,2.0817065
3.6068237,1.7175708,-3.9338875,-4.3155975e-05,2.1688094,1.5885222,-0.8054767,11.542078,2.615929,-2.3391037,-3.470088,0.018003963,3.180114,-3.3381367,1.0380839,-0.027465735
1.9982944,1.8835658,-0.07583161,-2.3014254e-06,-2.6102483,3.989781,2.526939,4.1217318,1.1898751,-2.2841887,1.0402704,9.087512,3.12754,-1.1841633,-1.077586,0.012311935
-3.4720795,2.008939,0.3804533,1.9905572e-05,-0.39438033,-2.7136383,-1.0370353,-8.852104,1.4840138,1.9368927,-2.5973763,-5.7479215,-2.5528126,0.9126847,-0.0005830601,0.019457174
-1.7176604,-1.2600482,-3.5713685,-1.2738845e-05,0.98224986,-3.4743185,0.80867493,-0.01684429,-3.002515,3.3228788,4.613994,13.995831,-3.5084288,3.8599184,-3.6226916,0.046859838
1.6263862,-2.584088,2.327115,0.802948,-2.2106483,2.9918425,-0.19973725,0.019553497,-2.6544125,2.4536164,-0.0692313,0.019583762,-0.7139828,-0.3862611,-0.6402427,-2.2877889
0.4174266,-1.7122741,0.3569913,4.554632,3.307735,-0.055598386,-0.12752593,-0.03905143,-1.225687,-0.96052015,0.22159661,-0.042583972,-0.31165087,-2.0501485,-0.5957464,-8.937495
3.2972302,-0.70372516,3.3661494,4.9967093e-06,-0.46348515,2.0508714,1.4399188,7.430344,-1.5701131,-0.3181433,3.2697592,-2.58977,3.8149414,-3.39339,-1.1842318,-0.041790023
-0.6901535,1.6199852,-0.007648982,1.026121e-06,-0.72088665,-1.8667808,-0.04733163,-7.938184,2.5168695,3.7953887,-3.582396,-15.592403,2.6566696,1.7611983,-0.020598687,0.008134536
-3.597257,0.17007273,2.737534,3.1913624,-0.4653837,-0.9691109,-0.2827878,-4.0186663,1.1086822,1.3488841,-1.7396327,-4.6129003,-3.422558,1.5714428,0.14462344,0.050564315
3.3016222,-3.2541513,2.9307995,0.8525927,-2.9266696,0.69198716,-0.061979264,0.013483826,-3.122957,4.2554226,3.9010813,-0.017919276,-1.4175191,2.370564,1.1869333,13.584612
0.7693552,0.046557456,0.18514493,-0.9332155,2.6246667,1.1787555,0.00308563,0.005374131,-3.3064013,-1.1851475,-0.0031564962,0.007096353,-1.2998135,-2.5074868,-1.3566086,-8.8008375
2.2022972,0.27096877,-0.7574936,-0.6422584,1.8517201,-2.8550687,-1.006471,-6.3066545,2.9284055,-3.1000564,-3.4646375,-0.018337449,3.0293102,-3.4421074,4.5242524,0.02746582
0.6722806,2.0682235,0.09559864,5.050003e-06,-1.7765951,2.5908885,1.0256066,7.9330983,1.4544761,-2.1952019,-0.34965056,11.833036,3.427284,-0.19822998,-0.019729413,0.016373158
-1.8153929,2.476203,-0.00026446697,8.635816e-07,1.3848958,-2.4923527,-1.6429383,-5.1068773,-1.2242205,-3.2957127,1.287457,0.12080389,-3.20727,0.70488995,0.0038539525,0.0020326842
-2.6785119,-2.7570121,-3.4760866,-9.868878e-06,1.1200014,-2.1008594,-1.7429616,-9.69462,-0.832918,3.2218118,-0.9963418,-7.436389,-3.7718873,3.4549348,-0.018564329,-0.014454894
-0.031433314,2.51407,1.2600107,-10.068907,-2.5084827,0.14858365,-0.081796765,0.025312781,-3.3901281,2.6069381,3.4623256,0.049243636,0.769879,2.4851117,1.6199924,7.6713934
0.06412196,2.5173733,1.5085807,-12.17873,3.1044621,-0.513968,0.0026921034,-0.012601048,-1.9070644,-0.94359785,-0.06088389,-0.040541224,0.23235413,0.73975384,-1.886348,4.504416
1.0078025,-0.87571025,0.2845167,4.011354,1.0318013,-0.21817866,-0.6368835,1.1425917,3.278136,-3.767967,-3.573892,-0.01159687,2.7404988,-3.3481717,1.3432868,0.01788688
3.3957608,-2.5174205,-0.12903005,-6.172382e-06,-1.768311,-2.2944698,1.0162473,-8.416425,0.7253325,1.6767939,0.7660608,-7.3004837,3.5817451,-3.2254791,2.7828093,-0.02289414
-2.8576434,3.2533932,-0.033397384,-1.7591374e-06,-1.1631699,-0.6948728,0.039685488,-3.214655,2.6710777,1.796162,-4.2211237,-31.65113,0.4057751,1.086159,0.039836742,0.0040626563
-0.25709483,2.2722156,-0.8737082,-6.3424234,3.1018014,-3.1795425,-3.569597,-0.0015404224,1.6184244,2.2648745,3.0802088,0.00951767,-3.5139763,3.5024981,-0.1310206,0.023079675
-2.482134,2.136592,-4.0394464,-49.104195,-3.2853644,-0.32643485,0.071850926,-0.004134424,-3.2947989,0.8960983,3.2756038,-0.031476613,-0.6027498,-2.3601506,-0.55544156,-7.5659137
2.1531954,-3.3671148,2.775581,0.13329516,3.7576644,0.05978191,-1.1162535,0.01797676,0.64612603,-2.963815,-0.046276197,0.04683478,-1.7975845,-2.0501325,-1.85811,0.7022028
3.4725378,-0.40248775,-1.606201,8.903046,1.636358,-2.8303294,-0.5306526,-4.333809,2.8077862,-2.2468126,-3.6605515,0.007390517,2.949036,-3.3475332,2.6694338,0.008263182
1.5259528,1.23182,-0.019568782,-1.0734248e-06,-1.1465226,-1.083899,0.8958818,-5.9275784,1.7319639,3.5216904,-1.6518011,-9.515787,2.742178,0.43353546,-0.22804147,0.008830233
-3.2682986,1.6541407,0.9368724,-2.5434247e-07,-1.5314779,2.4718363,0.5750178,9.496134,3.3798723,1.8241924,-4.2939234,-38.259327,-0.76513046,1.5276581,0.025538836,-0.026094217
-1.9374666,-2.4953296,-3.4762685,-9.783289e-06,1.3042014,-0.021389857,-0.7423691,-0.7668134,-0.7698866,1.1652685,-0.48314688,-7.120743,-3.46975,3.126117,0.42794147,-0.01597706
2.4230354,-0.80186594,1.5740381,-0.23811471,-2.6817458,-0.6509722,-0.082516566,0.0042738626,-3.2675753,3.3697665,3.3292832,0.003789301,-2.7271068,-2.5838814,-2.030296,-6.9122844
-0.26963246,-1.2926672,0.057428718,3.289689,3.3308494,0.08395296,-3.1641011,0.0129489,2.7708943,-3.4422624,-0.052190457,0.024938345,0.19270514,-0.77256817,0.5814903,3.7465556
3.3798516,-1.1225872,2.6325572,5.113229e-07,-2.0430617,2.6062112,2.2895966,8.549556,-0.18765444,-1.4921963,1.8334956,6.5576515,3.6146886,-3.5275867,3.4476044,-0.066859156
-1.9220685,1.9981265,-0.0037278049,8.5532247e-07,-1.9990773,3.028407,1.136877,0.50003225,2.8698254,0.9344377,-1.7167616,-13.096188,3.0385935,1.4803259,-0.20083937,-0.0069203377
-3.3411438,1.0164869,-3.1561766,-6.3841094e-07,0.88782185,-2.1744158,-1.7411094,-8.206493,0.41210482,1.535686,-1.6510584,-5.2331395,-3.4458838,1.1093314,0.076439194,-0.02850926
2.8476365,-3.1444738,3.3786857,1.2843051,-0.5483996,1.425873,3.3201084,-0.0047583207,-3.5260515,3.3729804,1.3733253,-0.0010471866,0.17951608,1.4278665,2.3692517,2.3125675
0.78926283,-1.691225,0.2963829,3.018612,1.2102612,-0.026904412,-0.15830187,-0.023860563,-2.1895752,-1.5946945,0.04079791,-0.029642217,-1.4914136,-1.944198,-1.6684393,-4.188069
0.09899479,0.563721,-0.5699023,0.3705448,0.7072502,-2.0648003,-0.36393,-6.784608,3.4543014,-3.3238838,-3.197898,-0.0043335445,2.0116165,-3.301332,1.0230428,0.012628436
3.3028054,-3.2995145,3.0963497,2.8693754e-07,-1.1799165,-1.2006648,0.88317394,-6.215765,0.87810326,2.6593819,-1.1553327,-11.036205,3.4461918,-3.2016616,3.0969436,-0.0059188474
-2.456687,1.8887221,-0.048506208,-3.815297e-06,0.026357114,-1.2852168,-0.57991856,-3.501532,0.07098079,1.5303628,3.3841298,10.163222,0.71704733,0.7930304,-0.09044766,0.069435194
1.0101901,-0.999602,1.1200707,1.0534031,0.49549723,1.7585146,-0.14237714,5.4859486,-0.27955434,-0.48884633,0.2599802,1.418004,-3.1936324,2.5791748,0.34773412,-0.03596084
1.3005229,-1.2882435,1.4994754,4.1238227,-3.4518168,3.0723386,-0.16091743,-0.024008391,-3.499547,2.445626,3.3961709,-0.055030968,0.21061644,2.2261767,1.1769409,8.948405
-0.31467953,-1.8079883,-0.6987628,9.657949,3.4665356,-1.1773016,-1.053462,-0.061640397,1.5975574,-1.6462955,-0.015779778,-0.039837196,0.07869369,0.90230995,-0.81882286,5.6084175
3.2443025,-0.46624103,0.9188583,2.5571175,2.4565432,2.0200553,-0.7276164,10.673695,2.9719937,-2.1832397,-3.5006907,0.023239242,3.3494256,-3.3408582,0.31901518,-0.026774472
-0.75780463,0.80177706,-0.02730313,-4.6351306e-07,-2.0418286,2.8529632,1.5004213,9.929612,1.7238867,1.9032929,-1.2668262,-6.397375,2.4909668,-0.71769977,0.0016959906,-0.031066343
-3.238606,1.1127783,-0.06902751,-4.2194692e-06,0.4943932,-0.7871821,-1.3855458,1.4069452,-1.5889041,-3.3055174,3.1511147,0.06427913,-2.31948,0.6950123,0.23659709,-0.0061437013
-2.2840867,2.7496812,-3.220223,-15.485952,-0.8685698,-3.613763,4.6344085,8.354721,-1.222619,2.7325861,1.7323047,0.0144268535,-3.5757005,3.3819077,-2.1538196,-0.0024996065
-0.10637808,3.6284084,1.618927,-12.414551,0.4129823,0.009716451,0.21252517,-0.09134446,-3.4308393,1.1250764,-0.030215245,-0.015897281,-0.70940685,-1.2610127,-1.0001929,-0.38900304
-0.25645596,2.3930414,-1.0455848,-3.2196808,1.5436876,-3.4837925,-1.7888725,-6.755531,3.5739608,-3.42103,2.3656657,-0.020298019,-2.093175,-3.3103685,0.27037057,-0.07155353
3.438637,-3.332969,3.7848706,0.00068950653,-1.7092118,-2.3384104,1.1082851,-8.683358,-0.30029678,-2.0897503,2.388597,6.536731,3.4303741,-3.4476845,3.4529755,0.026869042
-1.221836,2.6954396,-0.027695999,-2.50437e-06,-0.3483942,-2.3635828,-0.43196523,-6.443102,-0.2672441,-0.7563779,0.43344426,5.056638,2.4828217,0.75698465,0.0060026986,0.028595226
-3.335655,0.8210327,-0.068645164,-3.1984478e-06,0.494094,-1.6285782,-1.2460854,-4.3911867,0.8485483,2.9851654,-3.2592092,-10.001522,-2.8517125,1.3233385,-0.12214807,0.001585491
-3.5555134,2.2401967,-4.931352,-57.10031,2.0718486,-3.3653588,3.4629939,-0.04300382,1.6134211,1.7600343,-0.921098,-2.4692428,-3.8860483,3.470349,-2.165307,0.051014327
-1.3862982,2.2604756,-2.8366728,-41.91581,-0.27247444,0.6772349,0.08291167,-0.007528037,-3.1474502,1.6766127,-0.12195841,-0.045618862,-1.3872883,-2.0762007,-2.0143967,-4.3703427
-0.3303262,-1.2399163,0.021734674,3.9652228,3.2489629,0.2879479,-3.3479521,0.0015974194,3.4869432,-3.041595,0.16832459,0.0064385757,0.05320588,-1.6706125,2.4479694,0.11822605
3.2619288,0.22368787,-0.10622734,-4.8714282e-06,-2.1004682,3.0436018,1.7619863,7.213647,1.9944394,2.5678096,-0.7908534,-8.2528,3.2430077,1.4949797,3.324356,-0.06694734
-3.1043727,0.2133454,0.017276645,2.2844724e-05,-1.7330315,0.19255489,0.20262924,0.77262616,2.6901252,3.614458,-2.9076464,-15.615673,2.8689964,1.2698196,-0.034473956,0.014818445
-1.9919229,-1.1560646,-3.5224786,-1.5449185e-05,2.7896433,-3.2006974,-0.04594335,-7.8368225,-0.85923433,3.2368507,-0.6606946,9.453285,-3.428052,3.2264962,0.43155992,0.03128084
2.4101644,-1.5743169,2.3399966,3.5888195,-2.7247996,-2.9181342,0.06050515,-0.019628907,-3.8477218,3.4804523,3.5810237,-0.026930723,-1.708303,-2.42574,-0.26809913,-7.4624295
0.05282718,1.8705493,0.0532223,-9.439344,3.2692668,1.2203429,2.7380118,0.024117853,-0.46901858,-1.3403499,-0.019601583,0.032909207,-1.1945742,-1.5268847,-1.8936696,-3.0431333
3.4147782,-2.701475,2.3162565,2.5819663e-06,0.6742964,1.8968304,0.5884936,11.086126,2.9155374,-2.9979458,-3.6220646,0.050667994,3.6546774,-3.3579097,1.2225358,-0.04116562
-0.97764605,2.2879746,0.017848656,-7.382404e-07,0.16915241,-1.5165021,-1.8783046,1.2015002,-0.25289798,-0.7525766,-0.10700941,9.009199,3.1863697,0.34758887,-0.033581726,0.03819319
-3.3004014,2.0006368,-0.075188234,-2.6600414e-06,0.4061483,-2.774157,-0.39467782,-12.374217,1.9498988,1.3731892,-2.0106552,-11.079701,-3.4738674,1.0952954,0.06640881,0.04095459
-0.46529627,-0.8509928,-0.7625392,9.344153,-2.511904,-3.236417,-0.42867738,-0.018607862,-0.83481157,3.4050484,-3.1109796,-0.030443974,-3.6294422,3.5329893,-0.05498309,0.020756045
2.4647017,0.046114266,1.1225767,2.359709,-2.532255,1.656951,-0.07151346,-0.0058904756,-3.178397,2.7031312,3.4062722,-0.010659514,-1.3169675,-2.325681,0.17356524,-8.319408
0.77755654,-1.3580623,-0.54666173,4.7853994,3.3954608,-0.10049257,-2.9927332,-0.016984718,3.4903777,-3.3396535,-0.043511853,-0.011855368,-0.9183489,-2.6192741,-1.5345601,-3.8859496
3.4473357,-3.2371063,2.557511,1.87448e-06,1.1579256,-2.7406697,-0.075739205,-5.368979,2.567387,-1.4036317,-3.7009172,0.052488036,3.7884698,-3.348637,3.391732,-0.026464827
-2.0240848,3.1798737,-0.017016858,4.326361e-06,-1.8017399,2.195899,0.37556964,10.867514,1.7073221,-1.841687,-0.83760285,13.192883,3.331852,0.40939847,-0.013675325,0.02200528
-3.332439,2.7591736,0.06540105,-1.0503313e-06,-0.70313215,-1.6039524,-0.51810515,-6.010452,1.3777682,0.95200455,-2.215539,-1.2426422,-3.4556553,0.8805725,0.06683707,0.0014585629
-0.25358868,-1.0083911,0.31885076,6.401477,-3.2523913,-3.3218975,0.5730735,-0.038466454,-1.8673496,4.0828395,4.0413966,-0.073748015,-2.177964,2.9031134,-3.563315,0.0604411
-0.2526111,0.79132825,-0.4647125,-1.2998761,1.4227495,2.280657,0.42504007,0.0040526395,-3.3785813,0.28207186,-0.008027192,0.004259761,0.104889676,0.8854096,-0.47107536,5.1068373
-1.1057174,2.2120357,-0.06810212,-9.591053,3.315187,-2.3002923,-2.7482433,0.019937698,0.46968883,-2.147612,-0.045653548,0.032840803,-0.26745075,-0.16564551,0.15849033,0.9452989
3.3748071,-2.8556325,4.0731363,0.00047779083,0.4044156,2.3386886,0.8245053,9.743362,3.530011,-1.9517208,-3.7018173,0.07981024,3.91447,-3.4076755,-0.0054774284,-0.057643376
-1.3608017,1.3362858,-0.017329097,2.730812e-05,-1.4293036,2.947894,1.3495723,11.816228,0.47128826,0.47374755,0.5184372,-0.32493472,3.426317,0.48306182,0.070794776,0.0043394975
-3.4426484,0.56219304,-0.071473554,-3.33878e-06,-0.8549317,1.616927,0.12821186,3.9712396,2.1422076,1.7828233,-2.1220012,-6.938775,-3.0579333,1.774263,-0.042426765,-0.03256377
-1.705741,3.1419232,-2.464089,-5.889435,-2.1215134,-3.3986697,0.6647072,-0.009314507,-2.3674417,4.0637197,3.8471835,-0.023024764,-3.5294125,3.9289126,-3.6905408,0.024860473
1.1523956,-0.5076515,1.0111696,-0.66293025,-0.9830334,1.0092785,-0.013098497,0.0039017813,-3.4175172,1.3392438,-0.108961225,0.0043766913,-1.2642813,1.6547005,-1.0060958,8.242014
-0.75532925,2.5322702,-0.20971668,-10.6034355,1.6192956,2.0791154,4.0804973,19.060217,1.023264,-0.6739285,-0.064169884,0.040492,-0.12722996,0.59803927,-0.80185926,2.9218946
1.635065,-3.3347952,0.5998488,-1.0606975e-06,-0.7601056,-1.9346212,1.0348301,-6.6624947,-4.721117,-3.1199121,10.771798,-8.010282,4.6993403,-3.243485,3.3424144,-0.08039542
-1.1344451,2.1897426,-0.007989357,-3.8909639e-07,-0.40716565,-1.6177284,-0.50102186,-4.6264915,2.5638804,3.3700938,-5.06781,-34.397697,2.4883218,0.9757987,-0.02554752,-0.008327395
-3.5592976,2.6316705,-0.023942498,1.4032557e-06,-1.1130426,2.309328,1.6269711,4.087221,2.1333973,2.184553,-2.5997047,-5.9262543,-2.3747482,1.4994272,-0.0099793,-0.012067404
1.7788839,0.526078,0.7460666,2.6942596,-0.12723392,-3.3599684,3.3411484,0.02055788,-2.4322405,2.163285,3.6816797,10.456577,-2.6859682,3.3678133,-0.06884524,0.027276367
1.1139116,-1.8268304,1.0135205,0.10567951,-3.2169645,-0.0046016797,-0.091619104,-0.033593237,-1.6692152,2.0288363,3.46409,-0.037677575,-1.0906179,-2.137658,-1.0556222,-5.629328
0.33023834,0.105533056,-0.27079907,-0.7709302,2.0017378,-1.1746614,-0.107430205,0.004657424,-0.62666786,-1.1813596,-0.07335733,0.0006477423,-1.381438,0.40054464,-1.9843394,0.22342801
3.2808242,-0.42841753,-0.18165988,-5.896345,-1.3184736,1.268197,2.9900434,1.3724037,3.0716436,-0.7455566,-3.5840242,0.061910946,3.74619,-3.3387814,3.4241216,-0.05529245
1.5348631,0.103595614,0.028704714,-5.609036e-07,-0.89888775,-2.3224473,0.3427629,-8.565321,-0.29001644,-2.563048,1.2542104,10.016453,3.5084295,-0.92774594,-0.1636526,0.048369505
-3.2980134,2.437177,0.3438235,-2.3304642e-06,-1.1395063,2.2590902,0.17844105,11.205854,1.1364644,-1.3054425,-1.0241985,4.8213353,-0.3053424,1.2542864,-0.034052327,0.04546362
0.15786554,0.23862164,-0.1764714,0.5908699,1.2199154,-0.31595275,-0.44119263,1.6814191,2.025769,1.443579,1.0561129,10.810227,-3.327254,3.4695537,-0.02648372,0.019533716
2.10317,-1.7742372,1.8936052,4.9461613,-1.9557446,-0.14990994,0.015176408,-0.01858439,-3.2173014,0.57699454,3.3726573,-0.021327535,-1.9055068,-1.8342247,-1.9411294,-3.3684766
-1.9631865,2.9877846,-0.33087575,-1.9150429,3.4346895,-1.1508428,-3.0133493,-0.03232337,3.5058196,-2.2237916,-0.05318191,-0.024783202,0.2941172,-1.2808077,-0.24147932,-4.101694
3.295476,-3.3063,2.9999378,-2.0106177e-06,-1.8674303,2.6542037,2.391983,8.095459,-0.7525363,-0.294446,3.1681619,-2.51769,3.9853926,-3.3994362,-1.5060289,-0.06682204
-2.8244865,1.06423,-0.0063784267,-5.2263385e-07,-2.2353184,1.2859769,0.80663955,2.1351666,2.812019,2.8423119,-2.8002,-9.289537,3.1272008,1.1901174,0.004462058,-0.014774388
-3.3200486,3.1841562,-0.00547239,1.5076621e-06,1.172679,-2.8417907,-1.3859086,-8.6491585,1.2493323,-0.583855,-3.961873,0.006432876,-3.4959335,1.0602425,0.00068339705,0.0154979825
-1.8375266,2.1431146,-1.6035107,0.23484564,-3.2032855,-3.9535656,3.6912155,0.0040308232,-2.9600592,3.5151997,3.4348195,-0.008660662,-3.55477,3.3486066,-2.686983,0.040625248
0.46489727,-1.6914885,0.9673331,3.836451,3.3761432,1.1634544,-0.001225166,-0.016748086,-3.314041,-0.8952677,-0.042617857,-0.010592757,-0.41739476,-0.41270882,-0.8572626,0.13465187
1.6658721,-1.2566726,0.015096128,7.856831,2.6756556,-3.4885962,-2.8003194,0.44231224,3.480941,-3.3856697,0.42620537,-0.044807706,0.049431935,-2.34471,2.5768943,3.3457031
3.4992247,-1.9093443,-0.09661862,-8.29163e-06,-2.216412,2.6781614,1.5077115,8.400341,1.2504873,-2.3541827,1.0952821,9.076799,3.503863,-3.5664907,-0.1132327,-0.005451131
-2.0908344,2.512608,0.0083022555,1.1281354e-06,-1.5982336,2.8074899,1.1108047,8.147354,0.900709,-2.1490784,-0.10166013,11.060538,1.2057662,1.0541685,-0.017131343,0.037130903
-3.351851,0.54952025,-0.01168176,-4.4688056e-07,1.097779,-2.9945867,-1.7723595,-5.8145604,-1.5399185,-3.5090857,1.1285212,-0.055029266,-3.38811,0.5700859,0.14159065,0.024307895
2.3440096,-0.60045826,1.9116006,0.13297686,-1.5711783,-1.6252527,-1.3097194,0.00047365692,-3.4651663,3.8770359,3.600569,0.00017173961,-1.5624952,-0.37596852,-0.39045292,0.14450234
0.09569961,-0.02929619,-0.26373017,2.4730823,1.9759095,0.25536484,-0.56814975,-0.0020275116,-3.5775566,-0.55007565,0.016897418,0.020184152,0.5802364,1.7158837,0.22458613,7.5148134
1.3589761,-2.3968315,0.060295105,10.423896,1.9327586,-2.55753,-1.6490443,-6.024254,3.4303474,-3.3958058,0.0644995,-0.056034345,-2.907431,-3.1414645,-3.6833768,0.05508738
3.3873365,-3.2950866,3.0777922,3.1934883e-06,0.7773019,-2.5686631,0.0037589073,-6.504427,-1.8549348,-0.72800756,2.2774515,-0.22410738,3.821982,-3.2680006,2.6191866,-0.024781272
-0.040349647,1.087107,0.015008986,1.9874597e-05,-0.266223,-0.65657324,-0.1042124,-2.2424026,2.6466603,3.5810575,-5.453827,-31.12312,2.570028,2.4208612,-0.08019024,-0.018869996
-3.3446233,2.2058465,-0.076051086,-4.503546e-06,0.64364046,-2.3313198,-2.019354,-4.515276,0.75354886,-1.6570343,-1.8543596,12.93745,-3.7469845,0.9104509,0.020822171,0.028097738
-1.8026569,-1.8877019,-3.5709894,-1.5342375e-05,-2.8522527,-2.6546273,4.083303,12.987697,-3.5683413,2.7360342,4.17183,0.008137703,-3.6090765,3.391773,-1.3285518,-0.0019200668
1.273816,1.33674,0.54930925,-6.48868,-2.2115164,-0.7187407,0.0010971648,0.00077784806,-2.8728004,0.7564455,3.4618204,0.004042033,-1.1382687,0.6304833,-0.30009675,4.334738
-0.7776227,2.6879003,-1.3334397,-12.776466,3.332374,1.4075322,-2.5479836,-0.012233831,3.2319922,-4.5080237,-0.08083606,0.024417967,-0.7891086,-2.9731603,-3.9820857,-23.549942
3.4005451,-2.183151,3.3046632,3.6632982e-06,-1.9926322,2.7019827,2.2237515,7.799532,0.1629368,-0.2816771,1.3683472,-1.045078,3.723345,-3.536065,3.5349615,-0.05606427
-1.340776,2.0761485,-0.0051543955,-1.1887632e-06,-1.323912,0.334103,0.18691647,-0.20504472,2.399904,3.073823,-2.7297587,-9.061441,2.7975013,0.7673289,-0.042629424,-0.006764504
-2.052026,-2.014089,-3.4838972,-1.238366e-05,0.79002666,-0.13527754,-0.32633793,-0.967271,-0.99167585,1.5251715,-0.45174015,-8.49512,-4.2591743,2.228417,0.015733004,-0.00093752705
0.9283105,2.6918743,1.2836101,-9.889811,-1.938829,0.70271087,3.9665198,0.02537401,-3.591073,3.453614,3.3920195,0.029612698,-0.32247257,-1.871722,0.7072789,-7.234158
-0.6348172,0.66415554,-0.69226635,-0.62878036,0.32296073,-1.4148145,-0.05518475,0.0023365817,-3.4750383,-0.74600697,-0.26889366,-0.0022335742,0.1342318,1.8627605,-0.2360847,9.263967
-0.4568147,-2.3709514,-1.404977,11.958701,-0.44702095,1.7579727,-0.06964576,8.979198,3.396215,-3.5511034,-3.3905976,-0.032845367,0.09832944,-3.4160368,2.2150013,0.033451352
2.67602,-0.92456174,-0.0038031042,9.811183e-06,-1.0680044,-1.8595147,0.30582476,-7.7116404,0.8517936,2.1029613,-0.42737883,-9.017608,3.3560543,-3.1431024,2.3436127,0.00034227967
-2.491746,2.3307784,0.06013792,3.8879757e-06,-1.6664562,1.0792131,0.0075318813,6.832128,1.0620508,-1.2972511,0.8588685,5.252841,2.1555657,0.50774884,0.038845077,-0.066929415
2.1583622,-2.4610496,1.2604544,11.077578,3.0904934,-3.5572784,-1.3036729,-2.6261926,-1.796484,-2.399348,2.426638,3.7024927,-3.2568822,4.212856,-1.0258813,0.045886397
1.2184327,0.23196958,0.6144019,0.634145,-3.3794658,0.7260774,0.00045485585,-0.0010925995,-3.4676743,3.4691799,3.4656768,-0.02191175,-0.5420352,1.9561591,-0.0612519,8.60143
1.5228689,-3.4578426,1.1160359,0.14907566,3.3321521,0.3617792,4.038583,20.20304,-0.7865944,-1.366299,-0.05032646,0.010451849,-1.7293353,-0.00019580126,-2.2528527,4.6045475
3.510639,-2.830616,4.6571474,0.0013484955,1.5340571,-2.5753734,-1.2823484,-5.6940517,3.0794232,-1.7167838,-3.783004,0.07480737,3.938997,-3.3724802,3.5487974,-0.056969106
1.7775066,0.15363757,-0.010929272,3.7650825e-06,-0.9696915,-1.7523448,0.2238819,-9.717349,1.799067,2.9222689,-2.2125733,-11.417535,3.3968055,1.4054455,-0.12281002,0.014617088
-3.4293265,1.6838883,-0.0067279674,1.0001331e-06,-0.083676964,-0.43731388,-0.664013,-0.9839427,1.2654592,2.5405738,-2.776946,-6.9903374,-1.268146,0.98316294,-0.044057876,0.016770843
-1.3827571,1.5890889,-1.180205,-0.8486185,-2.1354308,-3.286208,2.3232844,6.443262e-05,0.33542347,2.3161047,-3.4284256,-0.0013840683,-3.2678185,4.0638065,-4.5540833,0.004471779
2.0345426,0.0019691717,1.224807,0.014823467,-2.0348032,0.76417893,0.030769546,0.001595591,-2.923352,2.1868932,3.456522,0.0017505425,-1.6707194,-0.6060046,-1.0564958,1.3703517
-1.8169959,2.0288024,-2.0760412,-34.97791,3.2331853,-0.39124495,2.379702,-0.010976791,3.3917043,-3.2892761,-0.022775343,-0.015199594,-0.4185701,-2.7314224,-1.6150742,-6.187463
3.3258512,-2.3645182,4.369681,0.0008325577,-0.089385286,2.0611556,0.9438516,9.648065,3.5375998,0.47798675,-3.640518,0.06764416,3.6100636,-3.2572336,3.0715625,-0.049104705
0.8849311,2.2951622,-0.0032750112,2.5348168e-06,-0.56770164,-1.6790587,-0.05388999,-6.1925306,0.9320896,3.6255898,-0.6145642,-8.013868,2.653926,-0.55172616,-0.0954701,-0.01721751
-2.9026656,1.4248646,0.06871092,-2.8590243e-06,1.1633373,-3.0308344,-4.1196337,-19.843365,-0.67260915,-3.3073583,1.6994199,0.50995153,-0.976647,0.5143892,-0.0073719868,-0.05473409
0.50849235,1.3882375,-0.12505406,-0.70631176,0.046309397,-3.3806388,3.9179728,22.77287,-1.1120745,3.6236837,4.3363466,0.08450794,-3.4596581,3.4837418,-3.3840513,-0.013758125
-1.5596509,2.6205847,-2.8566728,-16.468105,-0.6100462,-0.1737451,0.047127187,-0.010569386,-3.391721,1.4815702,-0.037512098,-0.027061045,0.39435506,2.393147,0.50712824,7.8335075
-1.0012441,1.654206,2.6429148,6.758812,3.149301,1.771724,4.405511,-0.045988083,-1.5499508,-1.6451993,-0.06160404,-0.04834847,0.031330097,0.21699485,0.18831402,0.45053387
3.3656716,-1.1014086,0.9589062,16.080963,2.6293194,-3.561289,-2.231407,-2.5555477,3.016245,-1.4311122,-3.5150225,0.017673308,3.487354,-3.1515126,3.0334249,-0.0045454577
-0.84609365,1.5729564,0.0063016415,1.5316027e-05,-1.3663089,-1.0255768,0.15483165,-5.847849,2.654452,3.2332559,-2.718503,-8.780413,3.0301588,1.1284928,-0.06175995,0.01854733
-3.3729837,-0.63026404,-0.0013880879,4.2470538e-06,-0.034575235,-0.20769677,-1.2147225,1.545356,0.9928166,-0.9735013,-3.408445,-0.014609503,-2.988522,0.7587169,0.12102816,0.012098253
0.39330798,-3.3373957,1.1824971,0.7806406,-0.037046887,-2.777133,4.4036613,13.245413,-0.73810804,2.5153494,-3.7852316,0.01530347,-3.615958,3.370457,-2.1400006,-0.011898786
0.98576415,-1.4958642,0.6608592,7.078343,0.58481497,-1.0900064,0.045751,-0.023068398,-3.3764975,0.8247345,0.0134536475,-0.028263833,-0.998824,1.8069828,-0.43931815,11.797458
-2.7144477,2.201684,-6.4457254,-55.53784,3.394525,-0.7590471,-3.1483126,-0.014522765,3.0966158,-3.580429,-0.09363101,-0.05437158,0.17463589,-1.218003,1.5658741,-9.547886
3.399918,-3.2033243,2.3727405,-6.184214e-07,-0.5670436,-2.2617857,0.5123575,-7.079247,-1.522452,-1.7704464,2.152579,3.8290882,3.6349108,-3.382162,3.3762305,0.00499539
-2.7435644,2.0616188,-0.00058742426,-4.560603e-06,-2.1524138,2.7410567,1.0688896,5.6285067,1.9445387,-2.2231436,-1.2779939,12.004797,2.9433386,0.33475035,-0.15851071,0.026230212
-2.5186677,-1.1543645,-3.463961,-1.0609081e-05,0.99283445,-2.5889497,-1.2616735,-8.866413,-0.04646972,3.3563502,-1.0599587,-0.8894434,-3.4756129,2.1358144,0.38713476,-0.02281593
-1.5913002,3.7926674,-3.4819531,-16.500816,-3.3706105,0.5193946,-0.0139297545,-0.01737237,-3.5100384,3.6930664,3.6625898,-0.059342124,1.5745915,2.6063032,1.3753009,9.436744
1.3054069,1.3534155,0.45603287,-7.226492,2.4564736,2.430062,0.028319145,0.019004416,-2.1916664,-0.8412403,0.05387719,0.024219982,-2.8025646,-1.7300328,-2.7384048,-8.217682
0.2531854,0.07227421,0.4059223,-0.05964732,2.7604682,2.6850355,-3.4600525,-0.013612021,3.4360013,-3.462105,0.48464516,-0.016741753,2.8384058,-2.6603386,3.1613204,0.046256598
2.7530198,-0.2877823,-0.053735897,-3.6999754e-06,-1.0671574,-1.6885631,0.8175911,-7.60203,1.2735128,2.4826486,-0.7730131,-9.215342,3.4097285,1.0958289,-0.10636547,-0.012337841
-3.3384376,1.874,-0.006530799,-7.6047763e-07,-0.06765455,-1.6580358,-1.1354437,-4.432326,2.3328187,3.0337353,-3.5199695,-26.762291,-1.6285832,1.0586822,-0.032299213,0.03470786
-3.0904038,1.4743018,-3.290007,-2.7383144e-06,-0.3882689,2.154501,-0.23899758,8.759092,0.8229834,-0.23975761,-0.36834604,2.6329815,-3.220295,3.4471319,-0.009301618,-0.024249712
3.0233378,2.1319585,5.75944,-14.769085,-2.2836394,-0.17714044,0.028554857,-0.044908404,-3.3719904,3.4355874,1.2981617,0.0074980035,-1.5852339,-0.046878293,-0.6193878,0.44932553
-0.0145493895,3.0097866,0.5858014,-12.097584,3.4319842,0.53698075,-0.68727964,-0.033748396,-2.6527033,-0.8552484,-0.028228574,0.020755537,-1.4468553,-1.0435125,-1.1420724,1.5102925
1.0537744,-0.29488385,-0.16887641,2.4668589,1.0673292,-1.9179008,-0.06432605,-6.783292,2.7901645,-2.9683125,-3.3333602,-0.015176739,2.897356,-3.7063725,4.1839623,0.014081955
3.3607635,-2.5129473,-0.06878035,-5.816728e-06,-1.120374,-1.8996267,1.0294199,-9.367874,0.40791726,1.2541733,0.5543947,-7.125056,3.3181396,-3.3454566,0.2800811,-0.012842901
-0.24288172,2.4660635,-0.0034481601,-1.4756524e-06,0.20732346,-2.5117095,-0.7374748,-7.7276764,0.4588133,1.0017278,3.7462716,7.7463017,2.3801134,0.64683974,-0.034032892,0.07805546
-3.3135984,0.69633216,-3.3072307,2.4025762e-06,0.2235525,-1.2450657,-1.0812453,-2.3426557,1.2627693,2.2174144,-3.0041022,-13.026482,-3.7056308,2.327328,3.2822063,0.016856337
-0.4118726,-0.38726965,-0.18566775,4.6263027,-2.4553452,-2.5037274,0.111935616,-0.026987696,-3.651297,4.0289693,4.0206523,-0.029803585,-2.653251,2.9878542,-3.7118585,0.011237258
0.98352516,-1.9114748,1.1307006,0.2492733,1.416595,2.1893756,-0.07621028,-0.016291387,-3.1288285,-0.8017233,-0.056807086,-0.016857963,-0.59404707,0.019106805,-0.93226874,0.7700903
3.4894085,-3.0304613,3.8625667,0.0003991127,2.5149162,-3.1548653,-1.2366792,-4.1086407,3.472272,-1.6889659,-3.7346103,0.10189898,4.006316,-3.357325,1.3650961,-0.08547127
0.84688956,0.5616755,-0.041746818,-3.048981e-06,-1.096905,-2.080669,0.22478682,-7.533758,1.6800305,3.244477,-1.4823551,-10.549564,3.2836845,-0.3137617,0.0026563685,0.0019214023
-3.315314,2.4710565,-0.008863268,-1.771923e-07,-1.8275812,2.5697448,0.48272035,7.89587,2.7482538,3.478303,-3.6687894,-13.662308,0.98269844,0.9932999,-0.034985244,-0.015641375
1.3026453,-3.624507,1.3339689,3.956694,2.0713823,-3.545051,-2.5809016,0.053445816,0.22396114,3.6839466,-2.2797482,-0.05195494,-3.5065696,3.4907491,-3.2746038,0.04318412
1.1234108,-2.6788993,1.7416239,7.735996,-1.9588468,1.3438668,-0.12601787,-0.036914665,-2.054616,2.567863,3.3789608,-0.05078673,-0.8693205,-2.0580244,-0.9833743,-5.036559
1.777688,-2.4981837,-0.022807837,12.587865,1.8533953,-0.025218338,-1.7080241,4.6915283,3.3706045,-3.3861246,0.0037448853,-0.052744005,-1.4366848,-0.7986265,2.293075,0.29721522
3.274427,-1.0258901,-0.033721924,-2.8021168e-07,-1.4266614,2.3839545,1.4757317,8.946706,-0.05105027,-0.4596154,1.5010257,0.33032078,3.753942,-3.3651772,2.9916208,-0.035745144
-0.34302863,1.8937627,-0.007261876,2.6679227e-06,-2.9349346,4.2537885,1.453027,-8.10861,2.2098393,3.2060175,-2.7141137,-10.7909775,2.8667884,0.79355735,-0.10461192,-0.018490994
-3.2485301,1.0692439,-3.270406,4.778798e-07,0.007813372,2.4290676,-0.11023155,1.1099743,1.7995743,-0.20486689,-4.2776747,0.0022670738,-3.6334937,1.8198503,0.0005451739,0.035036944
0.8934406,-0.7406175,2.0016034,1.1811697,-3.3728712,-1.4937264,3.2710557,-0.0027593072,-3.805359,3.4175355,0.71224517,-0.034210324,1.9070252,2.5681608,3.1111217,4.983516
-0.55462843,2.4888258,-0.8293645,-8.975552,2.016022,0.03378369,-0.5343857,0.02313032,-2.9469438,-0.18668935,0.0037352704,0.03237973,-0.08127271,-0.31251156,0.11451638,-1.2050838
-1.1921293,2.4788568,0.48556894,-1.1644745,2.9790945,2.4628675,-3.4171526,-0.02629259,3.5167387,-3.346483,0.0059303083,-0.043288704,-2.2721465,-2.7122688,-4.1432323,0.04517597
2.617148,-3.312299,2.1118872,-1.2658229e-06,-1.2924831,2.6552067,2.2366965,10.095594,-0.5670434,0.2736799,1.6121404,-5.1031213,3.5450451,-3.3606503,1.231834,-0.017627975
-1.4563024,2.3055553,0.0026361346,4.3057935e-06,0.16929668,-1.9877026,-0.80393267,-4.863014,0.44122076,1.3288705,3.6960337,9.105501,2.2229552,0.8183824,-0.013258629,0.056914866
0.7789177,0.8271323,-0.8096051,-10.561649,-0.42382276,2.1637523,-0.009001374,6.2380686,0.98337245,-0.4661175,-1.9618847,3.0795572,-3.344785,2.668649,0.027527109,-0.025820974
3.7051768,-4.4990854,3.3866696,-9.117532,-1.7326518,2.0352182,-0.10649595,0.06468685,-2.5966985,0.5622381,3.3727343,0.009373078,-2.5769694,-2.5055656,-2.015642,-7.624108
0.7029655,-0.70973,-0.022072554,3.471037,3.4012146,-0.5414375,0.6614328,-0.01792597,3.3563116,-1.8864249,-0.044329107,-0.004784096,-0.3840725,0.77528286,-1.3521093,4.135418
1.8783207,0.19833475,-0.3061914,4.4637504,2.4506962,-2.8150306,-1.6951164,-3.676049,1.8895192,-2.3929698,-3.6131248,-0.000113841146,2.5958166,-3.2510045,1.6115643,0.0025382955
0.303386,1.7273726,0.07642083,-4.960173e-06,-2.3371048,3.046277,1.7586458,0.014164656,1.6523967,-0.062471613,-0.33974254,2.4355214,3.6361425,-0.75294536,-0.013075292,0.0046203323
-3.6566172,2.065621,0.17006016,4.0337465e-05,-0.106843755,-1.0718913,0.31336308,-4.431916,-0.410632,0.52699566,0.8516995,-4.4075975,-0.29711512,0.950167,0.002802074,0.042537387
-0.52065486,0.6030601,-1.2667872,0.8159477,0.58517647,1.2023106,-0.9517981,7.0668807,1.3280632,2.091296,-2.1075234,-10.874048,-3.315013,3.4667559,-0.004901507,-0.0101191625
1.7442373,-2.9958258,3.5790582,1.0306109,-0.5743604,0.8486393,-0.061222747,0.0048144944,-3.3662908,-0.18837535,3.2016473,-0.004027743,-2.7733946,-2.2188008,-2.5462265,-6.524366
0.82305056,-2.683246,0.21346402,9.856363,0.047912836,2.3582582,0.056499064,9.635019,3.5325093,-3.0825126,-0.37164775,-0.045904566,-1.4882551,-2.736919,-2.1237454,-6.766266
1.8883243,-3.3453786,1.9507097,1.6956005e-06,-1.0363392,-0.18875293,0.5504595,1.827395,-2.144343,-1.7314293,4.606461,0.46832895,4.786649,-3.1492302,0.77443427,-0.14303833
-3.262919,2.320845,0.093949266,5.4660643e-07,-2.562403,0.3215005,0.6443085,-0.08030439,3.0185282,1.275605,-2.0162203,-1.87675,3.4149158,1.0797215,-0.04080005,-0.022255782
-3.2779067,3.4577677,-0.044825412,1.5435799e-06,0.97955334,-2.1509442,-2.2514114,-6.1457253,1.2119617,-0.75847393,-4.230836,0.03417732,-3.3670783,0.775365,0.018719576,0.01353766
-1.645916,2.0444565,-0.21487194,-20.453457,-3.184221,-1.7579366,3.4599867,-0.0076877847,-3.237444,4.068815,3.9306202,-0.014175922,-3.5705462,3.5758438,-3.545659,0.008033643
-1.7833602,2.0790167,-2.6149201,-33.42926,-2.9351778,1.8127171,0.049799725,-0.009381317,-3.297285,1.2045051,-0.084289744,-0.023372613,-0.6775725,0.62794197,0.79246545,8.155739
1.0830991,-1.9581275,0.7648711,0.44587374,3.2811594,1.1418912,-3.288384,-0.01151806,3.425697,-3.5295694,-0.018873777,-0.0036530662,-2.318812,-3.2360094,-2.390911,-18.782501
3.0985165,-1.9239578,4.443594,0.0005874634,-1.8822129,-1.6571289,1.389373,-9.780661,1.5327123,2.595588,-0.22228956,-11.831406,3.7910872,-3.2724633,2.6780944,-0.0111664375
-2.0505848,1.5230653,-0.010259181,1.1229131e-05,-1.3116937,2.0499368,0.8429593,14.305531,2.9962206,3.3475363,-3.8981745,-14.549969,2.431172,1.0466253,-0.08267245,-0.0043503065
-3.352199,2.8422644,-3.1276999,-1.7957076e-06,0.5103011,1.387625,-1.5095127,10.923482,-0.46673724,-2.0178373,3.481731,1.1159911,-3.4442031,1.5504925,0.04388916,-0.030756695
-0.18390167,2.1657026,0.7013308,-3.8581014,-1.7299392,0.09792562,-0.05462762,0.010235466,-3.422516,3.4030807,3.345872,0.0050739646,2.5999377,0.6476325,3.9788694,-0.3274728
-0.052947626,0.5615118,-0.30660895,-1.237807,1.4508649,0.43354654,-0.0039793127,0.005885788,-3.262605,-1.1890664,-0.20127767,0.0067553,-1.2013371,-2.078322,-1.6217382,-3.1258054
0.04600455,-0.052175313,0.27816963,-0.5007057,2.4264517,1.3911505,-3.4702754,-0.012135085,3.4606352,-3.480995,1.4214146,-0.020959854,0.122117676,-3.286126,2.8942943,0.0444486
2.4137225,0.56436366,0.17841455,1.0890799e-05,-2.1563227,2.506664,1.8931286,8.643342,0.47736222,-2.4342577,1.5023861,10.628729,3.3255188,-2.2749004,3.2661285,0.012598138
-3.1601539,2.0303233,0.00082582235,6.632149e-06,-1.2020822,2.069294,0.08403695,9.177272,1.201671,-1.1403959,-0.53039575,7.7122307,3.2901912,1.0012668,-0.09492378,-0.0031987317
-2.3853807,-2.4745398,-3.4934115,-1.0690517e-05,0.8221328,-1.8780248,-0.90533394,-11.105986,1.8631258,1.8646114,-1.6178343,-29.475826,-3.6493125,2.9782321,0.5255188,0.007123662
1.191663,-2.39051,1.6031082,7.7769737,-2.9683208,0.16695605,0.03149867,-0.038999755,-1.8067923,2.729283,3.423142,-0.04971565,0.088305876,1.4551201,-0.6250344,7.654799
-1.3285713,1.7522976,-1.3976222,-5.384326,3.407783,-1.3972178,0.8319888,17.21721,-0.25602022,-1.534406,0.06218581,0.052681044,-0.30868912,-0.67476124,-1.4742985,0.55784804
3.3715892,0.90467006,-1.9449086,1.2239977,2.3826938,-2.8348129,-1.0990952,-4.0370026,2.6602278,-2.1250603,-3.635166,0.03619255,3.673228,-3.285333,2.3356767,-0.020914797
2.9066193,-0.34813952,-0.0077616964,3.9445695e-07,-1.4769921,-1.029841,0.8657973,-5.152424,1.3423758,2.9838574,-1.8901479,-9.350214,2.7303402,-2.4176729,-0.08589083,-0.0072948337
-3.3063114,0.9062081,-0.06774104,-2.4154133e-06,1.1258792,-2.7822185,-2.0456815,-8.435067,-2.2319474,-2.7416394,3.6112878,-0.030279055,-3.3763106,0.6935643,-0.037677884,0.0066895755
0.271257,1.7821455,0.4611836,-2.191727,-1.3847793,-3.2880614,3.2570086,-0.0015737219,-2.5420585,3.618302,5.1877093,0.00038909912,-3.4302852,3.4041104,-1.6955186,0.028601145
0.49155378,3.1381717,1.4610285,-15.842138,0.61638,0.42984173,0.1481285,-0.068615176,-3.21728,2.2734115,-0.07120852,0.033315025,-1.2563388,-1.5300939,-1.2830385,-4.608339
-0.41236985,1.1306565,-1.3174539,-1.1893592,1.206867,-2.3830824,-1.6596022,-6.0230064,3.4506562,-3.401424,2.939289,-0.0035428293,-3.432445,-3.3273134,-1.0122155,-0.7478679
3.3513234,-2.650128,-0.13654247,-7.773296e-06,1.1571351,-2.9355145,-0.5297761,-7.532895,-2.281819,-1.6757609,3.9236803,2.9663706,3.5052166,-3.3573833,1.882722,-0.030574031
-1.5639012,2.7591548,-0.00673683,-3.5608448e-06,-0.029819012,-2.59029,-1.2543776,-5.208143,2.8679116,2.6167626,-5.825307,-54.996674,1.4053437,1.187019,0.04309545,-0.030319989
-3.327949,3.049727,-2.9941535,1.4967566e-07,-0.20236877,-0.023921669,-0.8122448,1.96453,1.0250142,1.47546,-1.3661917,-4.623528,-3.4042478,1.5110687,0.23109032,-0.014507781
1.1243701,0.844148,0.56782115,-0.86282146,-2.6389933,-0.36053836,2.7056684,0.002151317,-3.3620088,3.3683577,3.443499,0.0031007496,-0.51715183,-2.1433291,0.8455054,-7.132397
1.5179315,-3.227173,1.2856741,2.643642,1.2005826,-0.28905898,0.04569204,0.021327183,-3.440553,-0.24905244,-0.14150417,-0.010765398,-2.115135,0.00850153,-2.471184,6.454027
1.8982339,-2.5441082,0.6953807,8.645574,1.3307921,0.3366797,-0.27223736,0.8668469,3.5274343,-3.426428,-0.6899935,-0.040748514,-1.7784338,-2.5986834,-1.0513997,-9.951088
2.691422,-1.4236091,0.18222769,-2.524413e-06,-0.5755453,-2.012721,0.28911024,-6.3286047,0.13783899,-0.16804239,0.62318575,0.23729199,3.3850622,-3.176088,2.7489016,0.002567239
-2.0869555,2.9888327,-0.000106963795,-1.6612521e-06,0.10592568,-2.3449254,-0.789049,-6.7462873,0.1534078,-2.2837021,-0.31222677,5.2165785,2.1458156,0.6507596,0.0029163957,0.011310078
-2.5140548,-2.6038144,-3.4213696,-1.238611e-05,0.53085124,2.0103743,0.43183744,4.359514,2.6778262,1.5384848,-4.48709,0.011216873,-4.3870554,1.960572,0.045194626,0.016663186
0.34815964,-3.4067583,1.3560494,4.071383,-1.6311003,0.24323869,-0.042099595,0.03462455,-3.336947,3.684427,3.488873,-0.022274772,3.847382,0.30597532,3.099065,3.4907954
0.80202204,0.00983192,0.2454862,-0.27385175,2.2729068,0.036514968,-0.06801233,0.005437851,-3.2242234,-1.284019,-0.12186223,0.029452223,-1.1963075,-0.8368809,-2.0549412,-0.0682292
0.13071416,-0.04358201,0.8826273,0.96474457,2.293033,1.3329729,-3.5251012,-0.030801203,3.6374664,-3.5121977,1.5214082,-0.046459347,0.29558045,-3.0127165,-3.8939319,0.052542716
3.2606723,-0.018684238,0.0052884817,1.0582804e-05,-3.042229,3.0499265,3.3526392,6.9168,0.7339715,1.3312743,1.5606897,-8.769917,3.4896958,-3.5898302,3.5311844,-0.053699825
-3.2917557,1.9360029,-0.0041863006,7.3159845e-07,-2.3028786,2.371802,0.6576812,8.711703,3.09834,2.3852708,-1.6941321,-5.282741,3.3001556,1.2850376,-0.12554638,-0.02783873
-3.2780187,-1.42061,-0.78544956,-2.369382e-06,0.64689374,1.5228055,-0.99979556,9.717288,0.07169894,-0.9924482,-1.1872538,4.554146,-2.5705798,1.3251348,-0.016562268,-0.019095737
-1.0699601,2.4588456,-2.715026,-42.478386,-2.8774142,-4.403832,-0.22552276,0.003954444,-3.4996576,3.7699368,3.5754929,-0.017252333,-1.4872029,-2.6510978,-1.4030131,-5.779903
0.72172165,2.5665126,0.7100332,-10.853133,3.111725,1.0779727,0.09677112,1.6069031,-3.0781286,0.15847304,0.082680136,0.07226275,-1.724553,-2.4215035,-2.1919918,-7.010515
0.13213971,2.040685,-4.022239,-22.480719,1.5263813,-2.6573172,-1.0306723,-5.02125,3.0760744,-2.260325,-3.4191256,-0.057413694,0.58773375,-3.2083955,2.5253253,0.06467828
0.84204906,2.332427,-0.022270523,-2.9905646e-06,0.2750166,-2.3085816,-1.2960042,-4.45743,0.506909,-2.5477781,-0.00967446,12.504723,3.4898586,0.27251333,-0.13316998,0.026208565
-3.3096654,2.9099414,0.2525811,3.6725191e-06,-0.9023579,-1.5512824,-0.975582,-4.7608023,1.1211002,1.701751,-0.76444423,-5.199031,2.2646136,0.4720599,0.013439242,-0.0048059123
-3.3442504,0.25992095,-3.289518,-2.7984872e-06,0.8136375,-2.565465,-2.4363809,-11.088486,0.36264545,-0.22980997,-1.3031638,4.9858723,-3.8501816,1.8480389,0.1259095,0.0124484785
0.7050727,0.33524454,1.5908179,-10.331768,-2.9725523,-0.065727085,-0.059668094,0.0068192333,-3.169201,3.0700862,3.393137,0.009249374,-1.1155659,-1.177828,-0.74975765,-2.935834
-0.17836386,1.5729952,0.29651725,-9.266327,2.6612282,-0.28479958,-3.9694502,0.028114673,1.1792717,-3.3240356,-0.071719706,0.013745792,-2.0597851,-2.4899652,-2.0243652,-9.961237
3.3084083,-3.325839,0.66938335,5.6291697e-08,1.7868645,-3.1131918,-1.037854,-4.6771235,-3.0228026,-1.7468736,3.8215337,2.2895238,3.8962138,-3.2684944,2.8466313,-0.034039028
-0.5022751,2.914693,0.00011345805,4.2687457e-06,-1.8670969,3.113213,1.1895027,4.4431934,1.0930439,-3.49267,0.13978842,2.970209,3.4338393,-0.048869997,-0.06654297,0.0024686255
-1.6405649,-1.6049068,4.36695,7.0167885,1.0789715,-1.3874933,-0.82427025,-6.02927,0.9650754,0.70743966,1.2768464,21.489246,-3.7421827,1.3266475,0.42216018,0.15229598
-2.9505417,1.6168412,-3.4710927,-62.017517,-3.3576608,-2.6470795,3.4060588,-0.02397164,-3.6640344,3.642088,3.5770836,-0.068107925,-3.5791504,3.5508466,-3.5037317,0.05583038
0.66752124,-1.5702318,0.20006567,8.733986,1.3081235,0.38352063,0.00444006,-0.015898308,-3.3359647,-0.67739594,-0.020051282,-0.021807833,-1.0411174,1.6003494,-0.2704391,6.9772773
-0.7628341,2.959674,0.7258158,-0.7326927,3.335725,0.4027325,-3.3133326,-0.018627608,3.6712918,-3.3470805,0.08581503,-0.018487385,0.23202828,-1.6892002,4.1287785,0.52107716
2.4989774,0.03453268,-1.0961368,1.0255142e-05,-2.7742417,-1.504422,1.5204029,-7.8577285,2.413055,2.65773,-0.50910807,-9.295904,3.5200834,-1.7649567,1.6962793,-0.009815972
-2.298382,2.4794512,0.3599153,9.2716755e-07,-1.5900416,0.3627988,0.53263074,0.34964526,1.6372186,-2.044426,-1.1502788,13.007154,2.5436857,1.1318941,-0.017089896,0.03224895
-3.3191824,2.4122758,-3.2192779,-1.511243e-06,1.2797558,-2.4106405,-2.5643678,-9.047052,-1.5074311,-3.0472453,2.975294,0.5870904,-3.523818,0.89761376,0.1266706,-0.02389177
-0.08172923,2.6165395,-1.260308,-9.71132,-1.501734,-1.65223,-0.009396911,0.008778553,-3.4996119,3.5558372,2.7306929,-0.00064427406,0.43893212,2.1933656,1.4278224,8.744004
-1.0763013,2.7852447,1.6974437,2.2385483,-0.6563421,1.6882381,1.6838703,23.488937,-1.852187,-0.12755711,0.04430973,-0.011204237,0.5574951,2.0002222,0.25635815,7.100069
3.1354208,-2.8893654,3.6288064,0.30822644,0.70044035,1.8169433,-0.37440836,9.4552355,3.5998542,-3.2531476,-2.188337,0.03267148,1.5031712,-3.148019,-2.693439,-0.01572077
0.4172335,0.091379344,0.003944516,4.7384394e-05,-2.2624626,1.2335647,2.1737018,-0.24971735,1.5724604,2.1206431,-0.8528392,-8.713645,3.3848946,-0.3134238,3.397727,0.0068371035
-3.2987103,2.497673,0.20224467,-2.1829492e-06,-1.3798127,-0.015739113,0.21004999,-0.8871584,1.9392817,0.9010309,-1.7820165,-0.5606372,1.8868067,1.0046754,-0.012800096,0.006185996
-0.36610708,-2.1739688,0.25290966,4.5156717,0.41779286,1.9621155,-0.9065255,9.526232,3.291377,2.3004944,-3.2782857,-0.0014219657,-3.5607812,3.3976336,-0.084657624,-0.012205172
0.6935836,-1.7968049,0.3827592,6.209718,-2.940738,2.1259885,-0.08641117,-0.025953662,-2.592291,2.0605018,3.4461632,-0.031101845,-1.0054199,-2.3607342,-1.2984161,-7.22871
-0.95077854,2.8274121,0.5520737,0.3449955,3.9992008,-1.3744056,1.0205197,6.3438396,3.0423377,-0.89411867,0.06251548,0.037457258,-0.36149788,-0.5084441,-1.5898695,0.5262629
3.1137252,0.09941065,1.705534,16.97506,0.13829333,-0.19521864,0.91832244,2.0111823,2.960338,-0.7856961,-3.5110297,0.031989675,3.5268097,-3.392231,3.4062414,-0.031902216
3.3041701,-0.29805237,-0.097505614,-3.6510628e-06,-2.004898,2.494021,1.8140371,5.461176,1.8454397,2.7307222,-0.9238478,-11.475526,3.5310233,-1.8581611,-0.13324222,-0.038148258
-1.7042266,3.3395839,-0.0027892347,1.6342717e-06,0.0981808,-2.4680471,-1.0185635,-6.497184,0.036294878,-2.222909,-0.65198076,11.476276,-1.0516988,0.73834336,-0.043328777,0.04637815
-2.8037286,-2.6457179,-3.485056,-1.3446186e-05,-0.13400358,1.7946336,0.15488029,9.490708,1.5972065,0.72742784,-1.6639041,1.1493422,-3.567037,3.1004543,0.03251593,-0.024475133
0.85223526,-3.2816575,1.9629424,0.50621367,-2.9481926,1.1396155,1.949461,0.01259974,-3.6662447,3.5580359,3.4648628,-0.010659542,2.4985077,2.8531387,3.0520315,7.46354
0.8340495,-2.7166395,0.71645784,8.798527,2.819003,0.80539227,0.18434334,1.1315718,-2.0974813,-1.2986473,0.14760067,0.0006291773,-0.42911553,-0.3901561,-1.0176466,0.13626957
3.302769,-2.5450072,2.4641478,0.33227062,0.71517026,2.5180118,0.5850719,9.666336,2.9519782,-3.4416955,-0.78246826,-0.008562524,3.3127255,-3.5731192,3.3846867,-0.0009010583
1.9524854,-0.54013515,-0.008385453,-3.969235e-07,-0.8093119,-2.1137414,0.69654346,-10.744069,1.5380327,3.277804,-2.9329605,-9.246828,2.5141816,-0.74960095,-0.80290765,0.0012136996
-3.3119266,3.157982,-0.037491344,-3.7815262e-06,0.12577373,0.5181423,-0.17558339,1.854075,-0.4614657,-1.7171292,3.6548035,0.86116713,-1.5679708,1.538718,0.03919129,-0.033360723
-3.3025298,1.6946487,-6.1045103,-60.63562,0.87566864,-2.2134557,-2.0379376,-4.296974,1.3988545,2.754854,-2.8752053,-0.057542205,-3.945815,3.2624323,-0.032604337,0.07696331
1.1114813,2.7868142,2.2296119,-11.877571,-3.188169,1.9296944,0.12578236,-0.0021676943,-2.9226696,0.8628942,3.4261103,0.04402397,-0.10107511,2.1052458,0.44848713,8.964427
-1.089147,2.6943557,1.8590196,5.7668934,3.538042,-0.35287556,0.5563045,-0.053323507,-0.36419305,-1.9723865,-0.039583877,-0.047293194,0.6368104,-0.105630755,-0.87812966,1.2849354
2.8295126,-3.2434876,3.9178205,0.60945046,0.014064729,2.511446,0.8187859,8.942702,2.9725797,-1.6927267,-3.4242587,0.00712106,1.3237222,-3.3561676,0.66094804,-0.033161502
2.8631477,-0.26296982,-0.9903234,3.9614504e-05,-1.6735686,2.526078,1.2773871,7.5597644,0.75849056,2.1102753,0.38219842,-11.294891,3.1416774,-3.486928,-0.060865402,-0.015991652
-2.436561,2.68064,-0.001523003,1.9016516e-06,-2.5561502,4.331414,1.3871576,-2.2592373,2.1490772,2.5950599,-2.0478342,-10.467834,3.2691398,1.0840675,0.06668226,-0.017482668
-2.738727,-2.0614557,-3.5278444,-1.2681394e-05,1.2618153,-0.9084383,-1.9334404,0.46849442,0.25418496,-0.14944142,1.0964242,1.0777833,-3.7577975,2.1501615,0.038829803,-0.018183764
2.5740688,-1.1123602,2.068805,-2.5825613,-1.3479719,0.176067,-0.09212378,0.006787174,-2.488712,3.7207224,3.5714238,0.00667956,-3.0184925,-2.0407434,-2.8032508,-5.8524976
0.98519796,-2.6195223,0.8688532,5.7336073,3.8393366,-1.7124838,1.763783,18.12524,-2.400423,-0.7923497,0.06448941,0.022432521,-1.1642457,0.3878343,-2.1033716,2.9903646
3.3844278,0.1136379,1.34081,3.8085273e-06,0.06880917,2.4532957,1.5396614,6.3426933,2.8079321,-3.2865078,-0.9353732,0.042214878,3.4097147,-4.118214,5.0095587,-0.039186478
1.3802639,3.2286384,-0.05564326,-3.5352298e-06,0.109585166,-1.870122,-0.23717815,-5.651062,0.51333374,-2.2702549,-0.13089275,12.454478,1.7481602,-1.1929288,-0.105383545,0.048688542
-2.9630427,2.0994384,0.00028637424,-5.872709e-06,0.7291942,-0.5391122,-0.79461956,-0.9021077,0.17107481,1.6411761,-2.0324287,-6.7878385,-3.144379,1.137577,-0.5195762,0.00421023
-2.5908027,-3.408389,-3.524312,-3.4366967e-06,0.6766043,-1.1318985,-0.7897972,-5.5226707,3.9902563,5.529581,-10.845053,-64.71549,-3.3756838,3.7456138,-0.25138628,-0.028802581
-0.41007596,2.147849,0.9125563,-11.820681,-1.9824457,2.1247463,3.9391112,0.63155365,-2.2141566,2.3809073,3.4112916,0.07084907,0.90620744,1.7136117,1.8010424,2.6090817
0.2918818,-0.69540745,2.3349462,6.225872,0.6196587,2.8572397,0.41930795,7.237688,2.164502,-2.5335207,-4.2089124,-0.025198936,-1.5200546,-1.3750253,-1.5987242,-6.420765
3.2948895,-0.93783355,-0.0029319227,2.901329e-06,0.18110144,-1.7691675,-0.5952358,-5.4028826,-0.22287223,-0.9367252,0.27841157,3.1759608,3.554419,-3.252389,2.1848693,0.0036147274
-3.2349796,3.4601667,-0.07940276,-3.7187317e-07,0.44753218,-0.81800395,-1.5174761,-0.0139605105,-0.24702606,-2.4319484,0.362778,12.1277685,-3.3704784,0.28469056,0.098046295,0.007375379
-2.5000024,-2.1706572,-3.5693734,-1.6429625e-05,0.15127572,-2.628838,3.9634984,19.631786,-1.5015869,-1.0042211,2.0782063,-0.47082138,-3.6957371,3.4295833,-1.8290006,-0.027454987
0.68095976,-0.36281484,0.9096145,-1.8481699,-3.3483872,-0.29888907,-0.078213334,0.005309038,-3.230142,1.959371,3.4310198,-0.0022132387,-0.37566143,1.1169213,-0.25971505,4.077825
-0.6252263,0.6832278,0.5799967,-11.223261,3.2831578,-2.5631607,-1.0229355,0.01667441,2.4114752,-1.0839893,-0.046764813,0.032599784,0.5955265,-0.54805213,1.1037968,-0.027953573
3.0938473,-0.8087905,3.6701405,2.2793538e-05,-1.1366043,2.901517,2.707519,7.5336447,2.4608753,-1.108355,-3.477025,0.019380055,3.6898518,-3.6263397,3.503115,-0.06470862
1.0735428,3.282392,-0.008528909,1.4121437e-06,-1.0815594,3.0589879,0.5665275,6.315549,1.2480373,-2.455235,-0.24492514,7.8016534,3.496299,-1.7546631,-0.10255605,0.008368783
-3.1928062,1.4236267,0.008096662,1.6507767e-06,-0.4506837,1.7834796,-0.7495426,5.6901755,1.4800175,-1.913931,-2.7650943,12.296277,-1.8813682,0.7540983,-0.09536916,-0.004417179
-1.3265352,-2.0867662,-3.5224292,-7.059345e-06,1.753283,-3.0513628,3.1124325,-0.015267301,-1.9720837,0.66382784,3.919043,3.1802044,-3.574436,3.4096708,0.986454,-0.008694667
-0.45805156,2.3413174,-0.05690211,-10.960176,-3.2005568,1.5894548,4.3766522,0.02158928,-2.4246347,4.0553107,3.7958817,0.039989084,0.96168417,2.5109062,0.94426525,7.436377
-1.2078005,1.7238216,-1.5106215,-7.2781343,3.0552888,-0.84599996,1.3178538,0.15305138,0.86041737,-0.6442794,-0.08501749,0.033116877,-0.113412976,1.5843278,-1.2283639,1.2615719
2.2344615,1.6707687,-4.826727,-0.0004811287,1.8363056,-2.222721,-1.4282007,-5.2432013,2.2690625,-3.9655733,-3.6554253,-0.013619423,3.2392955,-3.2957046,0.41983062,0.0194429
