ancorasir/BennettWheelLegRL/experiment_data/2024-02-05_04-47-10/joint_torque_env0.csv
Joint_1,Joint_2,Joint_3,Joint_4,Joint_5,Joint_6,Joint_7,Joint_8,Joint_9,Joint_10,Joint_11,Joint_12,Joint_13,Joint_14,Joint_15,Joint_16
0.0,0.0,0.0,0.0,0.0,0.0,0.0,0.0,0.0,0.0,0.0,0.0,0.0,0.0,0.0,0.0
-0.23765051,0.65372056,-1.8378928,9.68555e-07,0.21547034,-0.38326126,-0.9325186,-0.0068060383,0.28188068,0.70242584,-1.8068616,-0.0060953833,-0.38938093,-0.76619685,-1.8886919,0.013330068
1.0674382,-5.0,5.0,0.8405981,5.0,0.972651,-5.0,-2.2398038,5.0,0.09671044,-3.0833726,-8.644875,4.2249947,5.0,1.2262149,-0.76784927
-5.0,2.3794675,5.0,-6.325301,5.0,2.9794364,2.1831934,5.0,5.0,1.1911639,4.0225067,0.430664,-5.0,2.7019591,1.0688915,5.0
-5.0,4.3258667,-5.0,10.0,-0.2557236,0.58915377,2.8000379,0.61442536,-0.6123477,-4.0775647,3.2769027,1.0028269,-5.0,-5.0,-1.6681799,5.0
-5.0,5.0,-5.0,-0.3783883,-0.49285746,0.3330348,2.8856943,0.598642,0.020403743,-5.0,5.0,-1.2359953,-5.0,-5.0,-3.7485852,-5.0
2.0086143,-0.71272135,0.90265834,2.8837633,5.0,-3.6923323,-5.0,5.0,2.587793,2.788537,-3.8457954,-0.19424014,2.357411,-5.0,0.1286155,0.39696822
2.5047288,-4.800548,5.0,-0.31721726,5.0,-3.5438473,-5.0,4.1613917,1.0438461,5.0,-5.0,-8.992251,4.130563,4.18931,5.0,-0.46110722
-2.070406,-3.2597613,5.0,-0.33616772,5.0,-4.9611306,-5.0,5.0,5.0,5.0,-3.7601256,10.0,0.7029747,5.0,5.0,-0.16105361
-5.0,2.2706127,-2.7489429,1.0602015,-0.2122437,-5.0,0.19616495,0.6890496,1.9687757,5.0,-0.89040184,-2.4890857,-4.5151415,5.0,-0.60564905,-0.54804295
-5.0,5.0,-5.0,8.014702,0.69557697,1.9443417,2.099436,0.2540171,-5.0,-4.201899,5.0,-0.45464236,-3.8601496,-5.0,-5.0,-5.0
-2.646104,5.0,-5.0,-7.3708916,4.562068,-4.439559,-5.0,0.5576455,1.6941663,-2.1692543,1.8361094,-0.40725198,0.7495585,-5.0,-2.1545105,2.4620318
4.029869,-3.0588431,-0.063830495,-0.23182844,5.0,-5.0,-5.0,-5.0,5.0,2.082044,-5.0,6.106771,5.0,-5.0,1.060646,-0.16250396
0.69063926,-3.876114,5.0,-0.15772322,5.0,-5.0,-5.0,-4.1528463,3.1225905,5.0,-5.0,-6.169697,4.3749876,5.0,5.0,-0.6920243
-3.4017153,-0.4922908,0.81389844,2.4010208,5.0,-5.0,-5.0,5.0,5.0,5.0,-2.7978528,-3.5739934,-1.1883948,5.0,5.0,-1.3576096
-5.0,5.0,-5.0,-5.854611,-5.0,-0.35949963,2.102792,-0.55249554,-5.0,5.0,2.2115154,0.20443463,-5.0,0.5873306,-1.7438469,-2.0651836
-5.0,5.0,-5.0,0.62953126,-2.3037424,2.3959231,1.8372599,0.23133697,-2.9473588,-3.4417884,5.0,-1.1007572,-2.3670583,-5.0,-5.0,5.0
-1.8237447,5.0,-5.0,4.9278316,5.0,-4.9525414,-4.022727,0.34988093,4.238021,-3.6152577,0.65534025,1.6918795,1.5203481,-5.0,2.0261235,1.7994071
4.399042,-2.3096488,0.12515938,-0.2593466,5.0,-5.0,-5.0,-5.0,5.0,5.0,-5.0,-5.795126,3.5326045,-5.0,0.48600936,-1.8781995
1.0719321,-4.400552,5.0,-0.14988494,5.0,-5.0,-5.0,-5.0,4.4569836,5.0,-5.0,-5.6875143,0.88718915,5.0,5.0,-0.3283905
-2.4106746,0.03521456,0.27024636,0.17049772,5.0,-5.0,-5.0,-5.0,5.0,5.0,-3.094171,-5.35675,0.8730993,5.0,5.0,-0.16907093
-5.0,5.0,-5.0,-4.142337,0.9329411,-5.0,0.741124,0.0971264,2.138842,5.0,1.2597866,0.095483944,-4.497145,5.0,0.7083049,-0.49210072
-5.0,5.0,-5.0,6.2149525,1.9114335,3.230072,2.3878644,-5.0,-5.0,-1.7018815,5.0,-4.1962714,-2.5655837,-5.0,-4.937229,5.0
-0.8689106,5.0,-5.0,10.0,5.0,-4.5776095,-3.5936718,0.78642935,4.4583135,-3.5935802,-0.19545877,-1.2859905,-1.9161856,-5.0,2.8398092,-0.07003288
3.8393555,-2.3820224,2.3200371,-0.35991347,5.0,-5.0,-5.0,-3.6501617,5.0,5.0,-5.0,-10.0,5.0,-5.0,0.3761444,-0.23994133
1.230284,-3.646043,3.892762,0.25845146,5.0,-5.0,-5.0,-4.479586,2.0042293,5.0,-5.0,-8.405531,1.4290879,4.31128,5.0,-0.4779909
-3.0699446,-0.47682482,1.4062443,4.2861395,5.0,-5.0,-5.0,-3.6827087,5.0,5.0,-1.7342093,0.33219516,-1.3093113,5.0,5.0,-0.8377367
-5.0,4.177133,-5.0,10.0,-0.07998583,-5.0,1.7342428,2.847583,-1.8420055,5.0,3.532197,6.01702,-5.0,5.0,-0.7178298,-0.35101745
-5.0,5.0,-5.0,1.3444064,-0.8334999,1.5732508,2.552169,0.6106896,-3.9110782,-5.0,5.0,-1.1011697,-3.2695868,-5.0,-5.0,-0.736011
-2.1433163,5.0,-4.7399006,-1.688137,5.0,-5.0,-5.0,0.7143197,4.83617,-1.238765,-1.5356717,-0.16873766,2.2631533,-5.0,1.4473951,1.6617585
1.5650378,-5.0,5.0,-0.2520772,5.0,-2.7135456,-4.6005282,5.0,3.9451003,5.0,-5.0,10.0,5.0,3.5304887,5.0,-1.0818958
-1.6059464,-4.8560357,5.0,-1.2832686,5.0,-5.0,-5.0,-5.0,5.0,5.0,-5.0,2.0554678,1.9245774,5.0,5.0,-0.5668081
-5.0,3.7090836,-5.0,3.4884129,-5.0,-5.0,5.0,-4.1278033,-3.0989347,5.0,3.5501232,-2.035834,-5.0,4.6309485,-3.525262,3.2345603
-5.0,5.0,-5.0,-6.6070757,-1.2955483,3.12356,2.1342094,0.6388393,-4.495982,-1.8371465,4.236732,-0.82823163,-5.0,-5.0,-5.0,5.0
-4.5107307,5.0,-5.0,10.0,4.9638786,-0.73849404,0.57809865,1.0098423,-0.062133968,-5.0,3.0544713,-0.85335267,-5.0,-5.0,0.19347245,-2.3931653
5.0,-0.48264542,2.0645678,5.330411,5.0,-5.0,-5.0,-0.83803034,5.0,3.5410845,-3.8332663,0.25138208,4.511062,-5.0,0.50727075,-0.29860193
1.449291,-4.7086964,5.0,-0.46430343,5.0,-5.0,-5.0,1.0294328,3.8595753,5.0,-5.0,-9.510429,2.568511,5.0,5.0,-0.19472852
0.14650345,-3.0591753,4.5585356,-1.0775144,5.0,-5.0,-4.697679,1.2138097,5.0,5.0,-1.4756603,10.0,-1.150224,5.0,5.0,-0.24688643
-5.0,3.2584012,-5.0,5.747664,-5.0,-4.7056246,2.3225112,-5.0,-3.2935808,5.0,1.6855904,-1.4747726,-5.0,4.3852825,-5.0,4.1436377
-5.0,5.0,-5.0,-10.0,-2.6063201,2.8279986,3.7855184,0.18474391,-5.0,-0.86025345,4.034532,-0.7768146,-5.0,-5.0,-4.7311835,2.6140738
-2.3257551,5.0,-5.0,10.0,5.0,-4.103461,-4.7293944,0.2043972,2.7043276,-4.280609,1.0774813,-0.5637801,-2.6770105,-5.0,-1.8855982,-4.82567
3.455357,-2.2089677,0.92232823,0.038099404,5.0,-5.0,-5.0,-5.0,4.953777,5.0,-5.0,0.9741453,5.0,-5.0,0.5309377,-0.2379876
0.9687267,-5.0,5.0,-0.5022264,5.0,-4.816246,-5.0,-4.5383844,5.0,5.0,-4.820561,-2.7659185,2.5976806,5.0,3.6097407,-0.9294845
-4.6593027,2.711102,-2.656639,-1.1190875,5.0,-5.0,-5.0,-5.0,5.0,5.0,2.2059474,3.7971866,-2.8973784,5.0,4.391579,-0.26524627
-5.0,5.0,-5.0,-3.4717104,-3.8750763,1.1551404,1.2359647,-0.587932,-4.3976154,2.8782833,3.3022447,-0.41346365,-5.0,0.9550133,-3.0607314,0.49196175
-5.0,4.8592057,-5.0,10.0,-4.7103143,4.677035,3.2343607,0.22953592,-0.7512249,-1.9646631,5.0,0.35256582,-4.8743377,-5.0,-4.712749,5.0
-5.0,5.0,-5.0,10.0,4.037996,-0.8736108,-1.3561578,-3.0444622,0.5147997,-5.0,4.899145,-0.8992719,-1.7722747,-5.0,-0.7778511,5.0
5.0,0.36157876,-2.2400475,-2.8265417,5.0,-2.6112368,-4.9669933,5.0,5.0,5.0,-5.0,4.440201,5.0,-5.0,3.2743955,0.6557222
1.3871297,-4.0022354,5.0,-0.051819794,5.0,-4.9485397,-3.5312138,-4.8951464,2.9305434,5.0,-5.0,-5.8191543,2.4057765,5.0,5.0,0.2690342
-3.2162113,-2.1833825,2.8710816,0.5687948,5.0,-5.0,-5.0,-2.357347,5.0,5.0,-5.0,-9.199083,-0.023975253,5.0,5.0,-0.34343836
-5.0,3.643179,-4.1401052,0.40466312,3.3215113,-5.0,-2.2420044,-3.6685195,5.0,5.0,-0.08056235,-2.8850844,-2.0526414,5.0,2.7316105,0.29902223
-5.0,5.0,-5.0,-2.2557144,-1.679448,2.0869443,3.2060485,0.76571035,-4.7006006,-1.5513948,4.5227814,-0.24763401,-5.0,-5.0,-5.0,-3.7908354
-5.0,5.0,-5.0,-3.5321424,4.0144196,-0.7932757,-0.86619925,4.4273777,-1.7707834,-5.0,3.8139174,0.6186867,-2.0455465,-5.0,-1.7141508,4.533839
4.5923643,0.24507713,-1.3551406,-0.123279594,5.0,-5.0,-5.0,-5.0,5.0,3.8004131,-5.0,0.5737551,5.0,-5.0,0.36091363,0.37454557
1.3053391,-5.0,4.76929,-0.3073039,5.0,-1.9983504,-4.7742906,5.0,3.6240525,5.0,-5.0,-8.638345,5.0,3.2980494,5.0,0.2999665
-2.6507893,0.26496792,0.77835834,3.1049511,5.0,-5.0,-5.0,-5.0,5.0,5.0,-1.6794107,-3.4646404,0.120615244,5.0,5.0,-0.36864305
-5.0,5.0,-5.0,-10.0,-1.8897421,-2.022382,3.785499,-4.053766,-1.3430735,5.0,-0.6356225,-0.07020743,-5.0,3.826222,-3.0416756,-0.41830796
-5.0,1.469518,-5.0,10.0,-2.2868485,2.4770343,3.8688765,0.41779718,-3.2219608,-4.352227,5.0,-1.3490844,-5.0,-5.0,-5.0,5.0
-5.0,1.9630458,-5.0,10.0,2.3977227,0.6110589,2.2783747,4.0691547,-1.0089555,-5.0,5.0,-0.2426183,-5.0,-5.0,-1.8300922,5.0
3.4120095,-3.3754382,3.4376073,10.0,5.0,-5.0,-5.0,-3.9885936,5.0,5.0,-5.0,1.0486666,5.0,-5.0,-0.041823983,-0.65980387
0.81069106,-4.7838445,4.380813,-0.20901039,5.0,-3.6368785,-4.5155973,-5.0,4.338137,5.0,-5.0,10.0,5.0,2.6391988,3.507314,0.26333103
0.055522084,-4.290057,5.0,0.02673614,5.0,-5.0,-5.0,-3.8699312,5.0,5.0,-2.4304812,10.0,0.15164828,5.0,5.0,-0.355498
-5.0,4.3190947,-4.5417857,0.050061204,3.9005594,-5.0,-0.8070234,-2.784616,3.4545095,5.0,-1.3079783,4.1213875,-4.2139,5.0,1.4692816,-0.38431615
-5.0,4.998486,-5.0,2.0335588,-4.694983,0.1415441,0.56469345,0.13322279,-5.0,3.3588426,2.062109,0.6083132,-5.0,-5.0,-5.0,-3.7383971
-5.0,5.0,-5.0,-3.32409,-0.23279536,0.9215052,1.9414767,1.654194,-1.5887076,-5.0,5.0,-0.20027867,-3.2966506,-5.0,-3.4274073,5.0
-1.990651,3.2473907,-3.5814395,3.932786,5.0,-5.0,-5.0,-5.0,5.0,2.1988912,-3.2629876,0.027503453,5.0,-5.0,1.9397295,0.5824018
2.6915672,-3.699947,4.2296047,-1.2071341,5.0,-2.9694462,-4.0910788,-5.0,5.0,5.0,-5.0,10.0,4.802446,1.6884809,4.4558263,0.027739659
-0.40804887,-3.761539,5.0,-0.115446456,5.0,-3.6787038,-5.0,-5.0,5.0,5.0,-2.6748292,-9.856688,1.1304121,5.0,5.0,-0.44685033
-3.532863,0.027984858,0.07271993,-0.35623914,5.0,-4.5708604,-4.3736525,5.0,5.0,5.0,-1.50719,2.360358,-1.1428214,5.0,5.0,-1.1796364
-5.0,0.11112583,-5.0,10.0,-5.0,2.6399376,2.650691,-2.399198,-5.0,3.7458344,5.0,-6.213655,-5.0,0.45569485,-5.0,4.2624626
-5.0,5.0,-5.0,0.9170294,0.35267925,2.102366,0.9348805,1.9470356,-4.107992,-3.312858,5.0,-0.36597943,-3.0113838,-5.0,-5.0,2.2708855
2.256509,5.0,-5.0,3.5846696,5.0,-5.0,-5.0,-5.0,5.0,-0.048190832,-4.3072405,-0.15758835,2.4105735,-5.0,0.0950779,3.0814059
5.0,-2.8044293,3.5604289,-0.01681437,5.0,-0.33834875,-5.0,5.0,3.685788,5.0,-5.0,-10.0,5.0,-0.2574395,0.6727786,0.24550876
0.49940133,-3.528512,5.0,-0.15411775,5.0,-1.4383326,-5.0,5.0,3.7525406,5.0,-4.2639046,10.0,0.3183831,5.0,5.0,-0.46869022
-2.8753667,0.7934239,-1.7391064,-4.032579,5.0,-5.0,-5.0,5.0,5.0,5.0,-0.05490637,10.0,-1.2031213,5.0,4.355072,-0.06993598
-5.0,3.1857915,-5.0,-2.9172454,-2.1765993,-2.0234962,3.642429,-4.601949,-3.0008407,2.8494065,5.0,1.8194312,-5.0,0.6130518,-4.454961,-0.10454027
-5.0,3.7135603,-5.0,-8.462903,-0.24470752,0.01990211,2.1232862,3.6094594,-5.0,-3.5774155,2.684545,-0.8823852,-5.0,-5.0,-5.0,5.0
-5.0,3.924574,-5.0,-10.0,4.9542513,-5.0,-5.0,-5.0,0.8321945,-4.661404,-0.18267646,-0.3903481,-5.0,-5.0,2.1129744,0.69554096
2.873835,-2.972093,1.1267704,-0.41799757,5.0,-0.32340145,-5.0,-5.0,5.0,1.4983932,-5.0,0.6580707,5.0,-5.0,-0.19020775,0.032721017
0.6324655,-0.94840795,5.0,0.43522778,5.0,0.7960186,-5.0,-5.0,4.0764556,5.0,-2.2490127,0.58249694,4.364932,0.7725022,3.0207984,0.37099037
-1.2842467,-0.99258345,5.0,0.4383717,5.0,1.0924802,-5.0,5.0,5.0,5.0,-3.8979805,-4.7156396,-0.6958244,5.0,5.0,-1.1711346
-5.0,2.0399168,-5.0,1.0078174,2.6389933,-5.0,0.21895456,1.1183062,2.91762,5.0,0.9998485,10.0,-4.6120234,5.0,3.3945796,1.0686569
-5.0,-1.8775756,-5.0,0.48200476,-3.8838265,-1.022543,1.2617009,-0.43581882,-3.9933488,1.9630826,5.0,0.00871288,-5.0,5.0,-4.5692377,0.5332688
-5.0,-0.7592392,-5.0,-8.903376,-0.983126,-0.666296,2.1012015,1.57089,-4.9746075,0.8256601,5.0,0.4889692,-5.0,3.9121888,-2.2526045,-5.0
-5.0,3.8279777,-5.0,-6.402854,-0.7756982,-2.8435311,0.14046419,1.6665952,3.6609545,-4.59077,5.0,4.0492525,-2.385102,-5.0,-2.3356912,-5.0
-5.0,4.2207637,-5.0,1.2659962,0.9275954,-1.694467,-2.18924,-5.0,3.4543018,-3.2696247,-0.028612971,-2.2006335,2.3634024,-5.0,2.3881807,5.0
5.0,-1.373261,1.3958341,0.6507452,4.7564635,5.0,-5.0,5.0,5.0,-1.6170824,-5.0,-2.5858839,5.0,-5.0,2.3587856,0.72358674
1.7723502,2.252098,2.0956693,-10.0,5.0,1.7166002,-5.0,-5.0,0.8708269,5.0,-5.0,-0.08983374,0.51656985,-5.0,0.55263543,-5.0
-1.5952778,1.8729012,5.0,-10.0,4.471979,-2.1475542,-5.0,5.0,1.5321382,5.0,-3.9805377,-3.0334067,-3.2302408,5.0,5.0,-0.8490355
-5.0,-0.013589501,-5.0,-0.33716708,-4.8712454,-0.710696,2.6023726,-0.08334744,-5.0,5.0,5.0,-0.7623392,-5.0,5.0,-2.3394356,-0.80486786
-5.0,3.9511986,-5.0,-4.9471416,-1.1968915,-1.9648013,-2.4803085,-5.0,-2.2572212,5.0,5.0,0.9150503,-0.059473455,5.0,-5.0,-0.45019972
-5.0,2.8185701,-1.9222512,-2.7949178,-0.79033554,-0.053874254,3.2242024,4.736639,-0.78367895,0.26429963,5.0,-10.0,-0.63269365,-4.5605917,-5.0,0.0938015
-5.0,3.1911323,-0.6291523,-8.528097,4.8383813,-3.445665,-5.0,0.24814415,1.2203883,-5.0,1.799062,0.30056062,-3.10096,-5.0,-3.6581566,-5.0
2.9598951,-0.7922678,0.28515315,0.15489374,5.0,-0.6639271,-5.0,4.229942,2.7031126,-1.855619,-5.0,-5.3720465,2.85821,-5.0,-0.009775519,0.52026963
0.050023615,1.9705142,1.2709106,-0.19212776,5.0,-1.3332763,-5.0,4.3940964,3.0905228,1.0311888,-5.0,10.0,0.5683714,-5.0,5.0,0.41866568
-0.5822904,2.6135788,5.0,-0.19570011,5.0,-3.189682,-3.1608772,5.0,2.0942068,5.0,-2.8718297,-2.464811,-1.7836238,3.7161355,5.0,0.9647158
-5.0,-2.074986,-5.0,6.3545737,-2.4322891,-0.26744008,4.414648,1.1925449,-5.0,5.0,5.0,0.37801397,-1.731462,5.0,-5.0,5.0
-5.0,-1.059062,-5.0,1.6688523,-2.4882226,-1.0523708,2.5850122,1.4480536,-2.2638707,5.0,5.0,0.33767664,-3.2337003,3.696321,-5.0,-2.8511121
-5.0,1.0330055,-3.1339462,4.5001616,-0.49427375,-2.6027002,1.7410948,2.9929314,-0.57353765,-0.7452439,5.0,-0.83252025,-1.7242708,-5.0,-5.0,3.418697
-5.0,3.1943061,1.5795186,-0.15264624,-0.65876263,-0.45344317,0.50937223,-5.0,2.553841,-4.6455317,1.7081566,0.27916625,0.0019258261,-5.0,0.6165974,-2.6335526
5.0,-1.4263817,0.5797043,-2.600927,5.0,2.2230425,-5.0,5.0,0.1271801,-3.4597037,-5.0,10.0,5.0,-5.0,5.0,1.623622
2.577615,2.1008542,4.4540668,4.111178,5.0,-1.4967942,-2.286365,1.3450048,1.8487419,5.0,-5.0,-7.0400877,3.7153096,-5.0,4.331024,0.79630417
0.19261646,5.0,1.8798587,-4.520925,5.0,0.11038387,-1.1656959,5.0,5.0,5.0,-4.30832,-8.797838,-1.7614923,1.9282283,5.0,2.1476564
-5.0,1.8189485,-4.1447678,-0.15194353,0.64122546,-2.7988524,2.291481,4.584324,1.7860827,5.0,-0.4956749,10.0,-4.157866,5.0,0.5000177,-0.2948868
-5.0,-0.40406752,-5.0,-6.9737597,-5.0,-1.6297959,4.8021593,-0.5601681,-2.9522629,5.0,5.0,0.88409853,-5.0,5.0,-5.0,5.0
-5.0,1.5607188,-4.1157703,-2.3926468,-0.51327246,-2.962698,2.4537108,0.25842595,-0.8496107,3.305074,5.0,-0.14635484,-1.8140652,-5.0,-5.0,-5.0
-5.0,0.62657446,1.4382355,0.27298093,2.6738782,-1.3615136,-0.8990917,0.042460173,3.209988,-2.2304225,0.9244547,0.113778815,-1.3333944,-5.0,-1.1973666,-5.0
5.0,-1.4691375,1.2845811,0.65640825,5.0,4.6159616,-5.0,-0.07238507,0.8572034,-0.34901834,-5.0,-9.296648,1.6335393,-5.0,0.981848,0.48766497
1.2253577,5.0,5.0,-2.7818334,5.0,1.4411304,-4.2235355,5.0,2.1767104,5.0,-1.9903563,0.1950844,-2.758702,-1.5903007,4.2034845,-1.7763014
-5.0,0.5212556,-4.6054783,-0.8270885,-2.615495,-1.1245519,3.4066448,-4.4080725,0.1968031,5.0,5.0,10.0,-3.8935995,5.0,-1.7185194,-0.1527616
-5.0,-0.8491895,-1.883655,-0.3676017,-2.2991748,-1.4111644,1.9375836,0.07194576,-5.0,5.0,5.0,-3.1218429,-1.0685972,1.4805104,-5.0,0.53884244
-5.0,-1.2684841,-0.38897467,10.0,-2.667859,-1.5601804,1.9410206,-0.24292026,-0.64225817,1.5165545,5.0,0.05214326,-3.938295,-5.0,-5.0,-1.8877249
1.6167856,2.0320954,4.9281273,5.3690104,5.0,4.287718,-3.6032975,1.8921376,4.6436014,-3.5130467,-4.970245,4.936399,5.0,-5.0,2.1820364,-5.0
5.0,-3.0076885,2.8703175,-0.79612315,5.0,1.8753927,-5.0,-4.605952,0.59772164,0.95574975,-5.0,-2.0518227,3.461667,-5.0,2.4707732,0.65001124
2.3868856,0.8137101,-0.7374165,-4.385764,5.0,-2.1168067,-4.293044,-4.4171314,-0.5777695,4.3534436,-5.0,-5.855165,0.38838017,-5.0,4.963113,-0.5874287
2.0731912,1.8161662,3.2340508,-4.9431133,5.0,-0.33890736,-2.2671106,1.1388943,4.3269124,5.0,-5.0,2.8566837,-0.10759044,-1.6032866,5.0,0.46590766
-5.0,1.6104778,-4.010425,0.08170466,1.422066,-1.9083251,1.858149,-5.0,2.3120127,5.0,-0.4043255,-10.0,-5.0,5.0,-0.30339074,-0.80767584
-5.0,-1.7357608,-5.0,-0.9435477,-5.0,-0.5314534,1.6844347,0.4243852,-2.148125,5.0,5.0,-0.48101017,-2.8105383,5.0,-5.0,1.734016
-5.0,-0.94581604,-4.448816,2.1281052,-1.5470694,-1.7148339,2.3250592,3.693804,-1.2505649,5.0,5.0,-3.9551868,-2.538865,5.0,-5.0,-1.0078483
-5.0,-0.8041693,-2.2720437,8.2789755,3.1120107,-5.0,-3.8408055,-0.22475135,1.8524911,-5.0,4.2451954,-2.8895013,-5.0,-5.0,-2.9074135,-4.689183
5.0,-1.7880266,3.6973083,-0.49849215,5.0,4.012336,-5.0,-5.0,5.0,-2.751464,-5.0,-0.6139961,5.0,-5.0,1.6006405,-0.09030086
5.0,2.5652633,1.6439517,-0.6159717,5.0,3.9811573,-5.0,5.0,2.5715694,0.515558,-5.0,-2.668459,2.4703193,-5.0,1.1933739,0.26188356
-4.346298,2.0001187,5.0,-10.0,5.0,-1.1997439,-2.7127168,5.0,1.9425877,5.0,-1.6656632,2.8127584,-2.0627532,5.0,1.3427064,-0.57411057
-5.0,-0.9230044,-4.4384575,0.10821117,-5.0,-0.47609627,3.3765035,0.32807323,-4.9357057,5.0,5.0,-2.6523774,-3.1107602,5.0,-5.0,-3.9685812
-5.0,-1.2146927,-5.0,-2.26767,-4.045124,-3.109005,1.1041604,0.114760205,-1.1453092,4.1664343,5.0,-10.0,-4.2204356,1.5913748,-5.0,5.0
-5.0,0.29732692,-5.0,3.3888788,-0.70906997,-3.6654725,2.1591377,2.5261092,2.4820447,-4.6155043,3.7510495,0.09769194,-2.8465412,-5.0,-2.849379,2.8327808
3.9423294,-0.0369128,5.0,-0.7319919,5.0,3.131123,-5.0,-4.7762146,4.7093744,-1.366322,-5.0,0.9025146,5.0,-5.0,-0.35910916,-5.0
2.108105,0.37064075,0.33104622,0.29238755,5.0,-0.08700299,-5.0,-3.7582426,0.34900522,1.3200679,-5.0,-1.5500178,1.6733524,-5.0,1.3371553,2.0230355
0.7715082,1.8018754,3.6202247,-4.5166016,5.0,0.067843914,-5.0,4.9161854,0.99198216,5.0,-5.0,-2.0930185,-0.028538942,-5.0,4.6201334,0.52229863
-5.0,3.016092,1.9546931,-1.3952526,3.252604,-4.560004,2.0369203,2.9738746,3.383743,5.0,1.2028956,-10.0,-5.0,5.0,1.3873372,1.4901457
-5.0,-3.057187,-5.0,0.34292716,-5.0,-1.5321884,4.602648,-0.58199847,-5.0,5.0,5.0,-5.7874217,-2.5902712,5.0,-4.350808,4.034834
-5.0,-3.440203,-4.6040287,10.0,-3.5161123,-3.5350487,0.5631372,0.067831546,-1.4780651,2.582413,5.0,0.64613354,-1.0801733,-2.8272474,-5.0,-2.7878187
-5.0,2.2592645,-5.0,0.5796312,-1.2984214,-1.5268635,2.1134272,2.2765138,1.8674339,-3.9097238,5.0,-1.031468,-4.101783,-5.0,-4.4483557,5.0
3.2566068,-0.6887557,4.668399,0.25798646,5.0,4.126989,-5.0,-3.1334732,5.0,-1.8847479,-5.0,0.48585203,5.0,-5.0,2.7742913,5.0
0.877706,-1.4838061,2.8302026,10.0,5.0,-1.1914614,-3.9182792,-5.0,0.81250155,3.0147238,-5.0,-6.8616066,4.092899,-5.0,3.2591784,0.33854014
2.8950286,5.0,5.0,3.1959255,5.0,0.5896987,-1.6523688,-2.191438,3.2881804,5.0,-4.3370256,-10.0,0.29600805,-2.0345972,5.0,-0.051686764
-5.0,1.9798677,-2.5435863,0.98222315,2.6368968,-1.8772032,1.2198634,5.0,3.086062,5.0,1.4217477,10.0,-3.7949414,5.0,0.97382855,0.57004243
-5.0,-4.057226,-5.0,-0.7424685,-5.0,-1.3168144,2.6109664,0.5520868,-2.3585374,4.8306847,5.0,0.5790014,-3.1019568,5.0,-3.903305,0.5576316
-5.0,1.8509227,-5.0,-10.0,-5.0,-1.7371408,1.6044784,3.120266,0.8004707,2.349634,5.0,0.7593341,-0.041319966,-0.9625726,-5.0,0.6341834
-5.0,2.1488101,-1.7847742,-7.544644,-1.609061,-1.5028765,3.5875168,-0.25368357,0.31227088,-4.988013,5.0,0.15106179,-5.0,-5.0,-5.0,-5.0
5.0,-2.9937005,3.329877,0.01987376,5.0,5.0,-5.0,3.047213,2.6775796,-2.614008,-5.0,-0.28963915,4.2838144,-5.0,2.055329,0.44949815
2.022303,0.56685686,0.659098,-0.13875932,5.0,-1.5740218,-5.0,-3.4243224,0.017444968,1.8825728,-5.0,-0.71117,1.235144,-5.0,2.2878823,-0.17169192
0.04615426,3.0886855,5.0,0.016515912,5.0,-0.84260106,-3.1091378,-3.4206767,0.44823995,5.0,-5.0,-5.5413833,0.6858315,-1.4618106,5.0,0.3382216
-3.80475,2.8203244,3.3969886,-0.43323338,5.0,1.0464622,1.1703439,-1.9599345,2.4507263,5.0,0.8536155,1.5561823,-3.3314075,5.0,0.73591566,0.4852376
-5.0,-1.8519754,-3.528335,-0.24984388,-5.0,-0.44024587,3.2701602,1.1583521,-3.4798408,5.0,5.0,-0.163224,-1.1639032,5.0,-5.0,-0.28631824
-5.0,0.0459944,-1.4108596,-1.483294,-1.3898048,-2.5212398,3.0138059,-0.28642628,-0.79081154,0.80481136,5.0,3.9429128,-2.0016596,-5.0,-5.0,3.0667574
-5.0,0.6246021,0.6374022,-10.0,5.0,-2.1982226,-3.341041,0.6666175,0.64495313,-5.0,1.5856154,-2.7928786,-0.6165094,-5.0,1.8651931,4.173497
5.0,-1.9345145,3.4861083,-0.36988005,5.0,2.19495,-5.0,-1.4485993,4.8745127,-2.4203358,-5.0,-1.0042655,5.0,-5.0,1.4464171,0.80005336
1.8737093,1.4094982,4.5947,5.2549367,5.0,-2.0785859,-2.9641123,-3.9199624,-0.3526792,5.0,-5.0,-5.073813,0.62324166,-5.0,5.0,0.57251495
1.1368408,4.539481,5.0,0.563234,5.0,-0.8766265,-1.2132475,5.0,2.8687105,5.0,-3.9491782,10.0,-1.3235523,5.0,5.0,1.3301193
-5.0,-0.06718922,-5.0,0.09085444,-3.1217947,-1.173998,3.7760327,0.81325585,0.7447864,5.0,3.809239,-10.0,-3.515595,5.0,-1.428687,-0.33485284
-5.0,2.4203875,-5.0,0.040974617,-2.3796616,0.97699386,3.9619079,3.3308382,-2.3773203,5.0,5.0,0.025787443,-1.338386,5.0,-5.0,-1.4576802
-5.0,1.23516,-5.0,-6.6313434,-1.7606306,-5.0,0.4505949,-0.48272076,-0.5645573,1.6378431,5.0,-1.8032577,-0.5590043,-5.0,-4.1931934,-4.104916
-5.0,-0.8697648,-0.6388142,5.254353,1.0837419,-1.9545676,-0.24920356,0.14555919,2.6781902,-3.5904741,-0.6102707,-2.0669816,1.6839368,-5.0,1.465791,-5.0
5.0,-0.231166,1.9768457,-0.56228334,5.0,1.9935746,-5.0,-3.2051392,0.9399279,-0.56932604,-5.0,-0.539527,4.216955,-5.0,4.197628,-2.0902643
0.916039,1.8136643,3.3046913,-2.2326508,5.0,0.23151183,-5.0,-5.0,2.5166326,2.851665,-5.0,9.294476,0.9304755,-5.0,2.8527303,1.8626487
-1.1866808,0.9977554,3.6304686,0.36565876,5.0,-2.7977412,-2.2380118,-5.0,1.1291822,5.0,-1.2549748,5.7958994,-2.9135323,5.0,5.0,0.2723542
-5.0,-0.8616123,-5.0,-0.2423868,-4.7068386,-0.4648286,2.8537068,0.195935,-1.3877418,5.0,5.0,10.0,-3.3244543,5.0,-4.0014615,-0.12407803
-5.0,-1.073132,-3.9003243,-5.343696,-4.418044,-1.2798218,0.6513736,0.17311025,-1.5077312,5.0,5.0,0.86913353,-2.730698,4.1703625,-5.0,-2.9874835
-5.0,1.2663686,-4.725021,-3.9721713,0.024402171,-2.3201349,0.84077555,-4.438647,-0.59048957,-1.357599,5.0,0.85995394,-1.4857562,-5.0,-3.3867328,-5.0
1.7395246,-1.5716264,2.712738,-0.81098115,5.0,0.55306935,-5.0,-0.89850277,2.2438042,-1.4621078,-5.0,-0.35316643,3.810462,-5.0,1.0517546,5.0
1.5995744,0.053439677,0.0005719662,-3.0955982,5.0,-3.2864661,-5.0,-3.707281,0.14440376,1.6305869,-5.0,-2.4353557,0.19076335,-5.0,3.383809,-4.414814
0.54437137,3.541238,5.0,-2.0872686,5.0,0.034972668,-2.565282,0.16470957,2.1692853,5.0,-5.0,0.8050701,-0.20118201,-1.6649377,5.0,0.31333485
-5.0,-0.65284324,-5.0,-0.21034522,-3.7822053,-1.1688592,5.0,-1.0522796,-2.0062199,5.0,5.0,-7.369388,-2.9228091,5.0,-2.491387,0.5386695
-5.0,-0.73250115,-4.814962,2.0657618,-2.4148176,-1.559524,0.88608015,-0.023453094,-4.134267,5.0,5.0,-0.18230493,-2.0937455,5.0,-5.0,-5.0
-5.0,2.9804013,-5.0,-6.385649,-2.9038408,-1.6422547,2.1564717,4.1072874,-0.9713328,1.3075426,5.0,-4.313966,-0.424775,-4.2329893,-5.0,-5.0
-5.0,-0.53674805,0.41805863,0.5439029,1.1481652,-1.4776458,-1.8581074,-0.62448823,5.0,-4.892456,-2.049172,-0.4512559,1.2878423,-5.0,1.8436086,5.0
5.0,-1.2224944,2.0978518,0.897343,5.0,1.202783,-5.0,-0.6547373,1.0495994,0.006000757,-5.0,-6.5423474,4.1324296,-5.0,3.5113695,0.026929203
0.7029059,3.4634283,3.2189724,-0.12064178,5.0,1.3009279,-2.4220514,5.0,2.1573992,5.0,-5.0,-6.331501,1.1441638,-4.6110234,5.0,-0.45285887
0.47900152,1.9475572,5.0,-0.0009914691,5.0,-2.5027156,-2.439385,5.0,3.3341508,5.0,-2.5519414,8.761386,-2.3645916,5.0,5.0,-0.42384434
-5.0,-4.619529,-5.0,7.880907,-5.0,-1.0076358,5.0,4.461269,-5.0,5.0,5.0,-7.2537684,-0.261101,5.0,-5.0,3.9821737
-5.0,0.47660017,-5.0,-1.118616,-3.3117387,-2.2111545,0.24458647,-3.7978127,-4.664708,5.0,5.0,-0.84021086,-2.9119391,5.0,-5.0,0.8901968
-5.0,1.863914,-2.256209,-6.6236553,-2.1599197,-4.4043546,0.85256857,-0.13786596,1.0440135,-0.90127176,5.0,-0.36602542,-2.1502986,-5.0,-5.0,1.7927856
-1.371384,0.45690387,3.3924427,10.0,5.0,-0.08152127,-5.0,-0.09887414,4.0985136,-5.0,-5.0,-0.62443733,1.3387868,-5.0,-1.0457004,-5.0
5.0,-2.489856,2.5060775,-0.882802,5.0,1.8231058,-5.0,-3.8235812,3.8193738,-3.3139813,-5.0,-1.7275575,5.0,-5.0,0.6409857,0.10584135
0.57465863,1.7666324,5.0,-0.7895534,5.0,-0.6960876,-5.0,-2.2943883,1.1326265,5.0,-5.0,-0.13820493,-0.16092837,0.43775702,5.0,0.16487408
-2.1231298,2.435536,3.2947652,1.6415236,-3.0743527,-0.2585367,5.0,-0.0682768,-4.720717,5.0,5.0,-4.940333,-4.413101,0.30549234,-0.4318882,-2.4289167
-5.0,1.6182861,-1.5836802,-1.3912667,-5.0,-1.5905871,2.964447,-1.0342286,-2.9335754,5.0,5.0,-1.4975687,-0.22728515,-5.0,-5.0,5.0
-4.9697976,0.44049644,-5.0,10.0,-5.0,1.5644265,3.1312747,-0.45571297,-1.5663979,-1.8866323,3.7945642,-1.0527015,0.3722974,-5.0,-5.0,2.87367
-3.5396106,5.0,-5.0,5.846867,-0.83453256,2.1839323,3.034575,0.44209805,-0.38980234,-5.0,5.0,-0.7658784,0.2415775,-5.0,-5.0,-1.8553905
0.6531595,2.9777966,-5.0,4.06395,5.0,-3.4707122,-0.963845,-0.18530661,0.82709265,-1.1548519,1.3107483,9.164848,-0.99492913,-5.0,1.5013199,2.435612
5.0,-3.5069172,0.71823204,2.894196,5.0,-5.0,-5.0,5.0,0.31156904,5.0,-5.0,-3.5185392,3.2960246,-5.0,2.3647146,0.3584236
1.232082,-3.1588135,4.7792625,0.20677337,5.0,-2.186146,-5.0,5.0,3.4083524,5.0,-5.0,-9.352075,0.53049576,5.0,5.0,0.043431215
-5.0,4.3625646,-5.0,3.5315113,5.0,-5.0,-1.6401409,-1.1402843,1.9712223,5.0,0.2546085,-4.4898715,-5.0,5.0,-1.2983551,-0.64310765
-5.0,4.8561883,-5.0,0.091830865,-3.7711406,1.181453,3.414398,-0.86241364,-5.0,0.007886529,2.667168,0.10438902,-5.0,-3.0270956,-4.999465,-0.006875813
-5.0,5.0,-5.0,-2.873344,1.5234783,-1.7284138,1.1277267,3.0094748,-0.6600381,-5.0,4.4628654,-0.50888926,-5.0,-5.0,-0.04437405,1.7111552
4.385067,-1.4575306,1.6551938,-7.9990396,5.0,-0.8785634,-5.0,5.0,5.0,5.0,-5.0,2.5623724,5.0,-5.0,0.7673367,0.22596857
1.6777508,-5.0,5.0,-0.8825889,5.0,-5.0,-5.0,-4.0522814,1.3063765,5.0,-5.0,-10.0,3.980147,4.3208313,4.8959084,-0.3419427
-2.6315575,-2.574493,5.0,-0.105775826,5.0,-5.0,-4.099261,-3.3106937,5.0,5.0,-3.8639421,-9.51675,-0.57234097,5.0,5.0,-0.28019792
-5.0,5.0,-5.0,0.27960992,-2.977208,-4.4287267,2.9033246,-5.0,-2.3593023,5.0,3.1044092,-3.408275,-3.8147252,3.2650113,-5.0,3.3145146
-5.0,5.0,-5.0,-4.259947,-0.38880414,1.5238107,2.092752,-2.954752,-3.7565117,-1.677964,5.0,-0.24500665,-2.5423865,-5.0,-5.0,-1.9512515
-2.523203,5.0,-5.0,6.294779,5.0,-5.0,-5.0,-0.52885175,3.7561553,-2.4372678,1.0185823,2.7036228,0.21496731,-5.0,0.3925411,5.0
2.9567616,-4.136242,2.612668,-0.7098378,5.0,-5.0,-5.0,-5.0,3.714106,5.0,-5.0,-8.581679,5.0,-5.0,1.2581702,0.10030859
0.036664546,-4.161958,5.0,-0.060089827,5.0,-3.9719648,-5.0,5.0,2.0055807,5.0,-5.0,1.9039798,1.0694487,5.0,5.0,-1.439551
-2.946673,-0.27670398,-0.32068682,-0.396581,5.0,-5.0,-5.0,-3.8344507,4.2133636,5.0,-0.2768832,0.58812356,-2.2268367,5.0,4.687549,0.050984383
-5.0,5.0,-5.0,-6.632424,-2.7429628,0.5925821,3.0591543,0.5099601,-5.0,4.5458317,1.5603565,0.6968321,-5.0,0.47318238,-2.150593,-0.62842447
-5.0,5.0,-5.0,-4.130104,-0.7582538,1.2464952,2.4692776,0.2131497,-1.2737417,-4.991834,5.0,0.3211843,-2.6180859,-5.0,-4.669958,5.0
0.44027543,5.0,-4.893635,5.0663447,5.0,-5.0,-5.0,0.38625348,5.0,-1.0404438,-0.6557536,-0.19539744,1.7307787,-5.0,-0.06929159,-0.63156193
2.3936033,-3.1656165,4.223945,0.41599977,5.0,-2.4409513,-5.0,-5.0,5.0,5.0,-5.0,2.6467063,5.0,2.1951735,1.7145454,1.1306361
-0.4764912,-3.423529,3.3679078,0.13664833,5.0,-5.0,-5.0,-5.0,5.0,5.0,-4.156526,-8.305925,0.015396178,5.0,5.0,-0.43536806
-5.0,3.8549743,-5.0,10.0,0.14444393,-2.4027934,2.4116716,-4.3249693,-0.9494659,5.0,-1.4124027,-4.108921,-5.0,5.0,-0.42678332,-0.63550496
-5.0,4.8925896,-5.0,5.6007776,-0.8803539,3.6184402,3.1470792,-0.6659283,-5.0,-5.0,5.0,-0.26206434,-5.0,-5.0,-5.0,1.0643249
-5.0,5.0,-5.0,-2.0797234,5.0,-5.0,-5.0,1.3603595,3.6499329,-1.238397,1.4320011,4.7742386,1.3615932,-5.0,1.9203122,0.050676934
1.3788903,-5.0,5.0,-1.2734082,5.0,-1.1879764,-3.9184294,5.0,4.916229,5.0,-5.0,-5.121418,5.0,2.6948652,5.0,-0.753697
-0.46487415,-5.0,5.0,-1.3370957,5.0,-3.477767,-5.0,5.0,5.0,5.0,-5.0,-8.756275,1.8835505,5.0,5.0,-0.55620646
-5.0,5.0,-5.0,0.9765327,0.60979974,-5.0,0.3430555,-5.0,3.1166632,5.0,-0.6578344,5.040602,-4.2558045,5.0,-0.19263276,-0.59356296
-5.0,5.0,-5.0,3.432239,-3.2059186,1.4319932,2.6553416,-0.3624401,-2.0644383,0.65355337,3.9537349,0.36206946,-5.0,-5.0,-5.0,5.0
-5.0,5.0,-5.0,-8.7186165,2.5020409,-0.20223632,0.32531917,-4.346838,-0.008046687,-5.0,4.8662047,-0.30573425,-3.3436909,-5.0,-2.385471,-0.29274833
5.0,-2.5165708,4.715253,3.8225281,5.0,-1.6223184,-5.0,5.0,5.0,5.0,-5.0,1.8208244,5.0,-5.0,2.1788888,0.048197217
1.6266506,-4.2183213,4.312364,-0.096300915,5.0,-4.439777,-4.781514,5.0,0.69445574,5.0,-5.0,-10.0,0.65487397,5.0,5.0,-0.36540335
-3.5042057,-0.3413278,0.4916744,-0.33449352,5.0,-5.0,-5.0,-5.0,5.0,5.0,-4.1034894,-1.8583632,0.21114314,5.0,5.0,-0.15026733
-5.0,5.0,-5.0,1.0734935,-5.0,0.63198173,3.9915333,-0.13166215,0.47020674,5.0,0.271168,0.37370047,-3.355129,0.22754538,-3.2082133,-0.29734898
-5.0,5.0,-5.0,-6.4022965,-0.09170514,0.26263905,1.2934476,-5.0,-2.439737,-2.14358,5.0,0.7199079,-2.697158,-5.0,-5.0,5.0
-5.0,3.6393695,-3.5478408,7.0115676,3.9734402,-5.0,-4.1603217,0.27393928,1.3883034,-5.0,1.1451643,0.14455003,-0.23208702,-5.0,0.19395094,-0.35822847
2.3480883,-2.6444976,3.503857,0.35791475,5.0,-1.3606931,-5.0,5.0,1.5694718,5.0,-5.0,10.0,5.0,-0.058250308,2.5516784,-0.15441242
-1.0227376,-4.7221384,4.7078795,-0.057356287,5.0,-5.0,-5.0,1.5404899,3.036191,5.0,-5.0,10.0,0.974468,5.0,5.0,-0.6731333
-4.8472643,4.0270705,-5.0,0.04034051,5.0,-5.0,-3.5695205,5.0,5.0,5.0,1.6889806,4.44979,-2.1226265,5.0,1.3403707,0.09647573
-5.0,5.0,-5.0,-9.652248,-3.9977689,0.32497913,2.365962,2.0175986,-5.0,1.1987649,2.4357002,0.5547514,-5.0,-5.0,-5.0,5.0
-5.0,5.0,-5.0,-5.704059,1.2730696,0.16024554,1.7172477,2.6612713,-3.2652965,-5.0,4.642797,-0.2773437,-5.0,-5.0,-3.6459274,5.0
2.545117,2.5870113,-3.07236,-3.1029966,5.0,-5.0,-5.0,-5.0,5.0,1.5803396,-4.0329924,-0.14012873,3.1078463,-5.0,0.56821287,0.080290414
1.9356465,-3.6917684,4.111862,0.12996621,5.0,-3.3518384,-5.0,-5.0,5.0,5.0,-5.0,-9.201688,5.0,0.08323326,1.8358705,-0.014538254
-2.1589565,-1.0942194,1.4060583,2.7636676,5.0,-5.0,-5.0,4.839285,5.0,5.0,-3.0415733,-10.0,-1.6707627,5.0,5.0,-0.18461044
-5.0,5.0,-5.0,-10.0,0.21787442,-5.0,-0.8488735,1.6108935,1.0331532,5.0,2.124592,-0.06675793,-4.9976335,5.0,-0.7274853,-0.66266406
-5.0,5.0,-5.0,-9.780421,-0.5735594,5.0,2.2631779,0.43565923,-3.4010253,-1.7134024,5.0,-0.1517699,-5.0,-5.0,-5.0,-1.8660002
-5.0,5.0,-4.089382,-2.4149437,5.0,-4.950122,-4.2529526,0.24569388,2.6084433,-3.8916998,1.0434805,-0.5972557,-0.6741974,-5.0,-1.1023915,-5.0
1.115941,-2.8110604,3.376167,0.5788175,5.0,1.2210509,-4.101799,5.0,4.204539,5.0,-5.0,4.97559,5.0,1.5735927,4.4970703,-0.09622057
-0.4217553,-3.9003563,3.6580648,-0.048670746,5.0,-3.309416,-4.3942475,5.0,4.720294,5.0,-5.0,-8.25028,4.3805428,5.0,5.0,-0.8337706
-2.494343,1.136956,-0.28696406,-0.032275815,5.0,-5.0,-5.0,-5.0,5.0,5.0,0.6975156,10.0,-1.9331034,5.0,3.4337215,-0.36313888
-5.0,5.0,-5.0,6.7553444,-5.0,2.9540477,3.4922318,0.763762,-5.0,2.4252076,5.0,3.5827239,-5.0,-5.0,-5.0,-3.1816244
-5.0,3.5499966,-5.0,9.908297,-0.14465594,1.5840838,2.5967178,-0.48868206,-1.8516579,-5.0,5.0,-1.3967663,-5.0,-5.0,-4.752917,-3.4416144
0.25202996,5.0,-4.669755,-6.474154,5.0,-4.8788166,-5.0,5.0,5.0,-0.2797606,-1.6162498,-0.22982427,2.8334353,-5.0,0.15481609,-0.058439143
2.9827073,-3.0900998,2.368779,-0.6874177,5.0,-3.9362547,-5.0,-5.0,3.485847,5.0,-5.0,10.0,5.0,-2.1194482,1.6837461,2.9823394
-1.1432632,-3.8681617,4.742526,-3.571862,5.0,-5.0,-5.0,5.0,5.0,5.0,-1.7064886,10.0,0.9703604,5.0,5.0,-1.4733564
-5.0,2.38552,-4.473668,0.41129965,5.0,-5.0,-5.0,5.0,5.0,5.0,-0.68173295,6.7616796,-0.60626364,5.0,5.0,-1.3933214
-5.0,5.0,-5.0,-1.8258321,-3.091608,-0.17134935,1.7651192,0.5655874,-4.6594543,5.0,2.5492277,-0.20107408,-5.0,0.5845723,-2.966333,-0.22311863
-5.0,5.0,-5.0,9.867626,-1.7810106,2.3767402,2.8838267,1.1068066,-1.3448528,-5.0,5.0,-0.061097786,-5.0,-5.0,-5.0,-3.5693657
-0.50619215,5.0,-5.0,-2.3384132,5.0,-4.855678,-5.0,4.235876,5.0,-5.0,-2.0725522,-2.6701543,1.4755325,-5.0,2.9042723,5.0
4.2314715,-0.9528842,0.94743156,-0.32007354,5.0,-2.4320304,-5.0,5.0,5.0,5.0,-5.0,3.4955385,5.0,-3.3798156,2.1646993,0.5161555
2.2517815,-4.5856943,5.0,-0.64155036,5.0,-3.8874626,-5.0,-0.636286,1.5269237,5.0,-5.0,10.0,2.1066976,5.0,5.0,-0.25650957
-2.451581,-0.14475474,2.5717864,0.011193682,5.0,-5.0,-5.0,5.0,5.0,5.0,-2.5940008,-0.07104969,-0.37558782,5.0,5.0,-0.2883668
-5.0,5.0,-5.0,3.4179606,-1.5278622,0.9674514,2.3806922,-4.789783,-5.0,4.522972,4.020482,-4.591137,-5.0,1.9019836,-4.157631,3.771333
-5.0,5.0,-5.0,-6.3422155,-0.070661366,0.46023774,1.494766,2.83487,-4.285566,-4.6468196,5.0,-0.12673397,-4.191276,-5.0,-5.0,-2.0556905
0.3430638,5.0,-4.614173,-10.0,5.0,-5.0,-5.0,-1.1106988,5.0,-2.6470933,-2.7445016,0.052321244,2.9552023,-5.0,3.347298,5.0
5.0,-2.3292308,1.5670458,-0.5843809,5.0,-5.0,-5.0,-5.0,5.0,5.0,-5.0,0.8841108,4.8404603,-2.901619,1.4716426,-0.4033236
-0.20988202,-4.648639,5.0,-0.16633755,5.0,-4.07984,-5.0,5.0,4.569649,5.0,-5.0,-8.387417,1.8830601,5.0,5.0,-0.45980722
-3.870141,-0.13847396,-0.14011514,-0.0562471,5.0,-5.0,-3.9684584,5.0,5.0,5.0,0.16664976,8.998189,-3.3642564,5.0,5.0,-0.24735196
-5.0,5.0,-4.39526,-2.5238662,-5.0,2.2461014,4.0271273,-0.0036147106,-3.7660618,-2.3163536,3.1983352,-1.022579,-5.0,-5.0,-5.0,5.0
-5.0,5.0,-5.0,8.400213,1.2350832,2.1365778,2.2051322,0.2126961,-3.8750343,-5.0,5.0,-0.7501563,-5.0,-5.0,-4.445572,-2.3847265
2.6501064,2.1468046,-4.9661436,4.3528123,5.0,-5.0,-5.0,5.0,4.22393,4.1890936,-3.9323645,1.1282642,1.8317112,-5.0,0.1422236,-0.41086158
1.410111,-1.4694993,4.7690334,-2.1151786,5.0,-4.9773426,-5.0,-3.4108558,2.4319718,5.0,-5.0,0.95638955,2.5138855,5.0,5.0,-3.4454796
-2.3199344,-3.397486,5.0,-0.3571456,5.0,-5.0,-5.0,-5.0,5.0,5.0,-1.7472897,10.0,-0.055680215,5.0,5.0,-0.37059748
-5.0,2.8725338,-2.797316,0.13371293,5.0,-5.0,-3.043289,5.0,4.8224936,5.0,0.016711384,7.8052144,-4.80433,5.0,1.1286364,0.5444826
-5.0,5.0,-5.0,-6.7043886,-4.0680943,3.8897376,4.9071083,0.13626623,-4.555092,-2.8412678,5.0,-0.018811949,-5.0,-5.0,-4.6173763,5.0
-5.0,5.0,-5.0,-7.7511063,3.8983936,-3.6716783,0.036268532,-2.2747648,3.830937,-5.0,4.5762696,-3.810913,-5.0,-5.0,-0.5677516,-5.0
4.3319087,-1.3365991,0.56194496,2.7478352,5.0,-4.8041563,-5.0,-3.0052824,5.0,4.9313884,-5.0,0.70659935,4.2338,-5.0,0.14339268,0.68195164
2.4181232,-5.0,4.459527,-0.7677164,5.0,-3.0799887,-5.0,-5.0,4.0732374,5.0,-5.0,-10.0,5.0,2.650938,3.2372396,-0.92749995
-0.97612,-3.5674348,5.0,-1.2413824,5.0,-3.566883,-4.503773,5.0,5.0,5.0,-5.0,-10.0,1.638465,5.0,5.0,-0.91285104
-5.0,3.3963652,-5.0,-0.071327284,5.0,-5.0,-1.8600813,5.0,5.0,5.0,-0.4542597,8.068272,-2.6629076,5.0,2.8762882,-0.3645609
-5.0,3.496439,-5.0,10.0,-4.357766,3.462297,4.137937,-0.7741082,-2.8860192,-1.3136814,5.0,0.45278844,-5.0,-5.0,-5.0,-5.0
-5.0,5.0,-5.0,-5.047815,3.0143232,-1.5897632,-1.622527,-3.2567167,0.60008216,-4.4918737,3.135404,-0.020835545,-4.9878483,-5.0,0.64759654,0.85913897
5.0,-1.5225887,0.66024804,-0.18252829,5.0,-5.0,-5.0,-1.6100771,4.5292997,5.0,-4.8454175,0.8404274,5.0,-5.0,-0.05016184,0.22411078
2.0575716,-5.0,4.8972597,-1.182028,5.0,-4.467561,-5.0,-5.0,0.94221556,5.0,-5.0,-10.0,0.4524578,5.0,5.0,-1.2757804
-4.2391386,3.3643754,-5.0,2.7740946,5.0,-5.0,-1.7009227,5.0,5.0,5.0,-0.24777317,4.1317677,-3.1615949,5.0,1.5313169,-1.9947118
-5.0,5.0,-5.0,-2.70254,-5.0,1.2950329,2.497388,-0.10247911,-5.0,1.7847617,2.6415124,0.31979772,-4.576336,-0.22647831,-4.571484,5.0
-5.0,5.0,-5.0,5.0243583,3.4489193,-2.2210174,-0.4124081,-0.7764466,-0.87766296,-5.0,3.6589563,-0.042062975,-4.463402,-5.0,-2.6069949,-5.0
4.1671467,-3.4588056,1.176245,0.47030535,5.0,-5.0,-5.0,-5.0,5.0,3.9023674,-5.0,0.59745884,4.938257,-5.0,0.52870905,-0.24547887
1.1489604,-4.2016683,5.0,-0.0062450115,5.0,-5.0,-4.784456,-1.6282035,1.3431087,5.0,-5.0,0.8121103,2.727583,4.9633627,5.0,-1.2445215
-5.0,1.7323778,-3.5883496,-1.531987,5.0,-5.0,-4.6882415,5.0,5.0,5.0,-4.7606974,-6.094681,-4.772392,5.0,5.0,-5.0
-5.0,5.0,-5.0,-0.15420401,-3.6856375,-0.8162305,0.93230104,0.50855637,-3.493745,3.5578573,2.6045573,2.2367258,-4.881253,0.85539603,-2.7396376,0.4487775
-5.0,5.0,-5.0,10.0,0.6861596,1.0285949,2.586238,1.8365481,-1.5833677,-5.0,5.0,-0.2593576,-5.0,-5.0,-3.9951484,1.025291
0.5754176,4.1906767,-3.4187975,3.5223975,5.0,-5.0,-5.0,0.5310982,5.0,-2.6307569,-1.965961,-0.02586544,2.0905051,-5.0,0.23715162,-0.33577967
4.0104218,-2.4489822,3.4198117,0.015838891,5.0,-0.30927968,-4.2526264,5.0,4.5639887,5.0,-5.0,8.039992,4.560891,-0.48106682,2.7197065,-0.12874559
-0.14383578,-4.9918284,5.0,-0.65565646,5.0,-2.3017435,-4.355402,5.0,5.0,5.0,-5.0,-8.12264,1.26112,5.0,5.0,-0.16031994
-3.7327642,0.08809373,-0.51251614,0.46026203,5.0,-5.0,-5.0,-5.0,5.0,5.0,1.0120463,-0.7363708,-2.5199528,5.0,4.950291,-1.1812564
-5.0,4.2751036,-5.0,10.0,-4.0760765,1.4405129,3.8434448,0.24151403,-5.0,0.48815203,4.9536324,-0.705666,-5.0,-4.149403,-5.0,-5.0
-5.0,5.0,-5.0,-3.7605538,1.7965273,-0.6885478,0.13017684,-5.0,-2.5314608,-5.0,5.0,-0.18711941,-3.591299,-5.0,-4.3862257,-1.2569783
5.0,-3.6704588,-0.06878424,-0.12889436,5.0,-5.0,-5.0,-5.0,4.0174737,2.6545734,-5.0,0.60269725,3.974745,-5.0,1.465219,0.2664337
2.408665,-3.6929784,4.515901,-0.9868187,5.0,-1.2059269,-5.0,5.0,2.2120152,5.0,-5.0,10.0,3.9305005,1.9954538,4.4740677,-0.9658204
-1.573466,-1.9752436,5.0,0.2945805,5.0,-5.0,-5.0,-3.6992056,5.0,5.0,-5.0,-6.930734,-1.3139378,5.0,5.0,-0.48058754
-5.0,5.0,-5.0,0.6166946,2.1805499,-5.0,-2.8700423,-5.0,1.9518065,5.0,1.0524073,-0.9189565,-4.425768,5.0,1.0078505,0.09969913
-5.0,4.467307,-5.0,10.0,-2.056719,0.021149218,1.6430992,0.18604381,-5.0,1.3596574,4.4003744,-0.35465875,-5.0,-5.0,-5.0,-5.0
-3.4246192,5.0,-5.0,4.661442,5.0,-3.865856,-5.0,5.0,2.4354167,-2.809533,0.2912526,3.428059,1.3237741,-5.0,2.5814795,1.5333204
0.24585116,-1.7279948,4.6213446,-0.7686944,5.0,-3.0662599,-5.0,-4.013483,3.8403225,5.0,-5.0,10.0,5.0,1.0513532,3.6948745,-2.2524607
-0.534559,-1.8533537,3.4531014,-0.8193364,5.0,-5.0,-5.0,0.64995,3.9124033,5.0,-4.154586,0.3224842,-0.036088407,5.0,5.0,-0.9653006
-5.0,0.39756602,-5.0,10.0,3.9889998,-5.0,-1.0950966,-5.0,-0.09931433,5.0,2.3875644,2.6922786,-5.0,5.0,-0.075896025,1.4870485
-5.0,0.43874103,-5.0,1.876668,-1.6200898,0.120378435,1.9175111,-5.0,-5.0,-1.651706,4.7761664,-0.48788,-5.0,1.6506631,-5.0,-5.0
-5.0,3.8215973,-5.0,4.1194196,0.79507136,-1.0593171,0.23136842,-5.0,-2.6787717,-4.3635397,5.0,-1.4004534,-5.0,-5.0,-3.518311,5.0
-5.0,5.0,-5.0,2.2763877,5.0,-3.8190837,-5.0,-1.4470394,0.09215021,-4.8388567,-0.16283935,-2.5710979,-1.1499939,-5.0,1.900686,5.0
4.850254,-0.6501797,1.129557,2.2908378,5.0,3.8715951,-5.0,-5.0,5.0,-0.49735332,-5.0,0.75730896,5.0,-5.0,1.3030001,1.5012664
2.435881,-1.3529534,5.0,0.36745718,5.0,2.5800533,-5.0,-5.0,5.0,1.4606881,-5.0,10.0,4.429679,-0.12426986,1.1526507,-0.48147258
-0.41043198,0.9597155,5.0,0.35447618,5.0,-3.3372617,-5.0,4.0426226,5.0,5.0,-0.84344375,-4.9812884,-1.6039399,5.0,5.0,-0.36744735
-5.0,-0.13458991,-5.0,0.4337696,-1.8081276,-3.3445377,1.5569313,1.2098665,-1.1002146,5.0,3.3872862,2.38444,-5.0,5.0,-0.8042377,-0.6734055
-5.0,0.261625,-5.0,0.43333817,-3.7009993,-0.8521342,1.0125468,0.2609567,-2.1966915,1.7071372,5.0,-0.26511416,-3.2304742,2.648953,-5.0,1.8970411
-5.0,-1.6199725,-5.0,-10.0,-0.09345627,-2.277547,1.9993143,0.34862757,-0.9020266,-2.6750116,5.0,0.94469976,-4.180365,-5.0,-5.0,0.71303976
4.605509,-0.14470202,2.5672581,-3.9856415,5.0,-0.6198168,-5.0,-5.0,5.0,-2.7644937,-5.0,8.108202,5.0,-5.0,0.18450546,2.7599103
1.4725076,-0.52744997,2.2205899,-1.5222027,5.0,0.5181868,-5.0,-1.4302657,1.8404154,0.413687,-5.0,5.0301285,4.3900657,-5.0,3.7175412,0.8261855
0.05108212,0.85000515,5.0,-0.4710157,5.0,-0.54428834,-4.1658163,5.0,3.849216,5.0,-5.0,-3.8905568,0.20279858,3.7298212,5.0,-0.18835063
-5.0,1.3667817,0.8857407,2.3292236,4.368095,-3.3288546,-2.289971,-5.0,5.0,5.0,1.4208308,1.9932173,-2.9113548,5.0,3.1950326,-0.4067155
-5.0,1.4723843,-5.0,0.24312086,-1.9130883,-1.5216095,2.6454558,2.9374666,-5.0,5.0,5.0,-0.4468105,-4.855979,5.0,-3.1318393,0.097498894
-5.0,4.936548,-5.0,0.8254031,-1.2353549,-1.7306018,1.4549856,2.206314,-2.4132304,-0.66812557,5.0,-0.46590874,-2.5992086,-4.981957,-5.0,1.7498035
-5.0,1.964623,-5.0,10.0,-0.3237815,-0.79951024,1.6512257,0.68225217,0.27428293,-5.0,2.836042,0.29769132,-2.2108161,-5.0,-2.696396,5.0
1.1447464,-1.430292,1.08591,0.14112082,4.7336717,4.365885,-5.0,5.0,5.0,-0.33128488,-5.0,-6.411582,5.0,-5.0,0.16833162,-0.33710983
0.5170209,-0.37399173,4.2429795,0.14356664,5.0,-0.08157563,-4.299189,-3.8723297,2.652167,5.0,-5.0,-4.6338654,5.0,-3.3661451,4.8913717,0.6511252
-0.23830771,-0.33730376,5.0,0.3873447,5.0,-2.879879,-3.727783,-5.0,3.659597,5.0,-1.5150554,5.8137207,-0.5144805,5.0,5.0,-1.298422
-5.0,0.3394537,-5.0,0.6369864,-3.0001261,-2.0516987,2.5855083,-0.20806843,-3.6172044,5.0,5.0,-0.50715756,-3.9465065,5.0,-5.0,5.0
-5.0,0.33904576,-5.0,-6.8287826,-3.1828299,-1.2720852,2.92149,4.4524517,-2.7550254,-0.5732422,5.0,-0.14692472,-4.2726173,-2.7681231,-5.0,-5.0
-3.3478167,1.8804975,-2.0876365,3.5043643,5.0,-2.5438695,-5.0,-2.447076,4.191267,-2.2436285,-3.5723,-0.28342286,1.813762,-5.0,0.2487297,-5.0
3.466817,-0.71095175,0.9080539,-0.31623942,5.0,0.57762074,-5.0,-5.0,5.0,1.8170915,-5.0,-5.9018803,5.0,-5.0,0.56201816,0.10750701
-0.09767464,1.8986163,5.0,-0.8192551,5.0,0.8290845,-2.488536,-5.0,5.0,5.0,-4.512109,2.4239047,0.60593116,5.0,5.0,-0.87618387
-2.856083,1.790763,-0.8037063,-10.0,4.231818,-0.90472436,-0.8951812,2.3718872,5.0,5.0,2.453702,-3.6389575,-0.81435907,5.0,0.17904113,-0.046493568
-5.0,-4.2688756,-5.0,6.0595503,-5.0,-2.5141025,1.8511764,-0.13284656,-5.0,5.0,5.0,-10.0,-4.1441646,0.23300421,-5.0,1.4442527
-5.0,1.7500949,-5.0,1.0601821,-2.281892,-0.123471975,2.5092406,1.8614218,-0.5060277,0.30879188,5.0,0.36496443,-1.6669581,-5.0,-5.0,-5.0
-5.0,-1.0507219,-5.0,9.847887,1.6910744,-2.3667195,-0.96204555,0.26287314,0.5430131,-2.2733011,0.17922202,-3.552923,-1.9526999,-5.0,-0.89156467,5.0
4.6370277,-1.3882481,1.0623604,-0.1145852,5.0,1.9552866,-5.0,-3.9968572,4.6705937,3.1807578,-5.0,0.35111052,5.0,-5.0,0.43949664,0.30667332
1.5753026,1.2605753,5.0,0.62714994,5.0,0.4479984,-1.8495903,-2.417058,2.3613057,5.0,-5.0,0.60177517,0.014722444,2.158102,5.0,-1.0429665
-5.0,-0.2991929,-0.72506607,-0.24443844,-0.45043868,-2.1123562,2.036954,5.0,0.67214453,5.0,3.8927245,0.6096072,-5.0,5.0,0.42402184,-0.6792133
-5.0,-0.018082738,-5.0,-1.9674215,-4.1970525,-2.1606073,1.4784781,2.744651,-3.8224769,5.0,5.0,0.4982974,-2.740051,-1.6827796,-5.0,1.6433396
-5.0,5.0,-5.0,-7.378919,2.1942706,-1.7907406,-0.48878014,0.17396073,-0.37277704,-1.5987577,5.0,-0.6833103,-0.9274045,-5.0,-5.0,-5.0
2.0776625,-0.7678449,0.5879698,-0.16753562,5.0,-3.5126252,-5.0,-3.938388,5.0,-1.884383,-5.0,-0.0867309,5.0,-5.0,-0.0075002313,-0.37172008
1.010889,-0.7676302,5.0,-0.0726783,5.0,0.18469095,-4.757207,-4.0034437,1.3164552,5.0,-5.0,2.0412514,4.2887497,-1.3514271,5.0,0.3625218
0.58681875,2.2731488,5.0,0.48568222,5.0,-0.4238063,-2.343455,5.0,4.947592,5.0,-3.128254,10.0,-2.4609828,5.0,4.4676795,-0.4274329
-5.0,-0.5527185,-5.0,-0.19969814,-1.9203095,-1.3724536,1.2744445,0.24002251,-1.4249206,5.0,5.0,0.97854745,-1.9602501,5.0,-1.9945283,0.3387094
-5.0,-2.8156497,-5.0,8.242639,-2.6273594,-2.3927379,2.2121146,3.951453,-3.0528903,1.7019559,5.0,-0.024588726,-5.0,-5.0,-5.0,0.079720736
-5.0,3.407238,-5.0,-9.937589,1.1398425,-3.6580882,-0.15718487,2.8652139,2.654349,-4.9803658,2.71464,0.05429565,3.7699268,-5.0,-5.0,-5.0
3.5190868,-1.6843022,-0.5548865,0.35250464,5.0,-3.660232,-5.0,-4.1821346,2.7232938,-0.3667184,-5.0,-0.38853043,3.6856985,-5.0,0.5072854,0.4097207
0.6936662,-0.22960925,2.4240098,3.5544305,5.0,-0.9318147,-2.983729,4.269622,0.84256166,5.0,-5.0,-1.6473284,4.7413206,-5.0,4.9346075,0.6666243
1.7502507,-0.45545816,5.0,0.039236024,5.0,-2.7843652,-2.081471,1.9047034,1.4280765,5.0,-5.0,-9.842323,-2.0649476,3.4794152,5.0,-0.019282341
-3.1389928,0.047756433,3.221945,0.5076334,5.0,-3.0653262,1.4073875,0.54135627,5.0,5.0,-2.53271,-3.6420584,-1.625687,5.0,3.6069834,-0.5189377
-5.0,-1.7381083,-5.0,2.723826,-0.21562761,-1.9905486,1.0384517,-0.09904821,-5.0,5.0,5.0,9.074087,-2.9049728,0.60606694,-5.0,5.0
-5.0,-0.6035161,-5.0,-10.0,-0.9890069,-1.9345925,1.6398624,2.945634,-2.646494,4.209611,5.0,0.26973403,-5.0,-3.7892637,-4.805402,-1.328939
-5.0,4.7845125,-5.0,-3.6813574,-0.06829345,-2.8230824,-0.04925728,-0.14683142,0.90725243,-4.1157517,5.0,0.89669615,0.8203546,-5.0,-3.7156715,-4.1105947
4.6775446,-1.8763708,0.38998532,0.08708138,5.0,-1.4912691,-4.6402736,-5.0,4.1045504,1.0979724,-5.0,0.37098274,5.0,-5.0,1.9237776,0.5417861
2.2020004,-0.11947334,2.351542,-0.17055397,5.0,0.3683766,-3.858074,-2.9872763,2.7988691,4.8550673,-5.0,10.0,1.7913426,-3.8690245,1.8833926,2.5032575
1.4107357,0.8947536,5.0,-0.16450626,5.0,-0.5903813,-2.5711062,-5.0,1.7391691,5.0,-5.0,-6.9658217,0.17828512,5.0,5.0,-0.12585635
-5.0,2.2740004,-4.12199,0.34475294,1.178306,-1.6660475,3.924261,0.29149058,5.0,5.0,-0.31953704,-10.0,-2.4884057,5.0,-1.0763378,1.5940001
-5.0,-1.5028461,-5.0,-7.2845917,-5.0,-1.9013441,1.5223448,0.4827587,-3.7601433,5.0,5.0,0.07020339,-2.9049156,5.0,-5.0,-3.1800442
-5.0,3.9010093,-5.0,-5.9288445,-1.1643696,-3.6912775,1.0956199,-0.13314119,-0.25577146,0.4211532,5.0,-2.1423247,-3.9035983,-5.0,-4.516452,-3.2974973
2.246848,-0.6432712,-3.186881,2.9855337,5.0,-2.7653196,-5.0,5.0,4.7904906,-4.005008,-5.0,-0.63794106,3.4328747,-5.0,-0.20922327,-2.0744982
1.4341811,-2.0184147,4.011812,0.53856254,5.0,-0.11906242,-5.0,-2.7669227,1.6766434,1.7363962,-5.0,-2.7982025,5.0,-5.0,2.4917593,0.6055794
-2.1395879,2.8332214,5.0,0.19072242,5.0,-3.3057048,-3.8519185,-2.0459197,1.9062028,5.0,-2.3210878,-2.1799383,-3.3508992,5.0,5.0,-0.01446354
-5.0,0.9302689,2.107952,2.8238013,-5.0,-0.0069543123,3.7902472,-1.0462612,-0.7607458,5.0,5.0,0.049182937,-2.370512,0.12694192,-1.4296687,-4.621118
-5.0,3.0445004,-5.0,6.5323205,-5.0,-0.013725638,2.3894665,0.027985048,-2.2438145,1.8752397,5.0,0.48463842,-2.089731,-5.0,-5.0,5.0
-4.883294,5.0,-5.0,-4.8445683,1.3826735,-0.7121357,0.9936899,-5.0,-0.26650333,-3.841805,2.299338,-0.910876,-0.8261888,-5.0,-5.0,-0.12144554
5.0,-2.8494341,-4.2804356,3.7060792,4.5604067,-5.0,-5.0,-0.118169665,1.6834445,5.0,-5.0,-4.605357,3.9745698,-5.0,3.558302,0.35903904
4.7937675,-4.076172,0.41753298,-0.5464258,5.0,-5.0,-5.0,5.0,0.36282474,5.0,-5.0,3.49577,2.1804376,0.43159056,5.0,-0.1325857
1.047961,-2.1414769,5.0,-0.16825846,5.0,-5.0,-5.0,-5.0,1.7814333,5.0,-5.0,2.857595,-0.4130301,5.0,5.0,-0.75665647
-5.0,2.1314664,-5.0,2.9315693,2.353313,-5.0,-2.674204,5.0,1.5423396,5.0,1.4785712,-5.653322,-4.1291723,5.0,0.10852011,-1.2898607
-5.0,5.0,-5.0,-0.084052086,-5.0,0.36508647,1.9331698,1.2944716,-4.1514263,1.4613657,3.7599957,-0.37486225,-3.2192163,-4.89439,-5.0,-2.396181
-5.0,5.0,-5.0,-0.35032368,-0.9547842,0.53400564,2.0842888,0.056401573,-2.408556,-4.002175,5.0,-0.18386838,-4.1653523,-5.0,-5.0,2.59786
2.5299184,-0.2298013,1.6452043,6.241416,5.0,-5.0,-5.0,-4.3380723,5.0,2.7494192,-5.0,0.44481,5.0,-5.0,-0.05075884,0.13202564
2.057433,-2.9615924,4.1718383,0.24163638,5.0,-5.0,-5.0,-4.3273845,2.3997655,5.0,-5.0,-10.0,5.0,2.5963697,4.7909546,-0.4241315
-0.7674898,-2.555807,3.7479458,-0.33080688,5.0,-5.0,-5.0,-4.658863,5.0,5.0,-3.2864819,0.09647536,0.13200223,5.0,5.0,-0.19463828
-5.0,5.0,-5.0,-5.071712,3.5453594,-5.0,-3.452683,1.9990833,2.9241676,5.0,1.6557443,2.7764015,-0.18969166,5.0,1.2511966,-0.27944797
-5.0,5.0,-5.0,10.0,-5.0,3.0215218,4.4400716,0.03837297,-3.447181,-1.6517024,4.3463063,-0.4412377,-4.408091,-5.0,-4.0755386,5.0
-5.0,5.0,-5.0,10.0,3.8023565,-1.4076921,-1.5551753,-3.626444,-0.2046709,-5.0,2.9379327,-0.19143635,-4.2778273,-5.0,-2.8679535,-1.3240379
5.0,-1.9067409,3.1830964,4.3069134,5.0,-5.0,-5.0,-5.0,4.9159536,3.9362264,-5.0,0.37846878,5.0,-5.0,0.82269186,-0.33024392
1.2140247,-2.9987783,3.588356,0.32708174,5.0,-4.7489448,-5.0,-5.0,4.360868,5.0,-5.0,-7.2007008,5.0,0.9332284,3.596611,0.26179686
0.052594543,-4.7861805,5.0,-0.37405416,5.0,-5.0,-5.0,-4.823632,5.0,5.0,-3.1191483,-3.759853,-0.011159718,5.0,5.0,-0.96871233
-5.0,5.0,-5.0,0.472815,-0.3852157,-5.0,2.712336,1.6245712,1.5552247,5.0,2.1691365,8.449081,-4.4032345,5.0,-0.079672694,0.35363165
-5.0,5.0,-5.0,0.15535802,-5.0,2.5042453,2.6527817,0.50796956,-4.0622153,-0.21210015,3.6675117,-0.84011126,-5.0,-3.6225057,-4.5325947,5.0
-5.0,5.0,-5.0,-3.6531463,0.6812054,1.6770192,1.5519975,0.43036303,-1.3068016,-5.0,5.0,0.060898177,-3.1442862,-5.0,-4.4398785,-5.0
5.0,0.59833163,2.8958066,6.8997993,5.0,-5.0,-5.0,5.0,5.0,3.7860017,-5.0,6.0262523,5.0,-5.0,2.7399712,3.1523075
2.6970012,-3.3436992,4.1500955,-1.0301545,5.0,-3.1673787,-5.0,5.0,4.039342,5.0,-5.0,10.0,5.0,1.4825286,3.798526,0.39223778
-0.4430579,-3.6292014,4.976166,-0.3009526,5.0,-4.3168325,-4.55421,5.0,5.0,5.0,-5.0,-6.5538936,1.1480145,5.0,5.0,-0.6782235
-1.1423974,0.77041805,2.0929456,4.2949705,5.0,-5.0,-4.992214,-5.0,5.0,5.0,-3.538012,-10.0,0.1541766,5.0,5.0,-0.43984482
-5.0,5.0,-5.0,9.223395,-2.7428052,1.7594073,2.59812,0.11045278,-1.3059106,5.0,1.9674132,2.6723034,-3.5987773,0.91076684,-1.0707412,-0.15506312
-5.0,5.0,-4.76542,3.7347915,-2.4055564,5.0,-1.2327938,-2.2100399,-1.0154829,-5.0,4.696266,-0.7259805,-4.6424174,-5.0,-5.0,5.0
-5.0,5.0,-2.730928,9.429211,5.0,2.9078727,-1.8871763,-4.2443047,5.0,-5.0,1.5788734,-10.0,-5.0,-5.0,-5.0,-0.28445005
2.832765,-1.713424,-0.389237,-1.3436908,5.0,-2.4653695,0.9641411,0.6344523,4.3213468,-1.4977577,2.4251492,4.2624235,0.5163394,-5.0,2.5932386,4.0303774
5.0,-5.0,1.699691,0.7067371,5.0,-3.5810575,1.8560791,5.0,1.6459515,5.0,-5.0,2.3034217,2.7279034,0.006666422,4.7834754,0.14030169
2.509388,-5.0,0.33343676,1.2563651,5.0,-1.6729405,2.8233807,-2.4205887,1.3082176,5.0,-5.0,-10.0,2.8154635,4.5585456,4.423178,-0.93995345
0.97892654,-5.0,0.17567143,0.006095429,5.0,-5.0,-1.0070162,4.266862,2.2291455,5.0,-5.0,-5.944682,-0.30095857,5.0,0.99970794,0.4236911
-5.0,5.0,4.1911335,-0.22529748,-5.0,2.9055943,1.2400284,0.53982157,-0.4934939,5.0,-2.3256416,-0.34535643,-5.0,0.12507552,0.2697193,-1.1432544
-5.0,5.0,0.767704,9.552589,-5.0,5.0,-0.7806854,2.1794405,-1.1074077,-3.5241578,3.5980875,6.064322,-5.0,-5.0,-1.9405314,5.0
-5.0,5.0,0.5315206,6.144111,-5.0,5.0,-0.925171,-5.0,2.2925582,-5.0,0.49426094,-10.0,-5.0,-5.0,-4.925624,5.0
-5.0,2.977889,-2.3893676,9.506846,1.042134,3.9360914,1.5485967,-0.3745516,4.8739347,-5.0,-0.7199459,-0.42086414,-5.0,-5.0,-4.9462404,0.4929204
5.0,-5.0,0.13789415,0.97229975,5.0,-5.0,1.2791916,0.6315212,5.0,4.2837276,-2.3139563,-7.968025,-1.0832611,-0.9474888,0.21371663,0.14032863
5.0,-5.0,0.8455336,2.501798,5.0,-5.0,0.7609143,5.0,1.4424545,5.0,-5.0,8.881917,1.8327348,2.4102907,2.0094707,2.705903
4.7535553,-5.0,-0.39197314,0.56720823,5.0,-3.3514957,5.0,-4.2239275,2.6881874,5.0,-5.0,-10.0,2.027318,3.6322463,-0.020180643,-2.4828756
-1.3577237,-1.8977242,-0.42746377,-0.03582862,5.0,-1.3157231,2.962554,3.737009,5.0,5.0,-5.0,-10.0,-1.9437495,3.3002424,-0.51610386,0.30637923
-5.0,5.0,3.3600864,-0.6858785,-5.0,5.0,0.6989678,-0.49481952,1.5843995,2.993709,-2.2882645,10.0,-5.0,-5.0,0.080245316,-0.24767976
-5.0,5.0,4.053659,-1.2962399,-5.0,5.0,0.26537818,0.51130784,0.094528735,-4.059168,3.141934,0.52458346,-5.0,-5.0,-2.4418747,-5.0
-5.0,5.0,0.63822424,0.6862745,-3.996337,4.504163,0.5740977,0.24775907,0.2481042,-5.0,0.8207011,1.670886,-5.0,-5.0,-4.552329,5.0
-2.5832415,-1.0889853,-0.5219729,10.0,5.0,-1.6589677,0.9199164,-0.5613153,3.7774482,-1.4671688,-1.7567985,-9.05154,-5.0,-5.0,-3.4005723,-5.0
5.0,-5.0,0.10893285,0.4065171,5.0,-2.020237,0.7911971,5.0,1.2909563,5.0,-4.62985,-2.1038117,1.2111919,1.2203782,1.3796554,1.4756538
4.8450475,-5.0,0.9785377,-0.62104386,5.0,-5.0,2.057974,5.0,0.5727598,5.0,-4.5536237,-1.369484,3.1573768,5.0,1.3755031,-3.0393333
-4.0636168,1.2653143,1.515501,0.29928952,1.2657589,-1.5045526,-0.13259399,-2.4873261,3.0493107,5.0,-5.0,-6.458914,-5.0,4.6056232,-0.7581953,0.6880366
-5.0,5.0,5.0,-4.408334,-5.0,5.0,-0.12694758,-0.69480354,-3.787125,-0.4058951,3.5870404,0.1837635,-5.0,-5.0,-0.84902537,-0.023922384
-5.0,5.0,1.4342304,-4.2714787,-5.0,5.0,0.48494267,-0.029648736,-0.31231314,-4.4908643,0.80781794,0.28167722,-5.0,-5.0,-5.0,-1.2212934
-5.0,3.5585709,-1.2695681,-1.7242346,1.1431118,0.61398363,1.0408876,0.03673537,1.5392929,-5.0,0.41227376,-0.0747301,-5.0,-5.0,-4.614351,4.942362
5.0,-5.0,0.648955,-0.6053718,5.0,-5.0,0.6225835,-0.55153894,4.2853103,5.0,-3.8733125,-1.2492995,-0.05689168,-1.6281518,0.6070578,0.19508632
5.0,-5.0,-0.40361226,0.27013466,5.0,-3.8320222,4.9754086,-5.0,0.18305622,5.0,-4.0782886,3.73109,2.9899697,1.1146982,2.5437405,0.5184205
1.6513782,-4.0383377,-0.15551019,-0.40390512,5.0,-4.5941443,0.20370999,3.6462617,3.4072928,5.0,-5.0,8.290697,0.7158906,4.9961443,-0.18086362,-0.3282701
-5.0,5.0,2.7703068,1.8278466,-5.0,5.0,1.3927649,0.52077395,-0.8653085,5.0,-2.9273376,-5.337378,-5.0,-3.689842,-0.09132999,-0.31158426
-5.0,5.0,4.0569797,-0.19441155,-5.0,5.0,-0.9501165,-0.15824896,-0.09462392,-1.6620066,3.9215124,0.37381083,-5.0,-5.0,-2.6219785,5.0
-5.0,5.0,1.3346,9.098175,-5.0,5.0,-0.66723967,0.032443635,-0.7699231,-3.364038,0.60628796,1.2032367,-5.0,-5.0,-5.0,2.0631652
-2.8360572,-0.6484903,-0.90625125,10.0,3.147395,-0.4413461,1.4327887,-0.22786579,3.3765492,-2.434261,0.50336415,-0.039337605,-5.0,-5.0,-4.883064,5.0
5.0,-5.0,0.69553375,-0.42957315,5.0,-5.0,0.67441046,-5.0,-0.083262086,5.0,-5.0,10.0,2.2052846,1.5620499,2.1579528,5.0
5.0,-5.0,0.034263104,-0.028838336,5.0,-2.9088392,3.454751,0.4312947,0.68940663,5.0,-4.819576,10.0,3.8102326,0.65402114,0.050014168,2.0473845
0.28636622,-1.7960396,4.6849275,-4.642703,3.0433342,-2.399537,1.6361094,5.0,1.819171,5.0,-2.434308,10.0,-2.4655988,4.106201,1.4972323,-0.1734418
-5.0,5.0,5.0,-0.025988843,-5.0,5.0,1.2828346,0.5210477,-1.4301138,5.0,3.097978,-9.804152,-5.0,-5.0,0.45927846,-0.18912506
-5.0,5.0,2.5066803,0.1762209,-5.0,5.0,-3.2272394,-0.103328645,0.13242364,-5.0,2.6178162,-7.966217,-5.0,-5.0,-3.1493504,5.0
-5.0,5.0,-2.5882044,9.3446665,-5.0,5.0,-0.79130673,0.24245772,0.2377607,-4.490685,0.36386448,-0.43662703,-5.0,-5.0,-5.0,5.0
5.0,-5.0,0.5609313,0.7854075,5.0,-4.7450075,0.61610556,-0.1814064,5.0,5.0,-1.5384332,7.66708,-0.09329569,-3.871765,2.1187875,2.992057
5.0,-5.0,0.5459745,0.04405977,5.0,-5.0,2.008369,-5.0,0.55364573,5.0,-5.0,6.2529707,3.1321828,1.6682438,0.98097944,0.13532989
1.1094806,-4.1230555,0.09534913,-0.46871212,5.0,-3.00656,1.0881246,2.2497365,4.9791355,5.0,-4.787621,-10.0,0.77437633,3.7344651,-1.2407949,-2.6748137
-5.0,4.0463037,2.8792183,-0.48744068,-5.0,0.45177186,-0.41706634,-2.179112,-0.15963325,5.0,-4.3514795,4.3959436,-5.0,-0.014150381,1.046459,2.136721
-5.0,5.0,5.0,-4.2144203,-5.0,5.0,0.39064467,0.74354017,1.0133104,-2.2672696,4.1276307,-3.9953814,-5.0,-5.0,-2.445673,0.7753005
-5.0,5.0,0.90376616,10.0,-5.0,5.0,1.1566113,-4.3001127,-0.535126,-5.0,-0.20913386,-0.533527,-5.0,-5.0,-5.0,5.0
-1.8615108,-0.39968777,-1.5157872,-10.0,5.0,-1.7389047,1.3041685,0.5106728,4.795343,-2.7458758,0.11416167,0.59115106,-3.5572114,-5.0,-2.40816,-0.9413223
5.0,-5.0,0.7721814,0.8378351,5.0,-5.0,3.3494716,1.0071807,2.4047356,5.0,-5.0,-10.0,1.9918516,-0.29465127,-0.5114783,-5.0
1.137137,-5.0,-1.4769682,-10.0,5.0,-4.910821,1.2560265,5.0,2.8770373,5.0,-5.0,10.0,0.3227508,2.5244732,0.9326764,-5.0
-5.0,0.7149087,0.64090014,2.223051,5.0,-2.2748249,-5.0,3.6279488,5.0,2.0731344,-5.0,-0.4791956,1.2514994,4.6869826,5.0,-0.2701249
-5.0,5.0,-3.9639547,-1.6164472,5.0,-5.0,-5.0,-3.7392902,5.0,2.637731,-3.1374965,-3.1207175,-2.7094984,0.97875726,0.36187363,-0.25041693
-5.0,5.0,-3.7238116,0.70616746,-0.9366828,-0.12829179,1.9453733,-5.0,-0.18120253,-2.053797,0.36806762,-0.35061947,-2.2211435,-5.0,-1.5305396,0.15437353
-4.7130775,5.0,-1.5751792,6.5968704,5.0,1.5615848,-0.3302531,5.0,-1.6008826,0.65023,2.268195,3.4737182,1.8911084,-5.0,-3.4370964,0.41061705
0.7818767,-0.39045247,1.2588643,-0.92334616,5.0,-2.3938844,-5.0,2.2381797,1.1493256,5.0,-5.0,10.0,2.5501754,-0.532915,2.4163764,-0.14055854
0.14500618,-0.6183337,4.3080854,0.13664371,5.0,-5.0,-5.0,-2.7580519,0.115680456,5.0,-5.0,-3.9928017,0.12941766,4.371265,5.0,-0.21874303
-5.0,5.0,0.79588956,6.001863,0.33571023,-5.0,-1.7140718,-1.1569998,-0.6159636,5.0,0.8493362,3.3364406,-1.0373272,2.035191,-0.9286947,-0.09970963
-5.0,5.0,-5.0,10.0,-1.4319543,1.269995,1.8530413,-3.2319906,-5.0,1.842779,5.0,-5.2758675,-0.029824853,-5.0,-5.0,5.0
-1.299814,5.0,-5.0,-0.6193218,4.2407045,-5.0,-5.0,-1.6374443,0.84476066,-0.20096433,0.41221535,-0.13436541,-0.79300386,-5.0,0.1905281,3.424714
5.0,-3.027176,1.8189516,-0.8128479,5.0,-3.9072485,-5.0,4.999406,0.21579899,5.0,-5.0,1.6380551,5.0,-5.0,1.3197278,-0.121061236
0.63611144,-3.1108196,5.0,0.21430767,5.0,-2.3064084,-4.799895,-4.9504323,2.5496318,5.0,-5.0,-10.0,2.5032492,3.4655106,5.0,-1.021455
-1.2747761,-2.7969825,5.0,-0.6736989,5.0,-5.0,-5.0,-3.9583843,5.0,5.0,-2.6419191,-10.0,-0.052880287,5.0,5.0,-1.1152666
-5.0,5.0,-5.0,-2.6230655,-5.0,-0.83150876,0.3570019,0.24943854,-4.3847823,5.0,2.775877,0.58601475,-4.5768137,-0.12436712,-2.9794302,0.482085
-5.0,5.0,-5.0,1.4103662,-2.9219363,2.0744848,1.846736,0.77482766,-3.4459147,-4.1813583,5.0,0.056121267,-2.0396378,-5.0,-5.0,4.984228
-0.68063843,5.0,-5.0,2.5817535,5.0,-5.0,-5.0,-5.0,4.6786,1.6556444,-3.1845329,0.20245062,1.9998323,-5.0,-0.97179174,-5.0
2.7121763,-3.0523157,5.0,-0.33232066,5.0,-3.691287,-4.6164813,-5.0,2.4838982,5.0,-5.0,-9.262858,5.0,1.9818132,3.6576056,0.23340057
0.20799482,-5.0,5.0,-0.5625392,5.0,-5.0,-5.0,-0.84902275,4.114457,5.0,-5.0,-2.2585497,0.056518316,5.0,5.0,-0.5432309
-3.0475824,-0.68346715,1.0954818,0.23547494,5.0,-5.0,-5.0,-3.3779235,5.0,5.0,-3.7944517,-1.7186042,-1.7967254,5.0,5.0,-0.38009506
-5.0,5.0,-5.0,1.2302542,-5.0,2.3609383,2.6232038,0.7178713,-5.0,2.0248008,3.8618646,-0.36640888,-5.0,-2.7038736,-5.0,-5.0
-5.0,5.0,-5.0,10.0,0.4556284,0.19072866,-0.6823998,-4.8578606,-2.4355679,-3.693377,5.0,-0.0971153,-4.849924,-5.0,-5.0,5.0
0.2642212,5.0,-5.0,0.98547125,5.0,-5.0,-5.0,-5.0,3.7787397,-1.5541251,-1.5715902,0.26950973,1.0589228,-5.0,0.93376493,-0.49182606
1.3841642,-3.037326,2.573737,0.58609337,5.0,-0.8226738,-5.0,5.0,5.0,3.9869144,-5.0,0.38618416,5.0,-1.5216694,2.0566149,-2.088695
0.08159149,-2.0570822,5.0,-0.26795998,5.0,-2.6438956,-5.0,-2.1286368,4.7743073,5.0,-5.0,-7.422635,0.74269044,5.0,5.0,-0.29128367
-3.883039,1.544571,-2.0419948,-3.3049417,5.0,-5.0,-5.0,-5.0,5.0,5.0,-4.7543006,-4.572043,-2.3002634,5.0,5.0,-0.09978785
-5.0,2.1504304,-5.0,-10.0,1.8515712,-3.0369563,1.7183464,-0.44565192,1.1592517,4.7921414,0.79901314,-2.1309602,-5.0,5.0,-1.8406181,-0.12466833
-5.0,-1.3294698,-5.0,5.5639787,-1.9624218,0.03429389,2.753015,5.0,-3.79431,-2.4925008,5.0,0.14424825,-5.0,3.2433457,-5.0,-5.0
-5.0,3.9966853,-5.0,9.901762,1.6306622,-2.4414716,1.1360984,1.937033,-0.57571965,-4.184375,5.0,0.03636136,-3.9832246,-5.0,-2.6996017,-1.5870111
2.8091125,-0.8402033,2.7096097,4.513275,5.0,-0.3252108,-5.0,5.0,5.0,-2.152038,-5.0,0.018757783,5.0,-5.0,1.1408398,-1.0542023
3.4554067,1.0018959,0.20291615,-10.0,5.0,3.618928,-5.0,-0.9415827,1.0887371,-0.29984963,-5.0,-8.000278,5.0,-5.0,2.7999954,-3.7120411
1.305446,2.3249323,5.0,-10.0,5.0,0.029607296,-5.0,-5.0,3.211602,3.3598664,-5.0,7.008899,-1.1441259,3.594595,3.5521102,-1.1774992
-0.86630535,5.0,5.0,1.1401343,5.0,-1.5157527,-5.0,2.5178874,5.0,5.0,-5.0,-10.0,-1.9063962,5.0,4.8990216,0.769093
-1.5619459,1.8089716,5.0,0.7113133,5.0,-2.9478674,-5.0,5.0,3.1181805,5.0,-0.23523283,4.3108096,-2.1650002,5.0,3.2363915,-1.1961012
-5.0,0.58543277,-5.0,0.3198444,-4.086067,-1.9166293,2.0180137,0.43255666,-5.0,5.0,5.0,-1.0680534,-1.6423515,5.0,-4.719906,-0.22391865
-5.0,1.3739829,-5.0,-0.9527661,-2.3642704,-1.4846613,3.0873325,3.4077864,-3.0122204,5.0,5.0,0.5829965,-1.5935396,3.6080508,-3.898178,-1.3210099
-5.0,1.9168758,-2.8538291,10.0,-1.5777178,-3.189118,1.9127913,1.628021,0.8837593,-1.522361,5.0,-0.7875086,-0.79728127,-5.0,-0.84392977,-5.0
3.067305,-1.704257,2.9765506,0.49626604,5.0,4.139709,-5.0,5.0,4.148228,-1.7464176,-5.0,-0.5420705,5.0,-5.0,2.3212914,-3.4659872
2.4707584,0.46229398,1.6895254,0.533054,5.0,4.369582,-5.0,5.0,1.7610545,0.3689525,-5.0,-2.8612976,5.0,-5.0,0.9799371,0.5093505
0.5237361,5.0,5.0,-2.2253134,5.0,0.9260327,-1.4290831,-0.23284078,2.3258862,5.0,-3.5959184,-2.960609,0.04461813,2.113233,5.0,-0.5127383
-5.0,1.2578022,-2.6859198,-3.6842098,-0.47165003,-1.8366643,1.4864395,0.04348857,-1.2214223,5.0,1.2764003,0.12036848,-5.0,5.0,-0.44580042,-1.2521895
-5.0,-0.46385396,-5.0,4.6467943,-4.095786,-1.7639867,-0.09746039,-2.1189122,-1.3845744,4.8021436,5.0,0.531133,-2.3297608,5.0,-5.0,-1.0721385
-5.0,5.0,-5.0,-9.840267,5.0,-1.5091331,-1.9060124,-1.0051668,-2.9978616,-0.32762432,5.0,-0.1317434,-5.0,-1.0968097,-3.602695,-5.0
-5.0,1.2287589,-5.0,-10.0,5.0,-4.4284496,-5.0,-3.5987866,5.0,-5.0,-5.0,8.167957,3.0469522,-5.0,2.827899,-5.0
3.2231622,-0.88431615,2.040728,0.6957625,5.0,0.7493659,-5.0,-2.9242554,1.5646372,-4.9945545,-5.0,-0.38045886,5.0,-5.0,2.6068444,0.71107715
0.31424057,2.5466366,3.0294738,-9.665546,5.0,-2.838358,-5.0,1.1137185,2.0862792,-0.16591084,-5.0,10.0,4.8253193,-4.094566,3.7468562,-0.39559734
-1.8500926,4.9546747,5.0,-5.0801935,5.0,-5.0,-4.845383,-5.0,1.835298,5.0,-1.9859834,4.395528,-2.995483,5.0,4.3381805,-2.050675
-5.0,-0.9851706,-5.0,0.24395026,-2.7498806,-3.67645,3.8806891,0.5281625,-4.333373,5.0,5.0,0.10601133,-3.6008754,5.0,-2.8030822,-0.8068948
-5.0,2.0222242,-5.0,-6.82658,-2.1679485,-2.0594213,-0.61364686,-5.0,-1.9930478,4.136651,5.0,0.06833776,-0.39519823,5.0,-5.0,1.5341594
-5.0,-0.4099682,-5.0,10.0,-0.39023465,-3.3926969,2.329634,0.9321334,-0.60650814,-2.8651187,5.0,1.0891747,-1.3068703,-5.0,-3.2001631,5.0
-5.0,1.1761163,1.4180338,4.047687,4.7588634,-2.730484,-3.2663765,0.053766355,0.90293753,-5.0,-0.30154002,-2.2840269,0.23876764,-5.0,1.1047382,-5.0
4.0282183,-2.2326863,1.7132722,-0.061486747,5.0,0.8190007,-5.0,-3.242292,-1.0646976,-1.2552507,-5.0,-8.340427,3.6356208,-5.0,2.2871027,0.84651756
0.88094974,3.2019558,1.4860578,-4.8493967,5.0,-1.5438206,-4.6732793,3.6612122,0.44346517,4.008194,-5.0,10.0,1.167438,-5.0,5.0,0.6616708
-1.9050512,1.4043367,5.0,-0.06993474,5.0,-2.029917,-0.21096838,5.0,3.9187622,5.0,-2.1813607,5.142977,-2.3419557,5.0,4.4925885,-1.0318098
-5.0,-0.023973703,-5.0,-0.18917479,-5.0,0.3464228,4.146117,-3.1776607,-1.0574516,5.0,5.0,0.5688432,-0.8754463,5.0,-3.1787302,-0.76981306
-5.0,1.9360259,-5.0,1.2744889,-3.7243204,-1.214983,-0.0406878,0.36298847,-1.3818203,5.0,5.0,-0.7262993,-1.2974148,5.0,-5.0,5.0
-5.0,1.7101023,-5.0,-10.0,-0.8371634,-4.64042,0.5030582,-0.42727697,0.81442827,-1.3995872,5.0,-0.021760684,-2.1009688,-5.0,-0.35078704,-4.972261
2.4146216,-0.48916018,3.727079,0.45729697,5.0,4.015735,-5.0,-5.0,5.0,-2.9945612,-5.0,-0.1793861,5.0,-5.0,1.9348475,0.64918816
2.7007213,0.28954798,0.5255914,-0.27827382,5.0,2.122026,-5.0,5.0,-0.08182305,2.1745718,-5.0,-4.31273,2.243366,-5.0,2.6440158,0.5614755
-0.2407465,3.2939816,5.0,0.54708344,5.0,-0.17563641,-1.0943004,-0.61010104,5.0,5.0,-4.0805426,0.15593779,-0.2801311,5.0,2.9491062,-0.5597158
-5.0,-0.5287535,-5.0,0.1546644,-5.0,1.2379818,4.477606,-0.15116073,-0.5736811,5.0,5.0,10.0,-0.5583515,5.0,-4.5027018,-0.47844106
-5.0,-0.57482326,-3.9743464,-9.879732,-5.0,-2.343876,2.363356,-0.28623292,0.048466444,4.0413184,5.0,-2.4709883,-2.2969773,-2.440899,-5.0,-5.0
-5.0,-0.036291063,-0.09841704,4.022577,-0.6391381,-3.266889,1.3287266,2.6989398,0.39089787,-1.588423,5.0,-0.97540265,-0.3591649,-5.0,-2.2876987,-1.5803332
5.0,-1.6907701,4.900153,-0.3750925,5.0,4.7054586,-5.0,5.0,2.5080721,-1.2503946,-5.0,-0.05428949,5.0,-5.0,4.0262995,-5.0
1.9505306,0.2503451,0.9120134,0.33975643,5.0,-1.4694843,-5.0,-3.8182013,-0.5937383,2.855385,-5.0,-0.5801077,0.25240993,-5.0,5.0,0.54916793
1.0224807,2.064411,5.0,0.5067478,1.6458716,-1.5078901,5.0,-0.093253925,-2.4611502,5.0,3.5117807,-0.045774177,-3.7091022,-0.53410745,4.5624666,0.47063154
-5.0,2.579915,-1.4063009,0.48137876,-5.0,0.7614935,2.545187,0.42783847,1.1999624,5.0,4.168277,-7.814789,0.19307017,-5.0,-5.0,5.0
-5.0,5.0,-5.0,1.4186584,-5.0,1.7715325,3.94027,0.21241687,-0.7520249,-1.220597,5.0,0.07610353,-1.37272,-5.0,-5.0,-2.7668235
-2.8311005,5.0,-5.0,-0.6267086,5.0,-3.502101,-4.2738543,-0.05215567,3.8734393,-1.9190655,-0.8825724,-10.0,1.1351585,-5.0,0.69017804,0.5655508
5.0,-2.5813327,1.8694117,-1.845959,5.0,-3.5057297,-5.0,5.0,-0.609461,5.0,-5.0,5.7131143,2.2877247,-5.0,3.5801022,0.6297234
1.0825646,-5.0,5.0,-0.1919508,5.0,-4.939822,-5.0,-5.0,2.2581406,5.0,-5.0,10.0,2.3844223,5.0,5.0,-0.4392947
-1.8962815,-1.9851509,0.96303123,3.4491827,5.0,-5.0,-5.0,5.0,3.6922724,5.0,-5.0,-5.3152514,-0.08107364,5.0,5.0,-1.5434341
-5.0,5.0,-5.0,-1.7095032,-2.2008023,-1.2432108,0.811115,-2.2449908,-4.3273506,5.0,2.2897632,0.056957327,-5.0,-0.116518974,-3.0609424,0.2203351
-5.0,5.0,-5.0,-0.8012192,-4.853365,2.3785079,4.102301,0.49307805,-1.7850941,-0.9995543,5.0,-0.7282743,-4.475715,-5.0,-4.460725,5.0
0.08128524,5.0,-5.0,-0.9021295,5.0,-4.9805636,-5.0,0.77643853,4.9068413,0.47358394,-1.9264075,-0.11793673,1.5077002,-5.0,3.4340796,-0.20125449
2.1408837,-3.862372,5.0,0.14100724,5.0,0.16036648,-5.0,5.0,5.0,5.0,-5.0,-2.4791684,5.0,4.235934,2.229134,-0.026804637
-0.30278373,-4.665041,5.0,-0.004732729,5.0,-3.0948324,-5.0,5.0,5.0,5.0,-4.527951,-8.229034,2.188937,5.0,5.0,-1.2079263
-5.0,3.541286,-5.0,0.30635598,5.0,-5.0,-0.07563019,5.0,3.4398813,5.0,-0.62232494,10.0,-4.551288,5.0,2.484104,0.4360385
-5.0,2.1921573,-5.0,10.0,-5.0,1.8650461,1.0382313,0.10092835,-4.0802455,3.283559,4.552915,0.27182916,-5.0,1.1463459,-5.0,5.0
-5.0,5.0,-5.0,-6.702345,1.0508176,-0.33316058,1.164375,3.292037,-1.5994302,-5.0,5.0,-1.3191247,-5.0,-5.0,-4.771388,-5.0
2.5072966,5.0,-4.935321,-7.528511,5.0,-5.0,-5.0,5.0,5.0,-3.2598698,-0.6842308,-0.42128414,0.9844231,-5.0,2.9994602,2.794254
3.2357905,-3.6165805,2.9113927,-0.874264,5.0,0.28115714,-5.0,5.0,5.0,5.0,-5.0,-10.0,5.0,-0.09480965,0.85563433,0.3179334
1.0650624,-5.0,5.0,-0.102008924,5.0,-5.0,-5.0,5.0,5.0,5.0,-5.0,-10.0,1.1835189,5.0,5.0,0.44391853
-5.0,2.336337,-3.3593392,-1.0208787,3.0964735,-5.0,-2.0894108,-4.869046,2.1881056,5.0,-0.48995683,1.6682179,-4.6361685,5.0,0.695958,0.377521
-5.0,5.0,-5.0,10.0,-3.5958152,3.2884078,3.631673,-3.988245,-4.9588785,-4.6773744,5.0,-3.368468,-5.0,-5.0,-5.0,5.0
-5.0,5.0,-5.0,-2.5599604,3.7981186,-1.6850864,0.32321608,0.43736237,0.17946577,-5.0,4.0969553,0.20232946,-3.8552248,-5.0,-2.017222,-3.5892837
1.8782275,1.3599629,-5.0,-8.64213,5.0,-5.0,-5.0,-5.0,3.2670374,5.0,-5.0,0.82615536,2.5442414,-5.0,1.7806284,1.6776971
0.59764564,-3.8498797,2.5783763,-4.4063225,5.0,-2.7804914,-5.0,-5.0,-0.17249939,5.0,-5.0,10.0,5.0,3.5121384,5.0,-3.196378
0.14594102,-4.4328547,4.045555,-0.992831,5.0,-5.0,-5.0,-5.0,2.217279,5.0,-5.0,-9.421554,-0.45318305,5.0,5.0,0.5538313
-1.9818767,1.930582,0.8270625,-0.30423167,5.0,-5.0,-4.687715,-4.09223,3.6411557,5.0,-2.125761,-10.0,-3.1650825,5.0,3.3922012,0.51859975
-5.0,5.0,-5.0,0.8194667,-4.9209023,3.67003,2.5878572,-0.30004624,-2.648138,5.0,-0.5526631,-2.3073254,-5.0,4.5526867,-5.0,-0.5143528
-5.0,3.6398826,-5.0,6.688872,-5.0,5.0,0.5929967,0.79817903,1.0223484,-2.6762598,5.0,0.1040027,-5.0,-1.4673436,-3.511559,4.566742
-5.0,5.0,-3.7214475,1.9124045,-4.0775933,5.0,0.14838636,0.25633335,5.0,-3.1952155,5.0,-0.36225316,-5.0,-5.0,-2.1531482,-2.1979136
-5.0,5.0,-5.0,10.0,5.0,3.0494475,0.20583153,0.58438826,5.0,-4.4149427,0.31769222,-0.4365092,-0.28553486,-4.4953375,2.696901,-5.0
3.3048737,-3.8640304,0.5715835,-0.53666157,5.0,0.094608486,1.5449082,0.6614144,-1.7242385,5.0,-5.0,2.6655517,5.0,-1.1605577,0.57064986,-2.5006533
1.2942824,-5.0,1.9302137,0.2595511,5.0,-3.9613907,-1.6295514,3.5203323,-1.9967501,5.0,-5.0,-9.767284,5.0,4.8055687,0.9986946,0.61757404
-2.040272,-5.0,4.187115,-0.09531144,5.0,-5.0,1.0149258,-1.9867201,1.0772512,5.0,-5.0,10.0,0.41004586,2.0645008,-0.8947116,-0.12259098
-5.0,4.4308057,-5.0,5.2466855,-5.0,5.0,-1.7686658,5.0,5.0,0.13262022,5.0,-3.6299276,-5.0,-5.0,-3.0079818,5.0
-2.8678489,5.0,-2.077713,3.6108932,-5.0,0.47051954,-2.296083,-3.9664512,5.0,-4.7960043,5.0,2.3411896,-5.0,-5.0,-3.921811,4.6845894
-5.0,5.0,-5.0,-10.0,5.0,-0.22994462,-0.55839396,0.541785,5.0,-5.0,0.15353501,0.36953232,1.441591,-5.0,0.079557836,5.0
2.6225045,-5.0,1.4003016,-0.8857394,5.0,-5.0,-2.6386733,-4.281865,-4.8560696,5.0,-5.0,-0.1262474,5.0,-2.2274203,0.82171124,-3.3407059
-5.0,-5.0,5.0,-1.0564038,4.3301907,-5.0,0.2775252,-5.0,2.2789953,5.0,-5.0,-10.0,-4.4343095,3.5058265,-5.0,-4.944233
-5.0,-0.23145789,0.50185245,3.547646,-5.0,1.7397645,1.1609106,2.0590107,5.0,-0.98881364,5.0,7.113711,-5.0,-5.0,-0.33710432,-2.676578
-5.0,5.0,-1.8102802,-6.863454,-5.0,0.2289921,-1.9743806,-2.3142514,5.0,-2.1165211,5.0,-0.23974103,-5.0,-5.0,-0.5814401,1.0230479
-2.1406436,5.0,-5.0,0.5832238,5.0,-1.1184971,1.3814597,-0.02588357,5.0,-2.590045,-0.8840717,-0.55365425,2.71303,-5.0,2.3068767,0.8722067
5.0,-5.0,3.7517128,0.82127553,5.0,-5.0,-2.0344908,-5.0,-5.0,5.0,-5.0,-10.0,5.0,1.9550055,1.9525928,-1.5443965
-0.026628435,-5.0,2.7506447,0.18934932,5.0,-5.0,-0.2935332,5.0,-2.0515897,5.0,-5.0,-8.297022,5.0,2.486297,0.2601958,0.12344374
-5.0,-4.4427834,5.0,-1.416521,-5.0,0.7814341,-0.5258378,-1.0719391,5.0,4.228134,2.6911716,5.747949,-5.0,-5.0,-4.348507,-5.0
-4.9130173,5.0,-1.9313611,-3.5686674,-5.0,1.0608252,-1.1164025,-2.764518,5.0,-0.4669083,5.0,0.67399377,-5.0,-5.0,-4.0056,-2.2744732
-2.887492,5.0,-5.0,0.55487955,0.8839331,0.57612884,0.64731073,0.5772141,5.0,-5.0,4.2082705,3.710475,-4.7810946,-5.0,-0.59394187,-5.0
5.0,0.35268283,2.0334475,-0.56489515,5.0,-5.0,-2.5301132,1.3679888,1.622541,-0.10732508,-5.0,6.412362,5.0,-5.0,2.1140294,2.5486248
-0.59846926,-5.0,0.0007780194,0.48574963,2.7752512,-5.0,-1.7483176,-5.0,-0.6541015,3.0948536,-5.0,3.2596478,1.5375334,1.0582857,-1.4534036,0.25353956
-5.0,-0.2601096,3.5024304,0.25633365,-5.0,-5.0,4.693718,-4.0455594,3.0641308,-1.5227962,3.281149,6.866126,1.425221,-3.925952,-5.0,5.0
-5.0,2.5068154,-2.0789523,-3.327054,0.8143761,-5.0,-5.0,-1.9640129,1.2567656,-1.2341316,0.27589053,3.5780413,0.060195267,-5.0,-5.0,-5.0
4.8757696,-1.9877276,-0.06898087,-0.14927009,5.0,-5.0,-5.0,-5.0,-3.827138,5.0,-5.0,-4.721544,1.173745,-5.0,1.7921823,1.1863159
4.4892907,0.23324013,5.0,3.2764423,5.0,-5.0,-3.5346138,5.0,-0.54365385,5.0,-5.0,2.8453078,3.363247,1.5371013,5.0,-5.0
-0.103434205,-1.079864,5.0,-0.06767995,5.0,-5.0,-3.7532802,-4.297029,2.2466068,5.0,-5.0,-10.0,-0.24805963,5.0,4.736074,-1.090445
-5.0,0.9089266,-0.17343163,0.31912327,-2.9671464,-5.0,0.020231009,-0.086413205,-0.27183086,5.0,0.88646805,4.7478065,-2.0200555,0.57214713,-0.8648851,1.8951961
-5.0,5.0,-5.0,-1.1985962,-5.0,0.2534977,1.7113326,1.9918749,-2.0858269,0.47594094,5.0,-0.17996417,-1.8452964,-5.0,-5.0,5.0
0.7326613,5.0,-5.0,10.0,5.0,-3.9528491,-5.0,-3.2445016,5.0,-5.0,1.4890027,-6.6480975,-2.4256196,-5.0,-4.5895247,5.0
5.0,-2.5738983,0.3373227,0.13559276,5.0,-5.0,-5.0,0.3640712,1.3218796,4.949805,-5.0,10.0,1.8063008,-5.0,0.68175685,-0.351296
4.0116405,-2.4884877,2.107803,-0.35873437,5.0,-5.0,-5.0,-4.2779937,-0.7569617,5.0,-5.0,10.0,3.474883,1.6327754,5.0,-0.1803866
0.27619004,-3.451988,5.0,-0.31877756,5.0,-5.0,-5.0,5.0,2.15618,5.0,-5.0,1.5229199,-0.1784097,5.0,5.0,-0.19094469
-5.0,5.0,-3.7021208,0.008408546,-0.22642577,-4.23005,2.2749238,0.5841057,-0.82422733,5.0,3.3139136,2.8664534,-4.383578,3.5049057,-0.50308156,2.456548
-5.0,4.844707,-5.0,3.6538882,-3.188028,0.30804706,3.1935627,-0.5561062,-5.0,-1.2083254,4.9566984,-0.2418022,-3.418893,-5.0,-5.0,5.0
-5.0,5.0,-5.0,8.512526,4.187337,-0.9567884,-4.568006,5.0,-0.023341537,-5.0,2.3037922,0.41161343,-2.1771474,-5.0,-0.6452973,4.420926
4.8034887,-1.7427347,-0.15301752,-0.18396792,5.0,-4.5081534,-5.0,5.0,4.620864,3.5607271,-5.0,1.202368,3.800148,-5.0,-0.51269054,-0.95205873
1.6802195,-4.4737034,3.7790236,-0.66402733,5.0,-5.0,-5.0,-4.825134,3.898621,5.0,-5.0,3.1748319,5.0,-0.14368498,3.7372775,0.064325325
-0.6083307,-0.69552433,3.0043197,0.15977438,5.0,-5.0,-5.0,-3.7298884,5.0,5.0,-3.147159,8.91345,0.01659143,5.0,5.0,-0.15049458
-5.0,5.0,-5.0,-5.7175455,0.6369091,-5.0,-0.092799604,0.953086,0.11737546,5.0,1.192642,0.6192683,-5.0,5.0,0.09643495,0.018420905
-5.0,5.0,-5.0,3.004963,-5.0,1.9868608,4.212989,-1.0862515,-1.5249183,-3.5907128,5.0,-0.51239246,-4.1413913,-5.0,-5.0,5.0
-5.0,4.7232366,-5.0,10.0,1.2710724,0.63499784,4.2049303,0.6109307,-0.9882313,-5.0,5.0,-0.122522146,0.19276565,-5.0,-5.0,5.0
5.0,-2.2767339,-1.7656,4.9299736,5.0,-5.0,-5.0,5.0,5.0,0.2997918,-5.0,6.2893944,5.0,-5.0,-0.27165055,-5.0
5.0,-5.0,3.8514075,0.7751649,5.0,-4.7890797,-5.0,-5.0,5.0,5.0,-5.0,-4.3695116,2.3383927,0.0051767826,1.5384607,0.7895628
3.6413295,-5.0,5.0,-0.23799413,5.0,-3.3720846,-5.0,5.0,5.0,5.0,-5.0,3.999662,-1.689258,5.0,5.0,-1.5144615
-0.23627996,-2.2678604,2.9194577,-0.0050092977,5.0,-2.6991205,-5.0,-5.0,5.0,4.3371315,-2.6843553,-2.3820791,-0.24276555,5.0,5.0,-0.40416366
-5.0,-2.011278,2.2924497,4.0976133,5.0,-5.0,-5.0,-5.0,5.0,4.773477,0.004125774,4.539988,-3.3134382,5.0,0.43439007,-0.08934662
-5.0,0.48545986,-1.3350805,-2.6345077,2.6593907,-0.009276271,5.0,1.3154774,-3.0917726,-4.2704134,3.9208996,-2.1468852,-3.2253485,-4.298722,-5.0,-2.5118914
-5.0,0.8421,-3.500914,-0.6544633,-1.2850997,5.0,5.0,-2.1349256,-5.0,-5.0,0.21262479,0.6919249,1.398906,-5.0,-5.0,-4.3372674
-5.0,3.052555,-2.8420298,-2.9008732,0.11231387,5.0,5.0,0.14457977,-5.0,-2.9916763,0.043685436,0.41039756,-1.2597792,-5.0,-5.0,-5.0
-0.8281033,-1.1094501,1.0394722,0.031338457,2.5903208,2.7051308,-0.12717545,1.3808799,-0.1088981,1.0814754,-0.14286196,0.1954925,-1.4855851,-5.0,-5.0,5.0
5.0,-5.0,0.06815207,1.168231,0.8690727,-3.940103,-5.0,5.0,5.0,3.009578,-0.21718419,-2.8319147,-4.7965345,-5.0,3.0023167,-1.5541806
5.0,0.62818193,-0.6342807,-1.0259497,5.0,-2.1780791,-5.0,5.0,5.0,5.0,-2.9006124,3.75159,-5.0,1.045485,4.8417816,-0.748476
5.0,1.740311,-1.5349091,-3.8584833,5.0,-5.0,-5.0,5.0,5.0,5.0,-3.8845758,10.0,-5.0,5.0,5.0,4.8953533
-2.3036957,3.5849955,-4.19098,10.0,5.0,-5.0,-5.0,5.0,5.0,5.0,-0.51530457,-7.7822466,-5.0,5.0,3.3455365,0.6800126
-5.0,0.94732213,0.53773856,-0.6329083,0.8640562,5.0,5.0,5.0,-5.0,-5.0,2.2993217,-8.773326,5.0,-1.8863995,-5.0,-3.6680567
-5.0,3.9395018,-3.4074914,2.1763198,1.9637272,5.0,5.0,2.232405,-5.0,-5.0,-0.31064516,0.44020885,5.0,-5.0,-5.0,5.0
-5.0,5.0,-2.8064086,-3.4688067,0.8191756,5.0,5.0,-0.3558753,-5.0,-0.39123678,-0.4338442,0.56751215,0.85461533,-5.0,-5.0,-5.0
5.0,-2.6251488,-1.518539,4.4189196,2.5387616,-4.354416,-5.0,5.0,5.0,5.0,3.8706317,-5.870171,-4.931068,-5.0,2.9337869,-2.2224276
5.0,-0.11125386,-2.048923,0.7296214,5.0,-5.0,-5.0,1.478195,5.0,5.0,-1.3246922,-3.0590966,-5.0,-1.9231274,3.9775283,0.26429626
5.0,0.7026348,-0.7790433,0.0025068598,4.9897795,-5.0,-5.0,5.0,5.0,5.0,1.7500124,2.6473355,-5.0,4.437696,5.0,-0.0409379
-5.0,0.5389792,3.151654,9.066961,5.0,1.7245057,5.0,-1.2077773,-5.0,-0.57680964,5.0,-2.3645153,2.101684,5.0,-5.0,2.376164
-5.0,2.8011243,-2.5546079,0.616578,1.1982372,5.0,5.0,0.82240045,-5.0,-5.0,0.15538383,0.3071701,1.7926109,-5.0,-5.0,5.0
-5.0,5.0,-2.5401425,-4.5583234,0.1926629,3.915821,5.0,-0.05425237,-5.0,-0.6506196,-1.71437,-1.9783628,3.1582654,-5.0,-5.0,-2.44878
5.0,-1.1965575,0.94920504,-0.20368612,5.0,-5.0,-5.0,-4.059458,4.8317466,5.0,0.54835397,-1.443109,-2.371139,-4.0937357,3.9490814,0.5671483
4.3245187,2.9572854,-2.3394742,0.14980747,5.0,-5.0,-5.0,4.142163,5.0,5.0,1.1219532,4.3374395,-5.0,5.0,5.0,-0.25213575
-5.0,0.5614909,1.9192892,0.3446608,5.0,1.3913306,3.7366261,-1.9605056,-5.0,2.535726,5.0,-10.0,0.51897866,5.0,-5.0,-0.40851057
-5.0,5.0,-3.0133674,-6.5657706,1.9328723,5.0,5.0,-0.0016513653,-5.0,-3.5689893,-1.1292711,-1.2962528,5.0,-5.0,-5.0,3.5976036
-1.3381474,0.24390233,-1.3369081,1.3683877,2.315084,1.3982829,2.3426476,4.366804,-0.5556712,3.0202136,-1.462936,0.6944196,1.023668,-5.0,-2.8302255,5.0
5.0,0.5196529,-1.9821093,-1.4981701,1.6421337,-2.226041,-5.0,5.0,5.0,5.0,0.7686838,8.128528,-2.733439,-2.8422985,3.5209494,0.46554592
5.0,-0.037508786,-0.0080240965,0.35713667,5.0,-5.0,-5.0,5.0,5.0,5.0,-1.5097634,0.76253676,-5.0,5.0,5.0,-0.59426075
-5.0,-0.5567832,0.043218613,-0.2197412,5.0,-3.3079786,-1.8191824,-3.3798695,0.8577839,5.0,0.36360025,-10.0,-1.0124452,5.0,-5.0,-0.028707102
-5.0,1.2642591,0.8527776,10.0,-0.0024838448,5.0,5.0,-0.051622517,-5.0,-4.4273233,1.2939938,-0.7494728,5.0,-0.30126476,-5.0,5.0
-5.0,5.0,-1.5603409,-4.658407,-1.6074824,4.5540824,5.0,-0.9660589,-5.0,-2.4932156,-0.6684084,1.8469604,1.7511966,-5.0,-5.0,1.6502175
2.1422524,-0.25688028,-0.77538633,-1.4491333,1.8190093,-0.5184269,-0.45874178,2.6284895,0.89028513,3.7026777,-0.4334321,-0.6012194,1.962527,-5.0,-1.1428431,-5.0
5.0,-0.4629088,-0.2922932,0.32653904,2.4285946,-2.1895564,-5.0,0.29651284,5.0,5.0,0.0914768,1.3578811,-5.0,-4.5596066,4.4174523,0.39206466
3.6098776,0.81923485,-1.225647,0.2531969,4.625622,-4.546425,-5.0,-1.3685656,5.0,5.0,0.48695362,-1.873272,-5.0,5.0,5.0,-0.116207585
-5.0,-0.42618728,0.5879955,-0.4420548,5.0,-0.79749846,-1.0475509,5.0,-3.700161,5.0,5.0,0.72725296,-1.9351342,5.0,-4.781354,0.3796057
-5.0,3.4504442,-0.56035936,0.21689562,0.38485193,5.0,4.7414813,-0.7908002,-5.0,-3.8516967,0.054860264,0.41257933,4.2821884,-5.0,-5.0,-4.2744026
-5.0,4.1540656,-3.0773516,-7.72083,-1.0089302,5.0,5.0,-0.3731822,-5.0,-0.15589046,-1.1886512,-2.1760051,1.6804525,-5.0,-5.0,5.0
5.0,-0.46276265,-0.4864273,0.6179246,1.6553701,1.4851629,-5.0,5.0,5.0,5.0,0.07132816,0.06722182,-3.4686763,-1.0148507,2.5393298,1.6691022
-1.0637217,5.0,1.387598,2.2882779,4.2627764,1.4335604,1.5408596,-0.379103,-3.020976,5.0,-3.8101006,-9.854972,2.2643893,1.8451052,0.8836154,0.4111609
0.97678566,4.648276,-1.4502808,-1.8767754,-1.4050597,-0.32821035,1.5087134,3.6190279,-5.0,5.0,-5.0,1.2257738,1.8493332,0.51829547,3.2880824,0.599434
4.6138515,-1.8212292,3.8275023,0.10617166,4.151608,-2.9213014,-5.0,-4.1820974,-1.2750854,5.0,-0.9499228,1.5789986,0.67362493,4.2768373,4.5530686,-0.098659836
2.491286,-4.4994297,5.0,0.85228103,3.194937,-3.0508175,-5.0,-2.33989,0.017461658,5.0,-5.0,-7.521438,-0.32983825,5.0,5.0,0.38188964
3.228001,-5.0,4.401458,1.1933993,3.5485804,-3.3801365,-4.4783874,-5.0,-3.6582704,5.0,-0.622769,8.003872,-1.9125161,5.0,5.0,-0.08836109
1.9848661,-5.0,3.8498185,-1.2504284,5.0,-2.239483,-5.0,5.0,-1.9748746,5.0,-2.585511,8.207638,0.3067121,5.0,5.0,1.2084222
3.3732336,-5.0,4.9058046,0.9750324,2.0783281,0.15630993,-4.2032976,-0.097334385,-0.8633626,5.0,-1.981456,1.4944844,-0.2846731,5.0,5.0,-1.4842765
0.7995658,-5.0,3.812432,-0.7718827,0.29312152,-0.18938106,-3.5976276,-0.607213,-0.54096293,5.0,1.6374882,6.4442177,-0.3001681,5.0,5.0,-2.872118
1.5666797,-5.0,2.7144845,0.4206835,2.0792503,-1.8540518,-5.0,-5.0,-1.7606488,5.0,-5.0,5.3201194,0.17610043,5.0,5.0,-0.39308318
2.253083,-5.0,4.405265,0.016577356,2.8356106,-2.1910758,-5.0,-5.0,-1.402683,5.0,-0.56267124,1.4310651,-0.95729554,5.0,4.6287284,-1.0796926
1.4895068,-5.0,3.0374515,0.36174262,0.80605364,-2.8683426,-5.0,-5.0,0.38022304,5.0,-5.0,6.9735193,1.6202631,5.0,4.9519496,1.4799291
2.0934587,-5.0,4.532328,-1.3917564,2.8848944,-1.6660373,-5.0,-5.0,-0.58102345,5.0,-2.853586,7.331936,0.13876432,5.0,5.0,0.9409193
1.8545741,-5.0,4.4252825,-0.93934375,0.3045534,0.037790418,-5.0,5.0,-0.08018005,5.0,-0.026395082,10.0,0.29971868,5.0,3.7677207,-1.1685216
2.7590845,-5.0,4.2253637,-0.040651906,-0.08216274,-4.149398,-5.0,-5.0,4.2717333,5.0,-5.0,1.1526518,-0.81629837,5.0,5.0,0.13737139
1.0721197,-5.0,3.635222,-1.1378572,-3.5362053,-0.53876257,-5.0,1.8233471,1.4578508,5.0,-5.0,10.0,-0.73716927,5.0,5.0,0.07356262
2.8029373,-5.0,4.7021446,-1.0541061,-1.0946183,1.7043685,-5.0,5.0,-0.46318486,5.0,-2.449351,7.6840944,0.16442913,5.0,5.0,-0.31153852
3.0365715,-5.0,3.7999775,-0.4664689,-0.27334327,0.18616867,-5.0,5.0,-2.5424628,5.0,-0.42090058,10.0,-2.5127556,5.0,4.1977973,0.66169614
0.98413265,-5.0,4.9274,-0.66569966,-3.73845,-0.79424644,-3.956929,1.1002052,-0.25793353,5.0,-1.8178383,-1.2300587,-1.7133596,5.0,4.72441,3.4546819
0.12847877,-5.0,3.2921844,-0.096864045,-0.26768422,1.3979583,-2.5814576,5.0,0.5246582,5.0,1.4412951,8.121696,-0.16885477,5.0,1.9658502,-2.6176405
0.07305443,-1.6602155,-1.1486541,-4.469176,-2.6945875,0.45766985,-0.88256776,5.0,2.5781097,5.0,2.6063015,2.9087415,-0.353925,2.2695017,-1.0773093,5.0
2.195984,-2.7629642,-0.07683134,10.0,3.5396724,-1.2713917,-5.0,-0.47079772,0.42638528,5.0,-0.49543977,2.3516557,0.06446719,-2.4822803,-1.264934,-5.0
4.246342,-3.3490844,2.6048365,0.27695796,5.0,-0.99464035,-5.0,5.0,2.6737454,5.0,-5.0,10.0,3.0558128,0.75192595,2.528983,0.6004377
1.4343722,-5.0,5.0,-0.103016324,5.0,-1.6831197,-5.0,0.8747851,1.5044397,5.0,-3.4893408,-10.0,0.4495625,5.0,5.0,-0.3070031
-0.11870551,-5.0,5.0,-0.66206497,1.9550829,-1.6221235,-4.955358,5.0,1.0276124,5.0,-3.1430316,-4.9030313,-1.2124138,5.0,4.9145575,-0.16513857
-5.0,4.773763,-3.2753367,0.8331449,-5.0,0.73560464,2.1029432,4.2045097,-2.5449643,5.0,5.0,0.07538532,-3.127592,-5.0,-5.0,3.2453303
-5.0,5.0,-5.0,-7.7419043,-4.520678,-0.15544635,1.0926634,-0.03925257,-0.7609675,-0.623137,5.0,0.4963492,-4.5836887,-5.0,-5.0,0.3044598
-5.0,3.535548,-3.2985435,-0.63885486,3.029934,-5.0,-5.0,0.10501176,3.4040246,-4.2592964,2.03617,0.5533073,-0.40132654,-5.0,0.8846901,-5.0
2.7739944,-5.0,4.547991,0.6781919,5.0,-0.54083884,-5.0,-5.0,4.943898,5.0,-5.0,-6.695253,5.0,-0.37503505,0.15085971,0.05968981
0.31905073,-4.735965,5.0,0.012245582,5.0,-4.632304,-4.859765,-5.0,3.4576533,5.0,-2.8413339,-10.0,1.2848034,5.0,5.0,-0.050069585
-2.901194,1.7983615,-1.0906588,-0.024690581,5.0,-5.0,-1.4653666,-5.0,5.0,5.0,-0.6093509,-1.581831,-1.7869585,5.0,4.015132,-0.0926597
-5.0,5.0,-5.0,-5.152799,-5.0,2.2152057,1.7398089,0.67366946,-5.0,2.6434052,1.5418874,0.18639015,-5.0,-5.0,-5.0,-5.0
-5.0,5.0,-5.0,10.0,4.1687884,-0.2561189,0.2903369,0.09402174,-1.2416581,-5.0,5.0,-1.0263362,-3.3780794,-5.0,-5.0,0.062394857
5.0,-5.0,5.0,2.7419405,5.0,-5.0,-5.0,5.0,5.0,5.0,-5.0,9.930517,5.0,-5.0,1.243012,3.4216812
1.3782383,-4.0558286,4.8111343,0.08214359,5.0,-3.0552883,-3.7693977,5.0,2.7087944,5.0,-5.0,-8.4218855,5.0,4.2042103,5.0,-0.1650826
-1.8256538,-0.9646814,2.247647,0.058659192,5.0,-5.0,-5.0,-3.4853683,5.0,5.0,-2.2786493,10.0,-0.16329682,5.0,5.0,-0.027083006
-5.0,5.0,-5.0,-7.840133,-3.6562624,0.115038395,3.9680152,-0.17270304,-2.4602442,5.0,3.683552,3.62549,-5.0,1.6521747,-2.0668688,0.5125728
-5.0,5.0,-5.0,-2.6893468,-3.5098228,3.5428143,3.1993587,-0.10301009,-3.5047145,-2.2578583,5.0,0.22044078,-5.0,-5.0,-4.7181683,5.0
-5.0,5.0,-5.0,-5.0659933,5.0,-4.2154255,-4.138449,0.17666195,1.54702,-4.9870625,2.752939,0.43297282,-0.15783799,-5.0,0.84130067,0.21707368
3.5758529,-1.7343318,0.14267659,2.3309186,5.0,-5.0,-5.0,-5.0,5.0,4.812544,-5.0,0.41379845,4.6268044,-5.0,0.5583519,-0.4527714
-0.009722471,-4.770447,5.0,-0.72831297,5.0,-3.4799175,-5.0,5.0,5.0,5.0,-5.0,-7.008068,1.2646925,5.0,5.0,-1.556039
-4.323456,0.177127,-0.004116893,-0.49616107,5.0,-5.0,-3.291264,-3.7641654,4.375426,5.0,1.3041525,1.7817587,-2.6894956,5.0,4.367018,-0.3691722
-5.0,2.624115,-5.0,0.7191708,-5.0,1.6757305,3.6088583,0.22196595,-2.8666596,-1.334399,5.0,0.11073705,-5.0,-5.0,-5.0,-5.0
-5.0,4.631261,-5.0,10.0,3.33006,-2.2292137,0.13499916,3.2279532,0.48015428,-4.8509655,4.6200104,-0.30936217,-5.0,-5.0,-0.72837853,5.0
0.356004,1.3521081,-5.0,-2.8618593,5.0,-4.270745,-5.0,5.0,4.370721,3.2707934,-3.1036391,0.7283075,2.7578611,-5.0,0.51956403,1.7090553
-0.090052485,-2.8046472,5.0,-3.3383467,5.0,-1.6697867,-2.6951845,5.0,5.0,5.0,-5.0,-10.0,5.0,4.1056256,2.0986545,0.9130403
0.06157005,-3.9669516,5.0,0.010915915,5.0,-3.988453,-5.0,5.0,4.6433277,5.0,-1.5120178,10.0,0.12371892,5.0,5.0,-0.974731
-5.0,5.0,-5.0,0.9899384,-2.7079394,-1.816817,3.801832,0.4159983,-0.55466896,5.0,5.0,-0.38573605,-3.5242462,4.496937,-2.076068,0.29261425
-5.0,4.107625,-5.0,4.801614,-5.0,3.6042895,3.46539,-0.32212177,-3.9443161,-2.1308587,4.166378,-0.0020209905,-5.0,-5.0,-5.0,-4.850446
-3.315486,5.0,-5.0,10.0,5.0,-3.169508,-1.2596505,0.111602634,1.2174987,-4.2037034,1.6551818,0.3543909,-2.0814729,-5.0,0.6417166,-0.53188413
5.0,-0.75335574,-1.4395292,-3.8094785,5.0,-5.0,-5.0,-2.4400654,5.0,5.0,-5.0,-3.7777185,4.0672626,-5.0,1.7220964,0.5618313
0.51990926,-3.5593717,5.0,-0.3669326,5.0,-5.0,-5.0,-5.0,4.0391245,5.0,-5.0,-10.0,1.6265203,5.0,5.0,0.020361466
-4.089611,1.0365815,-1.1060994,0.47253564,5.0,-5.0,-5.0,-3.5069323,5.0,5.0,1.0032156,10.0,-1.2576706,5.0,4.8120346,-0.13316251
-5.0,5.0,-5.0,-4.013222,-5.0,0.5292357,2.2920132,0.7089164,-4.7231216,5.0,2.1514735,0.52954984,-5.0,-0.5638242,-5.0,5.0
-5.0,5.0,-5.0,10.0,-1.97922,3.3527756,2.756293,0.51314646,-1.2711598,-4.8335137,5.0,-0.26965976,-5.0,-5.0,-5.0,5.0
-5.0,4.67006,-5.0,2.5299528,5.0,-5.0,-4.680064,0.31724206,3.098792,-5.0,1.2751144,-0.900515,-4.1414666,-5.0,2.1295571,-0.93892026
4.8084993,-2.541741,1.7746253,0.5958293,5.0,-5.0,-5.0,-5.0,5.0,5.0,-5.0,-0.14757466,5.0,-5.0,1.0603805,-0.049440477
0.42521542,-5.0,4.15817,-0.08375875,5.0,-4.4757633,-5.0,3.0491114,1.9079596,5.0,-5.0,5.876137,4.027303,5.0,5.0,-0.7632817
-1.2825633,-2.584033,3.0389118,-0.78800327,5.0,-5.0,-5.0,-3.51935,5.0,5.0,-2.7831495,-7.8314304,0.09492862,5.0,5.0,-1.0729127
-5.0,5.0,-5.0,0.5390465,-0.5146599,-1.6597624,2.8672652,-0.55359524,0.7520615,5.0,0.5513499,0.39940304,-5.0,5.0,-0.25850183,-0.23774008
-5.0,5.0,-5.0,-0.1195904,-1.5394398,3.195751,4.0097876,-0.54826516,-3.1971765,-3.3376992,5.0,0.76339847,-4.7122335,-5.0,-4.468953,5.0
-5.0,5.0,-5.0,8.378275,3.8035438,-1.6453875,-0.6482998,-0.76737696,-0.47433174,-5.0,3.4608302,-0.07920058,-2.535175,-5.0,-0.7276881,5.0
2.272453,-3.801075,3.2874496,-0.41196302,5.0,-3.9632654,-5.0,-5.0,3.7870579,5.0,-5.0,-10.0,5.0,-4.725814,0.10490048,0.158954
0.3900898,-4.720443,5.0,-0.0410502,5.0,-5.0,-4.9761825,-5.0,2.3525596,5.0,-5.0,0.19906,4.1440506,4.6110735,5.0,-0.92295146
-3.5338626,0.74350744,-0.76306176,-0.084285595,5.0,-5.0,-5.0,5.0,5.0,5.0,-1.101151,2.4528122,-0.75924814,5.0,5.0,-1.244285
-5.0,5.0,-5.0,-9.912028,-1.8531392,-0.5482188,0.24335492,0.12380493,-2.3623881,5.0,1.2522349,2.1854844,-5.0,-0.5583648,-2.2270658,0.04856079
-5.0,4.352193,-5.0,10.0,-0.6085285,4.5928745,2.6741714,-0.37117302,-4.8898854,-5.0,5.0,-0.37479928,-5.0,-5.0,-5.0,1.5693402
-5.0,5.0,-5.0,1.8368974,5.0,-4.6945257,-2.6879826,-0.29421166,2.350926,-5.0,2.736352,-0.13190854,-4.8888803,-5.0,-0.5923227,-5.0
3.9618168,-0.7667966,0.4038526,-0.04144277,5.0,-5.0,-5.0,5.0,5.0,4.8843255,-5.0,0.26748967,3.8724136,-5.0,0.46868587,0.4556813
0.9400889,-3.9248495,5.0,-0.34205833,5.0,-5.0,-5.0,-5.0,5.0,5.0,-4.5176826,10.0,1.564232,5.0,5.0,-1.1189092
-0.5159831,-2.8395839,2.8078527,-0.2504248,5.0,-5.0,-5.0,-5.0,5.0,5.0,-2.6817057,-10.0,0.09968549,5.0,5.0,-0.32594526
-5.0,3.9634256,-5.0,-0.88919425,-0.9140491,-1.044952,2.731927,0.6164335,-2.0052416,5.0,2.8894358,-0.026065871,-4.8696656,2.8887362,-1.7641858,-0.3638208
-5.0,5.0,-5.0,-10.0,-4.1819925,3.0541878,3.6588047,-0.051566347,-5.0,-1.4543588,3.995644,-0.29474077,-5.0,-5.0,-5.0,-3.9761155
-5.0,5.0,-5.0,0.83741117,5.0,-5.0,-4.872551,1.6143892,3.0418987,-5.0,2.4594376,0.39651623,-0.4385947,-5.0,1.696425,1.9365413
5.0,-2.5895548,2.6399808,0.119137265,5.0,-3.419684,-5.0,5.0,4.6779747,5.0,-5.0,10.0,4.9153166,-2.6722064,-0.12192726,-2.5545068
1.3502767,-4.5306544,5.0,-0.2802105,5.0,-3.3704963,-5.0,5.0,0.7574584,5.0,-5.0,0.66750467,0.6054274,5.0,5.0,-1.4299594
-1.672108,-0.1027558,1.2821115,-0.21286738,5.0,-5.0,-5.0,-5.0,5.0,5.0,-4.38274,-7.4061003,-1.4344423,5.0,5.0,-0.15601155
-5.0,5.0,-5.0,-0.05969119,-3.6672606,4.2136497,0.23330832,-1.7151672,-5.0,4.912257,4.623131,-5.6301017,-5.0,-1.9011856,-5.0,-2.3723996
-5.0,5.0,-5.0,-4.2877927,-0.5235169,0.6370744,2.711467,1.6922071,-2.1339197,-4.4187155,5.0,-1.3722247,-5.0,-5.0,-5.0,-4.6627927
-2.36176,5.0,-5.0,9.461285,5.0,-2.952811,-1.0940468,-1.483165,2.3941102,-5.0,1.6601161,0.4903152,-0.7597735,-5.0,0.34562314,1.7839386
1.8160648,-2.3330812,1.0562407,10.0,5.0,-4.3471994,-5.0,-5.0,4.374628,5.0,-5.0,4.131904,5.0,-0.2768361,0.92265105,-0.4588188
-1.7797599,-4.656877,4.2210374,-3.317869,5.0,-4.3467145,-5.0,5.0,3.1005104,5.0,-5.0,10.0,0.6632838,5.0,5.0,-3.3757386
-1.3524504,0.8323027,0.8863566,-0.23634706,5.0,-5.0,-5.0,-3.0883281,5.0,5.0,-3.2814322,4.569751,-1.7700589,5.0,5.0,-0.32167166
-5.0,4.770424,-5.0,1.3109589,-5.0,1.3146309,1.6552582,-0.6743981,-2.7442064,1.2965727,2.897304,0.48905727,-5.0,-1.3791027,-5.0,1.3474283
-5.0,5.0,-5.0,-0.40520048,0.31796098,1.7869638,3.0538688,0.7228522,-1.3541481,-3.266847,5.0,-0.015747994,-4.5671616,-5.0,-5.0,4.3024573
2.494721,5.0,-4.8991876,-3.3833423,5.0,-5.0,-5.0,-0.9416292,4.1159544,1.8459947,-4.8832703,-0.1076219,1.4853334,-5.0,-0.038903356,0.04714083
1.2535145,-0.19797044,2.5252364,-4.206286,5.0,-1.7247605,-5.0,3.811637,2.312912,5.0,-5.0,10.0,5.0,1.701892,4.1740713,-1.588777
-0.34187722,-3.3363066,4.6461196,0.18476214,5.0,-5.0,-5.0,0.101797044,3.5561779,5.0,-5.0,-8.905085,0.71912223,5.0,5.0,-1.5155934
-5.0,3.512374,-3.5522056,0.35199758,5.0,-5.0,-5.0,-4.3318152,5.0,5.0,-2.9262927,-4.878444,-2.0593803,5.0,2.933744,-0.36149216
-5.0,5.0,-5.0,-7.118993,-5.0,1.6497995,3.5169263,0.4212377,-2.318404,0.90224004,5.0,0.09057839,-5.0,-5.0,-5.0,0.094147444
-5.0,5.0,-5.0,3.3192067,0.95647144,-0.2872274,1.3426946,-0.10146462,-0.8883731,-5.0,5.0,0.018501986,-0.08557436,-5.0,-5.0,-2.6911728
0.8463865,1.3365018,0.35901058,-0.010255715,5.0,-5.0,-5.0,-5.0,5.0,0.87167,-4.5500307,0.4260737,4.2271557,-5.0,0.83079946,1.3353683
1.0621474,-5.0,5.0,0.27815273,5.0,-4.6456037,-5.0,-5.0,2.1623473,5.0,-5.0,-6.820913,5.0,3.8311,4.297554,-0.36869732
-0.46700484,-3.9231503,4.161495,-0.8451677,5.0,-5.0,-5.0,1.3560314,3.647258,5.0,-5.0,-7.6154957,0.94452834,5.0,5.0,-0.38419878
-5.0,2.650014,-5.0,10.0,1.7148697,-5.0,2.184846,4.0258584,2.1899526,5.0,-0.53588843,-0.8030407,-5.0,5.0,1.757034,0.4544357
-5.0,4.96643,-5.0,10.0,-4.1703925,2.0367024,1.8847679,0.66973436,-3.4851146,1.1175327,3.0279412,0.013836533,-5.0,-5.0,-5.0,-4.9173417
-5.0,5.0,-5.0,-7.2397976,0.034551084,0.08529405,1.5313013,0.09759309,-3.3495913,-4.38891,5.0,-0.3041618,-5.0,-5.0,-3.7804523,-2.8450794
-1.8469899,5.0,-5.0,2.3038812,5.0,-5.0,-5.0,-5.0,4.4177833,-1.1296773,-1.4844925,-0.100905225,1.0707895,-5.0,1.8784789,0.074683756
2.5695837,-3.0685067,2.4454358,0.37412357,5.0,-4.818826,-5.0,-5.0,5.0,5.0,-5.0,-10.0,5.0,-2.5824013,1.3674903,0.91410863
-0.36824918,-3.3175516,4.7495327,-0.92838883,5.0,-5.0,-5.0,-5.0,5.0,5.0,-2.897609,-4.3428006,0.81948435,5.0,5.0,-1.1160992
-5.0,3.1071775,-3.6770332,1.3112355,4.699687,-5.0,-2.9638038,-1.2560807,5.0,5.0,1.6165915,0.5313725,-3.8505297,5.0,3.6663182,-0.9363957
-5.0,3.7925391,-5.0,2.480616,-4.5767994,2.190376,3.1460283,-0.8813345,-3.8982823,2.703545,1.5816069,-0.017221835,-5.0,2.6748486,-5.0,5.0
-5.0,5.0,-5.0,-4.717169,3.1121607,0.89429307,0.5533128,-0.3628371,-0.68551946,-5.0,5.0,-0.20019859,-2.319221,-5.0,-4.657438,0.37058496
1.4423326,5.0,-3.4205418,-6.9538026,5.0,-5.0,-5.0,-5.0,5.0,1.0932446,-2.6164846,0.8245081,3.7686245,-5.0,0.7047547,0.3449884
1.2147094,-4.387643,4.378468,-1.1296194,5.0,-0.75072193,-5.0,5.0,5.0,5.0,-5.0,1.9220681,5.0,0.851411,1.687756,-4.922402
0.21298432,-4.8990517,5.0,-0.59831417,5.0,-5.0,-5.0,3.6390643,2.285131,5.0,-5.0,-4.7717447,-0.14677817,5.0,5.0,-0.7687556
-2.6059217,0.18792307,-0.13477683,0.26719657,5.0,-5.0,-5.0,5.0,5.0,5.0,0.11124432,10.0,-1.6434193,5.0,5.0,-0.42381737
-5.0,5.0,-5.0,-3.9642467,-5.0,2.5953543,3.3448007,-0.11213899,-2.6944845,1.4956619,2.8841267,0.4947075,-5.0,-0.43265045,-5.0,-0.7323859
-5.0,5.0,-5.0,10.0,-1.1422585,2.844634,2.8562014,0.471623,-2.8646579,-5.0,5.0,-1.0949992,-5.0,-5.0,-5.0,1.834037
-5.0,5.0,-5.0,-5.6434565,5.0,-4.723897,-3.0160327,1.2078662,2.4452105,-5.0,2.8234692,0.12684926,-3.1500554,-5.0,0.122263014,-5.0
4.6037965,-1.8437724,2.222909,3.410553,5.0,-3.6124773,-5.0,5.0,5.0,5.0,-5.0,2.89784,5.0,-5.0,0.7226114,-1.9787112
0.17458498,-4.0483713,5.0,0.051396154,5.0,-3.1734195,-5.0,5.0,1.5746031,5.0,-5.0,8.080774,2.732965,5.0,5.0,-0.5494407
-4.298313,0.24548185,0.111056805,-0.18622383,5.0,-5.0,-4.2849727,0.81425786,5.0,5.0,-1.2676951,7.9735403,-1.5182095,5.0,5.0,-0.27072528
-5.0,4.4735827,-5.0,1.1764133,-1.9266353,-0.7324853,0.8694533,-0.15966886,-1.9029652,5.0,0.7446395,0.45367607,-3.9820175,2.50181,-1.7879765,0.43607014
-5.0,5.0,-5.0,-3.814519,0.51689935,-0.01300998,1.390339,1.660892,-2.558521,-4.374517,5.0,-0.53302795,-5.0,-5.0,-3.1550374,5.0
-1.707829,5.0,-5.0,3.1655304,5.0,-4.845664,-5.0,2.7198234,4.025452,-1.9374318,-0.10214865,0.048641108,2.083101,-5.0,2.73153,1.0816828
1.732734,-4.015448,4.5195723,-0.03132658,5.0,-4.8395123,-5.0,-5.0,5.0,5.0,-5.0,10.0,5.0,0.5053272,3.1124008,0.441997
0.12459791,-4.074724,4.2786646,-0.9211968,5.0,-5.0,-5.0,-2.5079167,4.5728703,5.0,-4.7566233,0.2691629,2.167811,5.0,5.0,-0.119808234
-5.0,3.5150814,-5.0,-10.0,5.0,-5.0,-4.1827226,-5.0,1.1783538,5.0,2.9165277,10.0,-4.474476,5.0,4.0913563,-0.206897
-5.0,4.0822635,-4.1888795,10.0,-5.0,4.400789,4.521945,-0.39259914,-3.2274256,-2.9843712,2.7133713,-0.7898853,-5.0,-5.0,-5.0,-5.0
-5.0,4.7686386,-5.0,-8.135416,-0.9601999,0.76831,2.4422781,1.6442266,-0.8020506,-5.0,5.0,-0.4750076,-5.0,-5.0,-5.0,-5.0
1.6443827,1.5943153,-2.1678166,1.8891526,5.0,-1.2944424,-5.0,5.0,5.0,4.8853493,-5.0,1.6114241,5.0,-5.0,-0.38663268,-0.49611124
2.7030425,-4.574806,5.0,-0.8657347,5.0,0.9731661,-4.0659313,2.8268526,5.0,5.0,-5.0,10.0,4.711616,2.0191905,3.7267184,0.12735483
-1.7308955,-4.2228246,5.0,-3.2343647,5.0,-3.5112686,-3.3161657,5.0,5.0,5.0,-3.7368023,-10.0,-1.7963893,5.0,5.0,-4.8537445
-3.532864,2.0684838,-2.3174722,-0.2720052,5.0,-5.0,-4.1926208,-5.0,5.0,5.0,-1.1873381,0.83055043,-0.8164085,5.0,3.1901023,0.26930398
-5.0,0.76995087,-5.0,10.0,-5.0,0.47010443,2.92171,0.21007201,-1.8085604,3.6546037,2.3990345,0.3026915,-5.0,-0.019709691,-5.0,-3.3561454
-5.0,4.187649,-5.0,10.0,1.7181252,0.0727109,2.1896818,-1.8901933,-0.7241436,-5.0,5.0,1.3300734,-5.0,-5.0,-5.0,-0.4632094
-2.6137898,5.0,-4.82335,-5.526017,5.0,-5.0,-5.0,-5.0,4.4404945,-0.42486262,-1.7946796,-0.23567365,3.1661644,-5.0,3.4016008,-0.9846358
1.0814109,-2.7446523,2.2290227,-0.17771438,5.0,-3.5836685,-5.0,-5.0,5.0,5.0,-5.0,10.0,5.0,-0.91877544,1.8752759,2.6092017
0.27409077,-3.3414888,5.0,0.17428276,5.0,-3.7434754,-3.5768304,5.0,3.7315373,5.0,-3.447171,10.0,1.6045496,5.0,5.0,-1.3044102
-4.860566,1.4536624,-2.5883365,0.6187973,5.0,-5.0,-5.0,1.8664591,5.0,5.0,-0.9933967,1.2923521,-1.6138197,5.0,4.296335,-0.9363487
-5.0,5.0,-5.0,2.6820202,-5.0,1.5443645,2.5322104,-0.11836319,-1.6565802,4.402942,3.2631197,0.69975084,-5.0,0.7177619,-5.0,5.0
-5.0,5.0,-5.0,10.0,0.6170703,0.5116225,1.3289415,3.712233,-2.7200942,-5.0,5.0,-0.29755408,-3.9382205,-5.0,-5.0,5.0
-0.47625747,5.0,-5.0,1.800865,5.0,-5.0,-4.4445276,1.378077,5.0,-1.9979525,-0.6547606,0.029101381,1.0052197,-5.0,3.3780446,2.1896086
3.3530576,-3.2543986,3.5025287,0.5573136,5.0,-5.0,-5.0,-5.0,3.4966528,5.0,-5.0,-4.6598573,4.420745,0.047910452,1.9548198,0.780929
-1.6458958,-3.595025,5.0,0.15916672,5.0,-5.0,-5.0,-3.556263,5.0,5.0,-3.905345,-7.248025,0.589153,5.0,5.0,-2.0836825
-5.0,0.6012846,-1.1335405,-0.6770522,4.1777973,-5.0,-1.7130698,-4.2871623,4.6394973,5.0,-1.6101896,-10.0,-4.110281,5.0,1.4143764,-0.8248199
-5.0,5.0,-5.0,3.0311809,-0.9547796,0.53634596,0.8830527,4.021278,-5.0,1.90475,4.2462068,0.21616915,-4.5000215,-5.0,-5.0,1.2966515
-5.0,5.0,-5.0,-5.773589,0.9384867,0.26917028,1.8333594,3.5040743,-2.8217397,-5.0,3.9809437,-0.07085021,-5.0,-5.0,-4.1440506,-4.199836
4.3056765,-3.6624057,3.0371509,-3.5419886,5.0,-4.573233,-5.0,5.0,5.0,5.0,-5.0,6.280272,5.0,-5.0,1.7476677,1.2408286
1.0874376,-5.0,5.0,-0.069344215,5.0,-1.7673424,-5.0,5.0,3.5463166,5.0,-5.0,-9.197274,5.0,5.0,5.0,-0.7475014
-4.4256735,-2.970005,-1.0972551,1.809261,5.0,-5.0,-5.0,1.3600993,5.0,5.0,-0.44368672,2.3730361,-3.5220923,5.0,5.0,-2.7466586
-5.0,5.0,-5.0,8.37542,-0.33089066,-0.7346189,0.40340304,-5.0,-1.3609402,5.0,1.9819684,-0.30106282,-5.0,2.815372,-2.7937644,-0.56749064
-5.0,5.0,-5.0,-8.880771,-2.7770724,2.7047112,2.6457329,0.59003407,-4.1110597,-2.811312,5.0,1.3677208,-5.0,-5.0,-5.0,5.0
-0.26461405,5.0,-5.0,10.0,5.0,-5.0,-5.0,-5.0,5.0,-4.358087,-0.38794124,-0.74544275,2.3348107,-5.0,2.2594175,5.0
4.067034,-1.2925801,1.1051704,-0.01636774,5.0,-5.0,-5.0,-5.0,5.0,5.0,-5.0,6.4324737,4.9166837,-5.0,2.1896398,-0.45964608
2.1308184,-4.8372903,5.0,-1.2436376,5.0,-5.0,-5.0,-3.2866738,5.0,5.0,-5.0,-7.192151,3.6392264,5.0,5.0,-0.6048458
-2.8175182,-0.7647522,1.1074172,0.12351995,5.0,-5.0,-5.0,-3.0234957,3.4774585,5.0,-1.1318092,10.0,-2.8976002,5.0,5.0,-0.33519146
-5.0,5.0,-5.0,4.093127,-2.9387903,2.2018743,0.0374887,-4.2954073,-4.2692785,-0.4586599,5.0,-9.796805,-5.0,-3.5956707,-5.0,5.0
-5.0,5.0,-5.0,-2.0183516,1.2584739,0.9626559,1.6831505,0.12496645,-4.057538,-5.0,5.0,0.44798273,-4.705048,-5.0,-5.0,5.0
0.33795285,5.0,-4.4436817,0.56855714,5.0,-4.435563,-5.0,5.0,5.0,1.0124458,-2.7726853,-0.10769147,2.5638342,-5.0,0.9124345,1.5948621
1.1290936,-3.3537679,4.0929875,0.09755311,5.0,-1.339706,-5.0,5.0,2.3558724,5.0,-5.0,10.0,5.0,3.6065223,4.737125,-0.89282477
-1.2681998,-3.653709,5.0,0.16962361,5.0,-5.0,-5.0,-4.8353786,5.0,5.0,-5.0,-10.0,-0.5163877,5.0,5.0,-0.389836
-5.0,5.0,-4.2823095,10.0,-3.2432957,-1.4090972,3.1932797,1.0817895,-5.0,5.0,4.4649973,-4.3214297,-5.0,3.3784416,-5.0,-0.76604074
-5.0,5.0,-5.0,-10.0,-5.0,3.7169635,3.9951057,0.030188255,-1.6922504,-3.964056,5.0,-1.1438866,-5.0,-5.0,-5.0,-2.341601
-5.0,5.0,-5.0,-3.821002,3.9810715,-0.988387,1.5227535,2.1883497,-1.1434572,-5.0,4.760976,-0.27448544,-4.2073545,-5.0,-3.1243272,-0.35578892
2.8518715,-0.3319494,0.5394497,-0.33993948,5.0,-5.0,-5.0,-5.0,5.0,5.0,-5.0,0.9076545,5.0,-5.0,0.95860565,0.21400413
1.8673308,-5.0,5.0,-0.4705574,5.0,-3.760248,-5.0,-5.0,2.5940533,5.0,-5.0,-7.9453893,4.0923176,5.0,5.0,-1.561198
-2.5931942,0.7165326,-0.4077686,-4.7846756,5.0,-5.0,-5.0,-0.61812174,5.0,5.0,-2.2134414,10.0,-0.3339616,5.0,5.0,-1.143891
-5.0,5.0,-5.0,-6.7720165,-1.0628566,-4.8497586,1.1261907,0.25121784,-0.32596934,5.0,1.8471626,-0.19620578,-5.0,5.0,-1.0394479,-0.62360966
-5.0,5.0,-5.0,-1.1398773,-0.02836889,1.9867288,2.9860885,-1.4147522,-2.4490702,-2.856199,4.743075,0.04841491,-5.0,-5.0,-4.342605,2.614416
-2.927292,5.0,-5.0,3.8607197,5.0,-3.6007485,-5.0,-5.0,4.0548644,-3.3999338,1.0026981,2.216359,0.12204772,-5.0,0.13773465,0.1755614
3.8542113,-2.367281,3.5147433,1.5026038,5.0,-3.7372427,-5.0,-5.0,3.0710664,5.0,-5.0,-5.2232847,5.0,1.9195756,2.18123,-0.5018245
0.72861606,-3.8437757,5.0,-0.59222305,5.0,-5.0,-5.0,-5.0,3.2739677,5.0,-5.0,-5.533984,1.1560295,5.0,5.0,0.26277053
-3.8548856,-0.026303023,-0.42449355,-0.044242766,5.0,-5.0,-5.0,5.0,5.0,5.0,-2.1710086,10.0,0.073782325,5.0,5.0,-1.386078
-5.0,4.136099,-5.0,2.9991698,-2.4151387,0.1716963,1.0214577,5.0,-4.0706162,4.5191,2.5650992,-0.16419265,-5.0,0.8934876,-5.0,5.0
-5.0,5.0,-5.0,7.087961,-0.91486573,2.7614975,1.5635847,0.12048036,-4.5680075,-1.6923084,5.0,-0.42779082,-5.0,-5.0,-5.0,-0.4256425
-4.872949,5.0,-5.0,0.7615247,5.0,-3.0628638,-2.9789553,0.3872682,0.5981004,-5.0,1.36391,-0.22494379,-2.5838919,-5.0,1.1400988,5.0
4.623006,-3.908178,1.0746378,0.74603343,5.0,-5.0,-5.0,-5.0,5.0,2.075492,-5.0,10.0,3.67832,-5.0,1.7936475,1.4447528
1.3403847,-5.0,5.0,-0.13259248,5.0,-2.8795955,-5.0,2.5977354,3.0576646,5.0,-5.0,-7.424714,2.662858,5.0,5.0,-0.4363997
-0.09020853,-2.9643617,3.7762659,-0.35167596,5.0,-5.0,-5.0,-1.3120596,5.0,5.0,-2.0044665,-0.26048315,0.0712384,5.0,5.0,-0.17214616
-5.0,5.0,-5.0,4.5291467,-0.013711482,-2.5619798,1.0366625,2.039599,-2.8261523,5.0,3.2366362,2.3836083,-5.0,5.0,-2.3671703,-0.5509843
-5.0,5.0,-5.0,10.0,-3.1576385,1.9536282,3.5647345,-0.5039386,-4.0168777,-2.8622084,4.0740385,1.0489221,-4.4095,-5.0,-5.0,-4.4608936
-0.550236,5.0,-5.0,4.8383875,5.0,-5.0,-5.0,1.2446843,5.0,-1.0742649,-2.5262227,-0.53485936,0.7727819,-5.0,1.5644469,5.0
2.5681796,-2.7655153,1.5020267,1.2074995,5.0,-3.0040164,-5.0,5.0,4.7519684,5.0,-5.0,-8.623987,5.0,-3.1343498,0.2851584,0.04201695
0.98402256,-3.5245786,5.0,-0.21147777,5.0,-5.0,-4.5051374,-5.0,3.8227768,5.0,-5.0,-7.9903383,0.5877247,5.0,5.0,-1.3992602
-4.430525,4.4797435,-2.9934874,-0.05753233,5.0,-5.0,-1.8410872,1.9114299,4.3325477,5.0,0.23035201,10.0,-2.1272688,5.0,2.5273936,-0.02786038
-5.0,3.1079376,-5.0,10.0,-4.2236824,0.84173065,1.9562261,0.34093302,-4.2049427,1.7904042,2.5828395,0.4855138,-5.0,-3.1568284,-5.0,-5.0
-5.0,5.0,-5.0,10.0,2.7691164,-0.41627356,0.9459957,-3.4189963,-0.5334979,-5.0,4.894329,-0.57641906,-3.2865853,-5.0,-3.8228393,0.9741064
