ancorasir/BennettWheelLegRL/experiment_data/2024-02-05_04-47-10/joint_position_env0.csv
Joint_1,Joint_2,Joint_3,Joint_4,Joint_5,Joint_6,Joint_7,Joint_8,Joint_9,Joint_10,Joint_11,Joint_12,Joint_13,Joint_14,Joint_15,Joint_16
0.15462099,-0.0,-0.0,0.0,-0.18321317,0.0,0.0,0.0,-0.17587061,-0.0,-0.0,0.0,0.16839771,0.0,0.0,0.0
0.1685339,0.006241344,-0.009809873,9.147016e-08,-0.18779622,-0.0051891617,-0.0106324125,-2.9058e-05,-0.18062742,0.0055114003,-0.010923064,0.00013638056,0.17991732,-0.003212824,-0.0062668095,-0.00020702065
0.16427411,-0.10804607,0.25386074,0.034406148,-0.31928462,0.05294688,0.17026214,-0.59355426,-0.16547124,-0.01213068,0.051142644,0.41724488,0.36928055,0.17725386,0.24987595,0.018269451
-0.003860324,-0.008036641,0.38694522,0.0020568322,-0.35161725,0.048397023,0.256896,-0.50176466,-0.11182475,0.07873502,0.013945146,0.15045062,0.33378708,0.30872226,0.40157792,0.095314175
0.018135224,-0.008046717,0.33294368,-0.021987993,-0.23115031,-0.01763875,0.4001098,-0.49031246,-0.07284996,0.027623784,0.2175278,0.0931807,0.14047472,0.18961076,0.3286392,0.3960382
0.08430038,-0.021881502,0.27745688,0.04707835,-0.16311613,-0.046205226,0.40004122,-0.41321224,-0.16702436,-0.010427912,0.39828882,-0.09651515,-0.0059671844,0.17661679,0.20409589,0.6054678
0.12841909,-0.009115856,0.24611787,0.13578282,0.026962513,-0.05701981,0.25618032,-0.26707843,0.06916891,-0.10882249,0.24780111,-0.10970054,-0.026152035,-0.033860084,0.21173954,0.1852113
0.23697504,-0.047180288,0.40004793,0.0627507,-0.0791587,-0.0007007741,0.34319457,-0.10589988,0.11210128,-0.112081096,0.2870023,-0.040437896,0.2681427,-0.19501357,0.40017,0.08005972
0.03988399,0.10570934,0.39948225,-0.12319882,-0.14586264,0.050803047,0.34423035,0.1685232,0.19832152,-0.13593158,0.17657484,0.2320477,0.34962538,-0.14977653,0.39986545,-0.11107698
-0.20805141,0.17030986,0.2486201,-0.11853645,-0.11882263,-0.01382665,0.27141973,0.2317288,0.22309797,-0.073635325,0.06984181,0.20349252,0.075361915,-0.009627798,0.37000695,-0.3773877
-0.054097265,0.04732285,0.32167593,0.17839727,-0.17756088,-0.053471416,0.40003106,-0.2783112,-0.0994881,0.08579001,0.4000566,-0.10138415,-0.12416143,0.08085841,0.25827605,-0.018626284
-0.024166293,-0.026165837,0.33739218,0.20322296,0.0005001933,-0.050019752,0.30759054,-0.13817033,-0.122850694,-0.013540371,0.39739645,-0.26301748,-0.16213211,0.08230616,0.17712879,0.25564104
0.13989154,-0.15364125,0.35347286,0.21047252,0.02464013,-0.080056824,0.29404092,-0.017962564,0.038399797,-0.1357027,0.23569894,0.19620006,0.051448174,-0.14021806,0.24737643,0.025410846
0.16243854,-0.12881853,0.40000108,-0.03759305,-0.06953552,-0.046240963,0.3564831,0.09318883,0.12712279,-0.1392779,0.19091822,0.28004456,0.317159,-0.13788478,0.39999998,-0.008793694
-0.08847661,0.058731083,0.3758722,-0.03402874,-0.12299892,0.034050256,0.35149252,0.3269546,0.2519005,-0.09818262,0.016783534,0.3640233,0.27385512,-0.053821266,0.39709896,-0.051591914
-0.1031211,0.072804786,0.30004036,0.046098504,-0.14143558,-0.08238818,0.38220942,-0.0065423837,0.113952994,0.10183444,0.1135178,0.15756628,-0.06313255,0.13709457,0.2260245,-0.044297975
-0.054053694,0.06995377,0.33679545,0.13668938,-0.25818667,0.018097686,0.40000796,-0.15066417,-0.15881978,0.20048586,0.39999318,0.01670047,-0.1280178,0.16037351,0.18411554,0.22078517
-0.019314185,0.017861158,0.3306946,0.14122635,0.0077159875,0.049701624,0.24673444,-0.19356239,-0.13161002,0.023077596,0.38472682,-0.31257942,-0.15654205,0.039082084,0.09631383,0.28159973
0.15257281,-0.08227797,0.40002748,0.16659445,-0.025579736,0.034078635,0.29602954,-0.21038307,0.013296907,-0.06146334,0.23780625,-0.16552205,0.11708627,-0.19092731,0.30115747,0.12525728
0.1752263,0.017317463,0.40000272,-0.032487962,-0.15520875,0.054780275,0.36592677,-0.26082262,0.1138799,-0.0663415,0.21060182,-0.11217218,0.3467556,-0.186716,0.4000486,0.04551468
-0.0543843,0.08115803,0.4000003,-0.12613899,-0.21129134,0.10930616,0.3430883,-0.0030250414,0.19732314,-0.079480864,0.11433274,0.07427597,0.3324153,-0.1194971,0.3991884,-0.12004189
-0.12970527,0.11793539,0.2934383,0.042431343,-0.12201929,0.047381934,0.32332197,0.08919697,0.17939986,-0.06613053,0.061360188,0.17504464,0.019509373,0.062085044,0.36667737,-0.17501536
-0.08969474,0.0953031,0.3423814,0.13313922,-0.2584454,-0.022469146,0.3999835,-0.04403247,-0.091302484,0.09218214,0.3907038,0.030573172,-0.10737003,0.1294327,0.24847585,-0.023469197
-0.07505273,0.02007465,0.3389114,0.05371917,-0.024996178,0.033742722,0.33838502,-0.39385602,-0.20077403,0.06664269,0.40000096,-0.4008824,-0.15146142,0.14851375,0.158595,0.24987538
0.09176731,-0.06062572,0.40002638,0.18403314,0.03287707,0.047365937,0.30909064,-0.19087549,0.014252472,-0.08242554,0.23878692,-0.08305455,0.10778438,-0.052646246,0.32352218,0.1784895
0.18406941,-0.056578018,0.4000184,-0.048982717,-0.0934017,0.060448367,0.38048503,-0.23680992,0.1065935,-0.093867,0.22463354,0.04876017,0.39152926,-0.19144335,0.4000258,0.13282134
-0.021882838,0.0536982,0.40167898,-0.085796826,-0.14245217,0.07924073,0.35583866,-0.11353422,0.1945656,-0.08543084,0.11123564,0.18113135,0.3156163,-0.12541564,0.39696753,-0.02292752
-0.07426952,0.04782512,0.26047686,0.20334403,-0.089425296,0.068456285,0.31904793,0.27592662,0.14152075,-0.03285761,0.06375397,0.35092202,-0.02572822,0.09365493,0.30888012,-0.19819142
0.030603195,0.085388705,0.31350517,0.12434074,-0.20428199,-0.009327269,0.4000377,-0.2594379,-0.20296578,0.1604799,0.3992255,-0.08271691,-0.17765816,0.19721736,0.20536399,0.32560474
0.054904386,0.024762783,0.32516453,0.2110401,-0.013722234,0.0018697042,0.23102586,-0.04974764,-0.07144563,-0.01633941,0.29393584,-0.26498386,-0.17884664,0.03328711,0.16670868,0.18533686
0.21296503,0.08736158,0.39933637,0.06693969,-0.09795638,0.04757082,0.31416595,0.10167122,0.037687894,-0.094670154,0.23143983,0.15504196,0.16041158,-0.13297263,0.40001455,0.1263036
0.073487155,0.21151099,0.39725083,-0.012627872,-0.19426462,0.08678954,0.32618007,0.28485534,0.13799167,-0.1145592,0.16050217,0.3391948,0.34452125,-0.11214947,0.39999616,-0.08608432
-0.17376246,0.23947838,0.24338624,-0.04988743,-0.16526209,0.08137109,0.27267185,0.3062415,0.2010644,-0.08007259,0.030315695,0.214012,0.13353065,0.0038668439,0.3985498,-0.2981871
-0.13243604,0.20576335,0.28726345,0.087907776,-0.2606886,-0.03672648,0.40008497,-0.16019203,-0.13125397,0.12880147,0.39417776,-0.08462805,-0.05863274,0.14915684,0.23413801,0.098886065
-0.11349402,0.1377799,0.28807577,0.20183742,-0.085935175,0.023619665,0.35591942,-0.25873527,-0.2697389,0.08959249,0.39779314,-0.26843253,-0.11509329,0.10430096,0.14730358,0.24252433
0.010568824,0.072382174,0.26346275,0.42504278,0.013179265,0.012591015,0.25814065,-0.12332671,0.010053723,-0.06826319,0.17943393,-0.1667659,0.0032866495,-0.096887626,0.1823945,0.12990037
0.13501972,0.04682903,0.39989564,0.04547363,-0.10770619,0.044736814,0.33036515,0.0329412,0.11745327,-0.08200299,0.1623165,0.011633936,0.37214407,-0.16364482,0.40004882,0.00701353
-0.04257455,0.23337865,0.39718834,-0.044086736,-0.18544927,0.07748089,0.32303438,0.22924837,0.22770554,-0.10422299,0.0463753,0.2901864,0.38193798,-0.10270656,0.40001202,-0.1261812
-0.20759568,0.1743901,0.19039904,0.10373332,-0.15164405,0.016308151,0.30258438,0.041056346,0.22166535,-0.06579076,0.019110478,0.09156751,0.05504055,0.05303772,0.37497807,-0.14897327
-0.12686735,0.13523558,0.2726044,0.070187576,-0.295131,-0.10858293,0.39981848,-0.2844919,-0.09075906,0.106079,0.37444532,0.0045749643,-0.058784876,0.18167506,0.29134983,0.22618344
-0.08257659,0.009843266,0.28131005,0.3447781,-0.08059641,-0.017911058,0.30731326,-0.2883683,-0.13225907,0.04410396,0.39755931,-0.32534277,-0.15574525,0.09423045,0.13423161,0.13555358
0.075419925,-0.05687765,0.32755294,0.2921382,-0.01791431,-0.050435536,0.27680266,-0.14540489,0.09746668,-0.06847252,0.08914065,0.034752686,0.08941108,-0.115087435,0.2954257,0.13857716
0.1193457,0.013425632,0.39895564,0.10091475,-0.14744635,-0.0154925985,0.34839144,0.023908298,0.15087135,-0.11069135,0.1277123,0.27216417,0.46298885,-0.15687902,0.39934874,0.017142957
-0.13470148,0.07540636,0.34847626,-0.05139525,-0.20147878,0.050435215,0.343621,0.34962752,0.22159034,-0.12989199,0.008554864,0.14782521,0.4257775,-0.04420516,0.40013194,-0.1646416
-0.13600025,0.055589113,0.31916928,0.111209735,-0.20077004,-0.089774,0.39257392,-0.037300885,0.05650329,0.054105885,0.16504134,-0.0039392402,0.08539709,0.17955364,0.2544751,0.063165896
-0.09189405,0.073840134,0.37304106,0.06691905,-0.27828455,-0.10125927,0.40001965,-0.21320091,-0.19548236,0.10513521,0.40019178,-0.10686607,-0.0127072735,0.24442548,0.18787302,0.3045333
-0.04325242,0.08304014,0.36946708,0.12636764,-0.04136662,-0.057461053,0.37689683,-0.3705804,-0.20333946,0.03753216,0.39911783,-0.18431152,-0.11748239,0.21037668,0.079287454,0.5397124
0.03805442,0.035912715,0.3634496,0.1751148,0.056402076,-0.0005804558,0.22744322,-0.09676631,0.0002843794,-0.10621053,0.27095225,-0.14245304,-0.012204104,-0.015918234,0.20474558,0.13844524
0.19188093,0.04808849,0.40002245,-0.010181529,-0.08932408,0.00018011272,0.31542155,-0.059752785,0.08666024,-0.11550949,0.30171117,-0.054168504,0.2885707,-0.14928626,0.40010452,0.17670819
0.044790488,0.17588456,0.39533603,-0.15122037,-0.16666597,0.04332553,0.3059462,0.16085173,0.1978666,-0.13039893,0.20673017,0.1793262,0.35934022,-0.11061324,0.3909272,-0.12720956
-0.13375665,0.11324157,0.23085359,0.018569823,-0.145899,0.050763767,0.2526342,0.25451654,0.22620241,-0.09834964,0.10628568,0.05512319,0.13681832,-0.00095772353,0.39876932,-0.191194
-0.056323882,0.1320712,0.28394586,0.08388049,-0.22048515,-0.046699807,0.40003547,-0.21803604,-0.07502742,0.10166567,0.40002954,-0.109825894,-0.086511545,0.106910616,0.27341148,-0.034175776
-0.00558555,0.10054835,0.30794758,0.23378122,-0.11514254,-0.04557857,0.36916718,-0.16332464,-0.22507459,0.082626335,0.39976,-0.23207626,-0.15463291,0.12507866,0.1995758,0.29114246
0.102824494,0.029163279,0.28504235,0.31396487,-0.012176149,-0.05837054,0.23388822,-0.15502267,0.0014971814,-0.07209747,0.23771739,-0.11492303,-0.04774613,-0.076956674,0.19768293,0.10343849
0.18336679,-0.03300236,0.40001196,0.10279467,-0.10750748,-0.0071083694,0.3031882,0.017190395,0.08070548,-0.08706473,0.22365831,0.008794017,0.23031297,-0.16262412,0.40015617,0.12695612
-0.044301912,0.06976642,0.37917015,-0.032476384,-0.22489703,0.0828891,0.34476593,0.32830513,0.18522954,-0.08886369,0.12436787,0.2209283,0.3370745,-0.10234908,0.3998981,-0.07299273
-0.076480545,0.07952939,0.28302863,-0.21385688,-0.15372638,-0.04861318,0.34512684,-0.006827457,0.12785622,-0.027287796,0.11356298,0.05623174,0.029517474,0.12345157,0.3174843,-0.16081251
0.025393302,0.033106055,0.28758168,0.088611,-0.22356379,-0.12545761,0.40003657,-0.26134667,-0.17055263,0.07141618,0.40009958,-0.06714055,-0.08760578,0.20242926,0.25557,0.20873718
0.11501855,-0.00413562,0.28076756,0.16165896,-0.09656835,-0.1921897,0.38686472,-0.25675336,-0.2548643,0.03649627,0.39995334,-0.289948,-0.20255114,0.18073252,0.14667775,0.42497516
0.11345651,0.034423023,0.23099539,0.0605841,0.035193216,-0.118858084,0.18144725,-0.068758205,-0.029073143,-0.10829668,0.29800147,-0.19530486,-0.16553244,-0.008744418,0.16989417,0.098533414
0.23048666,0.0032431353,0.394215,0.057047766,-0.066333205,-0.08612943,0.25782478,0.050311543,0.05986422,-0.12122072,0.24233145,-0.039122555,0.12689875,-0.17764919,0.34342605,0.025168829
0.061004624,0.1752603,0.40000105,-0.060196,-0.17407429,-0.04434645,0.29364973,0.16320223,0.17662583,-0.14703439,0.14210247,0.24029572,0.35948768,-0.13842753,0.39998645,-0.10823587
-0.096586555,0.14914191,0.24851882,-0.006306036,-0.13812165,-0.038422436,0.23901303,0.208185,0.1909617,-0.121525094,0.08367227,0.13485736,0.11347771,0.016301295,0.40001222,-0.2658234
-0.032889705,0.15467168,0.29662272,0.16086285,-0.2270714,-0.0935197,0.4000149,-0.10226507,-0.06127647,0.08088185,0.28308636,-0.09662147,-0.076012775,0.17163353,0.25988328,-0.22119224
0.035859507,0.12660784,0.34443578,0.114397384,-0.18679024,-0.07721989,0.40110162,-0.17130007,-0.31002232,0.08251203,0.3999893,-0.13675997,-0.14826113,0.22850427,0.20582758,0.20677531
0.05002914,0.037953865,0.30854267,0.22899053,-0.05560479,-0.05046195,0.22173469,-0.1850202,-0.09572274,-0.09063154,0.2934532,-0.20994344,-0.12473108,0.053105425,0.17579554,-0.08112508
0.21241695,-0.019683199,0.3976866,0.29035267,-0.09128445,-0.04723314,0.25421622,0.048542365,-0.022815123,-0.1306177,0.21539262,-0.014836368,0.16799244,-0.1803526,0.39452082,-0.06092472
0.075851746,0.14335294,0.4000052,-0.0035116898,-0.22121295,-0.014915717,0.3109892,0.08015337,0.107404634,-0.110977076,0.10574249,-0.0061302828,0.41529444,-0.18644366,0.40001112,-0.044695627
-0.16550215,0.21567805,0.3288587,0.022808567,-0.23237957,0.0033143864,0.264837,0.2709082,0.148294,-0.115164496,0.04983121,0.24355005,0.22823355,-0.119823866,0.39735827,-0.29087463
-0.15256459,0.1962773,0.29058143,0.08048154,-0.16348459,-0.06940994,0.3704913,0.0199574,0.03586391,-0.010641882,0.14930816,-0.0990545,-0.063176475,0.13392071,0.3056162,-0.16369753
-0.07789181,0.16277952,0.33273128,0.06618303,-0.17690916,-0.029231451,0.40111682,-0.23836711,-0.30127245,0.13740392,0.39997324,-0.19987318,-0.17725849,0.17806482,0.18932576,0.368393
-0.067755595,0.0590726,0.31388742,0.13566628,0.026324915,0.008181722,0.24844159,-0.19268937,-0.19783132,-0.009287523,0.38087773,-0.3277171,-0.22909465,0.04643122,0.1348664,0.13392554
0.17578456,-0.06494277,0.40000498,0.2121367,-0.0054837423,-0.021946393,0.28680298,-0.17385148,-0.0048799836,-0.092477344,0.17946662,-0.12007554,0.11786073,-0.20147951,0.37988868,0.22274218
0.061665896,0.106549434,0.39965543,-0.034094997,-0.12731396,0.022182735,0.34160668,-0.13527422,0.10582866,-0.13474825,0.105881654,0.19568878,0.37698105,-0.13306941,0.40002728,0.05762943
-0.17838973,0.25830382,0.37445396,-0.12520903,-0.19195537,0.08817017,0.31279895,0.21363018,0.21320777,-0.09396666,-0.03044355,0.24336702,0.18342999,-0.054819696,0.3999716,-0.14244884
-0.19578303,0.16982268,0.23967183,0.25998485,-0.11123112,-0.10858182,0.3586659,-0.20867617,0.116254576,0.00035483716,0.07444098,-0.01296288,-0.06707908,0.14137137,0.31885466,0.15459462
-0.16917567,0.109572314,0.27107358,0.3979854,-0.052343477,-0.16415136,0.36592856,-0.39072198,-0.0045240163,0.040182628,0.38932124,-0.21953763,-0.040322475,0.23242612,0.33101887,0.41255027
-0.1506417,0.05422309,0.2009206,0.3882601,0.04689457,-0.18254326,0.27938098,-0.44656178,-0.051991172,-0.10101109,0.39644557,-0.12780382,-0.14033015,0.11134746,0.21499461,-0.039044794
0.001203194,-0.041816298,0.26805332,0.55231535,0.10962933,-0.15059324,0.20361055,-0.25064334,0.17694081,-0.2731393,0.12244365,0.48276848,0.041110825,-0.100457296,0.21872388,0.10586776
0.14063357,-0.04880472,0.40003493,0.5095942,0.10326959,-0.05231208,0.23317416,-0.09352568,0.22521943,-0.3765472,0.0132432645,0.6246929,0.31827217,-0.24457702,0.40005746,-0.29890716
0.018002747,0.15876995,0.4000378,0.3700145,0.09438957,0.0869943,0.21512763,0.22711697,0.29005817,-0.39912453,-0.1543905,0.5493355,0.33409762,-0.27623117,0.4000609,-0.48354295
-0.1797634,0.15370129,0.21228574,0.463867,0.1478644,0.12533674,0.10533012,0.18451883,0.3075778,-0.33819506,-0.15368167,0.44289452,0.012510138,-0.18331267,0.3998827,-0.4325175
-0.23011047,-0.005453521,0.15165469,0.89608365,0.12770377,-0.006206496,0.23964997,-0.21681061,0.2229625,-0.16111939,0.033827517,-0.15927294,-0.24717383,0.10815192,0.10710572,0.1555355
-0.2486529,-0.13155358,0.21081871,0.92872566,0.004201914,-0.106136374,0.2894291,-0.29831633,0.029357333,0.030289566,0.36790994,-0.48807853,-0.30825284,0.3474819,0.05493972,0.45757395
-0.19618097,-0.29570818,0.18573244,0.9568361,0.068303555,-0.2444652,0.18505508,-0.3355612,-0.002910152,0.09331769,0.4007028,-0.34527633,-0.38421315,0.42975223,-0.08600621,0.44789833
-0.17110203,-0.37895605,0.030075632,0.62784505,0.17332591,-0.32160887,0.09700557,-0.3519794,0.12260879,-0.033019647,0.39152855,-0.3132641,-0.43418452,0.3540717,-0.20241764,0.21245511
-0.06683818,-0.38195595,0.20722383,0.38832617,0.24176264,-0.13209413,0.0911138,-0.18904825,0.38792747,-0.33627084,-0.009010841,-0.106041454,-0.16762659,0.08046382,0.0010121455,-0.563369
0.13331771,-0.3031544,0.37261713,0.38699517,0.23951764,0.059852917,0.11932713,-0.23940013,0.3680716,-0.45618194,-0.058273453,-0.6931259,0.14404458,-0.21270622,0.3348875,-0.44791982
0.17051142,-0.000753622,0.37338576,0.6302449,0.19982292,0.2384582,0.11384257,-0.04748874,0.3778465,-0.48169452,-0.287847,-1.1075872,0.031115364,-0.24040619,0.40001547,-0.012354221
-0.01768432,-0.03341548,0.19820748,0.93562853,0.14216755,0.1775879,0.17719865,-0.21686347,0.32229656,-0.38109678,-0.19525251,-1.6600524,-0.25239494,0.008169584,0.20828359,0.17395636
0.017946264,-0.19787523,0.12676561,1.1692457,0.028396728,0.17099759,0.30289665,-0.1859551,0.11267453,-0.17278036,0.17720267,-1.4384739,-0.34537724,0.29919893,0.19773188,0.13622802
0.07105772,-0.33724073,0.0356762,1.042555,-0.12281043,0.020084273,0.39975116,0.17928867,-0.02605539,0.11006137,0.3755238,-1.2784619,-0.37386373,0.49900198,0.22493505,-0.10859857
-0.0053723543,-0.38380438,-0.153567,0.67440426,-0.13159736,-0.026419725,0.35164264,0.06685971,0.10236869,0.13037834,0.4002537,-0.4294432,-0.3573832,0.55956954,0.12890686,-0.8601041
0.073792785,-0.35074207,0.22437114,0.690259,-0.06222979,0.1817699,0.29633418,0.17277138,0.35711718,-0.20780319,0.093749724,0.078813806,0.042513017,0.32655296,0.35659215,-0.97221404
0.19324979,-0.18110035,0.38626227,0.6816796,-0.039764795,0.30361527,0.22488499,0.32183844,0.3577557,-0.3790125,0.011754,0.42096788,0.17726676,0.029712796,0.4001896,-1.1823692
0.1698349,0.10026704,0.4000173,0.6696054,-0.021629471,0.4029136,0.12756018,0.14191774,0.3837848,-0.45356882,-0.1971272,0.2664196,0.076592065,-0.118167445,0.4002218,-1.1488419
-0.054016825,0.21443743,0.3130588,0.87544924,0.037127495,0.32115266,0.092044815,-0.20533466,0.39342862,-0.38164786,-0.30674154,-0.7541073,-0.1729145,0.09210899,0.3063474,-0.5526574
-0.147312,-0.082613654,0.09865792,1.1185478,-0.08532118,0.15138583,0.3863646,-0.061165664,0.15186875,-0.1085673,0.15783156,-0.84315175,-0.2856789,0.5065262,0.16521366,0.14891346
-0.11392415,-0.2791702,0.038447935,1.2190504,-0.17020106,-0.066114515,0.39843237,-0.023925107,0.03859391,0.11207404,0.39995837,-0.80399626,-0.33599636,0.65138936,0.07984802,0.20100257
-0.16865326,-0.36993918,-0.108824864,1.0428333,-0.1524554,-0.26612997,0.33342573,-0.28719527,0.24198753,0.11405165,0.40015796,-0.36252785,-0.34244108,0.6887989,-0.059577983,-0.51853865
-0.24934869,-0.32295156,0.07622938,0.8598739,-0.1216867,-0.05629133,0.26057696,-0.01593142,0.44209915,-0.11118221,0.17626089,-0.14522317,-0.08209982,0.6160621,0.112954095,-0.8376891
-0.055081256,-0.24301498,0.27042952,0.83215874,-0.05960876,0.19594687,0.13738485,0.28522673,0.47716713,-0.31805548,0.017229939,0.23227577,0.28754002,0.24580894,0.4001628,-0.83204776
-0.002367953,-0.034054834,0.35409182,0.8241456,-0.031493098,0.28741613,0.10937487,0.27509326,0.42693788,-0.42684507,-0.0698791,0.29329982,0.35324714,-0.07550424,0.4001748,-1.1972843
-0.15376194,0.1496133,0.19467574,0.871861,0.06599651,0.34284613,0.005444215,0.10692805,0.39358005,-0.42970568,-0.24452382,-0.42106757,0.0055179354,-0.023371048,0.39690062,-0.6149843
-0.2133118,-0.023048107,0.069492735,1.0958128,0.05527079,0.2108214,0.21110445,-0.023366898,0.27067327,-0.29991555,-0.016190773,-0.93345934,-0.19510326,0.24843495,0.1802675,-0.07106243
-0.20124702,-0.14944431,0.022780476,1.2224647,-0.0942017,0.010518818,0.37996852,-0.14060196,0.049805,-0.004235164,0.39240444,-0.9167652,-0.2697094,0.49115032,0.10326414,0.013978216
-0.22861566,-0.23582716,-0.16221686,0.84475535,-0.013856032,-0.18218514,0.25115433,-0.12594005,0.1545216,0.09389637,0.39989904,-0.3884342,-0.28357202,0.5596884,-0.03298443,-0.4550857
-0.18573955,-0.13850865,0.20508325,0.76952827,0.020474995,0.03679327,0.18455634,-0.19272259,0.39391625,-0.19437623,0.11464759,-0.18503489,0.10027803,0.32660773,0.2836433,-0.6955961
-0.0030532517,-0.064139925,0.40001312,0.76985157,-0.06037126,0.19776936,0.19391301,-0.2997405,0.47160363,-0.35516438,-0.126916,0.20061594,0.23162436,0.036484916,0.40010628,-0.7862059
-0.1453157,0.2244322,0.34769696,0.7239554,-0.011202925,0.2506583,0.16417432,-0.26322109,0.44654325,-0.377016,-0.26200834,-0.6344711,-0.04736448,0.103353076,0.34418872,-0.50987816
-0.29574722,0.012543359,0.04240976,0.9589782,-0.10394532,0.07319315,0.39992163,-0.067622766,0.33118987,-0.23924397,-0.060708612,-0.9638674,-0.17241214,0.4335305,0.18678539,0.17281252
-0.3075777,-0.16020024,-0.019510971,0.85136163,-0.20521462,-0.1687991,0.40000787,-0.3241455,0.14646743,0.00801306,0.34921083,-0.8930178,-0.19825469,0.5835826,0.095497355,0.33584583
-0.31907463,-0.29169786,-0.19252464,0.3842064,-0.13345033,-0.32194537,0.39993885,-0.17818378,0.19894952,0.042719644,0.40001312,-0.6100605,-0.25704697,0.61183167,-0.08485616,-0.25380918
-0.30628988,-0.24366647,0.11475156,0.43975297,-0.07819425,-0.03996988,0.22506022,-0.14366353,0.39371085,-0.21861528,0.22866873,-0.27168345,0.11585033,0.44203514,0.257115,-0.5800528
-0.1298676,-0.18934184,0.28574237,0.37689117,-0.039652307,0.15824072,0.12585956,0.082095906,0.43467855,-0.33655635,0.10178802,-0.40265745,0.37038705,0.15531734,0.40017807,-0.6072458
0.009705776,-0.05490906,0.38669443,0.5679966,0.016860174,0.2957812,-0.009914088,-0.011803531,0.42270237,-0.436202,-0.035116807,-0.34529048,0.3009471,-0.15683426,0.40009907,-0.7968103
-0.062844925,0.20901687,0.36640263,0.8593196,0.025696749,0.38600966,-0.0625281,-0.13884091,0.38412437,-0.49731752,-0.1911896,-0.8064353,0.010623743,-0.15207481,0.37024856,-0.32373855
-0.15747462,0.0053432425,0.16595991,0.961603,0.006625035,0.25310397,0.27546793,0.022081256,0.17711063,-0.31602645,0.09180867,-1.4699523,-0.21255787,0.17343566,0.193278,0.1811374
-0.12299967,-0.17265801,0.128797,1.162968,-0.07967525,0.10312519,0.3685288,0.021060182,0.016696269,-0.015346185,0.3913016,-1.3184804,-0.3166175,0.36336732,0.011699411,0.5355737
-0.13653702,-0.25845397,-0.033422306,0.83544886,0.0023324129,-0.14192301,0.2721845,-0.3674121,0.0061976667,0.1353887,0.4033919,-0.45611927,-0.38273683,0.39963436,-0.18285447,0.14269082
-0.16446508,-0.24180515,0.083723694,0.7065911,0.06177721,-0.07282614,0.092264585,-0.36611763,0.3419233,-0.14458081,0.081683315,-0.07670697,-0.2024054,0.20145537,-0.009117448,-0.5109965
0.036810625,-0.1568993,0.32430202,0.70277065,0.028117422,0.14699256,0.08332548,-0.23197253,0.40973,-0.27915728,-0.009117018,-0.5227461,0.08963968,-0.060766023,0.30836448,-0.76729995
0.10680493,0.096820354,0.40144783,1.0435358,0.044239793,0.31929773,-0.0077843107,-0.5000629,0.42333132,-0.39480326,-0.17388408,-0.8481188,0.02796192,-0.081834614,0.40103352,-0.19031604
-0.1426074,0.07895489,0.13286056,1.026301,0.060019795,0.2839425,0.22640024,-0.18740843,0.29455766,-0.30199888,-0.041251905,-1.3930304,-0.23422498,0.23488696,0.17433251,0.0002676044
-0.10567374,-0.1383225,0.15732755,1.078021,-0.09621401,0.09620964,0.39998788,-0.14326951,0.08620279,-0.022904564,0.31334305,-1.3268855,-0.28293344,0.4740348,0.119590335,0.19627762
-0.08824718,-0.32499886,0.047436435,0.82662547,-0.11326799,-0.25931725,0.37988016,-0.1579585,0.16991018,0.118422404,0.40001047,-0.627343,-0.20318742,0.5512347,0.060303297,0.22534668
-0.13684142,-0.35388002,0.028397325,0.67211187,0.012540419,-0.19168794,0.2649767,-0.29485407,0.38355204,-0.10690227,0.19478726,-0.23329559,-0.09323043,0.4939248,0.09787397,-0.22947875
0.016452692,-0.31981748,0.28335777,0.62028164,0.008027982,0.03002053,0.26339978,-0.09347009,0.40174702,-0.25601324,0.18356143,-0.106351465,0.15940139,0.24432166,0.37015003,-0.42644244
0.11130152,-0.13495292,0.38772404,0.7132045,0.063566856,0.18187842,0.14841306,-0.05227825,0.4190884,-0.37518197,0.06131806,0.0997405,0.23403263,-0.075619996,0.40020692,-0.5698205
0.07281446,0.19526508,0.40006956,0.72504735,0.099401034,0.33016592,0.023083638,-0.14881213,0.46102348,-0.44851398,-0.23484968,-0.05256045,0.032289706,-0.12143709,0.40006086,-0.6269494
-0.12990957,0.15520255,0.19950242,1.0104938,0.1533409,0.23030244,0.18780002,-0.12986231,0.30409214,-0.365424,-0.07653195,-0.7607832,-0.25468618,0.15370047,0.19041601,-0.054405935
-0.122287564,-0.10519863,0.15594992,1.1649647,-0.015994463,-0.03493174,0.3999291,-0.2677632,0.0132798115,-0.014394418,0.39257586,-0.97178745,-0.31511146,0.44470444,0.1322664,0.38601023
-0.122668274,-0.28896192,0.017003972,0.8905747,-0.027985984,-0.31984138,0.33325383,-0.19864525,0.08359895,0.14593694,0.3999188,-0.56278384,-0.38387808,0.5392362,-0.090422496,-0.007921746
-0.1523314,-0.2640811,0.09358171,0.7460659,0.071288735,-0.1927092,0.14481078,-0.11149243,0.3377386,-0.07513203,0.15402906,-0.22150734,-0.23103632,0.48790452,0.029832825,-0.52809167
0.017795226,-0.18625396,0.31909576,0.7002185,0.020058617,0.096214846,0.11311005,0.2304211,0.39311546,-0.27265692,0.08596519,-0.0033308084,0.14813554,0.14769891,0.4001685,-0.6604221
0.07390753,-0.030948946,0.40049726,0.76573205,0.053101122,0.23893544,0.027125584,0.30985412,0.3880566,-0.3853167,-0.019370325,-0.10290006,0.2746727,-0.16008538,0.4002315,-0.93502146
-0.052227005,0.12965553,0.2659636,0.7187772,0.0887958,0.27965352,0.04060589,0.39094278,0.32303047,-0.405614,-0.10852945,-0.6737068,0.00666453,-0.1286413,0.3997013,-0.7008056
-0.08441855,-0.04439342,0.16067058,0.9684584,0.092491,0.13351169,0.25875515,0.041122366,0.15082148,-0.1697875,0.15937483,-1.2548681,-0.28230524,0.1604414,0.0978227,-0.11383817
-0.08256761,-0.2115299,0.10653727,0.83751976,-0.051893204,-0.016028127,0.40120924,0.08272403,0.01671481,0.11335988,0.40039855,-1.1733634,-0.30232626,0.39789847,0.07431155,-0.0108488295
-0.09168267,-0.33689585,-0.01523202,0.58360326,-0.108263455,-0.25280452,0.3981975,-0.16744901,0.0709067,0.17158443,0.4002819,-0.76633507,-0.33752906,0.49900818,-0.06608537,-0.2937187
-0.13833219,-0.3146048,0.03165738,0.6421352,0.037551995,-0.12587593,0.23713322,-0.28489393,0.3550663,-0.10011871,0.12845078,-0.16167136,-0.14570731,0.44213805,0.06285403,-0.7725833
0.053598173,-0.2779601,0.3008769,0.64246076,0.011654412,0.12897514,0.24476501,-0.08618203,0.3889201,-0.3122489,0.09991323,0.09415714,0.16393384,0.1639368,0.39049956,-0.73628294
0.15285082,0.007782574,0.40002123,0.60425925,0.009995177,0.28620437,0.15232372,-0.03516453,0.43730932,-0.40929726,-0.048339795,0.08192515,0.25043273,-0.12911023,0.40011045,-1.0127735
0.008756694,0.31368113,0.40002683,0.8276658,0.07343586,0.3820447,0.007877368,-0.2917995,0.47787365,-0.43135747,-0.31337374,-0.518294,0.0033672655,-0.08493807,0.40001214,-0.6149932
-0.16429141,0.03987611,0.087593004,1.0416216,0.0461469,0.21607895,0.29032215,-0.034235194,0.24146661,-0.22250186,0.061379086,-1.2251865,-0.26656964,0.27495193,0.1886897,0.014037629
-0.11721669,-0.14155383,0.0985874,0.89871806,-0.11636954,-0.0070129754,0.39998162,-0.15363468,0.083199784,0.11948031,0.40162277,-1.0039114,-0.3281945,0.49844676,0.09643004,0.10488828
-0.15538883,-0.26788124,-0.06202708,0.56872654,-0.073423296,-0.24680361,0.32884043,-0.08870803,0.18377614,0.1515499,0.3888181,-0.46493798,-0.34155598,0.5418851,-0.023394154,-0.06019657
-0.10012199,-0.2411492,0.2031113,0.6332424,0.013350856,-0.022253394,0.2384098,-0.16383047,0.4130262,-0.16887374,0.15189075,-0.07838544,-0.06413291,0.40050602,0.17155857,-0.7007704
0.06323683,-0.10427669,0.35181653,0.49972332,0.029495766,0.2218626,0.15534674,0.06563436,0.45882985,-0.36958233,0.06110566,0.13971405,0.24982922,0.046404473,0.4001889,-0.7915616
0.07919742,0.17567872,0.40007007,0.72744584,0.08294453,0.37572613,0.049272954,-0.053549368,0.4458771,-0.4740193,-0.09763929,0.060023345,0.18607481,-0.14339784,0.40019807,-0.6666681
-0.1370382,0.25376457,0.2790011,0.8527569,0.078971274,0.35185567,0.10928333,-0.12133319,0.43334252,-0.4408799,-0.20473622,-0.8544017,-0.10758382,0.028687678,0.30437043,-0.34607992
-0.14915198,0.0006717438,0.18594849,1.0094827,0.016012644,0.25016096,0.366175,0.01422094,0.24854276,-0.22548266,0.12911482,-1.065702,-0.2479557,0.32114887,0.13943185,0.058744133
-0.10930067,-0.19422589,0.18471302,0.93501437,-0.10537834,0.020566063,0.400034,-0.20770542,0.09424084,0.05680797,0.39632052,-0.92509264,-0.29719013,0.50302696,0.03358344,0.23935182
-0.08808139,-0.39748785,0.01841158,0.5730043,-0.028163623,-0.26912665,0.33508357,-0.2616749,0.2275887,0.011361026,0.37839183,-0.39986196,-0.32502422,0.5133206,-0.12790689,-0.31156972
-0.034081444,-0.35625365,0.17674164,0.51069486,0.05793629,-0.07905959,0.22390872,-0.101951815,0.37983915,-0.23036402,0.19855131,-0.1368297,-0.06436559,0.36370435,0.070089914,-0.75583833
0.13165945,-0.16730973,0.39380842,0.62287253,0.049371354,0.14129764,0.16357914,0.2736225,0.42596003,-0.40615356,0.10004533,-0.28272125,0.26396,0.002940259,0.40096813,-0.70467144
0.13166165,0.17051122,0.4000319,0.7478958,0.09506828,0.27715677,0.071703106,0.41761893,0.44359562,-0.5150971,-0.17973365,-0.8039991,0.059216615,-0.160234,0.39985842,-0.7959037
-0.07332899,0.10899592,0.19996248,0.9593515,0.069832236,0.18032394,0.16377197,-0.014610053,0.2763606,-0.4435816,-0.025864363,-1.0910817,-0.26560533,0.0787202,0.22882263,-0.13940795
-0.08495541,-0.1131941,0.11695253,0.82116455,-0.060164124,0.051453736,0.3805346,-0.0018056184,0.0695736,-0.22313853,0.27856478,-1.3380312,-0.3115804,0.36383453,0.20475283,0.1763662
-0.029573824,-0.3650394,-0.02106111,0.6930986,-0.08022164,-0.20761202,0.3881437,-0.113064244,0.0028720687,0.033490617,0.40005544,-0.8871125,-0.37624627,0.48221138,0.072109275,-0.07866069
-0.11070132,-0.398492,-0.02482666,0.40154412,0.0860123,-0.18613657,0.1493504,-0.06453184,0.21511757,-0.08977207,0.25008902,-0.45315218,-0.2558797,0.44718197,0.12468007,-0.63421726
0.046762887,-0.34960467,0.2937701,0.45991132,-0.011897981,0.096641906,0.19817574,-0.12201271,0.35547766,-0.328772,0.10838565,0.003113307,0.11491768,0.12977098,0.39194185,-0.58296615
0.121123746,-0.070247285,0.4000101,0.69939613,0.036099497,0.2233502,0.035983518,-0.18312806,0.37852067,-0.42571297,-0.041187435,0.08002403,0.18339872,-0.15266652,0.4001046,-0.74028486
-0.10121629,0.20722178,0.3099405,0.8941393,0.1286091,0.2532351,0.012527152,-0.182751,0.33472258,-0.41302842,-0.21464038,-1.0396112,-0.16430841,-0.0063256556,0.3069006,-0.34217286
-0.17879973,-0.048956838,0.14609088,1.1999758,0.066955134,0.122306444,0.2857865,-0.05169424,0.1277017,-0.18501835,0.124801986,-1.1262332,-0.30067185,0.30486596,0.15837611,0.47573182
-0.105442636,-0.26347673,0.16183807,1.1918087,-0.052985787,-0.055247873,0.34648582,-0.010976923,-0.05197679,0.08653335,0.3898866,-0.9668093,-0.33844343,0.4495194,0.12242388,0.26163855
-0.16237779,-0.39222202,-0.06701101,0.81260425,0.044264324,-0.25585786,0.13064681,0.004333457,0.14224108,0.020706153,0.332079,-0.23970218,-0.3725107,0.4516863,-0.044691924,-0.4235794
-0.097528756,-0.2804483,0.19023025,0.73360217,0.013670497,-0.008059638,0.13012008,0.09351493,0.3346495,-0.18380518,0.05030038,-0.25195718,-0.042071953,0.20724216,0.2693227,-0.5922143
0.13949169,-0.1413793,0.40005377,0.7361241,0.004442069,0.16772167,0.07679978,0.11558741,0.37715265,-0.34147203,-0.038298953,-0.22498955,0.19091968,-0.086104184,0.4001704,-0.60260975
0.14191861,0.17995991,0.40001512,0.7756865,0.08988958,0.35493252,-0.057941195,-0.030515203,0.34274024,-0.43330628,-0.18157488,-0.35228515,0.06116413,-0.23182912,0.4000705,-0.6165728
-0.07025323,0.21172896,0.27585644,0.97095263,0.10048867,0.29434618,-0.0063741733,-0.20528336,0.28189448,-0.34808743,-0.16017042,-0.9796373,-0.20680647,-0.023365129,0.272994,-0.107908815
-0.15398015,-0.07422752,0.096428595,1.2132256,-0.0031750095,0.12417369,0.28506622,-0.23745185,0.049883693,-0.056333557,0.2102343,-1.1895779,-0.2833554,0.35681844,0.22918718,0.5388034
-0.10158488,-0.2561565,0.052730888,0.97978735,-0.093738094,-0.12038723,0.36382997,-0.3468569,-0.077549726,0.20283507,0.40005222,-0.9555453,-0.34489524,0.51196355,0.12663293,0.5343281
-0.16011402,-0.3075315,-0.110796794,0.7506477,0.018407378,-0.22330832,0.17650609,-0.23683232,0.1870633,0.08838385,0.36290053,-0.13111079,-0.30367163,0.4605165,-0.0041961125,-0.37333646
-0.09598363,-0.21694271,0.1956269,0.74883837,0.026374899,-0.03282158,0.18386073,-0.28792638,0.41805515,-0.23332968,0.053420674,0.10706007,0.052283056,0.22504306,0.30907524,-0.5080282
0.07101132,-0.010886162,0.4000028,0.7417911,0.04635988,0.20129853,0.10507876,-0.2682872,0.422975,-0.4120572,-0.124098085,0.11394549,0.13473988,-0.11912725,0.40007713,-0.78523904
-0.002806125,0.32897833,0.4010614,0.4334953,0.11040708,0.1090994,0.23788422,-0.47424644,0.36230785,-0.37147272,-0.04960249,-0.23505862,-0.10215971,-0.14848366,0.37733328,-0.90283984
-0.2498429,0.4550143,0.2793544,0.1677355,0.08127182,0.11373566,0.39667994,-0.610492,0.17606792,-0.17833662,0.29593942,-0.3895133,-0.16237676,-0.006539772,0.39770472,-0.48537368
-0.37516284,0.48391697,0.14057423,-0.09413477,-0.07068234,0.059371665,0.39870486,-0.62676847,0.0015186538,0.10519515,0.3999805,-0.36631653,-0.22161375,0.23219487,0.40214476,0.23893161
-0.31621054,0.35693696,0.29366013,-0.074047305,-0.080993466,0.057002414,0.40007925,-0.42150912,-0.22347987,0.10244827,0.40000218,-0.2807151,-0.26295093,0.2666983,0.3050224,0.4972637
-0.30419216,0.28596577,0.3129247,0.049584422,0.15071318,-0.025666896,0.33245277,-0.353062,-0.16453192,-0.07895767,0.38439658,-0.4802899,-0.24222857,0.14110813,0.2492376,0.4241505
-0.07276912,0.011717571,0.33924216,0.16159339,0.16224387,-0.009909318,0.22700739,-0.2820233,0.009612712,-0.110884435,0.35253498,-0.0373141,0.06877847,-0.19241866,0.4003479,0.097702615
0.092424415,0.062378116,0.4000179,-0.09680055,-0.010206647,0.09552902,0.3373432,-0.07324988,0.15840231,-0.08736369,0.27069393,-0.04543072,0.4193194,-0.2961942,0.4001212,-0.009390161
-0.12135734,0.16993807,0.29175052,-0.054817326,-0.0457678,0.12644276,0.29220062,0.14276321,0.2531749,-0.0676913,0.09773595,0.029291518,0.15561575,-0.16180336,0.3831191,-0.27925262
-0.056637548,0.1462322,0.2188981,0.07428794,-0.112886116,-0.00508482,0.4000148,-0.18816696,-0.0111700855,0.093731984,0.3432822,0.003473145,-0.13655458,0.06632653,0.17907172,0.14135568
0.021137103,0.10708434,0.26776817,0.17796782,-0.009750474,-0.083487354,0.34440994,-0.32479104,-0.20960572,0.07331976,0.39824712,-0.2778789,-0.2031136,0.09224364,0.10638965,0.38210693
0.107659474,0.027567888,0.29028475,0.09199456,0.058904078,-0.03250397,0.23563385,-0.26280743,0.05133509,-0.11847133,0.24588622,-0.1479563,-0.06000473,-0.12100468,0.2267493,0.18306278
0.23357004,-0.017094249,0.40002576,0.13191654,-0.08293861,-0.010456071,0.32426804,-0.3277185,0.14726473,-0.15091655,0.26812643,0.01561958,0.3053937,-0.2240034,0.40009227,0.0659039
0.018942155,0.13057819,0.40000817,-0.1722587,-0.14542621,0.022660216,0.31002015,-0.24393143,0.25381055,-0.1363333,0.13452043,0.02912235,0.29203942,-0.16504245,0.39972448,-0.114884
-0.11912919,0.09462269,0.23256381,0.044471096,-0.084049314,-0.0011370418,0.26831117,0.026055,0.2134082,-0.12701035,0.13387083,-0.01177996,-0.054673824,0.042895187,0.35345685,-0.074819185
-0.03257,0.06512105,0.31186828,0.19897962,-0.16412088,-0.025285317,0.3918629,-0.32717562,-0.08918717,0.097815625,0.40001404,-0.10019794,-0.16268656,0.14920348,0.27119297,0.2863105
-0.011452157,-0.013618143,0.29702213,0.25364852,0.017152295,-0.03916258,0.3281529,-0.38105124,-0.064242,-0.01684147,0.3731767,-0.3207682,-0.18759522,0.10743768,0.21685146,0.30444247
0.15521261,-0.06924513,0.40001518,0.22352244,-0.013173862,-0.05235983,0.3617399,-0.30028993,0.074165314,-0.10539662,0.27062848,-0.021836022,0.088350125,-0.12289606,0.3917353,0.21093886
0.15953894,0.027288927,0.40000144,-0.012965302,-0.11393834,0.029085476,0.39292413,0.07060802,0.19001134,-0.1184453,0.18087777,0.33636177,0.43127692,-0.14591464,0.3984779,0.079247214
-0.16486777,0.14002755,0.31590897,-0.10419676,-0.12907037,0.077987984,0.36593464,0.29431593,0.28731325,-0.0838701,0.0012458792,0.36166796,0.28596407,-0.045681946,0.39992252,-0.17419197
-0.16791867,0.12515716,0.25437608,0.05593121,-0.18199563,-0.014555042,0.40008414,-0.09263115,0.09580382,0.16091017,0.200318,0.018560283,-0.018238546,0.15143523,0.18956137,-0.08575492
-0.06360647,0.12947147,0.33215275,0.08714861,-0.27630898,0.025330953,0.39999378,-0.21961893,-0.2530793,0.18716837,0.40008566,-0.08459571,-0.11205262,0.18155074,0.1563527,0.28393358
-0.050715465,0.050196,0.28818464,0.16334237,-0.050665993,0.011507674,0.221555,-0.21930347,-0.089435205,0.027918927,0.30556616,-0.329973,-0.101361774,0.02199718,0.116443515,0.22739488
0.16101761,-0.013455248,0.40006283,0.060895674,-0.12781885,0.03268991,0.32156754,-0.065932654,0.006664236,-0.051392738,0.21642058,-0.031807363,0.23589428,-0.18625055,0.39691338,0.107284665
0.035273053,0.08481615,0.40001163,-0.12541485,-0.24740142,0.070286766,0.34091783,0.11190788,0.13350172,-0.040020347,0.12362229,-0.006840045,0.42729947,-0.10309465,0.3999443,0.03818152
-0.10582603,0.106732115,0.27321145,-0.15338945,-0.19748735,0.012095238,0.3462064,0.22845104,0.12006266,-0.0049470863,0.08363387,0.27574307,0.06204597,0.05975795,0.36148682,-0.25931293
0.03498707,0.07929944,0.30405477,0.119219266,-0.23544422,-0.049323015,0.4000163,-0.05310424,-0.17868154,0.07414665,0.38993672,0.06885364,-0.09187009,0.14487892,0.29295167,0.1665792
0.09342706,0.039769873,0.3015176,0.1856168,0.0043789246,-0.032940876,0.22656897,-0.09986893,-0.12537488,-0.08490967,0.3698329,-0.13636445,-0.1508564,0.055365853,0.18398532,0.024660219
0.23215248,-0.033829607,0.39667934,0.09888106,-0.06861382,-0.036935814,0.25413835,-0.012236354,-0.0021639846,-0.13035747,0.26660573,0.09607012,0.14878361,-0.15851331,0.40008348,0.15863056
0.04679639,0.108809926,0.4000324,-0.1214475,-0.2240629,0.034566686,0.29122502,0.28833973,0.16771537,-0.108314514,0.14360352,0.16067658,0.38014504,-0.16095242,0.40000844,-0.022084763
-0.17552923,0.10637105,0.26809755,0.038433105,-0.17011887,0.0049223797,0.25202534,0.52569306,0.15045111,-0.11858199,0.08671313,0.071314685,0.11389784,-0.014575767,0.3809185,-0.26994783
-0.069481805,0.060333744,0.34224275,0.24131003,-0.19608869,-0.08390466,0.40002212,-0.19355431,-0.0709693,0.05707547,0.37078264,-0.07823728,-0.08023933,0.164347,0.27137852,-0.0797262
-0.036813494,0.022607941,0.3459412,0.09193106,-0.057825647,-0.093708724,0.38782832,-0.41091773,-0.1797487,0.08342651,0.39974055,-0.27330145,-0.16942774,0.18849267,0.15193814,0.3516687
0.06453243,0.018554829,0.31174493,0.08629512,0.048322786,-0.048063114,0.26064616,-0.13022563,0.062370505,-0.065377064,0.24207439,-0.20557238,-0.006907876,-0.045212988,0.23745483,0.1698819
0.15835209,0.0121138925,0.38984084,-0.0662295,-0.06387842,-0.019315502,0.31785697,-0.039404403,0.12986955,-0.115199715,0.27083504,0.08428758,0.27534947,-0.17130601,0.39429194,0.031144932
-0.059756767,0.10664232,0.4000075,-0.15858245,-0.13477927,0.04531702,0.30729455,0.24067171,0.221289,-0.116530776,0.14390294,0.18848269,0.27078196,-0.08090795,0.39896578,-0.124502555
-0.11937804,0.10709378,0.25563627,0.12792103,-0.054022994,-0.070883416,0.32248482,0.047519516,0.12763736,-0.04601686,0.18523747,-0.036493715,-0.082922235,0.15399778,0.22541577,-0.38291854
-0.04518936,0.08188716,0.29985666,0.22747386,-0.13932745,0.014325685,0.40113667,0.03969513,-0.08304398,0.09905416,0.4000708,-0.08277984,-0.15237062,0.21424605,0.21689263,-0.03062798
-0.0041274326,0.032883808,0.29112267,0.2721835,0.06038961,-0.007822127,0.269196,-0.1941152,-0.07428009,-0.034268882,0.39887127,-0.23570354,-0.23833878,0.09344587,0.082596704,-0.0227831
0.19081323,0.015708327,0.4000249,0.05890974,-0.055963915,0.04705886,0.31020865,-0.0961068,0.113987416,-0.094110265,0.25917807,-0.072596975,0.14988612,-0.20251012,0.4000861,0.054678474
0.08399038,0.18939635,0.4000088,-0.06565138,-0.17216547,0.11632294,0.3541714,0.26265845,0.23112872,-0.08054957,0.22637676,0.043040793,0.42568347,-0.22459663,0.39969298,-0.21055414
-0.14489348,0.20011663,0.28781512,-0.06171334,-0.15343453,0.13494824,0.3258067,0.3159799,0.2676237,-0.123957165,0.15335222,0.16794501,0.19257155,-0.091329485,0.39805916,-0.17498896
-0.112301536,0.20885356,0.3017266,0.05475853,-0.22991809,-0.03211135,0.4006641,-0.086119294,0.012128184,0.034925774,0.32196495,-0.039535247,-0.04057639,0.0911141,0.2656132,-0.02916044
-0.08716275,0.16229618,0.3352314,0.21285479,-0.20427884,0.020765584,0.40128696,-0.34646398,-0.23917606,0.11677139,0.39991876,-0.29157022,-0.06225926,0.14132622,0.22440977,0.33582598
0.0035264648,0.099928305,0.29617718,0.2781959,-0.057127487,0.01747659,0.3070615,-0.2548534,-0.053878456,-0.085080855,0.2423707,-0.190464,0.005693652,-0.045709297,0.21478148,0.19831796
0.15977404,0.0016630468,0.40000975,0.17808557,-0.1007431,0.023963718,0.3504958,-0.11804318,0.019268898,-0.1310328,0.2132199,0.067856155,0.31475043,-0.20465198,0.4000439,0.018941639
-0.058524866,0.10299105,0.40140375,-0.026015079,-0.23951994,0.09248516,0.36403263,0.23116982,0.19154294,-0.11302183,0.06783141,-0.03452829,0.34362152,-0.12904157,0.3999632,0.00863192
-0.12606266,0.08878481,0.26286948,-0.17463695,-0.17556518,0.028608922,0.33283767,0.22226031,0.13637902,-0.1275298,0.05473388,0.26614043,0.0033371744,0.098067485,0.31723276,-0.19550204
-0.043489687,0.06996876,0.31806612,-0.018927267,-0.27262434,-0.0988444,0.3999921,-0.2301604,-0.110731296,0.042843074,0.3830659,-0.070825115,-0.09035483,0.1685244,0.25399387,0.23035103
0.008911827,0.015838651,0.30847746,0.22780296,-0.034944624,-0.077242844,0.27005258,-0.29935402,-0.12460621,-0.07119756,0.3957189,-0.30196705,-0.17226657,0.10399463,0.14879762,0.19077976
0.17578891,-0.06864419,0.40002695,0.055630773,-0.10501078,-0.07116065,0.27184343,-0.27356026,0.043145332,-0.11922262,0.24465996,-0.081868,0.13313673,-0.15725203,0.40005308,0.13378933
0.063542046,0.018474221,0.40000394,-0.07009082,-0.24788995,0.044369087,0.32785884,0.12557141,0.1698177,-0.12122263,0.18759105,0.05484745,0.38514575,-0.14401613,0.39992133,0.04773202
-0.1652789,0.18139106,0.3292054,-0.11144419,-0.2789897,0.08907588,0.31013083,0.26857966,0.2337903,-0.096153885,0.07590035,0.19291952,0.2328398,-0.049732633,0.39997298,-0.16950475
-0.13522582,0.17123108,0.27207005,0.13959433,-0.22335295,-0.031791527,0.4001145,-0.21197286,0.09024989,0.047467623,0.14393081,0.04262579,-0.0505078,0.14134838,0.29747254,-0.20981485
-0.060337994,0.14976077,0.31513938,0.17614768,-0.23155573,-0.037840586,0.4000689,-0.31248346,-0.17484623,0.096309505,0.3984772,-0.08460476,-0.14895536,0.19158451,0.20046887,0.20939127
-0.03399779,0.08620472,0.23050077,0.07626258,-0.070303954,0.00034874058,0.2956778,-0.10830087,-0.025845662,-0.020991897,0.30135614,-0.26899084,-0.10428165,0.057901435,0.18913676,0.13616015
0.15380968,-0.07346169,0.3982191,0.2299827,-0.1103924,-0.011137943,0.3480535,-0.021490604,0.07097628,-0.07727565,0.22828762,0.011720108,0.20454685,-0.17190842,0.40096784,0.057551697
0.07789592,0.03383463,0.3902512,-0.118256204,-0.20858368,0.030278692,0.3961805,0.17230238,0.15704133,-0.089286484,0.19259268,0.3840306,0.45356008,-0.17276375,0.39918673,-0.011111006
-0.14534663,0.09105141,0.3486566,-0.074426636,-0.21792361,0.07559004,0.35849786,0.38123512,0.2230758,-0.047083884,0.05764797,0.39518222,0.29667735,-0.082109675,0.39443588,-0.11118867
-0.16197915,0.09384393,0.31293598,0.10154283,-0.20343892,-0.042596765,0.3765952,-0.024943786,0.076909676,0.15952311,0.14429389,0.14550595,-0.012504504,0.11162713,0.2626459,-0.028948408
-0.11545033,0.059674833,0.34855142,0.18672368,-0.2572985,0.001057273,0.3862488,-0.37986052,-0.25026733,0.25006548,0.39656484,-0.14209358,-0.09340807,0.15336806,0.19009507,0.347191
-0.09383849,-0.021359181,0.35696933,0.27273276,-0.06024139,0.031201834,0.3652948,-0.37028188,-0.2113927,0.14806165,0.3993653,-0.27961406,-0.1634085,0.08649571,0.08955871,0.22403947
0.10825383,-0.083965585,0.40000963,0.20814173,-0.027637808,0.032280296,0.32940158,-0.13643855,0.03613065,-0.039231617,0.20122969,-0.08421303,0.13708414,-0.23089668,0.37809676,0.17589657
0.1609358,-0.043106344,0.3982598,0.06545224,-0.14931679,0.082648166,0.39871994,0.013118995,0.105397575,-0.07787967,0.22966686,0.17510678,0.40671617,-0.26966703,0.4000144,0.045681637
-0.10134019,0.12660044,0.4000033,-0.10878854,-0.23658398,0.12404365,0.3859121,0.261563,0.2514763,-0.040505342,0.03007913,0.39857978,0.31038585,-0.17078222,0.3997457,-0.12822823
-0.22028294,0.1517494,0.21591863,0.091376804,-0.21313009,0.03579475,0.35404617,0.08304877,0.21269561,0.10664548,0.007534675,0.23591796,0.001615692,0.027604768,0.3294048,-0.25372657
-0.13115217,0.11330268,0.27314478,0.17250362,-0.27226654,-0.00029650368,0.4011537,-0.1586088,-0.10134528,0.23153114,0.40002328,-0.09680117,-0.10781934,0.11735728,0.24588887,0.21680667
-0.102075905,0.0428861,0.2613445,0.1357247,-0.1173302,0.047478113,0.3137756,-0.2365372,-0.1124631,0.06819152,0.34511343,-0.31997645,-0.1536651,0.043660965,0.18912941,0.38745376
0.11629937,-0.030767255,0.37250826,0.2961815,-0.08721841,0.02006792,0.32142273,-0.1219745,0.06730226,-0.04303387,0.13861042,-0.04613869,0.15453215,-0.21372129,0.35259777,0.2426319
0.0792312,0.08668742,0.4000063,0.008923264,-0.21271442,0.101613894,0.37372938,0.10415075,0.18085364,-0.055637263,0.060056433,0.09362683,0.44374502,-0.17660119,0.4000317,0.007944582
-0.16444705,0.20438986,0.32337856,-0.1355718,-0.20805943,0.103984535,0.31940246,0.2620673,0.22244461,-0.06564328,-0.03346041,0.25206178,0.23325521,-0.109295025,0.3999305,-0.3113467
-0.18209845,0.19426425,0.26982665,0.22071888,-0.2514909,-0.06440429,0.40005127,-0.18136774,-0.012789293,0.116737224,0.25645766,0.044630237,0.0007655965,0.11639301,0.33174935,-0.06592498
-0.102330044,0.14592707,0.35433495,0.25370744,-0.16603036,0.016885383,0.4000953,-0.37397096,-0.2623453,0.11557744,0.399462,-0.15566303,-0.04587298,0.15638334,0.29505095,0.32725015
-0.023493849,0.07029466,0.28927767,0.29656884,-0.009208635,0.027974768,0.278194,-0.11089093,0.006612325,-0.07619111,0.2079795,-0.07913276,-0.036303315,-0.09020248,0.26546136,0.018447304
0.18534857,-0.08869301,0.4000412,0.16703637,-0.07485804,0.032720488,0.3212658,0.043262657,0.056948204,-0.14630522,0.21594962,0.31359527,0.25845253,-0.2679771,0.4001318,0.08648338
0.026087094,0.0690442,0.39907864,-0.111032285,-0.19123784,0.048907094,0.33854237,0.1644767,0.16672058,-0.13484256,0.1358814,0.49639112,0.46131098,-0.2158954,0.39936173,-0.13811472
-0.20444942,0.085570544,0.23388948,-0.012359268,-0.18787533,0.07464637,0.28940693,0.30912524,0.22253244,-0.12887497,0.03451325,0.30555636,0.1460391,-0.070642024,0.39968184,-0.2638746
-0.09872843,0.07102135,0.28053725,0.12473664,-0.23884943,-0.111805476,0.39998755,-0.30603898,-0.10267843,0.021896621,0.36121288,-0.09425377,-0.0775024,0.113542825,0.24943711,0.29334322
-0.04581587,0.034387674,0.29581925,0.12278825,-0.14807752,-0.086647555,0.40017578,-0.44270152,-0.31291306,0.0063281166,0.40010902,-0.25570124,-0.14322749,0.148529,0.19308262,0.58672076
0.09572785,0.052328885,0.27859864,0.29440182,0.022010257,-0.0815201,0.17874539,-0.27629846,0.035891797,-0.10862379,0.19368392,-0.28144258,-0.044850465,-0.05927746,0.2148911,0.20051347
0.19830818,-0.022803873,0.4000211,0.121555336,-0.13915257,-0.043323968,0.30266565,-0.27614987,0.0847315,-0.17330456,0.2797589,-0.115131296,0.2597058,-0.15281461,0.40002695,0.14955433
-0.023532523,0.14892696,0.40002787,-0.061642043,-0.2811162,0.04933808,0.31292447,0.11792923,0.23712386,-0.18971993,0.17326455,0.12001056,0.47846726,-0.0932911,0.39970928,-0.11216411
-0.19343722,0.15285197,0.25896442,0.07325676,-0.24974935,0.043832056,0.25515762,0.29033622,0.24915045,-0.19107519,0.108681716,0.10813317,0.21329874,0.012768811,0.39836925,-0.29043654
-0.12042514,0.11906217,0.29302174,0.17723015,-0.2584046,-0.025309943,0.40007633,-0.06583925,-0.005615852,0.013214001,0.40019813,-0.013763946,-0.023974016,0.13801564,0.2784297,-0.16312714
-0.08108577,0.09583172,0.2576369,0.11945021,-0.011237556,0.023441296,0.37917662,-0.4170802,-0.21491016,0.0012542009,0.39945605,-0.25559205,-0.14354795,0.12302631,0.12166264,0.11165982
0.062291812,0.064323075,0.31459597,0.22810376,0.08503605,0.024493149,0.25397137,-0.08384859,0.062479254,-0.074613556,0.17100489,-0.17229311,0.006405813,-0.09276016,0.24698119,0.14348364
0.12698406,0.1280398,0.39931163,-0.0073537007,-0.066696554,0.049572796,0.327479,0.066006325,0.13548322,-0.09925906,0.23194957,-0.05375806,0.37475932,-0.17310996,0.39956242,0.06195747
-0.073866285,0.22789969,0.38296026,-0.12702885,-0.12629963,0.07190644,0.30618513,0.27993912,0.23852232,-0.0970346,0.09145047,0.08667907,0.18474376,-0.09715563,0.39254224,-0.2672548
-0.05517499,0.18655527,0.23968604,0.016319016,-0.15397847,-0.023886042,0.39998263,-0.23281504,0.04019303,0.1221919,0.300271,-0.20614333,-0.11251697,0.1188389,0.28032964,0.14247526
0.03191938,0.10672284,0.31885684,0.2412845,-0.10574782,-0.0030329076,0.36715057,-0.33344406,-0.18597667,0.14783773,0.40000477,-0.3363728,-0.1724327,0.16522111,0.22459626,0.3684767
0.08176192,0.04891417,0.32838857,0.20210429,-0.03670344,-0.020010192,0.30049118,-0.2230338,0.06365973,-0.04439009,0.20617032,-0.0026325027,-0.028023522,-0.06877246,0.2906299,0.1718275
0.16560298,0.058646206,0.4,0.026347714,-0.15441008,0.03213986,0.36973095,-0.004102883,0.15677442,-0.07185003,0.2299518,0.26145914,0.35245723,-0.17966448,0.39922062,0.14723584
-0.06701392,0.15045461,0.4000225,-0.13810986,-0.21860375,0.07462096,0.35929322,0.21213986,0.26309556,-0.05557198,0.10082549,0.37099716,0.36433947,-0.12667412,0.39955178,-0.16628186
-0.12519723,0.14904034,0.26351935,0.049242463,-0.20569907,-0.039296888,0.38004524,-0.0036662335,0.09244715,0.16641626,0.19427642,0.2555967,-0.058806557,0.11610075,0.21906543,-0.0953561
-0.0723074,0.13653389,0.30146307,0.094322234,-0.24349293,0.030491676,0.39033318,-0.34536394,-0.21575963,0.2614748,0.39385653,-0.077233836,-0.12824026,0.15581362,0.15991527,0.31330594
-0.03054356,0.038796905,0.26453793,0.31643838,-0.022588765,0.07709404,0.22178446,-0.1967462,-0.10712049,0.091433525,0.32102886,-0.33957887,-0.15252636,0.024856294,0.109957546,0.17514196
0.15842685,-0.033153776,0.40000036,0.27944806,-0.06725111,0.076222844,0.28476575,-0.09817331,0.05063015,0.0062237936,0.1790541,-0.13749902,0.18149543,-0.19784486,0.38000253,0.06530849
0.07739445,0.14017409,0.40001744,-0.07365612,-0.21197861,0.13786359,0.34808064,0.075075015,0.1688765,-0.0066062436,0.13660194,0.081996344,0.4583861,-0.17295888,0.40010512,0.0072520645
-0.16735668,0.18263823,0.32863003,-0.051324848,-0.19997,0.12876873,0.28098145,0.2108805,0.20533676,-0.027229456,0.027231751,0.23088595,0.24558651,-0.10596267,0.3970355,-0.15547769
-0.176455,0.09838321,0.28643,0.23261438,-0.2230977,-0.07457634,0.39296582,-0.25162578,0.05606046,0.12040991,0.19172543,-0.04285228,-0.04457929,0.11146787,0.29215035,0.1300891
-0.10819176,0.036516752,0.33137283,0.25804603,-0.12582697,-0.033142477,0.38681775,-0.41968936,-0.21184857,0.16431269,0.3998077,-0.24256271,-0.14795281,0.13231812,0.21566309,0.36020535
-0.024893189,-0.018363355,0.30248964,0.24896449,0.016745007,-0.011317602,0.3002273,-0.14184773,0.04238911,-0.05313359,0.22627005,-0.1353535,-0.04191203,-0.0677632,0.27022585,0.2467804
0.12692407,-0.06905405,0.39731866,0.138259,-0.07157189,0.016913775,0.36895603,-0.009521539,0.10324739,-0.14593087,0.25545093,0.194469,0.3187352,-0.2881531,0.40000093,0.06866415
0.035978757,0.108647704,0.3939975,-0.11482452,-0.13867658,0.075036004,0.37935886,0.2563624,0.18480472,-0.16313383,0.19575503,0.49965394,0.41583008,-0.24157876,0.39987853,-0.06839225
-0.17821787,0.09456535,0.21484889,0.053274304,-0.06459671,0.014828539,0.27932018,0.15309878,0.2102071,-0.15111044,0.05862735,0.17175469,0.040711205,-0.063176714,0.39774156,-0.17891575
-0.09902004,0.035402257,0.29475898,0.28024536,-0.15885356,-0.114188515,0.4000457,-0.23502591,-0.049745657,0.07661334,0.3485581,-0.16602272,-0.12115396,0.05618012,0.27564457,0.0626923
-0.03487343,-0.06297947,0.3607901,0.27938572,-0.0147810755,-0.056062207,0.25823343,-0.164013,-0.04820326,-0.04968918,0.3411518,-0.11072019,-0.17214777,-0.011402415,0.18466711,0.13887121
0.15654472,-0.03768407,0.39791828,0.14649229,-0.052688394,-0.040988628,0.2826575,-0.05022352,0.071532115,-0.13406941,0.22958091,0.09438805,0.14946133,-0.24193513,0.36869875,0.0037745205
0.026698789,0.10582922,0.40001592,0.04789677,-0.14653915,0.05513844,0.30653897,0.2960082,0.18533723,-0.14679272,0.14038356,0.34193775,0.38112596,-0.2282299,0.39954874,-0.06544591
-0.13412899,0.07612116,0.30968323,0.17489937,-0.10165322,0.053907003,0.2680397,0.17000276,0.21826465,-0.07997868,0.04015533,0.37222773,0.13076964,-0.06389618,0.39476392,-0.009120096
-0.13795854,0.019053074,0.27903718,0.27172393,-0.07902865,-0.10027304,0.39859703,-0.32712352,0.06968262,0.13785492,0.24256533,-0.22531188,-0.1118672,0.18540487,0.11780901,0.29156795
-0.11404113,-0.06257023,0.31676292,0.38424712,0.0044179056,-0.1354774,0.38805106,-0.58273935,-0.080107875,0.1413293,0.39957497,-0.3127663,-0.092950895,0.25205812,0.12883644,0.5029329
-0.082982786,-0.10838868,0.31593552,0.26176855,0.1650783,-0.12850961,0.29674697,-0.16900748,-0.09361549,0.008287131,0.38489622,-0.06342414,-0.15729794,0.1692438,0.045177072,0.34923854
-0.016540222,-0.12862286,0.27052733,0.21193565,0.24374183,-0.1115698,0.20115124,-0.016791172,0.032146983,-0.20398363,0.16814418,0.3608845,-0.07701765,-0.048871603,0.07711192,-0.09465118
0.18059358,-0.10467473,0.40002996,0.3905315,0.26597857,-0.018287685,0.2215797,0.050840367,0.07569448,-0.3534159,0.031456914,0.49842343,0.27549812,-0.2841227,0.37900472,-0.26370937
0.12681954,0.13911168,0.4000378,0.3896534,0.25958157,0.13029644,0.20944221,0.21969138,0.16404545,-0.31825948,-0.18839301,0.2567291,0.20911649,-0.28755045,0.40001,-0.37204683
-0.11101704,0.21967682,0.30187118,0.36563495,0.24027002,0.086995,0.10877984,0.18044746,0.16439125,-0.27735218,-0.2228022,0.19843678,-0.10036954,-0.109288216,0.3250102,-0.21226837
-0.13284966,-0.048107747,0.27722716,0.821156,0.07630775,-0.18558608,0.274847,-0.36181533,-0.052734762,0.017425627,0.17142907,-0.5599358,-0.26812607,0.23078485,0.16715613,0.48611772
-0.09334539,-0.086870864,0.33913958,0.65590703,-0.010952383,-0.3742056,0.294054,-0.49269655,-0.101804316,0.15437526,0.39986587,-0.6603932,-0.26610097,0.38776612,0.15195103,0.589398
-0.0597874,-0.20062849,0.29304886,0.5318525,0.122823946,-0.27457786,0.14933158,-0.34636575,0.13874692,-0.059435725,0.31217992,0.11320327,-0.20706774,0.22524883,0.15025651,0.2960232
0.122425884,-0.24508737,0.4003702,0.48182625,0.11255215,-0.07118169,0.21908402,0.050486375,0.23896645,-0.28330374,0.18897134,0.41475734,0.11333405,-0.051670376,0.38227585,-0.23723921
0.1681,-0.09673879,0.40001684,0.53936327,0.10764396,0.06621321,0.22773753,0.17589739,0.24368218,-0.3767447,0.1422358,0.65642613,0.30068734,-0.2940181,0.40005517,-0.5492369
-0.036257315,0.19062781,0.38728237,0.42214817,0.12937105,0.09883833,0.13361329,0.21861605,0.34161767,-0.38342622,-0.13197751,0.25779772,0.032424487,-0.23390953,0.39762637,-0.5375848
-0.13493507,0.03855093,0.16175593,0.65969217,0.10617009,-0.099083394,0.32674298,-0.074961774,0.23928362,-0.15382816,0.04722743,-0.25790092,-0.2569356,0.056238096,0.1532954,0.124696635
-0.031235823,-0.208017,0.30912498,0.8769274,0.05040947,-0.2924019,0.18553574,-0.13476317,-0.042652175,0.12215893,0.3999417,-0.47670642,-0.32547152,0.3093104,0.16175807,0.32621008
0.009526755,-0.3228039,0.27984118,0.8572638,0.15475196,-0.43022853,0.06937551,-0.2879866,0.0055603134,0.08534638,0.40014893,-0.22658943,-0.36973915,0.3681839,0.07236146,0.3429198
0.06850444,-0.3408366,0.39118707,0.5324011,0.1622615,-0.24740031,0.117632374,-0.08980031,0.26904616,-0.23474571,0.07974384,0.35086372,-0.076118544,0.08140757,0.17674355,-0.23617916
0.09113341,-0.21033232,0.40000772,0.5654824,0.13490495,-0.09307417,0.14713857,0.18166788,0.2755211,-0.32462263,0.04032791,0.5479948,0.1700504,-0.20557879,0.40013465,-0.43905962
0.03056057,0.14740855,0.40003574,0.43029878,0.17519523,0.0020853956,0.09372046,0.19456454,0.29503223,-0.3974047,-0.13238448,0.419709,0.12964396,-0.30099353,0.39928186,-0.5407953
-0.14183936,0.15019071,0.21376598,0.7345218,0.17755295,-0.056630153,0.094875336,-0.05264761,0.26376113,-0.23680489,-0.057018794,-0.086146824,-0.19767205,-0.07968531,0.27873504,-0.18893461
-0.117190644,-0.012894017,0.22087766,0.9228601,0.061083835,-0.20219357,0.270409,-0.1560543,0.0003605055,0.038901787,0.37372342,-0.3951095,-0.3176349,0.25507882,0.12253652,0.18850423
-0.11965798,-0.12754773,0.18822975,0.6997733,0.07324491,-0.2662294,0.11863651,-0.21111834,0.06703884,-0.033407025,0.31403413,-0.10332175,-0.2827259,0.23071314,0.1180522,-0.086964004
0.052559745,-0.250148,0.384897,0.66146713,0.08857938,-0.18732727,0.140036,-0.21459062,0.24461876,-0.22002976,0.068117104,0.12122141,0.032316353,0.006675873,0.29490164,-0.21084604
0.129121,0.05247436,0.40000522,0.65928376,0.12278049,-0.05091161,0.10374346,-0.16615587,0.25519332,-0.3739933,-0.04675241,0.32854962,0.16755368,-0.19188434,0.399543,-0.38659933
-0.089341424,0.2621953,0.34329274,0.33896914,0.21731871,0.052952882,-0.0032178063,0.011668744,0.2549147,-0.4021146,-0.16432863,-0.082423426,-0.03837992,-0.124422,0.39973465,-0.3821441
-0.24114561,0.06991237,0.17758861,0.8655816,0.17660204,-0.10394045,0.22115536,-0.18638857,0.07183964,-0.27129233,0.09740009,-0.17702207,-0.23630652,0.16497906,0.2344137,-0.02200741
-0.18254352,-0.06601969,0.23380247,0.91137,0.09647498,-0.2922151,0.25317156,-0.35016912,-0.074834295,0.040829595,0.40011042,-0.747534,-0.2712278,0.31833014,0.23418559,0.110417284
-0.19571978,-0.1207213,0.17894708,0.85281545,0.20227712,-0.36553335,0.08413495,-0.24610123,0.020337211,-0.01910139,0.3909662,-0.35541904,-0.29090527,0.33662456,0.10332583,-0.010651638
-0.014117038,-0.13757789,0.3775148,0.5427517,0.15145393,-0.12571925,0.17164487,-0.14969048,0.21941529,-0.23727505,0.15432434,0.16657545,0.07781204,0.074807264,0.29200798,-0.30643603
0.0895299,0.08018247,0.4000517,0.57305956,0.178314,-0.018940555,0.12782729,-0.28939041,0.23466635,-0.33618033,0.0826485,0.28712985,0.26590312,-0.20165165,0.400026,-0.49397188
-0.11950087,0.32018247,0.3242204,0.3403028,0.19089313,-0.010747554,0.15551504,-0.042688694,0.29372305,-0.34876457,-0.15362841,0.10180428,-0.09261247,-0.10399753,0.36860275,-0.5068024
-0.17348276,0.08584118,0.18902265,0.6329842,0.12024191,-0.16465333,0.34612942,-0.24923939,0.10492532,-0.12581567,0.13286114,-0.48853198,-0.26553017,0.21258886,0.26609328,0.29120645
-0.11664786,-0.027567858,0.19652084,0.5579184,0.1236537,-0.26026186,0.21225315,-0.41327646,-0.08166046,0.09630465,0.39771488,-0.46039194,-0.30142248,0.33179083,0.30795646,0.25960582
-0.06331619,-0.13620993,0.22619157,0.6371479,0.17893693,-0.14825282,0.15988107,-0.37203833,0.16464303,-0.14989015,0.21238795,0.072154,-0.22444722,0.22011727,0.17404121,-0.09145935
0.11446651,-0.03174607,0.40000713,0.5763845,0.160487,-0.009670283,0.14645122,-0.21500662,0.27883476,-0.3262775,0.0477122,0.44935253,0.18730882,-0.102456205,0.40013185,-0.28139654
0.09830785,0.25588036,0.40004703,0.44629282,0.19983123,0.099577345,0.08143061,-0.23168276,0.28865498,-0.39180526,-0.08550331,0.49438232,0.035780795,-0.19944122,0.4000661,-0.6180476
-0.16566053,0.24258621,0.25405127,0.6941322,0.20528437,0.008879811,0.18667985,-0.20464128,0.20873268,-0.28773403,-0.013972967,-0.2722216,-0.27729818,0.11390308,0.22618152,-0.031593747
-0.15384983,0.0458577,0.22501671,0.9572358,0.09966646,-0.19500752,0.20198551,-0.4143719,-0.010237291,0.019775055,0.34440303,-0.5774817,-0.29931372,0.34781694,0.28723133,0.18425126
-0.16964366,-0.060614914,0.17470734,0.74571365,0.05414802,-0.17555302,0.19448054,-0.33012086,0.050052762,0.12678601,0.40020275,-0.40225166,-0.30629057,0.44007286,0.25958952,0.10367633
-0.12824714,-0.18180996,0.16386995,0.7992253,0.048569515,-0.07349734,0.1614814,-0.30582377,0.31091878,-0.13228391,0.12544161,0.018881012,-0.15333676,0.38313124,0.24502337,-0.14067422
0.048785377,-0.18994737,0.38648427,0.8546883,0.011094549,0.08643638,0.14619577,-0.081346914,0.34923485,-0.30141765,0.13793132,0.29259178,0.15204713,0.12126949,0.4001729,-0.54493564
0.07893563,0.09140178,0.40000865,0.56100714,0.050062634,0.19268428,0.09143362,-0.011841958,0.3186893,-0.43658224,0.14469084,0.3488655,0.27111223,-0.17698228,0.40008277,-0.8919548
-0.08421139,0.32262662,0.40004036,0.4189909,0.07855574,0.17694664,0.046128295,-0.116053894,0.3321543,-0.48056084,-0.0165306,-0.028030738,-0.03159103,-0.15102154,0.39905846,-0.7108406
-0.26554066,0.19602568,0.18000202,0.8595135,0.14588062,-0.0059677777,0.29889256,-0.2936227,0.19407302,-0.3878872,0.13011803,-0.743244,-0.19270991,0.16039352,0.28920436,-0.015703965
-0.28323513,0.050071307,0.23346798,0.6770146,0.09631691,-0.1929335,0.19664018,-0.3084117,-0.051218677,-0.0009729961,0.39997092,-0.7554113,-0.20536543,0.36313114,0.19993159,0.533562
-0.22747904,-0.096934706,0.25344074,0.8129078,0.16971384,-0.23772666,0.10115436,-0.383377,-0.11004793,0.06862498,0.4001037,-0.50274026,-0.28770277,0.34728593,0.018517496,0.3908989
-0.09188657,-0.17730819,0.24180195,0.56011206,0.27183405,-0.1651577,-0.0057480736,-0.17957036,0.20521511,-0.19851823,0.1489652,0.0460238,-0.04139385,0.0934735,0.15277995,-0.040426448
0.11884341,-0.17646433,0.4000051,0.5696518,0.21581084,-0.055571277,0.017721012,-0.17568307,0.237331,-0.3446,0.15793416,0.35505986,0.23754582,-0.17628543,0.40144637,-0.25032234
0.18102586,0.06787328,0.40001035,0.5322407,0.21529151,0.07853884,-0.012098814,-0.18340942,0.28495473,-0.41881248,0.055916276,0.3836201,0.21384838,-0.30305737,0.40016505,-0.73983365
-0.06473729,0.30669948,0.33144805,0.4742253,0.2438297,0.15292564,0.031101437,0.001144616,0.31736386,-0.4074953,-0.11281965,-0.37764734,-0.12746972,-0.16799447,0.35982585,-0.49380314
-0.15019134,0.13407871,0.16514613,0.91219854,0.22455567,-0.03855667,0.29985324,-0.29118434,0.09841631,-0.18449174,0.25469458,-0.61854833,-0.33322325,0.14346932,0.17733698,0.1293893
-0.13808222,0.00024138269,0.24407695,0.7976558,0.12217487,-0.23082967,0.24178925,-0.45426258,-0.14193833,0.16950199,0.39531845,-0.6453094,-0.33010137,0.32256073,0.16565923,0.41789395
-0.09261263,-0.13577482,0.19400512,0.5920794,0.17345518,-0.1746956,0.0895189,-0.33861214,0.08671438,-0.008394176,0.23387745,-0.003836393,-0.27081135,0.16618715,0.12804304,0.00467674
0.072434545,-0.15635929,0.40003458,0.61178535,0.14464873,-0.081642136,0.12793556,-0.39228508,0.23228757,-0.19533713,0.08756184,0.48695958,0.049205873,-0.07731281,0.34537444,-0.27462503
0.08421155,0.11928917,0.40005887,0.38657677,0.08297178,0.08353067,0.16213624,-0.30796143,0.28478655,-0.3000231,-0.04895821,0.51580584,0.06598925,-0.19153424,0.3998612,-0.39877987
-0.13254875,0.33366013,0.4014857,-0.016695632,0.12429634,-0.06315348,0.28756467,-0.4931531,0.22427855,-0.25532767,0.041015334,0.23610304,-0.16461074,-0.11742666,0.32491645,-0.578684
-0.29125798,0.34772244,0.22429585,-0.05132349,-0.03943385,-0.08384192,0.40009436,-0.57879555,0.02721821,0.0383722,0.40017965,-0.22261518,-0.2172671,0.054834176,0.39178708,-0.03938362
-0.22983746,0.22736052,0.37889066,0.08979836,-0.0026449398,-0.032919202,0.38725948,-0.583514,-0.062408417,0.0777856,0.39924243,-0.383649,-0.22015809,0.15711454,0.39278832,0.36054242
-0.119729176,0.10627549,0.35130015,0.047380757,0.06038184,0.07367774,0.34531617,-0.15285191,0.07926933,-0.020300195,0.31372166,-0.22582655,-0.050586503,-0.027574707,0.400245,0.12918158
0.095704004,-0.12170356,0.37444124,0.19212027,0.07205846,0.09911489,0.38591245,-0.20151459,0.07782015,-0.105835624,0.32596892,0.2947754,0.248036,-0.2979776,0.4001318,-0.050364405
0.14098781,-0.0107045965,0.40000606,-0.04998549,0.040794805,0.10655124,0.38305357,-0.17387515,0.1575595,-0.11661165,0.23795573,0.41320062,0.35263568,-0.2575187,0.39997613,-0.06349494
-0.11377028,0.18356802,0.40002775,-0.26771963,0.029294696,0.13914925,0.33285058,-0.010279569,0.24664345,-0.110548176,0.061323278,0.47468963,0.09473965,-0.15098147,0.3997752,-0.20942801
-0.10967033,0.13238406,0.31030893,0.025452765,-0.09524849,0.026180208,0.40030602,-0.27411595,-0.009995175,0.17390123,0.29287517,-0.0126214605,-0.18619871,0.07360305,0.21940266,-0.06849051
-0.06040935,0.06544687,0.40199474,0.1561708,-0.17021227,0.061277933,0.3998797,-0.42266682,-0.25296247,0.23238829,0.39997554,-0.1641823,-0.21990998,0.13984619,0.19296601,0.29038024
0.030066349,0.012889062,0.30570439,0.3599066,-0.001249579,0.061139476,0.29583713,-0.27765512,0.03364365,-0.0023682069,0.1958334,-0.16074201,-0.11867866,-0.06299251,0.20211723,0.21585585
0.1840985,-0.027668806,0.40001893,0.07565388,-0.07779488,0.06795063,0.3753683,-0.26510754,0.094541706,-0.05157492,0.18732594,0.030543089,0.16455999,-0.23230506,0.4000176,0.14258187
-0.047876235,0.16366987,0.39953405,-0.19530329,-0.16721004,0.09532708,0.39223462,-0.101807624,0.18429098,-0.07184989,0.09896657,0.31156632,0.23847418,-0.16145556,0.3999922,-0.13056178
-0.148099,0.16335362,0.28218573,0.025242498,-0.11336491,0.16032194,0.32874286,0.27253667,0.18986636,-0.037808027,0.032061033,0.25892374,0.041076023,0.009802344,0.39827672,-0.22908883
-0.07111128,0.13077313,0.3112258,0.092950694,-0.20565307,-0.0035031,0.40007743,-0.13538119,-0.049723554,0.09909605,0.32667992,-0.007998593,-0.18050303,0.1859308,0.23006454,-0.048270326
-0.053767305,0.103690185,0.30794302,0.15147075,-0.12317005,0.024358949,0.38598102,-0.25762877,-0.20557196,0.097698405,0.39996797,-0.31710228,-0.21931084,0.2141554,0.16908519,0.32384288
0.047646455,0.009712876,0.27887863,0.109765366,0.009424391,0.028579786,0.2878672,-0.16695133,0.03803128,-0.042469658,0.17105637,-0.21720606,-0.11663738,-0.0063627637,0.2246669,0.14201204
0.19626945,-0.033379573,0.40002292,0.025228739,-0.09362383,0.021128206,0.3745093,-0.20176412,0.1029887,-0.071622856,0.18567339,-0.05889829,0.21849933,-0.18615617,0.40007302,0.12126511
0.057843503,0.10261754,0.3995773,-0.16286169,-0.18529741,0.06232419,0.39014506,-0.018252276,0.21096969,-0.08026248,0.08813524,0.20860457,0.3913649,-0.13162313,0.39895543,0.031206328
-0.16947305,0.12796803,0.25357127,-0.07642331,-0.14653,0.06193219,0.3385277,0.07572874,0.27639025,0.010369431,0.037030235,-0.03996305,0.120278805,0.02450279,0.3720642,-0.15685971
-0.088593416,0.13282183,0.314312,0.082015015,-0.27651727,-0.020586634,0.40002605,-0.11748709,-0.03348418,0.18143435,0.3848241,0.031115226,-0.08370351,0.15593891,0.2417086,0.04199331
-0.046021402,0.10190167,0.3348511,0.1283926,-0.22107002,0.10539868,0.40001997,-0.26137722,-0.272563,0.19348665,0.3999787,-0.17912513,-0.1707563,0.15414858,0.14453173,0.34556574
-0.0069417385,0.0015846918,0.27197903,0.10581132,-0.021827422,0.12344795,0.26058933,-0.3185803,-0.058229797,0.039651386,0.29111105,-0.44287726,-0.16504802,0.022858713,0.12175965,0.27410138
0.21389832,-0.03280213,0.40001276,0.13562004,-0.1186275,0.13070908,0.3710338,-0.30583254,0.07099853,0.0040677595,0.22110417,-0.12941445,0.18131086,-0.20096904,0.4001309,0.23870075
0.1234318,0.08633477,0.4000521,-0.21527356,-0.21739912,0.17321876,0.3989017,-0.12484696,0.15261915,0.005122986,0.18979467,-0.01891158,0.39036766,-0.18841423,0.4000623,-0.0077271857
-0.038525086,0.15356958,0.39409584,-0.25823662,-0.25104153,0.2049778,0.368739,0.11302512,0.21657978,-0.028669415,0.10263573,0.19255294,0.3021237,-0.13747792,0.39970696,-0.107460834
-0.011222615,0.118021786,0.33410707,-0.19140488,-0.2209002,0.08919631,0.40003562,-0.16539843,0.14508256,0.13330725,0.24366899,0.25920802,-0.007136755,0.07091741,0.25112402,-0.20846367
0.063732885,0.091054074,0.40223107,-0.13657449,-0.40181172,0.32594535,0.37618765,-0.5484467,-0.1548743,0.27794766,0.39993405,-0.13403027,-0.039558798,0.16962677,0.2952785,0.40151346
0.08317748,0.08536252,0.35780615,-0.027054226,-0.39215675,0.5090857,0.38266587,-0.80218583,-0.08003162,0.14160302,0.40012026,-0.64967775,-0.08127102,0.2546715,0.25231278,0.9977276
0.17617522,-0.008217696,0.37107092,0.40785995,-0.12954777,0.45467493,0.34403136,-1.286736,0.20560317,-0.047760654,0.38860396,-1.2361922,-0.11279919,0.1812252,0.26873484,1.2130888
0.34805247,-0.16835588,0.400047,0.051519223,-0.19166505,0.36248353,0.41158918,-1.2426733,0.25248453,-0.018659197,0.41335595,-1.0306557,0.12969293,-0.040236235,0.3998078,1.0765682
0.4951748,-0.2852868,0.39755017,-0.40445605,-0.08881622,0.11194844,0.4005794,-0.8784002,0.25696614,-0.038187407,0.3974061,0.027472788,0.34436235,-0.0832135,0.39996204,0.5587442
0.516679,-0.4358008,0.4000205,-0.9755454,-0.10128061,0.0992966,0.40902343,-0.52200013,0.268255,-0.032825258,0.38759884,0.29041573,0.44422305,0.03744048,0.40001747,0.03660368
0.2532908,-0.2701947,0.4000282,-1.7218039,-0.11352847,0.1386771,0.39992306,-0.00451983,0.1744592,0.0031755622,0.3229476,0.8804729,0.13666287,0.1616351,0.3401138,-0.6433631
0.18053669,-0.08771138,0.42192745,-1.5045301,-0.28390142,0.36028334,0.30436283,-0.42996484,0.0603597,0.15768738,0.3869387,0.3154456,0.021700619,0.011336447,0.3281933,-0.33512494
0.16318879,0.013856677,0.40075856,-0.215437,-0.41519952,0.56937385,0.15981533,-0.8275548,0.0011157774,0.044669762,0.37990585,-0.17822517,0.017741093,0.0072043133,0.32954296,0.17420748
0.22335571,-0.048031844,0.40502563,0.42709118,-0.35878283,0.7023652,0.12502638,-1.4341058,0.094605744,-0.19315359,0.29822677,-1.1229097,-0.03148217,0.03927005,0.2569406,0.88317794
0.35628745,-0.26472524,0.3772251,0.546192,-0.2608738,0.54901993,0.3282163,-1.7724627,0.2754489,-0.13998657,0.33186585,-1.5991473,0.0025657865,-0.10063923,0.3054096,1.039318
0.4585941,-0.37924278,0.3401283,0.29301244,-0.26814592,0.4902217,0.40381423,-1.7477162,0.26351544,-0.13687342,0.37443647,-1.1449591,0.10332886,-0.034570865,0.40100622,0.95742786
0.6027045,-0.55091286,0.3728848,-0.06412203,-0.22139075,0.28212166,0.39459345,-1.414434,0.25347993,-0.065858856,0.38697866,-0.66648376,0.27647087,0.11108133,0.3942125,0.5341002
0.52603406,-0.72425234,0.34345344,-1.3312838,-0.111835256,0.093767904,0.400558,-0.7841671,0.21004306,-0.08488954,0.3877424,0.5714688,0.31088462,0.35548115,0.39996752,-0.092327096
0.18725577,-0.49458382,0.40002114,-2.0544164,-0.14782833,0.20427963,0.39996997,-0.036756422,0.1025089,-0.04392199,0.38895848,0.7354018,-0.072268315,0.3037539,0.27900758,-0.48488963
0.090783365,-0.30567324,0.39985913,-1.6160476,-0.31754923,0.45184425,0.3977283,-0.32688338,0.11905693,-0.04873869,0.40015545,0.4206106,-0.08383193,0.16385338,0.31895468,-0.22948027
0.09938081,-0.10993317,0.3976962,-0.6651646,-0.52299744,0.7711101,0.2681763,-0.99772835,0.09176437,-0.32716402,0.40055767,-0.47055408,-0.13071601,0.09846113,0.29929298,0.7004358
0.11660652,-0.16805966,0.39871603,0.5794236,-0.29295647,0.72964805,0.2850684,-1.7623599,0.28310606,-0.5250674,0.28789157,-1.7216268,-0.15460771,0.016957683,0.2282565,1.1511523
0.36637676,-0.45930898,0.38846833,0.2899978,-0.12039225,0.42069975,0.41135854,-1.755649,0.37892815,-0.37592202,0.4107989,-1.4487906,0.032288183,-0.04084921,0.40084597,1.1682464
0.49691272,-0.6274125,0.3692649,-0.69719887,-0.008318751,0.13012111,0.40114278,-0.9421019,0.39132294,-0.40215352,0.40174815,-0.23502453,0.3145913,0.029659627,0.3934337,0.40543532
0.34429377,-0.7106445,0.35269237,-1.7927158,0.056669462,0.07450673,0.3842775,-0.021249037,0.3939159,-0.3992735,0.39343572,0.6839564,0.17488682,0.3035192,0.38091496,-0.605969
0.099200375,-0.3704153,0.40346566,-1.5827973,-0.11224196,0.2518678,0.3845771,-0.16942275,0.2869735,-0.18339077,0.39851502,0.63206184,-0.14208873,0.16225262,0.1820499,-0.60787886
-0.04735805,-0.08204572,0.39518714,-0.8517279,-0.3141631,0.5691623,0.20449433,-0.7642611,0.1368737,-0.16777979,0.40010574,-0.0061864355,-0.11384423,0.13569178,0.2466512,0.21056531
-0.0038124332,-0.10914238,0.40074098,0.4676122,-0.2442227,0.7303219,0.19987024,-1.5338714,0.19402987,-0.4076286,0.33620676,-1.1765771,-0.16618674,0.11831565,0.17316155,0.9020157
0.19019759,-0.3286777,0.36248875,0.6225016,-0.10093061,0.5092239,0.36674306,-1.8516909,0.4077441,-0.31686527,0.3208473,-1.5351877,-0.062479697,-0.06629022,0.27115777,1.0446198
0.36650807,-0.5399312,0.38418677,0.20865251,-0.040737268,0.26831663,0.3919976,-1.5456495,0.35089433,-0.2387047,0.39442274,-0.94134957,0.10299185,0.027370058,0.4002549,0.92368525
0.51546806,-0.78532356,0.3488759,-0.9628698,0.036049288,0.028463416,0.40814126,-0.8831301,0.3432377,-0.27977026,0.4068687,0.3946177,0.40538034,0.25889188,0.3997995,0.087452024
0.23518951,-0.60303414,0.40000603,-2.1739662,-0.0051753544,0.10247282,0.39368054,0.19184022,0.29935813,-0.32330886,0.38231227,0.66620296,0.084281445,0.38166022,0.29450953,-0.83076626
-0.028971976,-0.19285801,0.4000329,-1.4471147,-0.2111588,0.38462815,0.29829755,-0.38556826,0.2296301,-0.16546552,0.40016422,0.21175319,-0.106538825,0.19437197,0.17510301,-0.37151
-0.05734243,-0.10904491,0.4013137,-0.3017952,-0.34207252,0.61315584,0.17007856,-0.89295286,0.09437355,-0.28931043,0.40035003,-0.33242646,-0.09580151,0.21772867,0.22915803,0.42843765
-0.014891985,-0.12734574,0.38341162,0.4561367,-0.18383366,0.71234107,0.21673588,-1.6620113,0.21134627,-0.5337821,0.29066643,-1.5587782,-0.17079386,0.17476365,0.17329615,1.1589733
0.23758525,-0.40726444,0.34836876,0.41085723,-0.023979917,0.43809214,0.4184399,-1.8509431,0.35746872,-0.38696787,0.3724936,-1.4215902,-0.009717681,0.01774427,0.34317523,0.74812484
0.42473435,-0.62918127,0.40000317,-0.09203483,0.10614706,0.13443705,0.4001022,-1.4327171,0.36402535,-0.32888117,0.390127,-0.60169053,0.27021232,0.14844647,0.4013105,0.7109813
0.49946538,-0.790606,0.3355852,-1.3323426,0.18447006,-0.012886751,0.40173978,-0.6261986,0.3634787,-0.36285433,0.401766,0.508988,0.36669862,0.3643702,0.38936967,-0.22431523
0.18847564,-0.46906695,0.40003204,-2.026382,0.067637764,0.12710011,0.40002468,-0.07653868,0.27154577,-0.27542153,0.38166395,0.6472886,-0.010963917,0.2906639,0.18488681,-0.7425175
0.06483675,-0.20591773,0.40066156,-1.1735754,-0.09819014,0.31666517,0.3143918,-0.49169606,0.138283,-0.16795017,0.3808811,0.023956232,-0.037864372,0.15935664,0.22600374,-0.18142529
0.102667056,-0.136439,0.41215086,-0.13439135,-0.26252532,0.6354627,0.11606687,-1.0940814,0.021021293,-0.3802516,0.4000442,-0.77674186,-0.08119798,0.17121346,0.22142535,0.85421
0.26859537,-0.33838138,0.38327125,0.5449302,0.018142859,0.47205624,0.26388714,-1.6849135,0.23355006,-0.412662,0.39980304,-1.746727,-0.10276409,-0.02093779,0.23929931,1.2077973
0.45940155,-0.5587226,0.34629777,0.11331959,-0.01722136,0.31526873,0.4032213,-1.6620811,0.27891192,-0.37974155,0.415729,-0.907334,0.107617706,0.085422695,0.39958727,0.8244576
0.5833575,-0.784394,0.35838133,-0.94091535,0.09495103,0.046879765,0.405493,-0.8601672,0.29559666,-0.34946677,0.40269795,0.32841098,0.42225358,0.37430015,0.3771312,-0.036488406
0.30201167,-0.66991544,0.4000171,-2.0130944,0.074632384,0.05563482,0.39328754,0.16725111,0.27626362,-0.3183855,0.37976003,0.88019,0.108565055,0.47629058,0.3023287,-0.6127128
0.08144195,-0.29712114,0.39548144,-1.734701,-0.14463799,0.33621624,0.37241924,-0.133479,0.22783601,-0.027947705,0.3852777,0.47325718,-0.048548184,0.25730205,0.28550118,-0.7718093
0.08390793,-0.12149816,0.41066813,-0.72547466,-0.3093017,0.611954,0.17016093,-0.77682203,0.11567504,-0.12832092,0.37988818,-0.39609417,-0.082156815,0.27404636,0.3160965,0.11365994
0.15725735,-0.19932939,0.380221,0.4396876,-0.164148,0.6578398,0.21654019,-1.702982,0.20440373,-0.4227634,0.2740719,-1.5521902,-0.20404169,0.20449734,0.24822894,0.986301
0.42175418,-0.48155767,0.34985894,0.27569464,-0.0867138,0.37702113,0.40465564,-1.7833465,0.24278888,-0.23121583,0.412267,-1.1196879,0.004647386,0.09904468,0.3850551,0.7985661
0.55753595,-0.66511756,0.33565047,-0.7528931,-0.018637354,0.10620679,0.4006274,-0.99532133,0.25320736,-0.25521535,0.3825357,-0.02832708,0.3012204,0.2716372,0.39159092,0.1592831
0.36891198,-0.83307755,0.30175304,-0.7915445,0.032497093,0.09793983,0.40235975,-0.3498848,0.19596247,-0.3195622,0.36856908,0.9510537,0.19028004,0.3318679,0.4000049,-0.3084183
0.23535618,-0.77025497,0.28783715,-0.8774255,0.09805347,0.18047665,0.37713343,0.24500747,0.28438804,-0.32709417,0.14684819,1.1434997,-0.091850705,0.40920955,0.37890014,-0.5641039
0.15104741,-0.72873753,0.18416332,-0.75553817,0.13358694,0.05463044,0.40141332,0.23078522,0.26107594,-0.42305374,0.22624487,0.75287247,-0.34472543,0.37742135,-0.068099454,-0.47752866
0.1378929,-0.6719216,0.21683858,-0.8810629,0.25608495,0.009685367,0.39681453,0.10030098,0.22727762,-0.4750954,0.23963548,0.4430667,-0.29021353,0.31408486,0.004735555,-0.63830644
0.22477476,-0.5423023,0.35121006,-0.7300758,0.25561112,-0.070309676,0.35635656,0.10164793,0.24022956,-0.48933113,0.31146395,0.7895258,-0.017146878,0.016058212,0.3964198,-0.78721976
0.12288347,-0.37483203,0.4000154,-0.7409996,0.24615584,-0.058280356,0.34711182,0.26087466,0.29116794,-0.4909569,0.25152257,0.8705494,-0.049083106,-0.04865359,0.40005872,-0.77310026
-0.08859861,-0.11720836,0.38671166,-0.46868846,0.22030087,-0.054187912,0.3168168,0.3123662,0.37201023,-0.452001,0.071916446,0.7242862,-0.29427573,0.17688091,0.30153358,-0.6362099
-0.08240257,-0.16843711,0.38729367,-0.0324759,0.116481066,-0.003912966,0.39328346,-0.09770317,0.08372577,-0.19594154,0.35518122,-0.0021926472,-0.34527916,0.23853858,0.2148131,-0.37185782
-0.0779964,-0.20438947,0.37818176,0.19198515,0.14777774,-0.03337513,0.3133359,-0.20824046,-0.038783796,-0.188469,0.34071192,-0.15613651,-0.3588928,0.25243306,0.21134008,-0.14158878
0.13396664,-0.2623015,0.40000716,0.16695906,0.13172689,-0.07667894,0.31014365,-0.13572197,0.038458444,-0.24401063,0.27425647,0.0750726,-0.06245081,0.05664904,0.40038285,0.02835932
0.19173233,-0.093131565,0.4000157,-0.013741694,0.026100969,-0.045241866,0.3516496,0.03361583,0.12421631,-0.22571005,0.25193772,0.07570662,0.30675963,-0.15160382,0.3995975,-0.04494594
-0.038742952,0.079944365,0.40001512,-0.10015505,-0.031395487,-0.0008377502,0.34591785,0.17419206,0.23602906,-0.19903198,0.069769,0.110119216,0.3344503,-0.106243104,0.39861116,-0.09907241
-0.17680499,0.074758776,0.21186212,0.1916888,-0.026295636,-0.09350724,0.37512606,-0.11953327,0.1729866,-0.009176999,0.121236205,-0.044449296,-0.07025517,0.109024495,0.25658923,-0.18282852
-0.045808278,0.04684647,0.33113518,0.12801406,-0.17711551,-0.07989557,0.4000847,-0.31257632,-0.14424372,0.17098078,0.4000747,-0.18085694,-0.1679599,0.18557818,0.23029129,0.20627128
-0.0068899137,-0.06667085,0.34070963,0.2575483,0.050989117,-0.06639312,0.27099478,-0.22999352,-0.028087636,-0.054529052,0.30201665,-0.18102254,-0.15671247,0.052196663,0.18220308,0.05264944
0.21552557,-0.090836816,0.3991995,0.1988142,-0.032759454,-0.0017122405,0.32972616,0.025367728,0.1013512,-0.13221969,0.22794233,0.154536,0.1963844,-0.13997321,0.40012366,0.004778623
0.112854816,0.042877957,0.39922842,-0.009616231,-0.095208146,0.018025063,0.34163433,0.16555525,0.18820603,-0.12756957,0.15332617,0.41007188,0.40294296,-0.11376051,0.40001678,-0.17481478
-0.14106692,0.13777065,0.38900676,-0.13554446,-0.10529004,0.02577378,0.29679105,0.20946613,0.25771922,-0.1295696,0.019567572,0.34814328,0.2502711,-0.041926038,0.40000084,-0.16435824
-0.13394739,0.092629135,0.32419682,0.10733854,-0.14293304,-0.10754695,0.40004513,-0.2396547,0.016361797,0.094835706,0.22889702,-0.032331817,-0.057544507,0.16450243,0.2721829,0.07794645
-0.046007086,0.047540694,0.40027648,0.19505207,-0.13104065,-0.009338383,0.38832098,-0.5180233,-0.24165387,0.18707931,0.40009615,-0.20612973,-0.13654225,0.21933067,0.23529385,0.49277747
-0.040558305,-0.049558748,0.3639753,0.17290866,0.024508314,0.006545739,0.31143916,-0.2839006,-0.082498625,0.018737353,0.30860734,-0.271369,-0.15139101,0.058681,0.19710858,0.26434636
0.1491719,-0.15723911,0.3900151,0.2322045,0.01943874,0.024135642,0.3267761,-0.18427531,0.031971198,-0.15373391,0.21853298,0.2818304,0.18572852,-0.21301076,0.40007782,0.10946711
0.099697135,0.0034480134,0.40000924,0.2777899,-0.046819214,0.086275496,0.32954982,-0.057786223,0.13492502,-0.16154294,0.10947296,0.40332565,0.42895684,-0.2873637,0.40001062,-0.074096285
-0.11123635,0.09836023,0.3602341,0.2320882,-0.053468607,0.1411398,0.26571572,0.19238812,0.20385599,-0.18642546,-0.01888572,0.4443447,0.2585315,-0.23008302,0.39993837,-0.17565587
-0.19557652,0.092848055,0.1933052,0.29725227,0.022744518,0.08561737,0.18364623,-0.007709875,0.20288791,-0.10732854,-0.04095485,0.1921142,-0.052144423,0.009045174,0.3113855,-0.08598266
-0.19041246,-0.10961845,0.15858471,0.5593709,-0.042021364,-0.08223925,0.386941,-0.19784962,0.08723823,-0.009054285,0.2946244,-0.24435508,-0.208012,0.2244863,0.118068516,0.3341121
-0.12778468,-0.24358074,0.17358229,0.55090225,0.09860222,-0.23526978,0.29670653,-0.5085976,-0.016473323,-0.001341073,0.39973968,-0.26415887,-0.2817917,0.2727694,0.01522115,0.372495
-0.09997433,-0.3120286,0.12789628,0.22717735,0.21662343,-0.17008497,0.14495258,-0.2910473,0.09212718,-0.20013855,0.28124693,0.23339906,-0.27724788,0.12337459,0.032349546,0.15090455
0.089406416,-0.38873425,0.30419987,0.28556868,0.19955365,-0.04851546,0.2026784,-0.15575561,0.21951005,-0.3569672,0.0863776,0.22585714,0.045954004,-0.1458483,0.26772666,-0.46486595
0.22163841,-0.32829076,0.40089425,0.7694423,0.18335457,0.08495585,0.23791467,-0.10676828,0.19542973,-0.45681176,0.08413034,0.26813102,0.20975007,-0.29188472,0.39892578,-0.52917427
0.23157534,-0.13887852,0.40019402,0.5873876,0.2107702,0.18471761,0.19088683,-0.18091299,0.22568828,-0.51185,-0.06589572,0.18912749,0.082011715,-0.25329462,0.40006015,-0.6116049
0.14943628,0.03068188,0.40005806,0.58739895,0.22577351,0.265965,0.15197274,-0.15333883,0.2847972,-0.52996886,-0.28838706,-0.12218799,-0.05328995,-0.20718226,0.3998987,-0.49313354
-0.051480576,0.041709427,0.2495319,0.95340496,0.170566,0.23120432,0.17663482,-0.23039441,0.2656584,-0.43869302,-0.21093047,-0.5208696,-0.28530246,0.07893746,0.18098563,-0.012063409
-0.06137766,-0.25266308,0.13198881,1.0773132,0.022071203,0.010702731,0.38323388,-0.12276696,0.047822025,-0.17774566,0.13667813,-0.88682413,-0.3527237,0.4012001,0.05653499,0.6328382
-0.018915849,-0.40175834,0.036768813,0.8698576,-0.042893264,-0.2023954,0.30753583,-0.18161778,-0.06620518,0.025433503,0.39961183,-0.7569954,-0.40820733,0.44833434,-0.08458151,0.33808735
-0.06999154,-0.46127796,0.0014046532,0.39835572,0.13331443,-0.16291533,0.15753885,-0.19550073,0.20915367,-0.15915117,0.1462126,-0.36331272,-0.2514854,0.33845896,0.037805267,-0.161955
0.07361755,-0.38388765,0.27449527,0.47123453,0.056992445,0.070629306,0.21143927,-0.05696022,0.28505,-0.3445224,0.09533572,-0.13334553,0.07057831,0.08496669,0.30978233,-0.51244664
0.17912377,-0.08752991,0.40006146,0.7097513,0.098027416,0.25295857,0.05979576,0.024536682,0.31964466,-0.43716958,-0.13362685,-0.6578763,0.18366958,-0.24655549,0.40009576,-0.64507115
0.014979545,0.15826951,0.3597717,0.8503656,0.116629764,0.2477666,0.010659454,-0.1667016,0.27376032,-0.36037993,-0.21484861,-1.1768283,-0.085673064,-0.124778494,0.3501155,-0.30665162
-0.061221536,-0.11859609,0.19305518,1.0401151,-0.025062794,0.084826,0.32256144,-0.16581555,-0.005266859,0.018739901,0.30165854,-1.4174777,-0.28665945,0.2738638,0.22141875,0.29713643
-0.027058218,-0.21739906,0.18622501,0.731149,0.019918213,-0.01674915,0.2557583,-0.4079819,-0.081929244,0.24262656,0.3997938,-0.7875579,-0.30406824,0.4293201,0.052130453,0.499882
0.0031961163,-0.353098,0.05333819,0.2585607,0.09760234,0.088825785,0.20927049,-0.37894672,-0.02601317,0.07623731,0.39709166,-0.008627699,-0.39158022,0.35135588,-0.16870213,0.10738083
0.13048832,-0.4518256,0.16828896,0.087392256,0.18903436,0.20991592,0.1567407,-0.23989052,0.2680969,-0.32553986,-0.034846414,0.44805458,-0.18265174,-0.005236864,0.16023926,-0.3829157
0.1974444,-0.34742174,0.3661078,0.15412986,0.098034,0.42363304,0.22053404,-0.14094596,0.28846803,-0.47270146,-0.040752247,0.41851255,0.112445556,-0.2842772,0.4000056,-0.6807896
0.177924,0.019676773,0.38693708,0.6082317,0.0048529576,0.5613098,0.13555217,-0.36981878,0.34551248,-0.4965736,-0.20876507,0.06482701,0.016311506,-0.30456012,0.39807922,-0.6071586
-0.041797705,0.058295064,0.21252607,0.9289384,0.02545774,0.39073032,0.16142245,-0.36151096,0.3453474,-0.311251,-0.20488791,-0.78801996,-0.25756365,0.012426359,0.18954909,0.090896055
-0.05241367,-0.10625333,0.13810953,0.94200927,-0.08579007,0.2350896,0.3338255,-0.18133876,0.14439563,-0.025086006,0.17712729,-0.99045396,-0.32578284,0.2663191,0.06752016,0.37806523
0.0130116325,-0.3543768,0.03932908,0.7897813,-0.13896956,-0.13420832,0.40026042,-0.34930915,0.0569927,0.09939412,0.4004645,-0.7617245,-0.40216237,0.4486152,-0.09000476,0.51312816
0.03573088,-0.4417337,-0.12892368,0.6211132,0.03565286,-0.24861407,0.2321289,-0.26210085,0.18927576,-0.020233644,0.36765087,-0.27580974,-0.44715253,0.41948074,-0.19415988,-0.36830616
0.052768238,-0.3697787,0.14499594,0.48488057,0.04329497,-0.026465947,0.1811965,-0.2618374,0.40058133,-0.31392974,0.0947608,0.04505601,-0.11593099,0.21049315,0.20665266,-0.6809825
0.14012627,-0.20233537,0.3796946,0.49504542,0.05057821,0.19269386,0.089513384,0.12359779,0.4354071,-0.4376658,-0.0030063705,-0.17345878,0.1467722,-0.087652884,0.40027484,-0.84262663
0.1296085,0.16562557,0.40001482,0.78815633,0.10646434,0.34549335,-0.06708246,-0.026288355,0.41966993,-0.5477306,-0.19420639,-0.8824048,-0.033769716,-0.203672,0.39990053,-0.6112494
-0.07282594,0.1188361,0.18754281,1.0380243,0.16056292,0.26799807,0.12956321,-0.07571102,0.24544232,-0.42159075,0.005706453,-1.4926225,-0.30590573,0.06859243,0.13279347,-0.03676147
-0.02695581,-0.10783146,0.21318546,1.0404506,0.022725021,0.21121292,0.3250007,0.02459839,0.029533733,-0.14645867,0.3631519,-1.4366612,-0.34812897,0.34783742,0.10624709,0.18829909
0.0010457409,-0.29537323,0.09874802,1.0402714,-0.11157899,-0.109542795,0.353508,-0.2125953,-0.042981677,0.16661572,0.4001637,-0.97739434,-0.41769376,0.4848897,-0.087280765,-0.098620705
-0.0712103,-0.2845187,0.041953612,0.7674314,0.005779014,-0.06398956,0.21024856,-0.1920158,0.25105986,-0.06311813,0.25894657,0.011312123,-0.2839988,0.4002701,-0.034702536,-0.56125224
0.104458995,-0.18519953,0.34602493,0.68793994,0.060681034,0.13856633,0.13484249,-0.032065798,0.39013728,-0.31419817,0.08091644,-0.0066500064,0.065168954,0.102930255,0.33414894,-0.7427285
0.14922075,0.17633769,0.40005797,0.7861997,0.12590986,0.31869647,-0.061954387,-0.14718193,0.3854515,-0.46094704,-0.14093074,-0.37380174,-0.02056072,-0.065824844,0.3999659,-0.8630407
-0.061353445,0.1850538,0.22302197,0.9729183,0.15846151,0.27369708,0.112450585,-0.07727338,0.26985013,-0.4051116,-0.022996696,-1.0428345,-0.2661802,0.17741615,0.24304166,-0.20884615
-0.10383518,-0.08944901,0.114270076,1.0354791,-0.024766611,0.09132575,0.39998412,0.028552871,0.039995942,-0.019900579,0.4001513,-1.2618454,-0.31772938,0.5084064,0.14205734,-0.012191106
-0.10880526,-0.20149216,0.023962872,0.90561455,-0.101701625,-0.15470159,0.38453677,0.026792405,0.10485086,0.14096396,0.39856902,-0.77913547,-0.3291798,0.59108907,-0.0156254,-0.304193
-0.15777044,-0.23660406,0.09082336,0.7969539,-0.004801611,-0.10599899,0.26088443,-0.32607734,0.3800242,-0.055330966,0.16385798,-0.13895321,-0.13408473,0.55187035,0.101018846,-0.6617685
0.060533665,-0.16217469,0.34584033,0.77316135,0.0013415397,0.15350442,0.18559158,-0.1776409,0.43693376,-0.30095086,0.1008882,0.24996874,0.14879593,0.23014463,0.40017003,-0.86624724
0.15241851,0.113309994,0.40004122,0.52311164,0.14333844,0.06151406,0.28244612,-0.4514981,0.36155424,-0.35806856,0.09739859,-0.033425633,0.05464612,-0.045725785,0.3999663,-0.96805036
-0.14598899,0.32726735,0.32748622,-0.122595266,0.09045727,-0.11099352,0.39999387,-0.72367847,0.10157131,-0.1671057,0.37080768,0.08122809,-0.15806349,0.06510612,0.38654706,-0.35013866
-0.12035196,0.22138111,0.32311365,-0.025596455,-0.019756852,-0.15426831,0.40002647,-0.5242404,-0.110764705,0.071595564,0.40009147,-0.16806038,-0.23258412,0.2342419,0.31824687,0.3720602
-0.11082296,0.13870527,0.3740592,0.087395296,0.112891436,-0.16013673,0.3485391,-0.24314809,-0.09974004,-0.057071615,0.38385093,-0.25017357,-0.20585518,0.19370218,0.23362961,0.3319704
0.0917702,-0.008353082,0.39505288,0.03770772,0.056642294,-0.11769419,0.28744617,-0.23214772,0.033455595,-0.17469566,0.37883303,0.017279126,0.06896001,-0.10192896,0.4003307,0.14704807
0.12912785,0.12466958,0.39951417,-0.017116917,-0.10820359,-0.03303318,0.35238305,0.058164056,0.18319915,-0.18546212,0.33654198,0.19565542,0.43223497,-0.23943682,0.39992768,-0.12815551
-0.07874836,0.12868415,0.40102664,0.050523426,-0.1722866,0.060979426,0.3540305,0.37359667,0.28712115,-0.19593513,0.21252155,0.43044567,0.43475133,-0.1701353,0.39651567,-0.121096306
-0.1721736,0.10263242,0.2261997,0.20196149,-0.15299743,-0.06526589,0.3507172,-0.0847818,0.120623454,-0.06751043,0.230592,0.024704844,0.013283842,0.047576576,0.29127812,-0.14359336
-0.09620189,0.06683752,0.28845596,0.22512403,-0.27270806,-0.05910754,0.40001,-0.29950362,-0.1780087,0.14158608,0.40000764,-0.09330017,-0.049466357,0.10857468,0.25684258,0.19383912
-0.019257117,0.017475,0.28528535,0.2410042,-0.06560749,0.0009823997,0.2618835,-0.13709705,-0.07648511,-0.0036836145,0.30267397,-0.25920233,-0.11507499,-0.027092215,0.19982636,0.048617925
0.16872141,0.04267697,0.3933133,0.07636965,-0.143631,-0.0020178808,0.34077916,-0.12573971,0.025082067,-0.051653624,0.2192786,-0.051528458,0.18687901,-0.2638054,0.40004247,0.08750672
0.040074922,0.19339186,0.39999664,-0.14831868,-0.2505629,0.060507666,0.36633265,0.09481429,0.13185,-0.06564007,0.1432037,0.121977225,0.44434232,-0.1886376,0.3980259,0.055314444
-0.16861339,0.20510587,0.2562415,-0.11426175,-0.21423237,0.057231244,0.31343415,0.25143546,0.15445457,-0.06615836,0.045186657,0.12765256,0.20452185,-0.06784684,0.3999922,-0.20761305
-0.09857069,0.19527298,0.27530968,0.18377578,-0.22909129,-0.007991258,0.4000907,-0.10738551,-0.084633134,0.1444987,0.2814963,-0.08203052,0.007907503,0.08104801,0.24883963,0.039675925
-0.043202467,0.16207492,0.29126108,0.28747466,-0.19850254,0.082477,0.39576396,-0.48161697,-0.37956795,0.2566453,0.39993533,-0.2822613,-0.046729986,0.14584644,0.20213225,0.5940581
0.032076858,0.087613314,0.18872581,0.12792619,0.007859707,0.07954261,0.27207434,-0.30400354,-0.16261676,0.07423106,0.31959203,-0.36106768,-0.13703994,-0.007978781,0.14079177,0.43389595
0.19137317,0.039639316,0.37231934,0.13282555,-0.022253387,0.0885226,0.34087336,-0.1871281,-0.019206226,-0.009034223,0.21249203,-0.06415225,0.17595395,-0.18226035,0.3296378,0.21351892
0.13851349,0.08935757,0.4000107,-0.13742203,-0.10870277,0.13685603,0.4026196,-0.099443026,0.05828448,-0.013613662,0.16652769,0.07121391,0.39620033,-0.09683695,0.4000553,0.2295623
-0.15227471,0.113918394,0.2820178,-0.17355764,-0.0757649,0.09539833,0.3152658,-0.024562595,0.13493651,0.018463075,0.03437825,0.19147016,0.12029565,0.041003153,0.3993643,-0.00951968
-0.0914132,0.13498364,0.29420424,-0.21690638,-0.1931692,0.06427732,0.40005547,-0.18471034,-0.09905379,0.13384803,0.29200584,0.106860906,-0.055065863,0.1837855,0.2656171,0.22235261
0.010564804,0.06357713,0.31977418,0.11890116,-0.09715049,0.08673279,0.3723296,-0.32630146,-0.2891803,0.09178404,0.39997938,-0.1682359,-0.1786415,0.20687795,0.15364785,0.47667652
0.08420288,0.03402638,0.22654939,-0.055688903,0.032547757,0.04890665,0.261217,-0.16005296,-0.020650873,-0.027185176,0.2426263,-0.15715398,-0.12026835,0.01340693,0.25986183,0.39618513
0.19490121,-0.0630072,0.27584514,-0.23058152,-0.008114304,0.05725004,0.3213293,-0.052409545,-0.025543792,-0.05829849,0.29636607,-0.0073633203,0.1361096,-0.16976874,0.39631355,0.20082383
0.14094724,-0.07019999,0.4000229,-0.36429787,-0.049578708,0.09445977,0.38218296,0.25338513,-0.0028830743,-0.046025485,0.28846493,-0.08594368,0.36323363,-0.16085885,0.40012008,0.030542199
-0.035189737,0.028737463,0.37050098,-0.52538204,-0.06840428,0.08752873,0.3868946,0.225511,0.0665109,-0.04450197,0.1284348,-0.1404919,0.23880626,-0.08200703,0.3999642,0.07270052
-0.08757159,0.13492715,0.24976182,-0.42992675,0.01944388,0.03622744,0.3707833,0.101672724,-0.03815016,-0.09951569,0.13329642,0.16902779,-0.04737958,0.13021922,0.34993535,0.12118656
0.10349823,0.15564844,0.27318352,-0.5480513,-0.08973591,0.16359168,0.39277846,-0.2145119,-0.22184135,0.10876247,0.3949828,-0.117618956,-0.23206791,0.30622402,0.31925666,0.7037807
0.21442446,0.090908036,0.23769934,-0.3420013,-0.25280884,0.39590442,0.31077752,-0.22304296,-0.08237813,0.14078,0.40010244,-0.3371137,-0.41840965,0.39006284,0.18833236,1.2927201
0.34111276,0.07147189,0.15830441,-0.12764078,-0.07856652,0.6475568,0.11041015,-0.18573776,0.17154044,-0.004417203,0.39553773,-0.46740928,-0.5665283,0.29062405,0.10851841,1.0538137
0.32783934,0.13446102,0.09490868,-0.30325693,0.18854532,0.61943686,0.11602928,-0.5932699,0.19181731,-0.11299286,0.28742188,-0.30566236,-0.4732234,0.047785696,0.27411097,0.4308367
0.2797069,0.11681611,0.38299522,-0.55478436,0.28057453,0.6218359,0.23212627,-0.47503665,0.0034715442,-0.0995665,0.40015087,-0.24732584,-0.13308834,0.25676176,0.3999958,0.21070176
0.12712829,0.05785004,0.4000046,-0.61840606,0.4410462,0.4739355,0.27283883,-0.9210547,-0.17754117,-0.086986475,0.37465927,-0.13887075,0.051794846,0.51103413,0.31795672,0.060668994
-0.05754725,0.04899621,0.37140968,-0.5471294,0.22602406,0.5517003,0.356199,-0.32557964,-0.14974663,0.03719102,0.38924378,-0.26581973,-0.08332344,0.5952801,0.32747647,0.070241146
0.07763402,0.030626483,0.27283514,-0.34536722,-0.014010324,0.82981855,0.2832685,0.22981542,0.052868698,0.09768761,0.4010588,-0.30939636,-0.3060799,0.6739682,0.27016452,0.42477188
0.26725245,0.0032945792,0.17270978,-0.1053662,-0.124296874,0.83114064,0.1613094,-0.0757172,0.35393888,-0.07188151,0.39909068,-0.23797214,-0.5093991,0.5753273,0.20234737,0.26409978
0.30755496,-0.00213763,0.27788407,-0.20382829,0.15033452,0.78159386,0.24963705,-0.6041717,0.18247198,-0.16816744,0.40358272,-0.18529311,-0.19897385,0.30260694,0.39535204,0.092341594
0.22108638,-0.108539924,0.40001374,-0.53696615,0.31187433,0.70492464,0.3006653,-0.7235464,-0.01685192,-0.16944398,0.39371648,-0.014531898,0.097840115,0.47907826,0.38414872,0.0072669988
-0.14304,-0.054244287,0.40118888,-0.7419373,0.214921,0.64597476,0.34780708,-0.3311946,-0.10348664,-0.05960699,0.4056423,-0.14095892,-0.09524521,0.6282243,0.4051698,0.08134433
-0.032884076,-0.04312291,0.26320112,-0.56478226,-0.013421668,0.77866316,0.3321984,-0.10095163,0.065001175,-0.039680723,0.3999509,-0.28608558,-0.31554094,0.58960456,0.3128212,0.3928967
0.17898497,-0.12146955,0.15653728,-0.09276461,-0.0067503867,0.7863001,0.15510505,-0.13405094,0.39581922,-0.20334035,0.32344934,-0.23217347,-0.55809134,0.43415034,0.1915901,0.13020052
0.21027097,-0.11050841,0.15949732,-0.3790552,0.1664596,0.79278445,0.22035974,-0.5411852,0.23282392,-0.28809068,0.36325356,0.009791584,-0.25294977,0.27023134,0.37434688,0.10948132
0.20421575,-0.27886674,0.4000169,-0.5912517,0.39992785,0.72249997,0.2846827,-0.6113618,-0.014808614,-0.238062,0.36541814,-0.069273666,0.10874538,0.42307466,0.40012887,-0.085204065
-0.091370225,-0.22189507,0.39730123,-0.5924461,0.39632,0.53446174,0.34696925,-0.9152631,-0.16421837,-0.17241226,0.35973266,-0.16179955,0.007250174,0.55742186,0.31385973,-0.13554546
-0.060158543,-0.1918885,0.33488587,-0.5990731,0.08986488,0.79439366,0.33084485,-0.048575785,-0.04820682,-0.05275808,0.40040377,-0.45062593,-0.21461947,0.6168504,0.35393777,0.32705262
0.10107316,-0.25369465,0.25418276,-0.32625625,-0.21150906,0.90507245,0.22396858,0.09458578,0.20554037,-0.042659495,0.40026408,-0.37946215,-0.46637362,0.59927106,0.19034703,0.5106861
0.26928073,-0.26532817,0.18189976,0.10792817,0.021766234,0.7955342,0.04096205,-0.44640073,0.39211833,-0.2579821,0.288343,-0.10706026,-0.43062115,0.34975412,0.29121614,0.23425382
0.3352375,-0.45294228,0.38573584,0.17155387,0.1544734,0.79017234,0.111341074,-1.0018309,0.25133133,-0.36878422,0.390177,0.4390606,-0.21253528,0.27613893,0.40944177,0.14981876
0.017190699,-0.4457562,0.40000054,-0.058571696,0.16014732,0.5191814,0.21504341,-1.1865448,0.15062921,-0.38432056,0.37549806,0.32399514,-0.3735925,0.22601555,0.3385593,0.12071626
-0.23040268,-0.25600854,0.35309336,0.36608228,0.055517145,0.30638734,0.40845785,-1.0384125,0.3023528,-0.36586463,0.38952106,-0.08592626,-0.36070094,0.24090163,0.33718392,0.21047275
-0.14612052,-0.25369462,0.37785423,0.2644867,0.11092058,0.29447654,0.3925065,-0.83342195,0.44689277,-0.32675382,0.25062767,-0.12865587,-0.20166369,0.15718062,0.40069973,0.26958486
0.07063799,-0.26143947,0.40084344,0.3612652,0.16130754,0.35274488,0.39613006,-0.44093198,0.36676744,-0.37798783,0.3002215,0.356325,0.15483293,-0.14305744,0.392129,-0.010081236
0.021982653,-0.02122531,0.40000725,-0.10815596,0.17696999,0.34486854,0.37377912,-0.49156916,0.3863089,-0.36401755,0.19624175,0.4718876,0.20079075,-0.120106995,0.40004045,-0.080636606
-0.25088298,0.204509,0.33722228,-0.19968711,0.15519077,0.25900957,0.3528932,-0.5108231,0.36363184,-0.2846314,0.13897748,0.31937012,-0.08535044,0.05365607,0.30526552,-0.08287253
-0.2706935,0.20765287,0.32161167,0.06971347,-0.054387327,0.038596544,0.4006079,-0.5470092,0.054726537,0.0028049217,0.40017736,-0.18992037,-0.1477446,0.16374324,0.38547736,0.24705923
-0.23892073,0.14579074,0.39459187,0.22685982,0.017777411,0.09205719,0.40185925,-0.39238673,-0.14585929,0.05511338,0.39823696,-0.406923,-0.19045438,0.16087687,0.35290602,0.28060877
-0.109992005,0.020089459,0.34171635,0.20229866,0.078329526,0.1075015,0.32118917,-0.26882485,0.092993625,-0.09076672,0.22227195,-0.14668725,-0.0580231,0.03142696,0.37617207,0.29233575
0.11677546,-0.1583142,0.39901975,0.181156,-0.0105630765,0.114377454,0.38564056,-0.30754998,0.14973456,-0.16084632,0.24310929,0.2801993,0.2614601,-0.15100577,0.40009505,0.053213514
0.07963821,-0.0026498795,0.39925835,-0.012801861,-0.06447362,0.14125729,0.39349517,-0.21948554,0.22552702,-0.15231776,0.16786137,0.5692369,0.3558841,-0.111374654,0.40006945,-0.24801302
-0.22187707,0.23668665,0.2913836,-0.11205963,-0.089258194,0.1127017,0.36583197,-0.028069109,0.30754888,-0.07304947,0.049625657,0.55576235,-0.014188829,0.0902593,0.32162684,-0.43127313
-0.13023087,0.1241133,0.29810295,0.1559678,-0.19480637,0.012298436,0.40003404,-0.3053728,0.054973647,0.13377506,0.36472708,0.011331486,-0.13665053,0.20465675,0.2758886,0.0638269
-0.09218819,0.043267664,0.3611984,0.35265008,-0.071380086,-0.09458621,0.36797243,-0.5213415,-0.10703559,0.1132452,0.39221197,-0.32477504,-0.17232682,0.20667262,0.21326657,0.21421583
0.021833872,-0.03360333,0.37106383,0.4120813,-0.014117679,-0.02707583,0.29787412,-0.07110971,0.16385126,-0.09127012,0.14494872,-0.00986511,0.018125745,-0.002047273,0.28380126,0.20451465
0.13735393,-0.078568205,0.39819694,0.26639915,-0.08569221,-0.016076857,0.34009326,0.05779255,0.188013,-0.16888678,0.18511473,0.39485192,0.30967882,-0.188428,0.4000507,0.0020070067
-0.07731178,0.08149428,0.40001017,-0.041518107,-0.17829855,0.055636175,0.36670724,0.34469813,0.28929,-0.17949775,0.101175144,0.43123007,0.42865315,-0.1673605,0.39999497,-0.17428175
-0.20564604,0.07244711,0.33053297,-0.049342405,-0.13706625,0.037083507,0.27781948,0.25812718,0.31892258,-0.09834726,-0.002632658,0.3393499,0.1039491,0.022018943,0.3935354,-0.37504542
-0.20117235,0.0534937,0.3399197,0.10765569,-0.24321729,0.018887555,0.39765975,-0.046748534,0.033078738,0.08727388,0.36944926,-0.03775829,-0.068039,0.089375585,0.18020365,-0.20268811
-0.16398749,0.0046766545,0.40006527,0.28979167,-0.15069272,-0.02441655,0.4002055,-0.23825945,-0.12757275,0.05930179,0.40010503,-0.11523423,-0.117383055,0.10291459,0.10090234,0.07741083
-0.17921981,-0.11475213,0.37969086,0.37222698,0.057400268,-0.089106776,0.2990171,-0.39662856,0.024402615,-0.15707621,0.3000209,-0.17245807,-0.070048966,-0.06481557,0.06678627,-0.03906739
0.013150056,-0.2595481,0.4001471,0.6049488,-0.044015463,-0.08279895,0.35343271,-0.30538324,0.17245498,-0.26136544,0.22759339,0.11953712,0.2153543,-0.2730902,0.21455859,-0.45909396
0.10428045,-0.22797473,0.4000281,0.614473,-0.21048363,-0.080280915,0.3774582,-0.3803325,0.36358,-0.32454732,0.14349645,0.68143207,0.27724275,-0.17025204,0.40008354,-0.4804584
0.035027254,-0.11656775,0.3999979,0.30594608,-0.33918235,-0.013999467,0.33830276,0.022253156,0.52731156,-0.3701527,0.020140711,0.7059011,0.049266305,-0.12175869,0.40000436,-0.8484081
-0.19451901,-0.17264977,0.35039553,0.18095697,-0.39074117,-0.029910171,0.23340976,0.14862886,0.62472665,-0.3781712,-0.014383357,0.5864516,-0.27779248,0.01759612,0.39997065,-1.1127619
