ancorasir/BennettWheelLegRL/experiment_data/2024-02-05_04-47-10/joint_vel_env0.csv
Joint_1,Joint_2,Joint_3,Joint_4,Joint_5,Joint_6,Joint_7,Joint_8,Joint_9,Joint_10,Joint_11,Joint_12,Joint_13,Joint_14,Joint_15,Joint_16
0.0,0.0,0.0,0.0,0.0,0.0,0.0,0.0,0.0,0.0,0.0,0.0,0.0,0.0,0.0,0.0
-0.0005918797,1.4195415,-3.302367,-2.3372995e-06,0.47496957,-1.5011563,-3.2768068,-0.001582948,0.5250078,1.3683888,-3.299595,-0.0009680403,-0.2015608,-1.4464611,-3.3192542,0.0017519081
-0.5570016,0.14103997,3.5842352,1.4957026e-05,-1.4389572,0.24647802,2.0164504,-1.0277181,1.612258,3.375581,-2.588797,-36.943886,2.6949797,3.28316,2.2827275,0.036393046
-1.3693514,1.7041774,-0.25685942,-16.133825,0.1661601,2.6995227,2.8326933,-3.2680817,2.185172,1.4131055,-3.711165,-1.6777459,-2.429653,0.18060634,-2.9786868,-0.0022398308
1.3724521,-2.7401671,-0.503706,12.326503,1.0267134,-1.9080491,-0.11063236,-0.0013093948,0.30526078,-0.73792356,3.4850428,-0.06328097,-3.2806702,0.05102679,-1.7100616,5.8300333
1.5327536,-0.5958083,-0.35183716,1.0356791,2.322217,-1.0583674,-0.06534806,-0.0033814863,-2.104688,-1.1349611,0.01866693,-0.006267562,-3.1257632,-2.9385831,-2.969703,-9.19023
3.2203174,0.6272591,1.609596,-0.00040006638,1.0170041,-2.7150698,-0.14692184,-8.109288,2.5211167,-1.1317244,-3.5543542,0.013688728,3.3697789,-3.5828817,3.5534406,-0.004702909
0.6636356,0.80748045,-0.01603961,3.0351097e-05,-1.7366856,2.5577831,1.3810039,7.598811,1.9824538,3.4916291,-1.9076228,-13.581839,3.4378726,-0.47378442,-0.20872052,0.0011257678
-3.332938,2.4083126,0.17304727,-3.2020916e-06,-0.42571735,2.6891437,0.059450604,6.185152,0.975163,-2.0355637,-1.7937515,14.305687,-0.32264405,0.8391369,-0.044704676,0.028154748
-3.2962534,-0.3654816,-3.3570807,-1.1622301e-06,-0.22797267,-3.2605383,-0.67681026,-0.050326906,0.20896031,2.788688,-0.4333218,-5.739524,-3.7916222,3.4055765,-1.9867265,0.011211146
2.8598568,-3.3344724,2.7151406,0.074125245,2.9971213,2.3861213,-0.0793426,0.013711076,-3.358488,-0.14698632,-0.11304109,-0.011939637,-3.2799697,-2.4782908,-2.8863213,-5.0072365
-1.4684744,1.8586525,-0.18818739,-3.2546692,-1.6865646,1.3701724,0.79696643,6.5034237,3.4531894,-3.230314,0.68558306,-0.024816163,1.1228294,0.9167624,0.005567193,1.4405501
3.4064283,-3.2646983,1.9932295,-4.643283e-08,-0.3533485,-2.0255365,0.1985147,-6.064868,-0.4617511,-2.2742763,1.4528204,9.875283,3.810401,-3.281593,2.3171358,0.0029125698
-0.06822314,3.0298858,-0.005682363,-9.074738e-07,0.457483,-1.5680647,-0.45382738,-5.0802965,0.550737,-0.26725614,3.3882318,12.3714285,2.6271372,0.71198064,-0.09007554,0.08394508
-3.0898886,-0.7263677,1.9145885,0.00082969666,-0.49365348,2.1865802,0.074428916,6.2274075,2.3955436,0.76828027,-4.0363708,0.0015832176,-3.4976296,1.4478841,0.40976927,0.011358994
-2.2698843,2.727127,-2.1948364,-18.48286,-3.4658592,-1.4086113,3.363274,-0.011251435,-3.7374628,3.8838205,3.8320389,-0.077998474,-3.397758,1.9576527,-4.134843,0.0660944
0.17515229,0.73575896,0.0262416,0.0477041,-1.2146823,2.8088846,-0.013039485,0.0035406773,-3.3766508,0.5980769,-0.008980982,0.0028451728,-0.014585778,1.4953572,-0.31399858,8.7673855
0.37290373,-1.4971306,-0.1694676,6.4269743,3.1548045,1.4113011,-3.4089518,-0.008012675,3.5290937,-3.403613,0.90754175,-0.01279931,3.0071514,-2.3360512,2.595495,0.022582054
3.1731162,-2.8318176,1.4434383,3.2406904e-05,-2.2568357,-1.8220441,1.7111089,-10.2429905,1.3600899,2.4400299,0.17233405,-11.833595,3.8303144,-3.367171,2.3223953,-0.020145679
-1.354049,2.6680171,-0.001973723,1.1010211e-06,-1.2692194,-2.2387831,0.014610872,-9.119412,2.3162878,2.8299825,-1.687283,-9.005417,2.4437258,1.034753,-0.033496022,-0.016815169
-3.2901485,-0.28776327,0.22973841,5.6573253e-07,0.14802414,-1.5831069,-0.88165665,-5.107832,0.76136476,2.3713844,-1.9611021,-8.565311,-2.798168,1.0561767,0.00027308986,0.010796368
-2.2467277,2.218875,-3.841638,-33.936897,2.1081762,-3.2794964,2.5890052,0.0076171607,1.4294685,2.9172962,-3.2240272,-0.35109803,-3.505327,3.4361415,-0.88883126,0.024819326
1.2751062,-1.8598869,1.5180424,5.6056337,0.38576895,1.010133,-0.0028620958,-0.023812862,-3.287298,2.8209784,-0.020591713,-0.03919479,-0.99607766,2.1448345,0.28744635,1.9411861
-1.2724825,1.069263,0.84578013,-1.6420708,3.2093997,0.14414836,-3.4022548,-0.032953925,3.7071373,-3.333973,3.149275,-0.05460982,-2.992835,-2.8164241,-4.0656533,0.053457424
3.2027261,-0.82216424,-0.037494376,4.542053e-06,-0.98028606,2.4082766,1.5011693,8.414887,-0.3327545,-2.5219502,3.7018442,13.579113,3.7451708,-3.5401058,3.4246926,0.0022731721
0.3736699,0.91633224,-0.041863263,-2.5276352e-06,-0.92270124,-2.1395726,0.0064201653,-8.011175,2.2685332,3.6664782,-3.140503,-12.932842,2.9133084,0.4310962,-0.067407176,0.0009900443
-4.074337,0.43199444,0.16924167,0.0014820099,-0.05779046,-2.0051947,-1.1610621,-4.7540007,1.3763214,0.98434454,-2.0980341,-1.3702323,-3.0965831,1.1150675,0.123094976,0.090396784
1.233048,-3.2777839,1.2684174,0.24076378,-0.17994633,-1.647075,4.368679,0.013082504,-2.9424121,0.14698735,4.7334313,22.410545,-3.4445376,3.4783294,-3.3549669,0.0025707204
1.7653476,-1.2022043,1.3610795,-0.024999082,0.64583385,1.0400962,-0.07081506,0.0015362143,-3.3325987,-0.22127528,-0.009275571,-0.001256349,-1.86115,-0.2144728,-1.8058025,0.8068549
-0.38940886,0.5763377,-0.16567516,-0.9849228,-0.9862063,1.3474853,1.096589,5.283106,3.3160732,-3.506502,-3.4490306,0.008727624,2.9719062,-3.4348748,3.5490732,-0.004126115
-0.09463722,1.9886155,-0.0005707074,-6.5696827e-07,-1.9647714,3.0298812,1.4025044,3.0762453,1.4288619,-3.0064502,-0.12122856,10.940983,3.5088677,-0.88563865,-0.044793144,0.013359959
-3.320308,2.6327546,0.28410953,-1.2999985e-06,-0.60142374,1.8982108,-0.4447645,9.169369,-0.2909057,-3.2953436,1.2481805,0.23292364,0.853586,0.77411973,-0.0117966235,-0.030082328
0.6023026,-0.22058567,0.32412827,-0.22042741,1.4963421,-1.5484133,-1.7152103,-4.8885665,-0.055229545,0.5138708,-0.2851522,-2.5031483,-3.4730582,3.320636,0.108894855,0.0060937493
-1.7499491,3.751751,-0.45798194,-5.1185846,-1.3471515,1.6891576,0.01104933,-0.04870913,-3.1935015,1.5111995,3.3853586,-0.01292963,0.93062234,3.0938933,0.9448568,3.5871503
0.4720615,-2.598516,0.53563213,9.591462,3.2429698,1.0902921,1.0985525,-0.027519554,1.0178967,-3.142178,0.1372733,-0.06424105,-0.7624337,-2.951885,-1.2668402,-5.0251603
3.5496593,-2.2642596,4.5329285,0.0010890961,2.135408,-0.8909425,-0.68446577,3.4586263,3.653229,-1.2417474,-3.7740116,0.09358831,4.083008,-3.337857,1.4880164,-0.0601693
-0.5584351,1.3358829,0.47898388,-3.1819122e-06,-2.5968223,1.8054669,1.2167337,2.4056363,3.2726336,3.1143866,-2.6672103,-14.096806,2.9224515,1.4200327,-0.13078374,-0.012162063
-2.6116176,2.6906447,-0.00015910564,2.0111565e-06,-0.77271736,-0.115813866,-0.51981956,0.70277727,0.84076095,-3.249287,-0.77560085,1.468678,-3.287137,0.9629935,-0.03516695,0.0005791001
1.5402479,-2.5024114,1.6851931,12.144615,-0.7528083,-2.8650808,2.5730252,-8.5064335,-2.5342813,2.7010586,1.8858812,-0.050883107,-3.45792,3.616166,-3.3331485,0.058281094
-1.8421594,3.4739904,0.8359847,-0.92029953,-2.1296465,-0.8455093,0.09689955,-0.046625458,-3.355658,2.2253141,3.3690827,-0.06260036,0.21414173,1.7321796,2.4790404,11.947226
0.72111917,-2.2867913,-0.9854982,12.72221,0.5395994,0.49478185,-0.23869967,3.739338,3.1309135,-3.3623095,0.28484035,-0.057987288,-2.5353422,-2.2036862,-4.351742,0.04888481
3.355437,-2.289114,3.3041363,1.4512864e-06,2.199001,-3.040371,-0.89917356,-3.0487723,2.1092532,-1.3684509,-3.7574062,0.051251344,3.7187936,-3.4688118,3.4994256,-0.011974726
-1.5521674,2.1063075,0.1276933,8.105517e-07,-0.63236904,-2.3753862,-0.5476748,-7.3655963,1.0254067,1.5246227,-0.6007314,-4.9650207,3.2976377,2.672502,0.007448755,0.016751554
-2.6199813,-0.26580575,-1.2448785,-1.06832595e-05,-0.13447177,2.0080957,-0.1340279,8.384259,2.403204,0.52079576,-4.55954,0.02109697,-4.101225,1.6054804,0.015343666,0.029399648
-1.9890101,2.6750035,-0.21512938,-18.505754,-3.271713,1.1924922,3.35896,-0.04598026,-3.3815258,3.9413652,3.8074641,-0.015120044,-3.2828789,3.2723644,-3.5669036,0.012547571
2.6613555,-3.4034524,2.3303149,0.21451727,-0.49349925,1.4919937,-0.06761357,0.021999635,-3.1636698,0.7660209,-0.38115895,-0.018801708,-2.8481405,0.4875362,-2.0584478,6.537597
-0.91714185,-1.1101559,-0.601156,4.0706053,3.2735937,-2.0932717,-4.012382,-0.028055191,2.8950412,-1.0864482,0.11215663,-0.036836684,0.3239402,0.6085757,-0.17332399,1.7569952
2.9707873,-2.3697524,4.115173,0.49157387,-0.15341896,-2.2559924,0.57814395,-6.6194143,-1.5274724,-0.38445413,3.093097,-2.437511,3.6143076,-3.3358295,3.390631,-0.024615124
-0.5529556,2.2050812,-0.03675476,2.567329e-06,-1.8748125,-1.2276602,0.96407866,-7.5420938,2.2064083,2.5708857,-1.2546446,-7.815364,3.014691,0.6031353,-0.12733111,0.00024736673
-3.325692,1.5797865,0.01144208,-1.0320531e-05,-0.27141193,1.1938006,-0.7350844,6.2892227,0.5329728,-2.625611,-1.1744422,12.7739,-3.2832625,0.7586269,-0.036492035,0.010847406
-1.7682015,-2.2842696,-3.4690733,-1.372075e-05,1.624809,-1.9694129,-1.3790329,-10.278725,-0.7013577,2.0903838,-0.08652365,-11.56815,-3.4947026,3.3310628,0.5373323,-0.022286292
0.84037733,0.4875149,0.20776469,-1.5894679,-0.7316921,0.12977925,-0.0812611,0.0021053122,-3.4402585,1.3827287,-0.098985046,0.0021161484,-1.6707382,-2.1727052,-1.404563,-3.660159
-0.6525854,2.2757752,-0.6150784,-8.9964285,3.0154688,1.9691797,1.7522253,0.020013843,-0.031987198,-2.0581245,-0.015254334,0.023954816,0.40385026,1.286126,0.5873269,0.31645897
3.5206702,1.1724479,-3.311226,-1.2025541e-06,1.3659363,-2.8730168,-0.83713204,-5.112982,3.0313365,-1.5024332,-3.710053,0.060532663,3.8710089,-3.260278,1.4532124,-0.040869243
-0.16072537,0.86833817,-0.011635292,5.851487e-06,-2.3734565,2.6925397,1.5807576,7.3318996,2.2060616,2.8871047,-1.6123677,-9.792577,3.2158759,-0.40592086,-0.2406261,-0.05207763
-2.602497,-0.15022826,2.232392,0.13484955,-0.2697557,-2.999971,0.9188945,-13.700506,-0.118560284,1.459093,-0.7769275,-7.562244,-2.9511018,1.1107805,-0.08399615,0.008016847
-2.8013089,2.2625365,-4.617097,-57.994064,-1.2170942,-3.2681944,1.9096344,-0.09088725,-2.4733875,3.008762,0.3461533,0.0043243766,-3.6433778,4.151692,-3.9378474,0.07071126
1.7019285,-2.6432097,0.39824677,14.248936,0.24635634,-0.85900795,-0.014998764,0.016967453,-3.3276026,0.41097838,-0.12111375,-0.055148873,-1.2538136,1.2034643,-0.47564423,8.978872
1.9716542,-3.5160828,0.5873604,7.6750093,3.481988,2.2197495,4.662047,2.137968,-0.6539893,-0.6807868,-0.03746751,-0.0042454917,-1.5551636,1.0006562,-0.61131334,0.298209
-2.3616428,3.055604,-6.235487,-42.863647,-1.807202,2.5985696,2.3845646,6.8789926,2.837051,-2.905982,0.24227063,-0.044985145,3.4876761,-3.3789988,2.2256708,0.047513038
0.13550177,0.9542755,5.4569915e-05,-7.381532e-07,-2.7175786,2.8236558,2.0262437,7.4959393,1.9947932,2.2482495,-1.051519,-8.993851,3.1482866,-0.9580792,2.4133754,-0.03319154
-2.324504,2.9191835,-0.0026232973,2.051861e-07,0.5739841,-2.4874015,-2.7788644,-6.713297,-0.3060515,-3.3557093,0.7322547,0.022564687,0.26944596,0.6327898,-0.00075323205,-0.03386703
0.49750835,-0.49823263,0.3667454,1.6080502,1.4358702,-2.6009064,-1.3098882,-1.2883315,-0.6668612,-1.6654816,0.56627953,7.480929,-3.4382837,3.3084025,0.9731874,0.010141075
2.613834,-0.98401535,2.249809,0.78274,-3.3924336,1.0824891,-0.023665808,0.00069582846,-3.6090853,3.5852022,3.4811475,-0.021674592,-1.5016739,-1.8434753,-1.019324,-7.6591277
-0.46605265,2.5451024,0.22209144,-9.98127,2.1550822,0.861007,-0.22543314,0.0070438385,-2.6333482,-0.7753445,-0.053061787,0.029156744,-0.19098563,0.64386,-0.11895591,0.20947126
1.0184164,-0.6008979,-0.7635209,5.034428,1.9136475,-3.0509067,-1.9573245,-3.5632386,2.94864,-2.3293233,-3.4672434,-0.011944145,2.7180781,-3.379407,3.338252,0.008210592
1.6398187,0.057504356,0.50595653,-2.9235662e-06,-2.6950788,2.6247587,2.5028262,5.9878407,1.279568,2.9194074,-0.7172757,-12.829448,3.4732692,-1.6981735,0.009942055,-0.05028929
-3.3388293,2.5105226,-0.004494643,1.0946187e-06,-0.87120646,-1.3602166,-0.16022247,-6.5043406,1.8962322,3.6555643,-2.412582,-2.7538342,1.7752215,0.7047637,-0.016541399,-0.015371539
-3.3636765,1.24499,-3.0665793,-1.9367621e-06,-0.21853518,1.4607146,-0.5278894,6.21463,0.3366773,-1.1292005,0.15453808,4.44749,-3.487498,1.7917498,0.15282178,-0.008073537
1.6593435,-1.8396349,1.0858524,13.229256,-0.657765,0.8157992,2.0177922,0.032990456,-2.7834923,3.489707,2.1131072,0.034016505,-0.41399217,2.0107434,0.46327806,10.353242
0.41791672,-0.3826425,0.49366465,-0.28006786,2.4878762,2.4417603,-0.23331818,0.0044994354,-3.4175625,0.59430754,-0.0148240365,0.028461464,-0.52415484,0.23807281,-1.8062176,5.204062
0.70644724,-2.4624531,0.29499602,4.210464,-0.7712125,2.2834008,0.6476057,10.015055,3.475161,-3.3542976,-2.2888646,0.011312591,1.2571278,-3.248093,0.38987666,-1.8096001
3.432334,0.076366946,-0.008911122,3.9356564e-07,-2.6010683,2.8241231,2.3624384,7.0929728,2.148504,3.5632796,-3.3878617,-17.349445,3.4336512,-2.5385303,3.0770829,-0.04699017
-2.3604722,3.2503881,0.03442039,-6.6755774e-07,-0.5704775,2.4347146,0.09960288,9.247025,0.878665,-2.6335342,-1.1831794,1.736827,0.066496484,0.8047898,-0.046378337,-0.021332538
-3.1694927,2.8101428,-4.3951974,-0.0010261536,-0.62703264,2.41189,-0.15483981,7.105302,1.076845,-2.7282763,-0.061407834,11.662002,-3.5075796,2.3682697,-0.0037388653,-0.0065979147
1.7006826,1.0358181,1.6816511,-9.433211,-1.8139622,-3.4157739,1.0968429,0.022214824,-1.8306019,3.7164342,3.7399821,0.027795099,-1.0079654,1.4887943,-0.3907931,4.233879
-2.0558414,3.5357542,-1.6174291,-5.333315,-1.2086,3.1880915,3.6550612,12.996325,-2.896577,-1.9401144,3.2159624,0.017377146,1.6895105,1.6497898,0.50678444,2.3439012
-1.8989362,3.5051014,-3.9405808,-6.378628,2.676118,-3.0114605,-4.0277586,-4.0748873,2.9334767,-3.878944,-0.060544655,0.013166804,-2.3632872,-3.0421963,1.2383351,0.028158987
3.3057303,-2.506001,3.331066,2.1418027e-06,3.4458919,-2.713796,-3.4416094,-12.889996,2.1041098,-3.2291543,-3.6606393,0.059238527,3.7645035,-3.3554418,-0.25991017,-0.04179778
0.7587648,3.3866732,-0.06591086,-1.0541294e-07,1.6175562,-2.1949534,-2.032818,-4.80157,-0.17169142,-1.0058856,-0.18299133,2.0230293,3.4013925,-1.666828,-0.15326038,-0.025870811
-3.2359996,3.4270647,-0.06430569,1.02442e-06,0.17081694,3.4773552,-0.31000578,3.1750925,1.5566441,-0.8860495,-4.4166183,0.008402642,-3.493185,-0.044177264,0.0015930757,0.032950874
-2.8155148,-3.297371,-3.5829809,-1.5623804e-05,0.68147516,0.8082946,-1.384962,0.3571601,-2.3450835,-1.6340985,4.60652,-0.06397425,-3.5841901,2.611844,0.014344592,-0.03777024
-2.398735,-2.0432916,-0.8244202,6.479162,-3.180073,-1.9324315,3.30055,-0.011451343,-1.9206493,3.9072,3.8534179,-0.02266322,-2.4527721,4.56461,-4.29939,0.029517544
-1.4864997,0.67887926,-0.5533581,-9.960501,-3.286785,-0.39058775,4.1121936,5.7335434,-1.8570936,3.5270631,3.5565426,0.02546444,0.8642944,3.057663,0.380029,-10.378481
-0.14544612,0.518705,-1.4435903,-11.186576,-0.7263775,-3.071211,-0.9426782,0.009973526,3.495823,-0.18453634,-1.4733566,0.038979903,0.64570916,0.121791184,-1.1933889,-9.977884
1.14506,-1.7028906,-2.4293664,2.5888858,2.9386566,-0.8307742,-4.7508907,-0.006515503,1.5652276,-3.2773602,-1.7099744,-0.03130488,1.1510489,-1.51336,4.8084207,5.9992523
2.407287,0.032635354,3.3500564,6.3583466e-06,3.3861663,0.685787,-3.1246445,-13.987892,-2.1991808,-3.473352,1.2243824,0.016885355,3.4376292,-3.9650652,3.7776797,-0.020545177
-1.028966,0.80901504,-0.04672885,-0.000104461564,-0.15076137,-0.6493071,0.8826477,-0.81258774,0.5398686,-1.6640513,-2.4533625,1.2997135,2.1733255,-3.4707203,1.1826282,-0.07279459
-0.9079224,1.6782765,-0.03105247,-5.6521036e-05,-1.7964059,2.2178621,-0.45013124,-0.05265473,0.47198343,-0.8972695,-4.1044946,0.008270338,-3.1153882,0.6149314,-0.17348415,0.0004473105
-2.7331421,-3.7571177,-3.6563015,-1.3736431e-05,-2.1800375,-2.3049448,3.432101,-0.0046353936,-2.0489976,3.5895126,4.131234,-4.8996487,-3.4460301,4.1753483,-3.9568932,0.011180794
1.5657935,-0.8336975,0.35936302,-9.7377405,-1.3054291,-2.4389105,-4.8518496,0.0132369995,-2.3552096,4.7310023,4.3152733,-0.0026415316,-0.69548565,3.6014972,0.9471371,1.6688199
0.6186424,-1.1273268,-1.7839526,-7.987245,-1.5153832,0.32582232,4.670625,10.612427,-0.13847485,0.27067852,-0.05922079,0.055887297,-0.47985792,3.3316345,-0.8801084,-1.8943353
-2.8975291,2.2487612,-4.521835,-0.0001189895,1.4674917,3.1066468,0.17563319,-2.4474928,1.4415152,-3.3752422,0.6668975,-0.11990792,-1.309251,-1.3400886,-3.400931,-9.171053
3.3696127,-2.3667753,3.2398095,7.3912797e-06,0.106398374,3.706628,-0.36195058,1.0619382,-0.8036369,0.72464126,0.3260833,-3.2715225,3.557944,-3.4316843,1.4240013,-0.06996226
0.7949249,3.5643525,3.4136007,7.870075e-06,0.39003545,3.40945,-0.9650821,1.560611,0.9595573,-3.1000366,-3.413793,5.151882,0.66869134,-4.0830646,-0.24206477,-0.030637203
-2.7233214,3.7288628,-0.0046692435,1.0945798e-05,0.32065344,2.966217,-3.4461834,4.8425655,1.9657161,-0.33534932,-5.2696376,-4.8767786,-2.355118,0.10431039,-0.3189782,-0.03006432
-2.1798956,-3.4981432,-2.5337076,-1.8813473e-05,0.34245014,-2.9026985,3.543973,0.03857609,-1.7694676,4.020229,4.59874,-3.5112596,-3.001558,3.8660831,-3.589426,0.0155875385
0.5408875,-3.5379708,0.59328896,0.072227955,-2.3631418,-0.9892764,3.8012383,0.060693264,-2.784997,4.617758,4.2894363,-0.0379233,-0.23910886,2.5148387,-0.077264965,5.7552595
0.458843,-3.4549167,-1.8871346,0.32238966,-0.8533255,-2.3694215,3.1513343,30.138481,0.78290665,3.0965142,-0.03548075,0.001680376,-2.2035546,2.6643934,-3.6142063,3.589262
-1.3879412,1.170012,-3.5985327,-2.3528326,1.2217609,-3.3811064,-3.6405938,-0.008947372,3.2308018,-2.5221336,-0.23516862,-0.018425714,-1.5050609,-0.16727903,-3.1185555,-5.41986
0.89224255,0.5506377,3.3416681,2.1247786e-05,-1.4037052,6.437317,0.9600885,-22.077118,2.6984396,-1.4917617,-2.6846912,-16.88845,3.1047878,-3.6035175,-0.9526372,-0.09365173
2.8783832,0.7759473,5.1607175,0.0015201569,0.52014965,3.2632327,-1.2609127,1.841075,-0.3054824,-1.0188904,-0.4873823,-12.141949,3.3731449,-3.9052312,-0.28704566,0.018613797
1.9039309,1.2745304,4.671801,0.0009880066,0.28285265,2.434997,0.08868313,-5.528513,-1.3683474,-1.0024562,-1.947227,-8.238611,-1.9933008,-3.9598181,-0.060356155,0.004724428
-2.8841107,-2.305358,-3.5587616,-1.1485208e-05,-0.029059172,0.08500624,1.5343022,25.640583,-2.9959717,-3.5722601,3.026032,0.046198025,-3.5283089,3.2528682,1.3513954,-0.021791205
-0.9074584,0.2911291,-1.7955503,-5.5490613,-2.0239525,-3.1193876,3.376263,-0.024291651,-1.8421261,3.9872441,3.9539542,0.008229565,-1.3205311,3.349749,-0.5562184,0.0227868
-0.47131023,-2.6636207,3.2325315,0.9070034,0.29176417,-3.2247388,-3.797297,-0.00088977814,-2.312998,4.1065326,3.8657274,-0.018392399,-1.7462678,2.840457,-2.7279396,5.9802337
-0.8385589,-0.4215096,-2.595953,-2.9562066,3.3694978,-1.4991913,-3.2608554,0.0015683384,3.5914845,-3.2948253,0.14025699,0.027503464,0.66042495,0.90558815,-0.6197624,-12.069357
3.1821067,-1.2751724,3.3911464,1.0971283e-05,-0.030134186,3.7335253,-0.22375768,-2.6785574,1.3788383,0.011066198,-3.0637152,-12.617395,3.4320474,-3.3845372,3.3343513,-0.02517328
2.298329,3.6862261,-0.003281502,8.292259e-06,0.037556887,0.72868204,-1.7691512,-12.731934,0.78008664,-2.1588237,-3.7133248,-0.6525447,-1.088252,-3.7711608,-0.2821493,0.027341353
-3.0749109,-2.1231444,-3.5704908,-1.6206874e-05,0.526989,-3.2849066,0.71545017,-0.019827008,-2.7674863,-2.2666,5.1649876,-0.09506321,-3.3389509,3.625125,-3.5236654,0.01254376
0.8104141,-3.81633,1.9733212,-4.3615637,-1.1954314,-3.6088574,0.033164505,0.067111395,-1.00684,3.7974038,3.5638752,-0.020084897,-0.61123717,3.1296954,-1.9195191,1.7512395
1.0874647,-2.9943156,3.7547424,0.50040674,-1.6025563,-2.837799,-0.030358076,0.07669824,-2.1444674,3.186498,3.668709,0.0049494803,-1.1494569,0.42114252,-3.557283,-0.057045694
2.0476038,-1.2915683,5.078618,0.94506454,3.3402073,3.3070216,-1.5529561,0.018639613,3.6201952,-3.2132046,-1.3377441,0.01748454,0.30277914,0.42798245,-2.0922484,-12.249628
1.5379312,0.6804816,3.400428,5.0371054e-06,0.042282254,-0.08867818,-1.4498079,-10.10747,1.1123716,-1.244976,-1.4724004,-3.9449317,3.2858894,-4.1572638,3.8801937,0.012884055
2.5503354,3.4417973,-4.083367,-0.0010185242,1.3972298,-0.41982365,-2.1931643,-10.955161,-0.4667931,-1.3785596,0.88435304,1.4115257,1.3394262,-4.1651807,-0.19629815,0.023932286
1.5252765,2.5552437,-0.021106482,-2.9630377e-05,-0.1376353,3.2830365,-1.202937,-0.40272254,1.3330277,-2.2814233,-4.3362226,2.5218377,-2.2234318,-3.387451,-0.31361598,-0.008104898
-2.8901572,-1.3570054,-3.4389858,-6.920265e-06,-0.90988195,-3.3328347,-4.2054434,0.22388458,1.9270047,1.9883795,-5.0981913,0.01418912,-3.9023843,3.380357,-2.5634203,0.08104603
0.4721851,-3.239012,-0.15095359,0.80360997,-2.7766185,-0.90098083,3.2893577,0.023152817,-3.0168808,4.6297517,4.3126807,-0.022713749,-1.191709,3.2471347,-1.3538942,4.5503054
0.8109851,-3.4366617,-0.6592647,2.2312603,-2.506244,-1.1545027,3.8645883,34.768753,-1.8841802,3.9094203,3.5262668,-0.027921058,-1.588002,2.6007617,-3.6117506,4.1831603
-0.25938985,-3.3182745,-3.4505816,6.9860315,2.7720377,0.10658042,-3.4198549,0.02252628,2.7992678,-1.4905246,0.012678668,-0.04919499,-1.1222019,0.005179465,-3.2838833,-12.382767
2.3847468,2.6674757,3.477675,7.3831743e-06,1.7236991,-1.3434135,-1.504673,-3.0004702,2.6737127,-4.1153326,-3.9726746,0.010890823,3.4030457,-4.112951,4.0031233,-0.035624467
3.3728547,3.371663,3.2956839,1.4804366e-05,-1.1546137,5.263617,1.1608261,-8.15218,1.0228363,-2.5851073,0.12683845,-4.7078342,3.4286823,-3.4854636,3.1371987,-0.07278943
-2.8765697,2.0265098,-0.029054284,-9.398442e-05,1.7924658,3.1680183,-3.3214204,1.0470791,-1.0166945,-1.5403461,-1.3004104,0.10793997,-3.431509,3.2110655,-0.06985052,-0.017469682
-1.900439,-4.002854,-3.7541912,-1.795041e-05,-1.077449,-1.8804402,3.4241,0.02013272,-2.261298,0.47467571,2.3350358,0.6757927,0.009707451,3.032427,0.63465965,-6.041238
0.35081694,-2.9588225,-0.07747936,-3.4222796,-3.0420384,-3.5592594,0.0059071872,0.0023787683,-1.352861,3.5482163,-0.010951877,0.0049589328,-2.2023115,2.9496968,-3.5860982,4.3460903
-0.661819,-3.3446345,-3.4701147,3.1774638,0.31300712,-2.8502073,2.426262,17.614185,3.2425997,-1.9766886,-0.16116783,-0.016028287,-0.94401634,0.54857314,-2.1630485,-0.008868393
-0.22411527,2.3612509,3.3339825,5.5321634e-06,2.8448684,-0.48885736,-2.8110728,-8.771772,-2.8717263,-4.397099,4.3342423,1.8563347,3.0109448,-3.432648,-2.178381,-0.033128243
3.3483028,-0.0011712164,3.255036,3.1086702e-06,1.2892938,0.2179951,-1.4149854,-7.430648,-0.15328953,-2.418081,-0.46653792,0.7255626,3.3191483,-3.777912,3.9287682,-0.0099749565
-0.11370531,2.5875063,-0.016667664,-4.715158e-05,1.2188953,3.4088395,-2.7227128,4.119392,1.0703173,-1.31594,-3.4351335,-0.7956332,0.31934723,-3.986106,-0.39431047,-0.040124364
-2.382565,4.455109,-0.081327975,2.2326742e-05,2.113661,1.5273874,-2.9106286,-0.68138885,0.09137662,-0.09775746,-3.853962,0.119858086,-3.1874487,0.19452983,-0.12443976,-0.036438458
-1.7795825,-4.147805,-3.8228781,-2.1577926e-05,0.7106278,-3.9798837,3.6319087,0.028504804,-3.021544,3.4978724,3.3054004,-0.05308396,-3.500052,4.0321436,-3.7118363,0.04572479
1.3271229,-3.6918244,-0.4912609,0.44758818,-1.725594,-3.382564,0.07099199,0.06541549,-2.7404673,4.0937924,3.81347,-0.033990644,-1.1085244,1.3608055,-1.5577607,-4.1790676
0.5929972,-1.0795234,-3.3765726,-3.83495e-06,0.35189408,-0.80354995,3.9148717,23.749958,3.1383736,0.027962647,-0.01975984,0.011954843,-2.9300053,2.3820848,-3.8123293,2.1248324
1.1527563,3.620427,3.5991666,1.642072e-05,0.8833329,2.1315813,0.31874812,-4.311354,2.4104846,-3.5324645,-3.5674865,0.0152789,3.5928495,-0.75468874,5.167043,-0.009462357
2.1775613,-1.2872607,5.1572495,0.00089359283,0.38491952,1.4021623,-0.99920225,-7.332024,-0.5213287,-1.6447084,-0.50720525,-8.184947,3.5404649,-3.7313397,0.03672892,0.033149607
2.2034047,5.7812386,1.617496,0.0005617142,1.0542755,1.5713879,-1.6232156,-9.307871,-3.0246832,1.5861323,1.1794372,3.3640869,0.73224914,-3.452992,0.064190954,0.0056911744
-3.3761525,-0.24118586,-3.3418157,-3.4016257e-06,-1.5212759,1.1777518,4.4700828,0.17081451,-2.4761605,-1.1168135,5.3189425,-0.05624826,-3.5894778,3.2693708,-0.07142312,-0.007667778
-2.1522741,-2.4786777,-1.2836827,2.8239896,-3.1360605,-3.3194263,3.3747668,-0.0048990105,-2.9279687,4.718547,4.379982,-0.011704553,-3.210325,4.3987765,-4.244355,0.030765997
-1.8530166,-2.2103243,-5.5733852,-0.000872612,-2.5367427,-4.1439457,-0.15266168,-0.070593834,0.83942175,3.3660321,-0.32546425,0.010264419,-0.9582855,3.1359081,-1.4648186,0.070587784
-2.9635189,1.2105702,-5.3268375,-0.0009899139,-0.021983325,-2.896527,-0.044074304,-0.02415294,1.0061386,-0.11023736,-0.21473736,-0.027361708,-0.5232413,2.4368086,-1.6219335,-3.3507805
1.2529818,2.4927118,3.5307558,1.2733819e-05,2.5389242,-0.9666942,-2.1364484,-5.593049,2.8049073,-4.145528,-4.00428,0.01761666,3.325754,-4.45074,4.2952237,-0.03855989
3.2962813,2.4744997,3.0534058,2.7909766e-07,0.12510337,0.5574279,-1.1125116,-7.8207397,-0.39099473,-2.5745006,-1.4248364,1.7899373,3.0312607,-3.9018207,3.7095523,0.0057973415
0.37332848,3.9652543,-0.005093115,1.5435282e-05,-0.75628424,0.01995489,-0.5708101,-9.689099,-0.26021826,-0.51758003,-2.2555857,-9.785159,-0.8060561,-3.3187037,-0.18422773,-0.056728404
-3.606267,3.9869092,-0.008058872,1.9182553e-05,3.716613,0.3996498,0.42535916,-0.05283784,-0.527169,1.1364503,-0.1516568,0.076115295,-3.4560213,3.193759,-0.07032409,-0.043774135
1.2075603,-3.0945249,2.6926224,-6.845599,-3.1506743,-1.9264475,3.3126407,0.12316748,-1.8883233,4.9673066,4.492428,-0.017220788,-0.34310645,3.4253914,0.3233684,1.0590239
-1.6781979,-0.80940187,-2.0845327,-6.3129215,-2.0091004,-3.6807508,0.0036986172,0.016884144,1.2340091,3.4224327,-1.4617958,0.015468597,0.15082216,3.0701356,-1.8560642,3.7607129
-2.6552486,1.555729,-3.74664,-13.495959,2.3502264,-1.2261708,-3.5298612,0.022236593,3.2515817,-3.1110642,-0.021099985,0.039964933,3.5436265,-0.31001073,4.946347,-0.011621475
2.6394846,2.1811907,3.4772098,1.0446198e-05,0.93880665,2.8385155,-0.43084952,-0.11617571,-0.64094335,-3.6731255,1.8154607,1.0533106,3.760869,-3.719969,3.5584223,-0.013166277
2.6221507,-0.09788501,5.146077,4.2902374,-0.70643467,-0.045757324,0.057777226,-10.602928,-0.16168712,-0.9945026,-1.517553,-6.724773,1.2701896,-3.8671632,-0.19762513,0.018426253
-0.3398652,4.258201,-0.08614856,1.8656981e-05,0.2174028,3.4205225,-0.8493336,-0.045703214,1.6333934,-3.4672842,-4.113416,4.663551,-3.051573,-0.6915935,-0.37837315,-0.06434825
-2.049718,-3.5702624,-3.489153,-8.100456e-06,-0.13299187,-2.3092184,3.4171972,-0.00035099313,2.8620105,3.2922444,-3.5712388,-0.021080665,-3.8552291,3.6980753,-3.5932927,0.028705256
1.9222983,-3.706169,2.014553,-5.395566,-1.6856574,0.6031481,4.031361,0.03563777,-2.918296,4.616966,4.3813553,-0.026350543,-1.544636,3.0494843,-2.0598445,-2.5133505
-2.1323042,-1.2002007,-4.7807636,-0.00037193298,-2.480869,-3.6727977,0.3093909,-0.066171736,-0.61919105,2.8438594,0.12496479,-0.026011568,2.4583411,1.8990203,1.2849786,-10.1704445
-0.33768106,-0.4315314,-3.6079164,-3.4511623,3.2941318,-2.698023,-3.2840333,-0.012091281,3.4388578,-3.399554,-1.1700102,-0.003017461,0.36047608,0.51737154,-0.4264961,4.51659
3.195413,0.97022325,3.3091254,-7.5572007e-07,0.8279425,1.5962335,-0.2490986,-5.455208,-0.19122963,-3.3179407,-0.13683428,0.4571814,3.413983,-4.2385783,3.923792,0.002535129
1.4963766,3.2508733,-0.007856727,6.481423e-08,1.4585973,0.11549294,-2.3445327,-6.3793774,0.5695709,-2.7771842,-3.3019087,9.394135,1.8890878,-4.709752,-0.4485141,-0.013538361
-3.4423685,3.4101737,-0.052195087,1.4300499e-06,-1.3350885,3.248515,0.30183327,0.31544298,3.0828116,0.10464692,-3.3910346,-11.399585,-3.5726106,1.1250871,-0.083779216,0.007751871
-2.8027647,-3.6775825,-3.6353219,-1.4349416e-05,-2.0763497,-1.0786479,3.4467592,-0.013075799,-3.2088952,0.7932428,5.6849594,1.3039379,-3.0191033,4.384646,-4.090747,0.019862551
-0.4794638,-0.13462687,-0.72133696,-10.95596,-3.3426726,-2.917347,2.6810021,0.019771386,-2.4812033,4.641664,4.2714,0.013589708,1.03727,2.7776139,0.63542527,-2.6813757
1.9539506,-2.2563815,-1.3364971,-5.761956,0.23991817,-2.5948424,-0.35540736,0.007434845,1.1266629,1.4979535,-0.25611603,-0.005756378,-1.3510971,0.5370338,-2.8260455,-12.247776
0.06851733,1.5139991,3.449609,8.530544e-06,-1.9130095,4.194905,3.2594275,-3.0823264,2.4125185,-3.5685265,-3.502974,0.0041570216,3.1926205,0.69252414,3.9264636,-0.082410485
0.6386975,2.262405,-2.442915,-0.0009784698,-0.6651569,0.19174254,-1.5723593,-9.944348,1.5167583,-1.3660865,-2.3338742,-3.5706506,1.9635816,-3.0983045,0.0514341,-0.0033296682
0.09520275,3.7083313,1.2714736,2.6931557e-05,1.0666105,1.9892685,-2.3559003,-0.15311325,0.21454215,-2.150321,-2.9940736,0.6552647,-0.8233774,-3.1892216,-0.17590392,-0.024581537
-2.9046896,-3.7536762,-3.6059868,-9.6484055e-06,0.91330326,-2.3675704,3.3434558,0.0023614876,-0.78631836,0.12190175,-0.9210253,-17.88353,-3.3048544,4.0542455,-3.8016014,-0.007184026
0.92030513,-3.7175934,1.0140258,-1.9349718,-1.7263607,-2.2668772,3.164611,0.044088177,-3.0069814,4.3542185,4.07436,-0.027675087,-0.7280283,2.4777818,-0.4698251,-2.7635186
-0.3238982,-1.2835906,-1.8873177,-6.436715,-3.4430702,-1.4252386,4.0813885,13.6735,0.066602,2.2919426,-0.013168756,0.02348477,0.9532784,1.0573905,-0.6018242,-11.4723425
-1.3451457,-1.0696734,-4.5922933,0.31461638,2.250755,-0.5767427,-3.4339056,-0.0039732773,3.3434105,-3.7985423,-3.6352544,-0.014000785,2.506161,-0.38130882,4.770884,0.036664963
3.2657204,-0.16351253,3.428743,1.1256841e-05,-0.2071582,3.0187857,-0.24561982,0.9182305,0.90531176,-0.98381644,-5.8198605,0.035484314,3.3555799,-4.2614646,4.1435018,-0.06364487
2.9979434,4.7155347,-0.034609117,2.5820918e-05,1.7328295,0.3526778,-2.2027404,-5.7799425,0.41108155,-2.450731,-3.5495155,6.2872825,-0.16320987,-4.2155275,-0.17934209,-0.04749589
-1.0388844,3.7044318,-0.0050923154,1.0578697e-05,-0.45849308,3.3329735,-1.5824443,1.6429524,-0.24302897,-3.5088568,-1.0997686,0.08589033,-3.2730963,-0.646333,-0.14794794,-0.031370614
-2.6476104,-3.5842247,-3.4919703,-9.508589e-06,3.2900732,-3.3562508,-0.44196922,0.001434207,1.3656163,3.6083794,-1.5400246,0.018100783,-3.1652613,4.2200193,-3.8383658,-0.0106695965
1.2758839,-3.5241117,1.3433452,-4.1150656,-2.026628,-3.540271,-0.6217374,0.04332161,-3.0934584,4.5342913,4.141187,-0.022160213,-1.3200938,3.5725458,-1.0423578,1.9494939
-0.87316495,0.34545463,-2.0680761,-12.532827,-3.3766048,-3.3683,2.4329033,0.021135539,2.854153,2.8285174,-0.028351039,0.018201094,0.14855632,2.2545743,-2.3193665,-1.1421647
0.29466987,1.8082691,-2.8133354,-14.365744,2.3941953,3.7884498,-3.6562853,0.02114491,3.2397702,-4.2271624,-3.8617935,0.047661047,2.1402264,-1.2223606,4.872917,3.4373016
3.0743055,0.18745872,3.4411337,1.0042519e-05,1.1448169,0.2708651,-1.1926773,-8.416592,-0.6705647,-2.9283068,0.37011087,-0.6106705,3.646744,-3.3874755,3.0701501,0.009531464
0.14200512,3.3990083,0.7589355,1.7110974e-06,1.7515407,1.851157,-1.5597571,-4.3353586,-0.105706245,-2.2009952,-3.6334145,0.38412118,-3.131108,-2.5556972,-0.16406971,0.0016173124
-3.7798128,4.4891224,-0.29908535,0.00080394745,-0.38154885,-3.9418244,3.7169907,0.006659146,0.068386555,0.83432347,2.1608977,-12.601825,-3.7137818,0.33003008,-2.2703233,0.050277233
-3.0690603,1.3579472,-3.3991005,-5.3666463e-06,-1.9012971,-0.47518516,0.14000382,-0.008497722,-3.1356003,4.4401445,4.0824933,-0.00043385942,-2.645688,3.1361265,-2.2649124,5.567609
0.63305235,-2.2482557,3.4677129,-9.1635475,-1.5583692,-0.26485375,0.0042538047,-0.008057319,-2.0930104,0.100531116,-0.06103304,-0.009464279,1.4220697,3.505158,2.078002,4.657589
0.5244097,-1.2208946,0.76220524,3.049348,1.9414353,0.5712703,-0.11705305,-0.0107312035,-2.5862594,-0.7127156,0.0037295707,-0.018799804,-0.15846784,-0.89803195,-1.6183293,-0.9687443
-0.030816488,-0.40927273,-0.54734766,5.95732,2.7640362,-1.7821916,-2.9970644,-0.014405269,0.852215,-2.5452137,1.684205,9.4126005,1.3818249,-2.5951223,2.6494603,0.20181274
3.3704534,-3.4121382,0.44821116,6.6133216e-06,-1.6488266,2.461713,1.5434985,5.4152007,1.7509527,1.8764317,-0.6665771,-6.8030167,3.925762,-3.4382138,-0.24334908,-0.05216372
-0.26039818,2.7309103,-0.033791214,1.534172e-07,-2.3698447,2.714634,1.0423043,7.69925,3.0890882,3.300218,-3.1462734,-11.341768,2.1915805,1.1261278,-0.2084299,-0.041884087
-2.0118964,-0.76306117,-2.5620673,2.277975e-07,0.37803817,-0.26955044,-0.62921935,-1.8005793,0.72320646,3.4306147,-1.9024113,-2.7021255,-3.653706,3.4393218,-3.2667453,0.002603665
1.5614201,-0.56743103,1.4220065,-0.21826974,-3.1805966,-0.85306114,-0.0032310486,0.0006171052,-3.4190996,2.3040252,3.327536,-0.00022855029,-1.0108403,0.6311104,-1.150145,3.8631997
1.7199923,1.5853237,1.6765604,-9.056974,3.1034675,-0.7677388,1.3927447,14.00699,-0.6641853,-1.4824431,-0.058450583,-0.00173828,-1.756213,-0.27792874,-1.6215686,3.584198
1.1335495,2.2635746,-3.973734,-5.0725648e-05,-1.2554696,1.9850088,1.537654,8.704341,-0.7349032,-0.89000475,2.8046765,0.96018016,3.667839,-3.4370046,2.9628136,-0.034179583
-0.25620815,1.7744079,0.022578001,2.733911e-05,-0.9481052,-1.86744,-0.26747742,-8.3307,2.3845987,3.6148372,-2.6664953,-19.96836,3.3793385,0.59574556,-0.106347054,0.045177817
-3.5267444,2.7716365,-0.0061710635,3.9383112e-06,-0.05867374,-1.9619548,-1.1383657,-8.037913,1.5143355,3.4507754,-3.0306027,-2.4552336,-3.7437437,0.9388416,0.016850188,0.024870655
0.114373825,0.05104415,0.43137166,1.2155608,-0.66764206,-3.442422,0.7682998,-0.0038587328,-2.4071717,3.335996,1.2571521,-0.0031600334,-3.4356687,3.4830284,-3.1361225,0.028474327
1.2715222,2.849736,2.4492357,-13.598099,0.4595515,1.0017449,0.018334627,-0.008394688,-3.3216205,1.6071215,-0.16822082,-0.027533442,-0.29450852,-0.5518473,0.13937081,-0.9967478
1.262331,-1.4480814,-0.2882712,4.4383907,0.74816597,-0.06518861,-0.13026044,0.15019536,3.312362,-3.4199994,0.67633075,-0.014602661,-0.46326804,-0.5516987,0.047953345,-0.12435677
3.1724718,-2.2546997,-0.0007033646,1.1758035e-05,-1.1484354,-2.277078,0.792808,-8.686454,0.7092607,2.3523126,0.20167893,-10.441837,3.4792197,-3.4450433,3.4024282,-0.0029846728
-2.74687,2.732421,-0.0015855478,4.2238094e-07,-1.9291269,3.1374502,1.026957,2.3494697,1.8655635,0.54559153,-2.4834633,2.4441922,3.2793388,1.3107611,0.0031581298,-0.00050583296
-3.3804414,0.79174495,-3.257479,-4.4408716e-07,0.7604404,-2.4727974,-0.28960872,-9.699175,0.3884807,1.0006818,-0.97899556,-2.4700663,-3.6505082,1.7066543,0.00705182,0.035708122
-4.212619,2.7235851,-7.468442,-70.883026,-3.318283,-0.84939724,0.10195017,-0.010332435,-3.5430124,3.72691,3.4574275,-0.053812742,-2.884404,1.4820794,-3.5043776,0.042270117
0.13507885,3.0066216,1.6884369,-12.476822,0.39023304,0.50232273,0.10604368,-0.035540793,-3.124739,-1.0541216,-0.15658712,-0.036147658,-0.75978553,2.1765516,-0.5752772,2.901762
2.8123844,-3.1203098,1.6889141,2.963359,3.0227013,3.0071597,-3.448714,-0.0061200187,3.4417663,-3.4448566,-3.3675551,-0.011115061,2.099813,-3.3142033,1.1244676,0.018351225
1.757666,1.6037169,0.01596427,5.778519e-05,-0.8608256,-1.3287642,0.9388492,-5.6311655,-0.31855178,-1.574278,1.3057822,4.3047824,3.450693,2.0122578,3.485914,0.04422636
-3.2921333,-0.07200728,-0.021690011,3.010109e-08,-0.8629219,-2.4591753,-0.95911276,-7.54722,2.2909045,3.499115,-3.1002123,-5.462737,-0.6328522,0.94625777,-0.0030542612,0.004943168
1.0675272,-1.5565004,-0.21236737,17.099514,0.94297117,-3.40841,1.1856468,-0.030590177,-2.0907667,3.3192952,-3.4738295,-0.044421166,-3.5330844,3.4098833,-2.904761,0.05736693
1.9900578,-3.0517993,1.4187696,1.9870834,0.8029577,0.83600795,-0.0007516593,-0.00030050427,-3.1615403,-0.8342781,3.4658072,-0.0016925023,-1.5015626,0.0410524,-0.94043523,3.7591796
-1.4547493,1.892675,-3.3792381,-9.523997,-0.68552876,1.0197717,0.4384713,3.6222904,3.0632527,-3.4250364,3.005238,-0.017690659,2.1327102,-3.183188,1.0651258,0.04817041
1.6525408,0.7535052,0.12477331,-1.16252495e-05,-0.87024724,-0.98819125,0.4885261,-4.021997,0.20041645,-2.349824,0.17160428,11.655356,1.73604,-2.398916,0.036021233,0.037042927
-3.2920094,1.8605261,0.012644887,2.9672505e-05,-1.5975436,2.6348839,1.1070696,10.243022,2.840448,3.6207767,-3.7834487,-9.530357,1.474793,1.3010389,0.030150335,0.005816659
1.3514341,-1.13928,1.8732218,3.0651464,1.9031196,-3.5281649,0.9339767,0.011755651,-1.4267145,-2.5536203,1.973644,8.081041,-3.3063853,3.4385247,-0.60282356,0.04208017
2.275,-2.0902927,1.5624362,5.871895,-1.6756223,0.9150033,0.08460884,-0.015391081,-2.9127536,2.607159,3.4601042,-0.018806122,-1.6624267,1.793246,-1.5086025,10.280892
-1.76805,2.2310233,1.7098765,4.506132,3.160076,-0.4006523,-0.4295404,-0.04863262,1.7034987,-0.9350379,-0.018097453,-0.08414419,0.24058186,-0.7119038,-0.88879085,-1.7202535
0.5607804,1.3269047,-4.3814745,-4.7335634e-05,-0.4809928,-2.5212457,0.27414644,-5.8901906,-0.5734879,-0.775716,2.8130264,1.2534373,3.5081136,-3.8762584,3.453833,-0.013433404
-0.4001227,0.81870675,-0.036312282,1.0440046e-05,-1.6808718,2.496225,0.9242248,6.422768,2.9923596,3.3458772,-3.49916,-29.12241,2.8606062,1.2454296,-0.20936748,-0.00907135
-3.421742,-1.869107,-0.0031874776,5.832482e-06,1.08118,-2.8574963,-2.0122027,-16.635717,-0.27329123,-0.14515683,-1.4221196,0.662425,-3.4581153,0.8272708,-0.014554158,0.008356236
-0.9793786,1.6484504,-1.1638684,1.9158356,-1.883178,-2.4403613,3.4854288,-0.004775184,-3.3701806,3.396754,3.3780475,-0.009103461,-3.0198183,2.07855,-3.4936059,-0.0006625393
-0.18967772,-1.143531,-0.7897012,4.9283457,-1.5909252,1.7578378,-0.042124994,22.267567,-2.047666,1.1612942,-0.157444,-0.013158592,-0.1844742,0.18451199,-0.84521973,4.0349393
0.24208763,-1.5670608,0.123345256,2.6801648,2.8319364,1.9924893,-3.4340286,-0.0076496303,3.5069869,-3.4001837,-0.016687447,-0.008140892,-0.18038619,-3.3111475,-0.546316,0.009035565
2.9132185,0.3585424,-0.05202856,-2.749775e-06,-1.6956775,2.5643754,1.4564328,8.372452,0.60972726,-2.4254534,1.1665905,6.791767,3.5774431,-2.6557915,-0.20979607,0.0016555263
-3.4546974,1.0770901,-0.0074683446,4.696368e-06,-1.5389513,3.3670135,1.1568916,0.16495752,1.8115233,2.518969,-1.8764001,-8.64919,1.2688124,0.96079296,-0.029794216,-0.0035808757
-1.4279959,-1.4270041,-3.5008836,-1.4392379e-05,1.4776647,1.5640967,0.13333094,2.5893304,0.9370465,0.45812833,-0.15592849,4.8984985,-3.4185915,3.4540691,-0.025526498,-0.001290258
-1.4041982,3.9777002,-0.026930392,-6.6072426,-2.771733,-0.49110496,-0.89942956,-0.08361656,-3.7365942,3.483261,3.4701195,0.028799102,0.8065472,2.203898,0.8228519,9.578541
0.205181,-2.6033058,0.91994,9.312489,2.9494882,1.4743341,0.0033262968,-0.033601694,-1.5196183,-1.1830534,0.023196228,-0.07380992,0.32034808,-0.9674195,-1.4191952,-2.2047791
3.7898421,1.1237082,-4.0129733,-4.4989167e-05,3.2307441,-3.423016,-2.5985205,-9.059763,3.0301251,-2.3386004,-3.6070507,0.053199828,3.5359442,-3.2687235,1.9555687,-0.04588491
1.6950561,0.7574414,-0.021344874,-8.8969136e-07,-0.92306495,-1.755131,0.5263232,-6.4984174,1.179184,2.9300175,-0.86260283,-9.922958,3.1663926,-0.8770678,-0.05621144,-0.0056918953
-3.721308,-1.2458184,0.2580108,6.450348,-1.7000601,2.4589446,1.4984189,8.826685,2.738952,3.6039863,-2.999763,-1.1459619,-3.5852568,1.8124652,-0.13843253,0.015821323
-3.0814228,2.8119054,-6.532799,-64.95604,0.15298003,-3.104615,0.20389996,-0.052203417,-0.14363775,2.8821516,0.06577644,-0.034237135,-3.7185657,3.7004936,-3.5700479,0.07367961
-2.4502976,2.8712492,-5.294853,-50.532402,1.3597758,1.97783,0.12694846,-0.04407569,-2.548367,2.7959905,-0.0992744,-0.06901404,-0.17298713,-0.22353119,-0.77184457,3.0719657
-0.018777207,1.0231519,1.1510437,-7.2514305,3.1330009,2.1402338,-3.426324,-0.0059691602,3.5705795,-3.4495265,-0.019331299,-0.012293308,-1.5824374,-2.9509099,-3.965406,0.032990098
1.1308821,0.39630276,-0.057668105,-1.5383689e-06,-0.9624109,-2.3723617,0.3092831,-8.564969,0.21523646,-0.13514993,1.2278214,-0.15931603,3.3637013,-2.5075405,-0.12412256,0.0044532577
-3.315495,0.21723315,-0.0054993425,1.2593291e-06,-2.3512409,2.7019575,0.8986205,9.463512,2.6091907,2.8042192,-2.701988,-9.600795,2.7806308,1.1543673,-0.0070227757,-0.011890928
-3.3305314,3.030372,-3.256404,-3.4127934e-06,0.57662356,-2.1395793,-1.09216,-9.027981,-1.0467011,-1.5853916,3.2248175,0.6800916,-3.545689,2.7809634,0.033301026,-0.060205445
1.6311984,-1.532691,1.1927986,5.4152026,-3.0136428,0.24394132,-0.18523556,-0.02209961,-2.6093764,3.4177146,4.0672083,-0.024207452,-1.0725213,-1.920099,-0.58625436,-6.306491
1.1949742,-2.6488395,1.1298981,7.357892,1.5543976,0.5582485,-0.031868022,-0.030587247,-1.9136848,-1.3164898,0.10977322,-0.0486052,-1.071022,-1.3597279,-1.8825538,-2.9496858
2.2287548,-0.21027875,-1.7257724,4.5610514,0.4090004,2.2731156,0.99923146,9.040205,2.9477298,-2.0820801,-3.2551806,0.002766937,2.355789,-3.3788557,1.757978,-0.009066254
3.2614272,-0.9320637,0.048580468,-4.4234303e-06,-0.44440114,-1.8700781,0.26862884,-5.1023808,-1.0273856,-2.6544356,1.6433992,10.109845,3.0829139,-3.9971242,-0.9608074,0.043783665
-2.5547354,1.4984305,-0.0014458597,-7.1453615e-06,-1.0548683,1.2468231,1.2542772,3.7282162,1.0715662,-1.9474403,2.9986627,1.7430457,2.4515088,0.8119939,0.22717841,-0.031454902
-0.10536116,-0.409189,0.10365968,-0.046508797,-0.4365965,2.0279613,-0.040621996,7.3872957,0.74091095,-0.3713709,-1.0575712,2.2032652,-3.2624497,1.5703295,0.10148421,-0.03877312
-2.2196293,2.2858253,-1.5912019,-0.4331509,-3.2705839,-0.69605845,3.3963904,0.0072939824,-3.515498,3.951124,3.7638597,-0.007852521,-2.9424074,2.0373063,-3.488778,-0.0066980617
-0.7646748,2.5780838,-0.26979196,-7.9719896,0.913533,0.2816787,-0.035192728,0.018211931,-3.3653195,-0.30750003,-0.049124118,0.0051153153,-0.061407685,1.6513664,0.7022588,5.625093
-0.40345603,0.02387233,-1.0514185,-2.089733,3.3235009,0.26204118,-1.4310583,0.005138728,3.4730742,-3.6901958,-3.6271024,0.013923138,1.2567098,-2.3327382,4.8210425,16.254023
3.321984,-0.6733312,-0.019856647,6.0991806e-07,-2.2533197,2.572872,2.3850856,8.182504,-0.47165102,-1.8475382,2.8452668,4.2158456,3.5031955,-3.7688417,3.565061,-0.021137267
-0.027152244,2.4793477,-0.00048085646,-9.4968175e-07,-0.6771638,-0.31532538,-0.28719693,2.2639298,0.45714855,-3.3622475,1.1622871,4.360218,3.4444597,0.61344546,-0.08199513,0.014507065
-3.3940134,0.9376391,-0.004388576,9.865539e-07,-0.63826954,1.8226225,-0.3816092,5.937566,1.5050678,0.49058226,-3.1246428,0.5169802,-3.3886685,1.4797008,-0.023857791,-0.011738107
0.08263014,0.35863683,0.067204,1.2549324,-2.933664,-3.2898505,2.4165835,-0.0017907601,-3.3020875,3.464281,3.3730698,-0.0021430147,-3.466473,3.5461285,-3.3658395,-0.0013087718
-0.49972576,3.6277251,1.0314832,-1.3205013,-0.68393695,1.4230835,0.084463686,22.56982,-2.6435828,0.2452246,1.6183145,-0.02996707,-0.30216733,-0.7123452,-0.77646005,-1.1508878
-0.82277566,2.4494529,-2.2886622,-5.7738037,0.5786401,-1.2890633,-0.84818345,0.59688854,3.1609776,-3.8490372,-3.6302922,-0.026868537,2.0047512,-3.151552,4.8668914,8.688892
3.360142,-2.171588,3.2737975,-2.0001664e-07,-0.8900847,-2.1611342,0.99767315,-7.084959,-0.80983835,-0.61099595,1.8715003,-0.57181215,3.6136377,-3.5045903,3.4633234,-0.013648603
-3.3256688,2.021366,-0.007065486,1.2627715e-06,-1.8247687,2.9341786,1.0101682,9.265839,2.3959773,2.8035712,-2.954919,-9.380645,2.5303428,1.2345484,-0.06825426,-0.0107536325
-3.4309978,0.95312333,-3.0129418,-9.491316e-07,-0.076234855,1.7274337,-0.4547789,6.3164268,-0.056867,-3.1417336,1.0344081,0.86976516,-3.74373,1.5214043,0.05263122,-0.0026799482
-0.05349469,0.1099962,3.5994706,-10.595027,-3.2638094,-1.2750334,-0.10725133,0.08573596,-2.6195712,0.15041232,3.2219126,0.09990181,0.5075756,2.988476,1.4802659,3.0921235
0.2538358,-2.2176428,0.79440606,8.699423,3.3252833,2.2246706,-0.050150543,-0.037522778,-2.3515248,-1.161168,0.0006273277,-0.04544708,0.735564,-1.1324381,0.32988536,-7.9216413
3.3786328,-2.1405218,-0.5606535,-7.045667e-06,1.2179725,1.8627332,-0.42652592,10.539349,3.156261,-1.6038207,-3.5745409,0.053305633,3.473927,-3.3009536,0.39973235,-0.047712818
1.0916001,1.5653974,0.018084232,1.119656e-05,-1.3119798,-1.2460631,0.5705118,-3.6042068,0.613903,-0.5370762,0.6789753,3.2526655,3.488411,-0.74920285,0.00096718967,0.013934957
-3.1698332,2.2777338,0.04007841,-6.130713e-07,0.4504818,-2.6681604,-2.207901,-12.8546505,0.31568938,-0.6668979,0.08575034,2.9186382,-0.32532772,0.4363689,0.015786067,-0.054014683
-3.1659667,-0.04622577,-3.4653277,-9.138187e-06,0.5571602,1.6014812,-0.009775877,5.886085,-0.6492611,-2.865511,2.4285493,0.91460216,-3.6387265,3.3847086,-0.011440452,-0.028081005
-1.7453251,1.9761684,-2.0025868,-36.82785,-1.3522475,-1.5893093,0.064101115,-0.025112025,-3.1325428,1.0969528,3.4771948,-0.04229541,0.17824,1.6195879,1.4022956,3.6078835
-0.65318584,0.9731703,3.1991713,10.995499,3.4727461,0.30940732,-0.100857615,-0.047038876,-1.5523655,-0.63039064,0.029016472,-0.050322413,-0.13291329,1.3373832,-0.86910164,6.890114
3.6055512,-3.2279885,3.9648368,0.00079250336,-0.67087513,-1.5461427,1.6863339,-6.5853767,2.8725588,-1.2237867,-3.715983,0.06348488,3.9441586,-3.323688,2.4965284,-0.046483837
0.89530164,0.4157901,0.17341453,2.2936463e-05,-1.700585,-1.5823187,0.60565317,-9.319418,2.0224414,2.9949436,-1.4569361,-11.549755,3.2347023,1.3040571,0.01233992,0.05742258
-3.611723,2.4245017,-0.009930253,1.1940192e-05,-1.8996153,2.2769313,1.1813555,9.7342,2.019769,2.8733277,-2.1713238,-10.98592,1.4581226,0.96522737,-0.0031801164,-0.0009576045
0.19708055,-0.769668,0.550056,1.8108735,0.511799,1.6643317,-0.8526064,5.353507,0.223777,-1.8253758,-0.3854891,-0.055150688,-3.273276,3.2696996,0.5087686,-0.003944871
0.35756254,-1.8058801,0.051786423,2.4632769,-2.575212,-0.056490533,-0.04232645,-0.032757282,-2.5472178,2.0650039,-0.31446165,-0.033619303,-1.5094547,-2.717145,-1.8433566,-7.332494
-1.7920109,1.7268354,-3.38126,-25.993656,3.412963,-3.1002069,-4.2123523,-0.0033168793,1.4249719,-2.398808,-0.04156322,-0.01935839,-0.8043463,-1.2441251,-1.0814737,-2.8490973
3.493817,-1.858741,3.1564157,2.4173296e-06,0.8190642,-1.2437416,-0.10685471,1.6056044,2.8030338,-0.81126237,-3.6998374,0.068818755,3.8996918,-3.3561842,2.7425818,-0.049145658
-0.6580218,1.4698406,0.72347075,2.770273e-06,-1.1557213,-1.3940585,-0.052144766,-4.442413,1.8824095,3.4592247,-1.9914324,-10.361895,2.067459,0.64125097,0.010122161,0.00036403257
-3.288402,-0.503471,-2.690767,4.158127e-06,-0.529784,1.5970702,-0.23952864,1.7642014,1.7648518,0.5868953,-2.170955,0.52390015,-3.374118,3.588689,-0.017269982,-0.0038835602
1.9096761,0.6096532,1.8575524,-6.745347,-3.3648756,0.49196914,-0.004084863,0.005824902,-3.5034618,3.8595512,3.7116523,-0.014556885,-0.58807826,3.1097455,0.4825612,2.1080773
-1.4910285,-0.022739615,-1.1311423,0.3348342,2.92282,-0.2043179,-3.381846,0.0009841867,1.6372265,-2.1007178,0.004995942,-0.0039303536,1.0271782,0.568012,-0.82949454,0.993453
3.3221471,-1.7542046,3.3609512,6.927604e-06,2.1779401,-3.2650592,-1.375351,-4.5271187,2.790365,-1.1872058,-3.645709,0.041986704,3.7206407,-3.3011196,2.523859,-0.026438337
-0.88359505,2.501006,-0.0003172498,-3.5116182e-07,-0.89643073,0.30301476,0.04784973,1.9578646,1.0228679,-0.056247957,-0.2783684,1.9324682,3.3320677,0.697473,-0.00090739597,-0.0049597495
-3.2477782,0.44297943,-3.5005436,-1.4945475e-05,0.059475183,1.5831409,-0.7274579,5.237986,1.9399533,1.7008225,-2.853158,-16.737282,-3.7479873,1.9709988,0.17491457,-0.023197897
-1.1591214,1.4216397,-0.94937795,1.6447246,-3.3797219,-1.7244091,3.3377428,-0.0030494016,-3.5663905,3.8608906,4.486069,-0.040150642,-3.0687652,2.4946675,-3.5232465,0.046442278
0.8148272,-1.7080119,0.9458122,4.533499,3.1749597,0.009650469,-0.90583944,-0.05692172,-2.0434504,-0.8422968,0.13200608,-0.034488503,-1.0343158,-0.93042934,-1.7621996,-0.26686868
1.370869,-0.24683228,-1.3593417,-0.05643642,2.5668733,2.3596048,-3.5057995,0.0014460841,3.380141,-3.899398,-3.6807432,-0.0030237408,3.1748512,-3.31406,1.7511768,0.012288583
3.2961876,0.48635265,-0.0023560228,-4.4116075e-07,-2.096678,2.7301376,2.0945883,8.230869,-0.02731198,-2.347644,1.9366539,8.05839,3.359214,-3.3751314,3.3557785,-0.008218477
-2.7904654,1.9270872,-0.012139171,7.699664e-06,-2.6917832,4.262897,1.6991444,-0.51626205,2.8480625,3.246499,-3.5342987,-7.9257946,1.7978224,1.175853,-0.08285105,-0.0076188296
-3.4019768,1.3297658,-3.141609,-2.027229e-06,0.6262777,-2.6281352,-1.669196,-6.7070627,0.5555606,1.1735594,-0.7561524,-3.30049,-3.6206024,1.4242071,0.3778208,0.017129194
-0.1042341,2.4182003,0.3938855,-7.9022217,-1.9596845,-2.367562,-0.03333295,0.024928264,-2.9244804,3.4748583,3.3912845,0.029496742,1.4642375,3.2914226,3.9480004,11.305637
-0.8691692,2.3571289,-0.35126692,-10.592789,3.0759094,0.71578854,-0.5713481,0.023562431,-1.573295,-0.7413306,-0.033902504,0.008342631,-0.22620529,-0.3714663,-0.956746,-0.6852478
3.3522196,-2.2211788,3.3264873,4.07918e-06,0.8650794,1.8674557,0.4575547,9.7502,3.2791412,-2.1414928,-3.6257021,0.055339485,3.5168967,-3.835984,3.7195663,-0.04712555
0.7539446,2.1221397,0.04264801,4.3075433e-06,-1.5676284,3.515069,1.4350787,-2.555019,0.9845915,-2.4975004,0.06455475,12.776748,3.582356,-0.84169126,-0.04396899,0.021966502
-3.1296508,3.0001683,-0.00092318654,-7.791885e-06,-0.6442187,0.90857327,-0.7278571,4.379,0.91275907,-1.5207682,-0.9192655,5.6980553,-3.4822705,1.4494386,-0.016890302,0.06839699
-1.7330896,-1.4201517,-3.5559108,-1.6591439e-05,2.617837,-2.3665094,-4.009218,-0.017628387,-0.7072666,0.9757603,0.012784541,-6.519842,-3.5091875,3.5069127,0.3918169,-0.025907151
2.742401,-3.2505667,3.0380967,0.2712275,-0.886667,-0.24304618,-0.10554412,0.0073469095,-3.277064,3.4950407,3.395421,-0.0102519225,-2.2237384,-1.6522884,-0.8492756,-4.3997064
0.47318748,-1.3333274,-0.2336058,4.3650446,0.12808836,2.126848,0.09364605,10.054308,3.267732,-3.452487,-0.90598685,0.012423515,1.4106216,-2.4427888,3.4583275,0.011386871
1.4277873,1.8645087,0.029116523,-8.3285295e-07,-0.7910485,-1.498929,-0.12084246,-4.4977493,0.439452,-2.3550627,0.30300725,11.047913,3.3196394,-2.265252,2.5239155,0.038135353
-3.2689867,1.62729,0.047106106,1.2758346e-06,-1.5233151,0.55366266,0.53353596,-1.6139913,2.1974833,0.55122393,-3.0538445,0.293623,0.39328602,1.2365351,-0.007876744,0.006851186
0.43250287,-2.198533,1.0452085,3.0809536,0.88538086,-3.9152775,-1.3107927,14.510867,-0.3162613,1.5205493,3.6297722,11.86623,-3.2138314,3.464064,0.5210148,0.07026211
-1.1665387,-1.9791216,-0.04667467,6.911628,-1.113403,0.92664075,1.7754881,0.004053727,-2.5559273,2.513589,3.575447,0.0019928217,-1.1432874,4.0243697,-3.8992987,-0.006223649
0.703514,-2.7080395,1.0218239,5.795948,2.8236165,-2.089213,-0.47442007,-0.017484665,-2.2654514,-0.17207806,0.037804686,-0.04903013,-0.23561558,1.8492376,0.03474319,4.2495475
0.7933427,-0.91523254,-0.6272826,1.3637688,1.6859025,0.46300876,-1.6390996,1.7574543,1.2103292,-3.4581237,-2.705549,-0.0084714,-0.97154397,-1.653074,4.3685074,0.0013484955
3.2940495,-0.39663973,-0.11025086,-7.717172e-06,1.000399,0.9006772,-1.045342,6.547883,1.96066,-3.4609036,-1.9091406,0.024016127,3.832576,-3.5066485,2.8048341,-0.02890034
2.189714,3.443722,-0.058759943,-3.6176436e-06,1.5772891,-0.5741203,-1.3427563,-4.1576624,-0.1235871,-3.1136663,-1.2241046,10.226057,3.4572375,-0.10183431,3.2358637,-0.00762913
-3.3586164,3.5184798,-0.0505692,6.24482e-06,-1.067371,4.488959,0.97688174,-0.010495186,2.3929043,1.6088071,-3.250236,-10.127265,-2.8941681,0.7436119,-0.01890868,-0.022955598
-3.0464163,-3.6343749,-3.5692115,-1.1413167e-05,-3.580926,-2.1697628,0.5931922,-0.0056610107,-2.2316794,3.451864,5.6319313,2.412075,-3.6927736,3.5085468,-3.456609,0.023774333
1.3437568,-3.3944354,2.5640755,-0.27645004,-3.2966392,-2.1445236,1.9887447,0.016485013,-2.459991,3.8703713,3.7579665,-0.017054863,-0.46876228,2.7355633,0.8185375,2.5875936
-2.2411675,1.825093,-0.90989006,-19.462854,-3.260386,-3.0525625,1.8147992,-0.032937676,3.224501,0.46548676,-0.027755618,0.080558494,2.1002536,2.6267033,-0.7788482,0.27976093
1.9564781,1.5504829,-0.93427914,-3.5178266e-05,1.8926355,-1.7780888,-1.181519,-9.707764,2.5408995,-3.498984,-0.6335208,0.00043693185,3.499735,-3.7036624,3.7418852,-0.00879892
2.310114,0.40835553,-0.012185007,-1.768308e-05,0.27880976,2.1654234,0.1837364,2.5886178,-0.46013916,-3.0109713,0.20897277,7.6164465,2.593571,-5.0410194,-0.0058641434,0.0040714554
-0.3767694,3.72123,0.011268139,1.5007662e-05,1.8667595,-0.40793693,-1.6353812,-5.8144355,-0.8276718,-1.7861466,-0.64194965,2.0838304,0.15053922,-0.82441056,0.94467473,0.025117354
-3.3536065,2.3658085,1.5454593,0.00012922287,1.6654408,-1.3676145,-2.4092903,-7.759942,0.56132674,-0.019737065,-0.36842394,1.0894816,-3.4870477,2.7942088,0.16044284,0.028576411
-0.79826015,-2.5907605,2.080398,-1.5876548,-3.1649816,-2.322053,4.2239337,19.401215,-1.8519629,4.85613,4.3912425,0.036882147,-2.0329697,4.1450434,-3.9384162,-0.01481282
1.7814033,-3.136687,1.4984726,-0.4786513,-0.8286513,-1.118443,0.4613074,36.059464,-3.2596977,1.9074334,-0.028107285,0.009444444,-1.1788397,2.1960025,-0.4433101,0.65068334
0.22323677,-2.84302,-2.5549753,9.789839,1.9422462,-0.61863387,3.3418684,0.0033688396,1.1979957,-2.1857936,-0.25378996,-0.044275243,-1.7238091,1.7396033,-2.2045982,0.06440468
1.8911643,-2.4222836,3.351874,1.1320853e-05,-0.9998994,3.9098942,3.022416,3.9431064,-1.2847822,-0.96090317,1.5750272,-8.605787,3.6060774,-3.608572,0.44085583,-0.11164876
-0.17214026,3.0316203,-0.020004734,-1.8238939e-06,0.4806958,0.9731873,0.08714509,-7.1196094,-0.107659936,-0.5904046,-0.64417267,-5.5173955,3.3264341,-3.6525698,-0.20299792,0.006345734
-2.2293916,3.5504446,-0.060337245,2.306625e-06,1.6197222,-1.1141335,-1.8645313,-6.358446,-1.344455,-2.0406363,1.5273956,0.43148082,-3.3084269,-0.31106865,0.36421093,-0.014602294
-0.5625381,-3.4557052,-1.9013114,1.5619855e-05,1.6290154,-3.5952961,-0.15085375,0.033750482,-2.333055,3.9944751,3.6229978,-0.010154426,-3.4273856,4.07022,-3.5968134,0.03342081
0.014936328,-0.24465013,0.60050774,-7.1007524,-3.2149045,-0.47881162,4.7739534,2.4077568,-2.2830672,2.1653452,3.4404268,0.03698614,0.91742647,0.78351176,1.8819122,-7.524488
0.19417459,-2.5716383,-1.6603007,6.773819,0.9660521,0.9929896,0.48864365,-5.573765,2.5102365,-3.8684752,-3.6515498,-0.03138581,-0.77783936,-3.5129573,-2.7017903,0.012849271
3.3716915,-2.0704808,3.2688134,2.521784e-06,0.5144029,-0.9374028,-0.21594036,-9.41943,-0.445892,0.30494297,0.51389104,-12.293541,3.740466,-3.3275754,2.8051121,-0.031144168
0.034827482,3.4738917,0.7161026,8.206852e-06,3.4287894,-2.1523616,-2.9285944,-7.8530464,-1.2552537,-1.8231652,-2.425729,6.1340914,-2.7054865,-1.149908,0.055170305,-0.019339126
-2.8948927,2.5269785,-4.1134667,-2.4808804e-05,2.355196,2.2040753,-2.9270482,9.74552,-1.5180027,-0.32761103,0.62608993,-8.105992,-3.206903,3.6974409,-0.1238395,-0.047723815
-0.94783014,-0.76885587,0.31822616,-6.302718,-3.2675896,-3.431526,3.3323095,0.0012436756,0.99390876,3.518685,-1.8204567,0.007743338,1.7950714,3.2757108,1.9733819,1.5810068
1.6500988,-2.943357,0.871884,0.92686427,-0.6487415,0.057826757,3.8508162,-0.0011019707,0.23835161,2.7732568,-0.113346696,0.004816143,-1.5700867,-1.1705768,-1.9772953,-10.064795
-1.4997598,-3.0336027,-3.1589127,9.736293,3.3529348,-0.23643464,-3.0509462,0.024014637,1.287829,-3.314743,-0.5329099,-0.038474083,0.19238642,0.77536213,0.8307575,0.44490504
3.4066637,-1.990251,3.2672448,2.832608e-06,-0.08652879,0.526713,0.5045878,-8.573839,0.101610415,-2.0445008,-0.7251182,0.095449574,3.7431986,-3.447847,3.411552,-0.024813328
0.59548134,3.5573275,-0.094097,-3.785159e-07,0.7931932,1.0856407,0.9781356,3.6104279,-0.11877265,-1.3754861,-2.1693306,0.7002339,-0.64693975,-2.5754046,0.03353326,-0.0767328
-3.4360328,-0.11594204,-3.1613533,1.251245e-06,-1.5443588,0.7445599,4.241506,7.24259,-0.55905485,0.88541573,3.3401237,0.25827825,-3.7173944,3.3583245,0.29613778,-0.0053318413
1.3273251,-1.6419712,2.309781,-4.2822275,-3.4227068,-2.1790187,3.964525,0.005666733,-2.9831183,4.4090796,4.056428,0.025491256,0.4912655,3.226591,3.403904,-0.14174056
-0.44238788,2.6101336,-1.318817,-13.76111,3.254125,-0.7818344,-3.2322037,0.017105084,0.5330074,1.6423506,-0.02899656,0.03970865,-0.5963888,-1.4299877,-1.8621064,-6.882346
3.3608367,-1.3678764,3.154984,3.8122098e-06,2.4505568,-1.8304657,-2.4545474,-9.9904785,2.7732415,-3.9426389,-3.816009,0.018466696,3.630631,-3.3635154,-1.2627765,-0.03219697
0.9005162,3.5238507,-0.0005389629,5.8438427e-06,1.0181537,-0.9727477,-0.9290957,-8.106926,-0.6294515,-2.1747706,-0.5498778,3.8136053,3.2692423,-3.41641,-0.27599612,0.0041704103
-1.1845597,3.7296798,-0.06974608,9.664026e-06,-1.1526736,3.3843539,2.1062753,0.1192549,1.5208623,-2.2889392,-3.4046073,8.941218,-3.4671552,0.4192385,-0.11231735,-0.03193795
-2.6146944,-3.81308,-3.6192675,-1.319371e-05,-1.9904996,-3.4301012,3.3656485,0.012423418,-2.5129356,4.7599444,4.5718856,-0.042324215,-3.2207046,4.308721,-4.1365433,0.023822583
0.82855487,-3.4479096,1.6949586,0.00109905,-2.9241223,1.856782,4.6054296,7.510063,-3.0090594,3.742069,3.593243,-0.000794068,0.5078193,3.1592433,0.96157545,0.5797328
-1.5929586,-1.2190791,-4.9539413,-7.6923985e-05,-0.6352163,1.5603831,0.669306,-0.102035105,3.0167673,-2.9138436,-0.054834098,-0.041580975,1.4803768,-1.0161456,0.06304467,-12.518679
3.4525952,-3.1104496,2.0622945,9.41634e-06,1.3369606,-2.2332056,-1.8038471,-9.391085,2.1818225,-3.838685,-3.884818,0.052534223,3.7406735,-3.3040507,2.7317028,-0.06547942
2.563754,0.4492863,4.6002097,15.629818,0.63985837,3.1758444,-1.0696126,6.2804937,-0.13072577,-2.105926,-0.022630155,-0.69212437,3.4292514,-3.9839191,-0.2688411,-0.009550374
-0.44090953,3.4059515,-0.0076452,3.2518992e-06,-0.33993155,2.8607993,-0.49163347,1.4159247,0.4678644,0.7272942,-1.5313681,-11.621646,-2.3983674,-0.6847044,-0.1685805,-0.010711513
-3.4758008,1.778218,-0.07340042,1.3807315e-06,2.3940198,-1.6747929,-3.0569756,-2.7839096,-1.6331651,-0.15740275,-0.4266534,-7.838388,-3.7137737,1.0912296,0.11467636,0.042567085
0.550535,-3.1602147,2.2120297,-3.2533154,-1.5253257,-3.4667172,-2.0403752,0.038064316,-1.3566415,1.8549708,0.72107255,-6.967106,-1.3304409,3.1966434,-2.256852,7.2143235
-1.7687643,2.1202273,0.3996787,-18.702106,-3.5700755,-1.4358534,0.3353601,36.063942,0.048868254,4.176843,0.045560837,0.08258061,2.1960597,1.7981611,-0.3209464,0.6954513
-1.1726174,0.53188145,-1.5432272,1.4811312,2.288296,-3.0634713,-2.6373618,-0.009810617,2.6098766,-0.6170109,-0.18209603,-0.010700993,-0.6338758,-1.4453788,-2.2299483,-7.362296
2.7178192,-2.465534,2.975065,-2.7633018e-06,0.58771014,-1.8926725,-0.7790913,-5.1117907,-2.704901,-2.9329443,4.59244,-1.912778,4.332939,-3.782388,3.590168,-0.028687783
3.2695637,2.110098,0.014485627,6.198906e-06,0.8560596,-0.6274573,-1.1726266,-4.8531475,-0.47830814,-2.425787,-0.0033754706,1.2947519,2.4769516,-5.0324807,0.24039769,2.545885
0.35155964,3.6494942,-0.0033811498,7.6141396e-06,-0.69806385,0.29949903,3.2742646,11.493101,-1.3916183,-0.21764384,2.0856876,0.7053261,-2.1613657,-0.48874265,-0.2270616,-0.04703799
-2.7162008,-1.7504054,-3.4178839,-7.6158485e-06,3.6692283,-3.6666155,3.640234,-0.01008191,2.6727433,2.0179257,-4.9794426,0.078977495,-3.7473931,3.413689,-2.9254599,-0.009422325
1.1733142,-2.0410407,3.9432507,-10.155241,-3.3367019,-3.4181457,3.3427384,-0.0051633753,-3.1966782,4.53875,4.2418413,-0.0065846257,-0.52724683,1.7710135,0.07347931,-0.95467603
-0.32308012,0.63143146,-0.6644274,-10.923147,0.064814255,-3.2823176,-2.2489753,0.0046676397,-0.79254234,2.4132073,0.0034064725,0.019571342,-0.2639396,0.0986149,-1.6195413,-3.485445
3.3656206,-1.7785757,0.3859877,1.0127726e-05,0.67144173,3.0154428,0.13501608,5.0598354,3.0918136,-4.3899097,-4.108627,0.04176974,3.0835006,-3.452635,0.75522625,-0.08615926
2.3449678,1.3667471,-0.08081345,-8.30668e-06,-0.35586715,0.3507681,0.5189244,-7.491032,-0.19400367,-1.3451302,0.56532586,-4.117698,3.2740364,-3.923745,3.6469095,0.014333107
-3.8068132,4.735248,-0.016694129,4.1317773e-05,-0.9215087,0.7387626,-0.045636535,-8.443784,1.3962634,-0.060596287,-2.7872775,-6.406806,-3.7604396,0.7453004,-0.17284843,0.01624092
-4.4071345,3.6954033,0.27149224,0.001449585,-1.3926648,-3.4289007,3.3101115,0.114950925,-1.9445448,1.2923509,3.9271333,-6.0987134,-3.1642776,0.14232436,-4.7726083,-1.4446411
2.2416332,-1.8576099,2.363987,-4.592657,-3.3623557,-1.4503368,-0.081094265,-0.023154687,-0.30924305,3.2646253,-0.10802668,-0.053969838,-0.2071107,2.4170074,0.27387798,1.3251426
-2.4729154,2.6616745,-0.97100306,-11.495729,3.0296264,-1.2788495,-0.15612519,0.012083054,2.3245096,-3.2584343,-0.1117203,0.022395484,0.8550341,-0.65993965,-0.74680173,-2.7562299
3.384178,-3.1832902,-0.9883037,1.680064,-0.25144824,1.7993116,1.3427472,-0.1762507,1.9500914,2.7477617,-1.6881802,-8.964467,3.635416,-3.6837056,-0.21379475,-0.049062118
3.3080108,-3.3010616,1.4466048,2.9114362e-06,0.18348522,2.511198,0.85021544,6.7783985,-0.46508944,-0.9387194,0.31841892,3.125808,3.700107,-2.273457,-0.24883997,0.009398408
-0.87461627,3.432118,0.006904125,7.5765633e-06,0.35188326,-2.5277588,-1.1066388,-7.950687,0.6061048,-0.14049417,-2.3233652,4.665559,-2.4825735,1.1706839,0.0005544871,0.04622609
-3.5197084,2.5766046,-0.050243817,1.1207014e-06,0.85064447,-2.0430994,-1.5966111,-4.440475,0.94284093,0.9094584,-2.4408095,-0.19329037,-3.7751894,2.9839919,0.019404247,0.040569425
2.4076939,-1.3724685,2.847818,-0.64701355,-3.2582064,0.78023374,-0.6284678,0.0045885136,-3.3414237,3.6773973,3.5265749,0.0077962126,-1.3208832,-0.627881,-0.043191195,-4.238794
-1.1542926,0.9937653,-0.8099458,-2.7070987,0.0038261376,0.6897519,-0.019651663,0.039003864,-3.1526077,-0.2596543,-0.07176973,0.02346659,-0.037450112,0.5970583,-0.6693262,5.6524315
3.472985,-1.2073481,4.8975096,0.001531601,1.843573,-2.8086638,-0.71642417,-6.957596,2.9546168,-2.7104056,-3.733115,0.036690988,3.895578,-3.2892466,0.32487524,-0.026064184
2.0202394,1.3769011,-0.04184849,-3.6286933e-06,-1.1341381,-1.9642687,0.86660266,-9.417979,2.2845058,3.781954,-3.8586864,-20.636559,2.8898792,-0.7431177,-0.08441946,-0.006431721
-3.2893786,1.4630128,0.18352772,-1.499669e-06,0.20593297,-2.403754,-1.1914523,-4.205761,0.8619473,0.6664535,-2.051812,-0.3409403,-2.8424785,0.75393516,0.002316542,-0.0042906627
-0.2340349,2.0349522,-0.73941684,-28.984055,1.4350148,0.47047037,-1.2647735,3.775761,0.14081192,0.058544517,0.7653327,20.182407,-1.4939753,3.3109846,0.34529915,0.041117888
0.60557663,-1.8866513,0.88612366,0.8733587,-3.116549,-1.0291096,-0.109520085,-0.025486581,-2.3803697,0.83910507,3.427838,-0.023831807,-0.8159026,1.4663732,-0.90073466,8.43508
-2.3153763,3.31647,-1.1338089,-3.382866,3.2016616,0.6500924,2.478837,-0.016392708,1.4472774,-2.221305,2.6443324,-0.018403001,1.1780684,0.86236024,0.2304598,0.08003054
3.1418853,-1.5856018,4.0669975,4.402222e-05,2.104644,-3.3076637,-0.8435104,-4.399459,2.9833755,-1.5679903,-3.8239148,0.09520702,4.081502,-3.3016381,2.5422432,-0.07554261
1.3693174,0.49221757,-0.04777293,-1.0613221e-06,-1.0404376,-2.010046,0.5676791,-8.117164,1.391838,2.6596622,-1.1515219,-8.605175,3.3827994,-0.21009903,-0.10125002,-0.022532374
-3.2532294,2.3201535,0.22151525,-2.2941776e-06,-0.8574291,-1.9363877,-0.572119,-5.5327764,1.6101389,2.0165267,-1.5600674,-5.4179187,1.10454,1.0079808,0.036879327,-0.012416165
-2.2973864,-1.3037103,-3.5607305,-1.2780167e-05,0.94345057,-3.4492683,-3.2577217,-0.017868996,0.949211,3.2727113,-0.024182387,-0.007723376,-3.7103968,3.478141,-2.1151214,0.022000998
0.88187337,0.1354909,0.93136746,-2.111963,-3.3942509,1.8259592,-0.055728287,0.0075344895,-3.3594255,1.5603071,3.3735201,-0.009987093,-0.5489351,2.229288,-0.60985994,2.0711904
-0.115269706,2.5718834,0.30359852,-10.822298,3.3362143,2.822174,-0.07857098,0.013663173,-2.1811843,-1.2865877,-0.063877136,0.025448158,-1.565376,-1.815135,-1.8373836,-6.0604095
3.4702497,-2.2985892,5.021229,0.0015182495,-0.1287604,2.5067742,1.3720322,8.588977,3.8415678,-3.1120713,-1.4030579,0.07123929,3.773282,-3.7908678,4.7253714,-0.075881004
1.8831782,1.99459,0.074032806,-4.5440538e-07,-1.9417568,2.7384315,1.8073545,6.814334,0.55286074,-2.4811044,1.1736032,10.371865,3.5405562,-0.26634467,-0.20689541,0.0137413675
-3.6962998,1.87779,-0.007999778,4.2159027e-05,-1.8394572,2.30158,0.2591601,9.227698,2.6189249,2.4796696,-2.2854254,-6.9776382,2.3520975,1.206092,-0.081933916,0.0009266939
-1.4317119,-1.388212,4.2160788,26.293245,0.47849548,-1.891187,-1.1286603,-3.7558463,0.21860617,0.51797855,3.216577,12.695307,-3.369279,0.97663635,0.38118228,0.11558771
0.4549768,-2.5510807,1.3407269,12.250913,-2.4020824,0.6415129,0.027380586,-0.0022813678,-2.8814828,3.6491752,4.736586,0.12617493,-3.138311,3.2289577,-3.3531237,0.059114385
0.8536594,-0.63606703,-0.37455535,5.45139,-0.43646926,3.374291,-3.4460316,0.07609427,-1.105107,-0.86313075,-0.23100977,0.013787136,-0.6385621,1.3680911,-0.59469676,8.550453
-2.0020463,2.5311944,-0.8807168,9.859198,0.6586033,3.0819597,0.981609,-0.04884399,2.5916107,-3.4527454,-0.1735866,-0.030734397,0.19930898,2.112482,0.6255183,7.3912287
3.2533305,-2.953732,-0.4255418,-0.0005493164,3.239414,-3.325317,1.1390164,0.013587834,3.8687544,-2.824685,4.4756045,0.042028427,1.360231,-2.8087952,4.7352095,6.191559
2.8056395,-2.8866794,-0.103254676,-8.964215e-06,-0.47617683,-0.43867248,-2.8728163,-3.4370537,1.9496073,2.6167588,-2.499347,1.0180705,3.354078,-2.5739264,-0.1724174,0.06883292
3.0574949,-3.4708674,-0.008345902,-1.9544852e-05,3.734891,-4.9802976,-0.97404563,-0.0026811268,-1.4131093,-0.5419327,1.6962681,9.962491,3.3728015,-0.10101544,-0.12504703,0.038180493
1.9955981,-3.0304947,-0.027557492,4.7654867e-06,1.5670772,-2.4624507,-2.0516417,2.3557074,0.14198023,3.2701025,-1.7866697,-6.323914,-1.949237,3.1974773,-0.026039943,-0.019353852
-3.6005564,4.461159,-0.007464679,1.8777995e-05,-3.1051645,2.3473203,-0.047471493,-0.035340443,-2.3772159,2.47755,-2.7937384,0.26305112,-4.1544695,-0.4954617,-0.5015192,0.03693723
-1.2922312,4.602261,-2.540433,-3.8698158,-3.6492217,4.22733,-4.023711,0.08277144,0.90453655,0.7674408,-0.54182214,-0.32424194,1.6982732,-3.2309139,0.472111,-5.2627873
-0.4469019,3.092724,-1.6811246,0.7350302,0.08580522,4.014395,-4.029873,0.017986346,-1.4152727,-4.204769,-0.12737536,-0.018128164,-2.0343847,0.23754735,0.72277856,8.205485
-0.19483632,-0.5121764,-1.723511,16.801037,3.4522765,2.0132837,3.4842598,-0.04892904,2.9344378,-3.5454912,-2.5228715,-2.8153734,0.15839356,-2.5066519,-1.0079132,0.56071436
3.2437518,-3.3909445,-1.1932225,5.268217e-06,-0.9307338,-2.8108778,2.8945808,-2.8946679,2.0931125,3.4206984,-0.27909023,-14.093302,1.6469777,-2.4530282,1.8815259,0.019284971
3.4364393,-3.4090095,-0.6343263,1.2876466e-05,-0.015402257,-0.9147593,2.2102737,7.296114,-1.8313493,-1.9462482,2.013385,4.0937004,2.8921812,1.2705755,-0.6151321,-0.017456055
3.393411,-3.3508122,1.3531826,1.1311098e-05,1.6620908,-3.060887,0.95135725,-16.014446,0.61846304,3.1584592,-0.64758825,19.085995,3.5975566,4.1294456,-0.47481084,0.013678226
-3.488122,-1.8268719,3.5237386,-9.2298797e-07,1.2297283,-1.1016002,-1.6479931,3.4347863,-1.33831,-0.7047646,-0.4001243,17.740488,-3.6947386,2.90565,1.1774917,0.041375436
-3.6009645,4.2383466,-0.0135973245,8.346597e-06,-3.0688446,3.3290882,0.25588813,-0.036079332,-3.0936291,-0.38259214,4.5996485,-0.034104396,-3.8461382,-3.3591046,-1.7511482,0.071802735
-2.250133,4.0147424,0.09568739,-0.97249436,-3.2623594,3.3705094,-0.8335141,0.0011342615,1.1705261,-1.9611298,-0.37700844,0.04808455,0.38969207,-3.5266423,-0.11939198,-5.5609236
0.6393627,3.4302785,-0.26046875,0.32387918,-3.2464776,3.2895973,-0.23287475,-0.01313421,0.14965992,-3.0150495,-1.072561,0.018534448,-0.31516042,-0.24845088,-0.90083766,13.370752
0.044735253,-1.7483703,0.8677659,18.863497,3.7660944,-2.6773782,3.4815786,-0.061961353,3.640683,-2.378222,-5.3138194,0.05768013,-0.2343758,-3.2789981,-1.80237,-12.127703
3.0135312,-3.363182,1.9038357,2.743781e-06,1.2597449,-2.3590713,-1.6946869,8.844339,0.22334436,3.4949915,-1.3098879,2.9084222,2.7745185,2.0246806,-0.16455868,0.044119835
-2.6436312,-3.015484,-1.6376338,-5.0839968e-05,0.072871804,-2.83863,-2.257486,-4.769064,1.5590876,-1.6878767,-0.5899912,19.400032,3.5961235,1.9394287,-0.06529957,0.06431885
-3.6072507,2.0599482,3.3603206,-8.1301305e-06,1.8412235,-3.0699096,-4.021381,-6.631258,-0.6897134,2.7672656,1.2841558,-0.13980436,-3.9731398,3.3120215,-1.5033001,0.10048291
-3.17987,3.3337786,-0.0037771463,4.885602e-06,-2.027072,3.3227806,-0.5939649,-0.024911575,-3.4497561,1.999196,-0.4345665,0.015114762,2.2160797,-2.9343586,2.7973638,-0.45201647
-1.3188906,3.4510736,0.6188402,-5.2312655,-2.9289362,3.3108594,-1.7346298,-0.05262506,-2.039382,-3.7664413,-0.33210558,0.046224527,-0.35114816,-2.0281837,-1.0328891,5.9205017
-2.4879189,3.8755562,-2.590167,-4.9568777,3.3129199,1.5857995,3.3068695,-0.03540864,3.5187683,-3.386505,-0.5677466,0.08674629,1.7815248,0.95933837,0.36567736,13.282826
2.806233,-3.3005114,1.0451267,4.2871393e-06,-0.49031305,-2.8548443,3.3990755,1.3486886,-1.8359675,0.87544805,4.8758435,4.181184,1.6480858,-2.6382208,1.9172239,0.019650016
3.3190422,-3.284568,1.5083817,4.2594374e-06,2.482265,-3.1210084,0.16561802,-5.7832527,-0.59756935,0.83076996,-1.7012662,13.7786255,3.6713257,-0.030975878,-0.34933376,0.0038087927
2.236012,-3.306241,-0.7107913,4.1491394e-06,0.7858441,-1.9703494,-1.0785915,6.6817985,-0.0827294,0.61312807,0.63127875,0.94497824,0.47863534,3.40122,-0.14959487,0.020779908
-3.8002772,4.0390058,1.8179431,3.6498532e-06,-3.0017421,2.1973557,-0.020943642,-0.0058768503,-1.8453798,-2.4975066,3.8421462,9.426517,-4.037314,-3.2553296,-1.815265,0.093774594
-3.4091663,4.431965,-0.007403385,2.1539341e-05,-2.4938874,3.6648262,-3.4823635,-0.04161809,-1.3405054,0.7100533,-0.41464,0.047481906,-0.3186525,0.0036094189,0.056663394,12.476919
-1.5678235,3.963935,-2.5127203,0.29489,-3.2447474,3.7099395,-3.4580085,0.05284381,-2.0244312,-2.0237353,-0.66756463,0.028532587,0.65083295,-2.0374012,2.722099,-0.51832056
-0.061542064,-0.7237152,-1.1593682,20.742565,3.6071854,-0.76617265,3.5330846,-0.05653558,3.5407867,-3.2935476,0.35704708,-0.002164895,1.2676349,0.39568353,2.4133224,6.3849945
3.377732,-3.2942698,-2.691096,1.7969836e-05,-0.26824898,-2.4507432,2.5156784,1.571353,-1.5571396,3.2536805,3.1163259,-4.4596357,2.7624445,0.33147,-3.6399903,-13.427071
3.4110456,-3.3559942,-0.01179438,-2.5264126e-06,3.2956958,-4.064303,-0.11379956,0.0005691,-0.4592264,0.4141307,0.32194993,4.4902015,3.700742,2.6251497,-0.48603022,-0.009533882
-3.53335,1.9409947,-0.83026856,-2.3024495e-05,1.5361869,-0.9915083,-0.7860712,0.30566597,-0.45665926,-1.0115052,-0.6146138,11.20989,-3.6075644,3.2659292,3.0226011,-0.006762318
-3.4781075,4.5593653,-0.009038225,1.9876741e-05,-2.542966,3.2614362,-0.038947016,-0.058772378,-2.6840415,0.77809536,-0.0474329,0.04027567,-3.9719894,-3.310039,-0.6807418,0.030163461
-0.16286501,3.7199924,-0.6658701,1.588963,-3.4421594,4.3885093,-3.9257336,-0.035609894,-0.92364824,-1.2714697,0.008932114,0.027831515,0.6209433,-0.12799537,1.9202282,11.740414
-0.08220184,1.130603,-0.25148904,8.35232,-3.3178492,3.3430746,-1.0106912,0.044202946,-0.32625985,-3.1010003,-0.045203626,-0.01358404,-0.27795017,0.028419971,-0.39922744,13.461569
3.2390673,-3.3476477,-0.86512804,2.214983e-06,2.6580362,-3.4494832,3.343401,0.017631125,2.1023638,0.07864505,1.2291386,11.620132,3.3582165,-2.854583,4.242415,20.346992
3.2359626,-3.2873428,0.5654857,-1.1089796e-06,1.3568243,-4.4859667,-1.4840441,0.49664855,-0.08103743,0.738126,-1.5931967,15.648745,3.574732,2.7711074,-0.20503229,0.12994051
1.8321931,-3.341216,0.81487197,6.2402464e-06,-0.30551285,-2.0667162,-0.1990346,3.201303,0.55224645,3.495635,-0.96367943,-1.7844126,1.8503393,3.0518208,-3.8112254,0.06396294
-3.5864615,4.365786,-0.010285512,6.7807214e-06,-3.2650864,1.9487307,-0.31889075,-0.049937565,-0.993178,-2.414028,3.1782546,7.345068,-3.9890747,0.4002995,2.3776877,0.04694107
-2.3463397,3.289079,0.54667544,-8.623842,-3.03562,3.363512,-1.7135303,-0.061189324,0.16283745,0.5253907,0.84466815,0.044425163,1.7751249,-2.2983696,2.5162969,-0.15777403
0.063394606,0.8038887,-2.5391197,-16.730999,-0.06297808,3.3015218,-3.7830791,0.14056908,-1.2678032,-3.8183587,-0.18355322,0.05194059,-0.2700525,0.485641,0.080194235,12.27561
0.1652664,1.076926,1.2727213,29.054668,3.56661,-3.50092,3.247678,-0.11016135,3.5801833,-3.457802,1.9690813,0.07346453,-1.104738,-3.6869633,-1.3690753,2.095249
3.20228,-3.4542112,0.73210335,9.280796e-06,1.0259748,-3.844489,-0.50746906,1.2832632,-0.32281286,4.161621,-1.5890927,-0.0800097,3.085459,0.60127306,-2.9420962,0.06808853
-3.0844684,-2.5708761,-4.5990834,-8.6671906e-05,1.7542771,-5.1032324,-1.4535116,0.17945048,-0.046646982,0.05922246,1.5060158,6.4139595,3.1141782,3.24168,-0.32884753,0.07672079
-2.3617687,0.17209455,2.4738388,4.2262254e-06,2.9578652,0.24071121,-1.7683399,13.737949,-1.3929619,-0.058291953,-1.1031129,1.1882839,-3.3024993,0.36838284,2.4819674,-0.021763336
-0.9705222,0.47704735,0.5559396,0.8359233,-0.8193318,-3.1713614,0.9685501,-9.022435,2.8414273,0.35915077,-3.5045671,1.4070423,-3.4923034,3.359082,0.01575268,0.03411252
-0.8558948,-0.3425529,-3.4239795,-1.5991938e-05,0.30728903,-0.33880955,-0.03317797,-0.007917946,-1.9709132,-3.2322397,3.1919403,0.01626794,-2.1150093,-1.7982347,-3.3703444,-0.012154557
3.026164,0.40104547,3.73415,4.274887e-06,1.6905222,0.06560373,0.2471652,4.565234,-1.7467762,-0.85172045,3.0544512,13.186997,-0.30971086,-0.5385139,1.162049,1.3208147
2.7078092,0.506664,3.7979653,2.967962e-05,-0.3080766,-1.1911503,0.247761,-0.49445462,-1.278058,0.43201998,3.275965,-7.2490253,3.4607654,-3.0348647,3.3481765,-0.009058649
-2.309157,3.4187315,-0.02168452,2.7790295e-06,1.3292519,-2.1268003,-1.1754107,-6.6262493,-1.9339364,0.9482223,2.9054894,1.1926241,-3.2581217,0.85318184,-0.15189666,0.018679699
-0.85485375,0.7690036,3.2711213,1.0377464,-0.17653471,-2.2856083,-1.3485659,-2.477502,-1.6998149,0.7769642,3.6114738,0.21122384,-3.3372073,3.52212,-3.4130025,0.012312062
0.4334753,-2.825608,1.2309588,8.151716,-0.64131224,1.709162,0.007340431,-0.019849986,-3.3921795,3.4598646,2.726959,-0.017329618,-0.62357193,1.6460897,-0.38095915,9.894916
0.34120733,1.2062542,-1.3375375,2.0119374,1.8466526,-0.9055621,-1.8241762,1.8476075,3.265287,-3.2551222,-1.4013505,-0.005225449,-0.87126434,1.2646189,-0.079513825,-0.14922905
3.4060614,-2.6829574,0.4808099,1.0750318e-05,-1.9577637,2.8411555,2.3808997,7.0353923,0.04601726,-0.7035071,1.4472706,0.2644023,3.8719115,-3.327429,-0.3711285,-0.06678447
-0.92258584,3.0614426,-0.03429597,-1.4017676e-06,0.001578331,-0.61716366,-0.035400152,-0.11262083,0.8471794,3.5045393,-1.3664612,-3.5114734,3.0486636,-0.7887423,0.014882144,0.0059852414
-3.460515,3.098553,-0.015427217,4.9997107e-06,0.31342384,-1.4657876,-0.31025082,-9.78896,1.0306301,3.5708241,-2.7862585,-2.7458804,-3.5092046,1.0363839,-0.013143788,0.05312945
1.1772172,0.75124675,1.7557979,-4.365075,-3.4628143,-2.371513,2.6412213,0.0042600026,-3.5987115,4.1582656,4.027862,-0.042177208,-3.1923854,1.7299914,-3.5754933,0.029541668
0.73012054,-1.2824214,1.1111907,1.348767,-2.016611,1.4901755,-0.1644372,-2.7392525e-05,-3.4645944,0.0020727813,-0.21174479,-0.0051411926,-0.6582434,2.7219722,0.46750695,-0.018460602
2.2226079,-1.1852214,0.4844107,5.3699136,2.7888544,-2.6216025,-1.6477139,-2.5798163,2.7887204,-3.1608438,-3.457048,-0.01622923,0.25861436,-3.2101963,-3.5422773,0.013539676
1.6199048,2.7532628,0.09833614,-3.851313e-06,-1.7014531,2.2315147,0.2881981,3.615695,1.5842205,-2.1468942,-0.47844037,13.479999,3.5282352,-0.218968,-0.3389789,0.0059807897
-3.2581706,1.863701,0.22167413,-1.9138838e-08,-1.3989831,0.33432305,0.35457608,-0.7325064,2.028579,1.7228394,-2.2891412,-3.9319782,0.21625161,1.2313904,-0.027760107,-0.0013856962
-3.3349006,-1.6606044,2.5926414,-1.2012033e-06,0.8881428,-2.1334524,-2.1642094,-8.430144,1.1138612,-0.7121117,-3.5729475,-0.02465125,-3.719417,0.9594362,0.01510191,0.028520286
2.4925575,-0.58712107,3.0773344,-1.9843392,-2.4433124,0.23520327,-0.14714175,0.01110776,-3.294344,3.7281322,3.5219393,0.010855256,-1.1564667,-1.6431197,0.050764322,-5.1192627
0.0673753,-2.5182288,-0.03594494,9.483627,1.8904029,2.6367574,-0.99354005,-0.093034744,-1.0269661,-0.37262255,0.24490222,-0.10646029,0.17576355,0.6484995,-1.6441052,7.607382
1.4495913,-0.40029958,-0.23204757,0.15004349,2.242618,-3.036659,-1.9566054,-5.6887054,3.2935545,-3.5611405,-3.4596307,-0.0009596497,2.0289164,-3.293614,2.9520617,0.010972198
1.781749,-0.4147082,-0.011008948,-3.484363e-05,-0.045109957,-2.1479497,-0.20391917,-8.143147,0.19940878,-0.3184585,-0.1879934,0.9429899,2.4952488,-4.8398643,0.43522453,0.0081987595
-1.866398,3.4534156,0.003227234,7.1525774e-06,-0.14885676,-0.87422085,-0.8496685,-2.7978551,3.317888,2.37281,-6.1924877,-64.947464,1.9515592,0.5455432,-0.10345909,0.005467266
-3.1824641,2.5018291,-4.05583,-0.00033521652,1.3350106,-1.8397014,-2.313573,-4.5065494,0.09021962,0.298712,-1.1783559,1.235916,-3.9792838,1.0685388,-0.047731966,-0.0037598088
-2.6907644,3.5012743,-3.9761846,-3.9059734,0.69392586,-2.0758555,-2.2167592,-4.7087436,1.524968,3.3262932,1.747221,0.008540802,-3.5923426,3.8208807,-3.6871457,0.024948
1.2365854,-3.404498,1.5614122,2.2776318,-2.6478202,0.55256355,4.8246717,6.758768,-1.2569988,1.4794881,3.4685726,0.0072558112,-1.0570562,-0.14351642,-2.347241,-0.87711906
0.14690626,0.046094537,-1.8924563,-9.399994,3.0833569,-2.6296299,-3.6387024,0.0094770305,0.27366614,-0.33225918,-0.068869606,-0.0014628377,-1.0964588,0.50868183,-2.0913715,-1.3029511
0.627077,1.4567258,-4.2960005,-0.00030469894,2.263818,-2.0536819,-2.1672425,-7.3958597,0.7135942,-3.5858889,0.065812945,-0.019844376,2.6991284,-4.7023125,4.378562,0.008066278
0.20949417,1.5855391,-4.4000454,-8.463068e-05,-1.6777778,3.0503445,1.6813308,2.2733886,0.5330604,0.09261513,-0.02244246,-9.375614,3.4019213,-3.5520403,2.423843,-0.0038975477
2.1229365,3.996263,0.51310015,40.298637,0.6991849,3.6834435,-0.29773924,3.3109522,-0.7243651,-0.1877513,-0.9899111,-8.8102665,-1.8687506,0.9980382,0.45174855,0.025398567
-2.510485,4.5558934,-0.32088,1.5918413e-05,-0.8682502,4.2158275,0.39965373,1.3456037,1.8452139,1.8784224,-5.6220827,-30.305443,-3.6106172,0.76852614,-0.30923748,-0.0735739
-3.2623436,3.550805,-0.103608996,3.1095344e-06,0.4049521,3.351944,-0.65439355,1.3342253,1.3028609,-1.1290407,-3.5546303,1.7128023,-2.5772152,1.9906942,-0.020915985,-0.012968402
-2.093637,-3.2157366,-3.4878736,-7.5414464e-06,-2.1149135,-2.1833482,3.3460863,-0.016642584,-1.995192,3.7059605,3.7699456,-0.0036643753,-2.9719403,4.597494,-4.295616,0.011975698
0.91144586,-3.542944,-0.32352763,-0.18913168,-2.7154963,-0.8703879,4.5327206,10.993027,-2.7069511,4.6384544,4.2514195,0.00880157,-1.65797,2.6590393,-2.7200527,2.6277978
3.283535,-3.3984818,1.7492673,0.32264024,0.41360676,-1.6194798,3.5789833,8.781786,-1.3332101,1.8230803,-0.08999658,0.03483232,-2.2047572,-1.0059104,-3.284833,-16.67445
1.5721099,1.6804439,3.4532478,1.6360656e-05,1.050072,3.2322278,0.22418463,6.028524,2.7080648,-3.745755,-3.5667093,-0.0058267936,2.687628,-3.6064224,3.3313184,-0.28512508
3.2952213,1.9766928,3.3710678,1.1414102e-05,1.045012,3.4173167,-1.4742045,5.5653844,-0.16171196,-1.5078009,-0.57592416,-3.6242466,3.6338253,-3.7097466,3.5762749,-0.07666259
0.4277076,4.78178,0.053635836,7.483895e-05,2.369681,1.5700976,-3.1156948,-0.74413204,-0.9534201,-1.0319147,-2.4545069,-5.9089193,-1.4796009,-1.6571524,0.027188092,-0.010773636
-3.1948047,1.653974,-3.9509954,-2.3254193e-05,-0.08402619,-3.212102,3.2371995,-0.014678776,-3.8918471,3.2411954,3.5312128,-0.06595385,-3.888394,3.3937712,-2.7215598,0.015220311
1.5099913,-4.6693544,1.1573853,-4.2202067,-1.136334,-3.224012,-1.142663,0.11567807,-2.5665007,4.785514,4.3135014,-0.051461957,-0.64927864,3.777806,0.2911021,0.8984084
-1.7607028,-1.2128085,-4.9962416,-3.0477298e-05,-0.71710294,2.0534759,2.0982792,-6.806308,-1.3026824,1.4905688,0.6511707,-0.05312416,-0.60952014,-1.0048878,-3.0093937,-0.2551412
2.047183,-2.958489,-0.7794726,14.477231,2.8079789,3.0172942,-1.5557668,4.4116044,1.984093,-2.9883115,0.41510665,-0.044951543,-1.5841123,-1.347453,-2.9609292,-0.020613067
3.0506396,-0.11170791,3.3556566,5.1826228e-06,1.2461015,1.0699036,-0.11594486,-4.118888,-2.9380188,-3.9020667,3.570125,1.5841146,3.567409,-4.0910006,3.7975538,0.015165787
-1.6556098,2.0209436,-0.046889067,-2.6759924e-05,-1.1668783,2.206565,-0.20380972,-1.5702106,1.349223,-3.249606,-1.8287394,4.29403,3.1576824,-3.787358,-0.33585605,-0.008999132
-2.344136,3.1790125,-0.0067029595,-1.26680825e-05,-1.3391601,-0.47974396,-3.0236948,-10.105196,1.4249258,-2.9182127,-1.521919,-0.9925176,-3.567167,1.2181228,0.0771496,0.013301939
-2.6493225,-3.9415112,-3.691067,-1.7844935e-05,-1.3641765,-4.4277515,3.9631374,0.020043485,-1.9185861,4.7824187,4.584623,-0.028146889,-3.2468944,4.4568987,-4.215285,0.08920228
-0.19511294,-0.3384881,-0.19806957,-10.929389,-2.0154898,-3.5850809,-2.9331715,0.009388924,-1.7321008,4.5105944,4.189305,0.009564018,0.4282648,3.6145432,0.07424569,3.9104056
0.056198332,-3.5886478,-3.1160133,8.588545,1.3472159,-5.0171366,-0.26216245,0.08876969,-0.58483654,0.9721948,-0.33909285,-0.07237096,-1.3256793,3.1893601,-1.3399999,-0.55539304
-0.7194136,-2.48102,4.190471,5.130074e-05,2.529611,1.284437,-3.2781343,0.028748915,2.8814628,-3.1488397,-3.0426643,0.01438424,-0.39565957,-1.4554751,0.5884018,10.450647
2.7046185,-1.4553268,3.4092686,7.0242304e-06,-0.16576782,1.0552008,-0.6308514,-9.7044735,0.6928992,-0.31752968,-2.0995796,-8.482306,3.379045,-3.8459718,3.6757746,0.009803556
1.0957668,3.518774,0.48596996,-4.4370536e-06,0.6182452,3.1419704,-1.8661983,5.8517003,1.5664351,-2.904511,-3.0497983,8.824774,1.9377332,-4.0822353,-0.5267404,-0.056226917
-3.4767551,3.7248948,-0.0029249582,1.0599426e-05,-1.3446463,3.0370655,3.00109,0.60016996,0.8237132,-3.3252392,-2.0466056,0.026261173,-3.71896,0.033073686,0.048928805,0.007423741
-2.035428,-3.6934664,-3.5727093,-1.29949585e-05,1.1104105,-3.2639854,1.4700979,0.0041281506,-2.5898898,4.8887777,4.63376,-0.026560403,-2.8513021,4.4175096,-4.2434807,0.027060125
0.95149493,-3.5936835,0.5818597,-1.86063,-2.929457,-2.7507071,0.4197132,0.047988586,-2.9063554,4.52347,4.1019,-0.022494685,-1.4041522,3.695602,-2.6926563,6.785683
-2.359923,-0.7255665,-5.645719,-0.0010910034,-1.659927,-3.368321,0.64122164,-0.04361488,1.3014568,1.3194867,-0.08831778,-0.012014425,2.0974028,0.3423946,1.1691568,-18.72535
0.84451705,3.3340878,3.5007715,1.6082719e-05,1.2160131,2.9548285,-1.0698748,5.5274553,3.2519162,-3.9759696,-3.7534456,0.012821807,2.116171,-3.5697658,1.9467862,-0.17577946
3.3172426,0.16792972,2.902609,2.8144732e-06,0.21099117,3.5313325,-1.4209814,4.4054537,0.8651401,-0.8774339,-1.1606832,-5.318032,3.2388635,-4.169195,3.9133365,-0.06873237
-0.77247834,3.9998534,-0.081487626,1.1475742e-05,2.39997,1.679103,-3.3336601,-1.0181103,-0.28075156,-2.0780306,-3.4831119,0.78180397,-3.330573,1.8387059,-0.017974153,-0.024364308
-3.0289621,-3.7387376,-3.6590657,-1.372835e-05,0.16907342,-3.0579758,3.5538206,-0.009277195,-3.1823597,-0.8635845,5.7570977,0.026435852,-1.9107454,4.4667006,-4.1557493,0.018704345
-1.534364,0.5387151,-1.858572,-13.847432,-3.3241215,-3.4677415,0.53887296,-0.02341982,0.77960646,4.0534167,0.82665634,-0.016181052,1.7335478,2.110666,0.049073443,-7.5409145
-1.7738179,-2.87679,-3.1937604,0.80154085,-1.8174163,-2.9130645,1.4367887,11.705151,2.7045188,2.059133,-0.06831546,0.011165291,0.47376996,1.7237148,-2.5876777,-5.2555294
0.6998988,3.4592934,3.3755205,-1.8955484e-06,2.295948,0.046840727,-1.6846039,-7.8035693,2.475113,-3.3962922,-3.684857,0.004362257,2.387945,-3.457733,1.1997592,0.005589202
3.2190137,1.5594404,3.2991247,3.9152674e-06,-0.4612132,0.59423167,-0.025890589,-8.707506,0.5709327,-2.1281624,-1.890221,-0.8939796,0.7932105,-3.930427,-0.30045557,-0.0033245236
-1.5859514,3.4361665,-0.07700138,-4.024821e-06,2.7327974,-3.7309213,3.6838923,-0.030376092,-1.2723827,-2.1554725,1.1113877,-4.497382,-2.3505692,-2.8800097,-0.17482305,-0.024945572
-3.2092643,1.3501252,-3.176044,-8.94404e-07,-1.6603758,-0.32167095,-0.03531163,1.6601829e-05,0.26118672,3.512698,0.5011845,0.00040838006,-2.2215178,2.7901728,-2.3365533,4.9462547
1.6735495,-1.3559515,2.271661,0.3808629,-0.89576626,-1.4030039,-0.05207464,0.0017433804,-3.2783444,1.632452,-0.23710483,-0.0008814556,-0.6671782,0.36787802,-0.29724938,-0.0066701174
-2.385923,-0.42075107,-1.1038768,0.17975949,3.163907,3.267495,-3.4294431,-0.0008440898,4.9483185,0.14381707,-5.3710833,-81.31885,2.8000042,-3.2276762,-0.6027957,0.0068928273
3.436504,-1.4289333,-0.0015213564,-4.9499176e-06,-2.3324702,2.7315314,2.1423128,7.192409,0.7351056,-2.3096924,0.7063774,7.2366667,3.6144674,-3.601119,-0.4317398,-0.031186335
-1.295387,2.324,-0.0010896644,-8.1214876e-07,-0.029018521,-2.0766892,-1.3497676,-4.07072,1.0221341,-2.4585226,-0.53487456,12.824671,3.3198118,0.3078323,-0.005401641,0.021719657
-3.3180084,-2.7300642,1.7431797,0.0012588501,-0.7617209,2.1536987,-0.09773719,5.6483555,2.6353102,1.7196132,-4.041149,-38.184326,-2.7353768,1.2534006,-0.026031157,0.041366965
-0.5560492,0.6504649,0.86570764,-1.8384258,-3.2765791,-3.391438,1.5821875,0.0047712326,-3.4055839,3.9633708,3.778559,-0.018979918,-2.7093372,2.141218,-3.4466076,0.010046594
1.7841973,-0.5703769,1.39318,0.10041094,-1.9033663,-0.9006478,-0.044548124,0.011929793,-3.291964,1.7695361,-0.083715975,0.011182017,-1.3097408,1.6171525,-0.43893,0.5060901
1.9252086,0.9779543,-3.3560097,0.040999517,0.036276862,0.90209234,0.9226464,2.697209,3.0213976,-1.0978539,-3.3207123,0.001031382,1.2817425,-3.4175744,3.3282828,-0.001175548
1.2011694,1.7578237,-0.00069129094,-3.5135236e-06,-0.756533,-1.9413903,0.5058502,-6.582321,-0.1515605,-1.7261229,1.224164,5.5980167,3.3616154,-0.03597285,-0.10140473,0.020026099
-2.5699978,2.7535348,-0.0007085658,-4.7613617e-07,0.22688442,-2.2568388,-1.2053511,-5.0568633,0.29745895,-2.6653857,-0.4996388,11.813814,1.6303269,0.5560199,-0.016074155,0.03772515
0.50943923,-0.20494245,-0.28746814,2.8746057,0.26934683,1.038385,0.47515315,1.1650165,0.12440516,-2.6437612,-0.19265917,11.99865,-3.4698987,3.1211913,0.007085383,0.012702245
0.9116131,-1.3380104,1.1845112,6.393049,-3.4614305,2.5566797,-0.092507005,-0.041136533,-2.88716,4.234131,4.0967946,-0.080605775,1.8346775,3.9471772,2.0250936,7.181271
0.7576374,-2.540827,0.70350266,10.676936,2.5930917,1.4168551,-0.24623156,-0.038026333,-1.3796194,-0.935927,0.3138685,-0.0754798,0.0018422902,1.4876469,-1.0363188,9.507349
3.171259,-0.5838899,-1.0243781,5.365219,2.3043003,1.4821565,-0.32956773,9.504497,3.4166033,-3.7186074,-3.4382021,0.0026146844,0.0956074,-2.6762035,4.3524113,11.435165
3.0944412,-0.8235469,3.4481435,1.3017516e-05,-2.2158124,3.0412111,2.7505891,6.315357,1.2130395,2.6447375,-0.41531458,-11.2246895,3.3485053,-1.4942247,3.2256126,-0.04804588
-1.0534185,1.3438106,-0.011808965,2.710778e-06,-0.93313396,2.1817534,0.6143921,7.099897,2.756109,3.4144325,-4.8863134,-23.165966,1.5630023,1.2071422,-0.24190015,-0.01165843
-3.1378846,-0.95305866,-3.538381,-1.5038919e-05,2.9625287,-2.3234944,-4.0255857,-0.015465714,-0.59895283,1.6094702,0.40965432,0.3776431,-3.605154,3.4949198,0.16240723,-0.006358564
-0.13216816,3.0785942,-0.6592834,-11.432865,-3.2762144,1.2340991,0.027355839,-0.05321163,-2.790545,2.2844496,3.4323673,0.006875977,-0.721049,-1.5744414,-0.98917055,-4.336067
-0.37342903,1.4424305,-1.5039921,-3.2984767,3.338341,-2.7665255,-1.3007631,0.0015647309,3.4250224,-2.137057,-0.031771388,0.015250774,-1.4679918,-2.31885,-2.6313703,-20.090307
3.7443922,-0.17701697,-5.3867025,-0.0013751984,2.197048,-3.1467893,-0.7339444,-5.1414547,1.4785537,-1.3406969,-3.506785,0.042292826,2.8508124,-3.9334204,3.9918146,-0.037035108
-0.36473984,-0.11104783,-2.1970353,-9.588257e-06,-0.09023544,-2.5296595,0.20327485,-5.1249313,-1.2070825,-2.359709,2.0056112,10.631003,3.6646054,-2.190319,-0.011106182,0.042250983
-2.2214847,0.84472024,0.00066411495,1.7908524e-05,-0.40958634,-0.9531677,0.7340323,-6.532451,1.5700684,3.2618077,-2.626598,-25.55014,0.6649268,1.3081596,-0.23048192,0.04448651
-3.3455846,3.2842865,-1.8113817,6.9355656e-07,0.8863791,-1.2418475,-0.5214821,-9.847452,1.8587661,3.312602,-3.4396555,-0.7583289,-3.6803374,2.6664011,-0.09813511,0.030983085
0.035918504,1.613479,-1.3037475,0.34324345,-2.5559185,-0.7057583,-0.521785,-0.00048395176,-2.7953613,-0.38301212,4.558188,-0.07028985,4.80285,5.8454785,3.509301,2.0669217
2.9750762,-2.6741173,0.5132592,7.773876,-2.9963171,3.0716476,-0.07497223,0.010481488,0.938308,1.7884125,-0.20372322,-0.0073328186,-3.2267733,1.8244557,-1.7698146,9.588298
2.915879,-1.0161875,-0.6981053,2.0624332,-2.3774476,3.3341842,-2.6842232,-0.006168849,3.157818,-0.32992166,-0.1651915,0.004460534,-3.4352431,-0.9610413,-1.7334404,-3.311888
3.2830002,-3.1971855,0.67754066,0.47264844,3.637167,3.4541376,-1.4385606,0.008824002,3.266091,-3.399985,-1.494086,0.054062538,-1.9958782,-2.3928766,-0.31765735,-15.743629
1.7560554,-2.6137671,3.3217733,3.2789687e-06,3.646955,0.050302476,3.4973443,0.005676033,-1.4274446,-1.5107666,0.07631934,3.3053322,3.5317872,-3.3137903,1.3714161,-0.0470253
-0.23148581,-2.8630288,3.4609413,1.0697683e-05,1.9759548,1.7214234,1.1833826,0.027851045,-1.42675,3.3829901,-1.4223459,-11.332739,3.6278234,4.010071,-0.15188539,-0.01159054
-3.4538581,0.14832377,0.007589355,4.556455e-06,3.895113,-2.5573797,-0.45871666,-4.3408947,-3.5302403,-1.6746215,1.4859791,11.058759,-0.41667286,3.5587323,-3.4097922,-0.013871118
2.0162373,-1.501973,-1.8465028,11.902949,-3.3068337,3.5329547,-0.05580753,-0.0051775724,2.3081064,2.8520567,2.195251,-0.05635987,-2.2664766,2.894538,0.80758065,-5.9045115
2.982287,-0.10148549,-1.1074058,-1.3434194,-4.1495256,3.4903493,1.8598813,0.004459381,2.301073,-0.037193716,-0.8916185,-2.4611106,-3.1247604,-0.20539671,-0.8833314,-1.4654272
-0.10863957,3.268587,-4.1760087,-5.3386173,3.4578903,-1.10296,-2.9079375,-0.014007375,3.618165,-3.6046333,-0.09528624,0.040361166,-1.2237359,0.002036877,1.2296405,-0.17650986
0.9004781,-3.0830348,3.2946358,-3.1044842e-06,3.0529873,-0.982918,0.76069856,-5.764127,-3.5264075,1.070342,1.054324,-2.9386377,4.2552333,-1.93617,-0.052485585,-0.027742319
-3.5917206,-0.32556105,0.97344875,-1.2500512e-05,4.1589165,-3.4733388,-1.324272,0.04469877,-2.5804923,3.3699455,-2.1759887,-13.412678,-2.631198,4.3452716,-5.355658,-0.118881226
-1.0789769,-0.9630174,0.48389256,-0.9391351,-3.2295184,3.376698,1.7989035,0.08497856,-1.5398501,0.9319707,-3.4518917,-7.730011,-3.0428872,-0.9612442,-0.23014355,-6.330972
1.7364097,3.375495,-2.968402,-7.6108932,-3.0655546,0.5216286,-3.7047038,-0.07551097,3.253922,1.0666705,-0.19761094,0.024309043,-3.3117323,-0.4862712,-2.310886,1.7641741
2.7783198,-1.9148347,-3.4183595,-8.532388e-06,3.4519105,-1.796413,0.68229556,-0.015131801,3.4745655,-3.6914034,-3.606269,0.04846715,0.47878498,-3.6221411,3.5716946,-0.017705627
1.6317388,-0.1667283,3.5278533,1.0222437e-05,3.2887652,-0.97180074,1.5755979,-6.417426,-3.7014358,3.769473,1.989243,-2.8121157,2.879019,0.52656114,0.48652768,-2.8642526
-2.3331115,-2.5281148,-0.030314691,5.658487e-07,2.612847,-0.93164384,1.0051256,-0.14426693,-3.1818323,3.5006354,-0.017628796,-0.85262394,3.6649327,3.3478584,-0.2854073,-0.015100209
-3.3709674,1.2964725,0.62332314,-9.649362e-06,-0.9943835,-0.8951039,-0.975131,0.022478282,-1.7349815,1.7925601,3.840334,8.327554,-2.7441227,0.58964217,2.7178366,-4.6281576
1.7740119,-1.0734884,-1.5110037,4.299747,-3.623289,3.391617,-0.3476755,-0.014421701,2.879868,1.9071544,-0.19759291,-0.08296962,-3.76021,0.7840127,-2.3584838,7.207225
3.4504857,-2.941582,-0.084536165,0.7538835,-3.6626246,-2.2346542,-3.2743683,-0.0059840977,3.4026327,-1.1318196,-0.17762318,-0.050690174,-4.524596,-0.13452318,-1.9357373,1.7860034
3.3155365,1.3490002,3.3386345,6.899202e-06,1.2087269,-1.0708325,-3.3248258,0.001454657,0.7353254,-2.0669131,-0.33195484,3.8183057,3.5284781,-2.9390717,3.7146277,0.0060253367
-2.182154,-3.3655953,1.6205549,-1.2134324e-06,5.114001,-2.9824884,-0.9270198,-13.901744,-3.340531,-1.1199224,1.0888237,5.162511,-3.831975,0.46965733,-0.7942482,3.3212087
-3.4504824,1.6585234,-0.030576542,-1.3343524e-05,0.5551065,-3.421476,3.0871549,-1.2519407,-1.4867302,-1.489601,4.834194,-0.049661636,-2.429314,1.0534588,-0.45502996,1.4107505
-3.0615175,3.0252604,-3.6659753,-3.491901e-05,2.4227953,-1.1036524,-0.6472565,-2.7763696,0.38855365,-3.619453,2.8518121,-0.05394554,-3.3381858,-2.720308,-7.218767,-36.594788
3.2796195,-3.326512,-1.5194411,2.052157e-06,0.6043451,-0.54277825,0.5740032,-5.688979,-0.21723339,1.8082383,0.19237632,-4.717244,3.3979511,-4.166675,-1.0652032,-0.020073712
3.2781162,3.7865129,-1.5231526,1.0285061e-05,1.6804667,1.2236862,-1.1078521,8.164846,-0.30287278,-1.2216241,0.10593265,6.748763,3.9062853,-1.7285482,0.07831584,-0.045128174
-3.269326,3.4437275,-0.0012443238,4.282379e-06,-1.2305491,-1.1592566,0.9673259,-9.338108,0.07805711,3.3885214,-2.3408291,-2.4626265,-3.3793383,1.2051616,0.04859768,0.029123332
-3.3545306,2.5969052,-2.5082567,-1.6410179e-06,-3.2959812,-3.349948,2.236484,0.014423238,-2.4238079,0.46256244,3.653515,-0.06812176,-3.517525,3.3162022,-1.6401147,0.05857277
0.16217382,0.744552,1.0417492,-2.253926,-2.609046,-1.3717537,-1.023266,0.009848744,-3.4655187,2.677623,-0.13010587,0.013671292,-0.103878915,1.5981233,1.1685337,16.709513
-1.839405,2.2828245,-1.5998024,-6.859081,3.6208248,0.63187903,0.28923595,0.010417938,0.008500971,-0.69338596,0.04159688,0.08241698,-0.17021573,-1.5983877,0.25434405,-19.204296
3.3286352,-3.2840445,-1.5019233,-1.1274614e-06,-0.30098554,-0.3172223,0.24709234,0.5604386,0.52469873,1.9883137,0.84948796,-6.598775,3.5762584,-3.2862368,2.7863,-0.031722248
3.3288076,-1.1560186,0.00026178727,1.496639e-06,-0.008449137,-2.797294,0.019973516,-8.231042,-0.16711622,-3.4137573,0.94154704,2.4873512,3.5736578,-2.0725944,-0.15897772,0.020519976
-2.6891983,3.191524,0.037452504,-1.844872e-06,-0.82318395,2.5984094,0.02548498,6.841868,1.82197,0.73783153,-2.563043,0.58201563,-2.1965961,1.4968437,-0.12399602,-0.028629122
-2.481483,0.86720943,-3.4957151,-1.124468e-05,-1.0631006,-3.4718764,3.4213724,-0.014649831,-1.5031992,1.8144245,4.7062297,12.318844,-3.5776663,3.4224439,-1.5814862,0.035578463
1.381368,-2.0832262,2.6026149,4.3519206,-2.2173254,-1.4392998,0.0026355535,-0.018224351,-3.169809,2.3272457,3.474296,-0.018674765,0.02884823,2.3760602,0.6323923,9.005756
-0.84252274,-0.018403813,-0.54963547,-2.0838888,2.9958882,-1.2526381,-3.9516792,0.00364315,2.5169964,-3.3834896,-0.07263405,-0.009168847,-1.8868119,-2.6214573,-2.5606503,-6.805648
3.4560874,-3.2265668,2.342029,3.3027245e-06,0.094869435,2.689561,1.4002829,4.332244,3.051489,-2.045888,-3.6577563,0.061981015,3.6886766,-3.3575513,-0.058392234,-0.04697971
0.8037813,0.23188701,0.0038305204,4.671196e-06,-1.0895808,-1.9060833,-0.340984,-4.522025,0.121264644,-0.8954511,-0.3028578,6.0266037,3.4208784,-2.637154,-0.10540563,0.01555502
-2.7637935,1.948002,-0.022596743,-2.0349466e-06,1.686606,-2.8393207,-1.8464073,-7.609241,-1.7938546,-3.3087792,2.5665936,0.065071784,-3.2630434,0.6070495,-0.01887137,0.016134549
-2.5673187,1.6173493,-3.4109936,-34.235153,0.9275329,-1.8708837,-2.620299,-0.056666493,-0.6918194,2.9859247,-1.9048029,-0.016594758,-3.725525,3.4151583,0.13312413,0.02175713
1.4597759,-0.3096416,2.1141157,-0.9252568,-1.9207174,0.38348734,0.0688369,0.006149579,-2.897171,0.4671604,3.4701104,0.007205235,-0.4266526,-0.6204457,-0.7737999,1.7338938
-0.6877134,-2.4758089,0.031057358,11.9730425,3.3295388,-1.9860357,-0.08464968,-0.10642103,-1.506449,-1.1380601,0.054762125,-0.09535417,1.4937587,2.1628225,0.07256532,6.7866793
0.73368496,-3.1374063,2.231935,7.6481905,-1.1007473,2.3273015,0.8565804,8.979911,3.3959491,-3.321589,-0.53774214,-0.015232064,3.4446688,-3.507222,-0.9608891,-0.0033733984
3.3208945,-1.4407767,-0.11829364,-5.691878e-06,-1.8541768,-2.2245972,0.40827018,-9.727554,1.7112112,1.3343335,0.6637353,-7.3959026,3.278744,-0.3928682,3.3378155,-0.021416843
-0.4392449,2.473721,-0.03811647,7.0979004e-06,-0.75094223,-2.208152,-1.5053619,-4.0419726,1.544188,-1.1285409,0.2161156,5.0231767,-3.3428133,0.47743833,-0.10778114,0.026323093
-2.7809849,0.42455137,-0.0007596351,-1.1056193e-06,-1.0826027,-2.66309,-1.709978,-6.132859,1.7212768,-0.22615021,1.2568157,-3.3475885,-3.2064984,0.5937128,-0.04847184,0.034191094
-3.5544162,-2.788126,3.9951553,0.00024080276,0.66077995,-2.795908,-4.1772923,-13.523201,1.1863858,-1.32087,-0.1251167,0.23685503,-3.3723078,3.4173036,0.04091528,-0.031106919
-0.42742965,1.5189335,1.742258,-5.1365128,3.2325578,-3.4182496,3.319397,-1.4395643,1.9213581,1.990676,3.0899427,0.02501316,1.3756735,-1.5436561,0.3370825,-6.6986156
-2.867368,0.51032495,-0.52850056,0.9318134,1.1631787,-1.2407948,0.07233898,-0.700615,-3.3013175,-3.250516,2.979045,0.0036629515,2.3086433,-2.3768756,-0.40133104,-9.113766
-1.0036757,0.9939396,1.0184104,-6.8734283,1.8256011,-0.59232324,-0.07195576,0.019009938,-3.2983975,-3.2551606,-2.931918,0.027408853,1.4069548,-3.4970396,-0.99885523,-4.611529
-3.2604218,-3.2520897,1.207653,1.9274955e-06,-1.1820468,-0.8540297,-0.45480734,-11.84198,1.021538,2.4791162,-2.89362,-0.010916504,2.3059804,2.8406572,-0.73032445,1.9143794
3.14321,-3.4720302,-3.3957722,3.302208e-06,0.8616286,-2.4567575,-4.1708527,-23.649734,3.535319,3.0496907,3.6592956,0.03231731,-3.0615356,-3.5359943,2.767736,-0.07537228
3.4405506,-1.0095675,-3.466379,-9.173327e-06,-1.0690539,-0.6863191,-1.938908,2.5074198,1.8347474,-2.0609877,0.53424263,9.713052,-3.4430013,-2.9051323,-0.022116303,-0.01701929
1.778526,2.9366593,-3.6984043,-1.8144376e-05,-3.3925402,1.5423293,-0.9072149,9.393772,0.33736843,-1.2340596,3.5891874,-0.008882284,-4.2853403,-2.0965478,-3.5722868,0.01953194
-2.7100844,-3.820268,3.3146856,4.6281934,-4.3313527,2.8522677,-2.3016365,-0.15342426,5.6023083,1.6602603,0.2875316,-8.17842,-2.559442,3.2637675,0.48473063,-0.009624615
-3.5107334,0.7509379,1.0367606,-0.6534612,2.4696984,-0.8705057,4.093808,-0.20510772,1.8995955,2.4591765,-3.5515866,-0.022259023,4.298687,2.2416809,-4.8098803,-0.01706497
-3.1403825,-0.5070123,0.49877727,3.2353587,-0.8104042,-1.0536195,-0.9252986,-1.0505292,-3.5218759,-3.4011078,-0.17299592,-0.030576091,3.8601966,1.8416287,2.2141273,0.0054950714
-1.1731931,-0.09176648,3.1265583,3.940627,3.0254388,-0.3836001,0.03931427,-0.019278405,-3.8166876,-0.17233524,-3.168332,-0.04927849,2.208247,-0.7945859,-2.8491797,-22.647324
4.053043,-3.4259105,1.5246136,6.222003e-05,-3.6538231,2.2469018,1.2034249,2.4937983,4.7040033,3.656054,-0.8590307,0.26041967,-2.004574,-3.5525851,3.5155628,-0.1281862
3.4962177,-0.44949573,-3.325976,7.367371e-06,-3.463798,-0.11794865,-0.90155405,-2.9254622,3.5139437,0.327515,0.021769285,-5.714706,-3.252999,-3.658696,-0.3780242,-0.012625225
3.5811505,2.9086902,-3.4215174,5.6724602e-06,-2.83342,2.2941947,-1.7964476,10.935566,3.6976068,0.37494382,-0.46489868,0.27166843,-3.3695533,0.1941435,-0.23227227,-0.046857975
-0.10516232,-2.0600846,4.6705084,-2.5357049,2.9408069,-0.72221047,3.2807484,-0.7917633,-1.006302,2.6539297,2.9455166,0.01786469,2.2179,3.8000345,-3.5010545,-0.047237426
-3.4123557,-0.67503583,1.1034693,0.17310762,3.3741686,-0.23621409,-0.12914115,-0.0006302148,-3.4548273,-3.469901,-0.14335614,0.007801635,3.9555993,0.52441907,1.1132131,0.97912645
-4.383877,1.7623479,-0.3727429,-12.57518,1.878946,-1.3582418,-0.0014223531,0.020370692,-4.0955915,-0.3968279,-3.587633,-0.15336561,4.1622667,-2.2138283,-0.9277995,-8.865628
3.5112257,-2.5702844,2.3931448,1.4019235e-05,-3.3313155,-2.4928916,-2.3422801,-10.0704975,4.721873,0.0957143,0.5589785,-4.849846,-2.8027394,-3.7060242,-0.35615164,-0.004908826
3.797067,1.7961247,-3.5168397,9.396863e-06,-4.4175863,1.1107692,-2.3453524,6.113651,4.223507,1.4394184,-0.037304997,-9.06188,-3.7837381,1.0750349,-0.77342904,-0.012661442
-3.8335252,-0.3186105,3.493663,-1.0154571e-05,4.108292,-0.6693295,3.5644388,-1.1858561,0.3624896,3.2166548,-0.28005272,-1.3566573,2.4269037,4.629318,-4.1531997,0.058696583
-3.7432442,-2.1361594,1.3909043,3.2974901,3.6289315,-0.17933127,0.13502707,-0.000508707,-3.6998603,-3.5750186,-3.1793349,-0.098028556,2.1578493,-2.0542407,-2.4129813,-2.7517135
-2.6396976,0.004622638,1.086809,5.0514107,3.71149,2.9957876,4.682374,-0.0014076233,-2.6470447,1.71919,-3.3283198,0.024682015,3.757209,0.51568377,0.25843596,1.0133386
3.7428014,1.8410286,-3.5314019,-4.442434e-06,-3.9550614,-0.20707595,-0.17687422,5.601315,2.39672,-2.6518145,2.6570547,4.869138,-4.298131,-4.2711167,3.8324776,-0.004599143
